/* XPM */
static const char *door1[] = {
/* columns rows colors chars-per-pixel */
"600 448 224 2 ",
"   c #050302",
".  c #0A0603",
"X  c #070805",
"o  c #0D0906",
"O  c #0A0608",
"+  c #070908",
"@  c #0E0C0A",
"#  c #070708",
"$  c #110703",
"%  c #120B06",
"&  c #190E06",
"*  c #130E0A",
"=  c #190F0A",
"-  c #0F100D",
";  c #151007",
":  c #1B1106",
">  c #15110D",
",  c #1A130D",
"<  c #1D180F",
"1  c #120F10",
"2  c #0E1211",
"3  c #161412",
"4  c #1B1612",
"5  c #171815",
"6  c #1D1915",
"7  c #161719",
"8  c #191718",
"9  c #161919",
"0  c #1D1C1A",
"q  c #0E0D10",
"w  c #231406",
"e  c #261807",
"r  c #2B1B06",
"t  c #22160E",
"y  c #29160C",
"u  c #24190E",
"i  c #2C1B0E",
"p  c #321D0E",
"a  c #361E0A",
"s  c #211711",
"d  c #281711",
"f  c #241B14",
"g  c #2B1D14",
"h  c #241E19",
"j  c #291F19",
"k  c #311E13",
"l  c #311F18",
"z  c #381F12",
"x  c #200F08",
"c  c #1F201D",
"v  c #2E200D",
"b  c #34220E",
"n  c #3A230D",
"m  c #3C2A0E",
"M  c #312006",
"N  c #262016",
"B  c #2C2116",
"V  c #2E2A17",
"C  c #25211C",
"Z  c #2A241E",
"A  c #2C251D",
"S  c #2C251F",
"D  c #2D261F",
"F  c #2E271F",
"G  c #2E251E",
"H  c #2C231C",
"J  c #2E281F",
"K  c #2E281E",
"L  c #27281C",
"P  c #332215",
"I  c #3A2515",
"U  c #352914",
"Y  c #3C2A15",
"T  c #30261F",
"R  c #33251C",
"E  c #39261A",
"W  c #34291E",
"Q  c #3A2A1D",
"!  c #36311D",
"~  c #3D311E",
"^  c #1E1E20",
"/  c #211F20",
"(  c #1E2221",
")  c #252522",
"_  c #2A2520",
"`  c #2C2720",
"'  c #2E2721",
"]  c #2D2521",
"[  c #2B2621",
"{  c #262925",
"}  c #2E2821",
"|  c #2D2A25",
" . c #252728",
".. c #2A2728",
"X. c #262A2A",
"o. c #2D2D2B",
"O. c #312721",
"+. c #392720",
"@. c #302821",
"#. c #302922",
"$. c #322922",
"%. c #312B25",
"&. c #332C25",
"*. c #352D26",
"=. c #342B23",
"-. c #3A2D23",
";. c #322E2A",
":. c #392F29",
">. c #2E302E",
",. c #2F3027",
"<. c #353026",
"1. c #3C3125",
"2. c #3E3925",
"3. c #34312D",
"4. c #3B332B",
"5. c #3D392D",
"6. c #37392E",
"7. c #2D2F30",
"8. c #312F30",
"9. c #2E3233",
"0. c #2F3837",
"q. c #2F3639",
"w. c #2F3839",
"e. c #333533",
"r. c #3A3632",
"t. c #363836",
"y. c #3B3935",
"u. c #323639",
"i. c #383738",
"p. c #353A3A",
"a. c #3A3C3B",
"s. c #401F0B",
"d. c #432B0D",
"f. c #44290B",
"g. c #4B310D",
"h. c #412713",
"j. c #422C15",
"k. c #412D1C",
"l. c #472D17",
"z. c #443115",
"x. c #4B3314",
"c. c #43321D",
"v. c #4A351B",
"b. c #453A1E",
"n. c #4C3A1D",
"m. c #533B16",
"M. c #523C1D",
"N. c #543715",
"B. c #412E22",
"V. c #412F28",
"C. c #423325",
"Z. c #493524",
"A. c #443A24",
"S. c #4B3B24",
"D. c #42352B",
"F. c #49362A",
"G. c #44392D",
"H. c #4B3B2C",
"J. c #523D24",
"K. c #513D2B",
"L. c #573B27",
"P. c #413731",
"I. c #433B33",
"U. c #4A3D32",
"Y. c #423E39",
"T. c #483F3B",
"R. c #523F30",
"E. c #3E4035",
"W. c #37403F",
"Q. c #3C403E",
"!. c #54421E",
"~. c #5B431B",
"^. c #5B4A1C",
"/. c #5E4012",
"(. c #4D411D",
"). c #64451E",
"_. c #4E4224",
"`. c #46402F",
"'. c #4C422D",
"]. c #4E482C",
"[. c #524324",
"{. c #5B4323",
"}. c #564A23",
"|. c #5C4B26",
" X c #53432D",
".X c #59442D",
"XX c #544A2E",
"oX c #5B4B2D",
"OX c #5C5328",
"+X c #444235",
"@X c #4B4333",
"#X c #4D4934",
"$X c #43423B",
"%X c #4B453A",
"&X c #47483B",
"*X c #4B493B",
"=X c #524332",
"-X c #594431",
";X c #534A33",
":X c #5A4B33",
">X c #53493A",
",X c #5B5234",
"<X c #545137",
"1X c #4E523C",
"2X c #614626",
"3X c #655328",
"4X c #625236",
"5X c #363E41",
"6X c #3A3E41",
"7X c #403F40",
"8X c #374042",
"9X c #3C4143",
"0X c #3D4648",
"qX c #424443",
"wX c #4A4641",
"eX c #4A4A42",
"rX c #414548",
"tX c #464845",
"yX c #5A5B4D",
"uX c #57564A",
"iX c #56544A",
"pX c #5D6258",
"aX c #66685C",
"sX c None",
/* pixels */
"D s h j h h B j j C C C _ ' Z C C h h C C C j h h h h h C C Z C C j j C j h h h C C j j j h h C C C C h h C C Z j j h h h j C C h 0 h h h j h f f h Z _ h j j h h h h h j j h C h h f h C h f 6 h f f f h h h h f h j j j j C C j j h f j H D Z h f 6 f h C Z N j h h f h h h h C N 6 6 f h f f h h C C h h f h h C h 6 f h f h h C N C j h h h h h C j h h j Z ' Z C h h h h h C h h h h h C Z N j f h C L C C C C ) [ [ [ _ j j f 6 j Z Z h h f h C Z Z C C C h h C C C C h h h C C h 0 6 6 6 0 C j 6 0 6 6 h C j f 6 6 6 f j C h h h h C C C C C C C C h j h h C j C [ C C h f h h h C Z j h C C C C j h j h h j h h j j h C Z Z Z Z Z C j j C C C j C Z C h h h 0 h h h h h h 6 h h h h h 0 6 h j C h h h f h h h h 6 0 h h h f f h j j f 6 6 6 6 6 h C j f f h h f h h h C C C h h h C C h C C h 6 6 C C C C C h h h h f h j h 6 h h j j j C j j h h N N h f f f f 6 f h j 6 6 6 h j h f f f f f j h h f 6 6 h C C h 6 s C C N h h h j j j N Z j j j h N D N h f 6 6 6 h Z j 6 4 4 6 0 h j f 6 6 6 6 f f f 0 0 h h j h f h h h h h h h h h j h h h h C j f s s s f f j j j j j f s 6 6 s s s s h h 6 6 f h j h C h 0 h h h 6 4 6 0 h C C h 0 6 6 6 h Z Z C h h h h j C Z Z h h C Z N j C j j j j j Z Z C h h j j j h h h j h h f h N D f h ",
"' 4 N ' =.=.=.&.=.=.=.=.*.*.*.=.=.=.=.=.*.&.D D D D D D =.=.=.' ' D ' =.D Z Z Z D D H Z Z Z [ } =.=.=.| ' [ ' Z Z H D D D =.*.=.' Z Z Z ' ' D N C Z =.=.D Z D D D V D D D D Z D D N D } } Z N j N D Z Z Z N N Z N Z H Z Z D =.&.=.N j H T =.=.O.N j C Z J =.=.=.D N h N N Z D D } Z C j j N N N N D D D Z N C Z Z ' N f h h h N N N D Z N N N Z Z Z D D D N D ' =.' N C C C C N Z Z N N Z ' ' D D H N D } } Z Z Z ' ' ' ' =.=.=.D D Z Z =.T D D Z D *.*.J D } ' [ Z [ [ [ Z Z ' ' } ' ' Z Z C j Z =.} N h h j D =.=.D N Z Z Z D ' D Z Z ' &.*.=.D D D J J D W W T N Z J =.} Z C ' ' D D ' ' Z Z D } =.' D Z Z Z N N N Z D D D } =.=.=.=.=.=.' ' =.=.' Z =.*.=.Z C C C Z J } Z N N Z N Z Z Z Z Z C ' =.*.=.D N j C Z ' Z C C C Z V D J =.J N h j C N N N D D =.Z N Z Z Z N h Z =.} Z C C D } } | | ' Z C C } =.=.Z C Z Z ' Z Z Z Z C j Z H D D Z D ' D D D O.=.T g j N N N Z ' ' Z C C N H N h j N N H D D H N j N N D D D N N D D N N N Z Z Z D D D Z N Z D =.=.D j h h C N D T H g g N Z Z N N H N j N N N j j Z D D H N N N Z Z D Z j j h N N H N N N C N B g g B g h h C Z D D D D Z C N N N N Z D N N C Z ' D D Z N N Z [ Z C j C Z ' ' ' D Z Z C Z D =.=.O.D Z Z D D =.=.=.D Z D =.=.=.=.=.=.=.=.$.*.<.&.=.=.*.*.*.=.=.=.=.=.O.O.T =.=.j h ",
"' 6 =.I.I.P.5.5.4.<.<.<.5.5.<.<.<.<.<.<.<.<.*.=.*.1.4.4.4.<.*.=.=.*.<.<.:.*.=.=.=.=.:.*.&.=.*.*.*.*.*.*.*.=.=.=.&.*.*.=.:.4.D.5.<.*.$.&.1.<.:.*.=.=.:.<.:.=.=.=.=.=.=.=.:.:.=.-.=.=.*.<.<.*.' D T *.*.=.=.=.=.=.=.=.=.=.=.=.:.<.<.=.T +.:.:.:.*.=.D =.*.<.<.<.*.*.=.=.=.$.$.&.*.*.=.' ' ' O.W =.=.=.=.=.=.D D D &.*.T D W W W T W =.=.$.=.=.=.$.=.W =.=.=.=.=.*.*.*.=.=.O.D T W =.=.=.=.<.<.1.=.+.=.=.*.1.1.=.=.*.*.*.=.=.:.1.<.1.*.*.*.*.:.:.:.=.:.D.4.=.=.<.<.*.*.=.&.*.*.*.<.<.<.:.:.:.*.=.=.*.<.:.=.=.=.=.*.:.*.*.=.=.&.=.&.*.*.=.*.<.5.4.:.&.=.:.<.<.4.1.1.:.=.=.:.<.:.W O.:.<.<.<.<.<.*.&.*.<.4.<.<.*.*.*.*.=.*.*.:.:.<.4.4.<.<.4.4.4.4.4.4.<.:.*.<.5.4.*.=.=.*.:.<.4.:.=.=.=.=.=.=.=.=.=.=.*.<.4.1.=.T T T =.*.*.=.W =.=.*.<.4.4.:.W D O.=.=.=.=.*.:.4.=.T =.=.=.T W :.4.1.*.*.*.1.<.4.4.4.<.=.=.=.1.4.1.$.W =.*.<.:.*.=.=.D O.=.*.:.*.=.=.&.&.&.*.:.:.*.=.T D =.=.&.*.*.=.=.=.=.T T D O.&.*.*.&.=.D D T W =.=.*.*.=.O.O.O.O.D T O.=.=.=.=.=.} D =.*.:.*.=.T D D T =.=.=.W T T =.=.=.W T W W T W W T T W =.=.=.T H V T W =.=.=.T T T W =.=.=.W W W W W E W Q W T V Z =.=.=.=.=.=.=.=.=.=.*.*.*.*.*.*.*.<.1.:.=.=.=.*.:.:.*.=.*.<.<.*.*.<.*.*.*.:.<.<.<.<.<.*.*.:.1.<.<.<.:.:.1.<.<.4.<.<.<.4.4.4.4.5.4.<.<.5.5.5.5.4.4.<.1.1.<.4.4.4.N f ",
"' s <.%XI.I.I.I.I.G.G.I.I.I.I.I.I.I.I.I.G.G.5.<.<.4.5.5.5.5.<.:.<.5.5.5.5.4.1.:.1.4.4.D.4.4.4.4.4.4.4.4.4.<.<.4.5.D.4.4.4.D.I.I.D.4.<.<.4.4.4.4.4.4.4.D.D.4.4.4.4.4.4.D.D.D.D.D.4.1.4.5.5.<.:.*.*.<.4.<.:.:.:.:.<.<.<.<.1.1.<.<.<.1.:.4.4.4.5.4.1.*.*.<.5.4.<.<.<.<.<.<.<.<.<.<.<.*.*.*.*.*.*.*.:.*.*.:.*.*.*.*.:.:.=.*.1.1.:.:.:.1.4.<.1.:.:.<.<.*.=.:.1.1.1.4.5.5.<.<.:.*.*.:.1.4.D.G.G.G.D.4.1.1.1.1.4.D.4.4.4.4.4.4.4.D.G.G.D.4.4.4.4.4.4.D.D.D.D.D.1.D.D.D.4.4.4.4.4.<.<.4.4.4.4.4.4.<.:.:.<.4.<.:.:.:.:.<.<.1.1.:.<.<.<.4.5.5.5.5.5.I.G.D.4.4.D.G.G.G.G.D.D.D.4.4.4.4.1.*.<.5.5.D.G.5.5.<.4.5.5.5.5.4.4.5.4.:.1.4.5.5.D.G.D.4.5.D.G.D.D.D.D.D.4.4.4.G.D.4.<.<.4.5.G.D.4.1.1.<.4.1.1.1.4.<.4.4.4.4.4.1.1.1.:.1.<.<.:.:.:.1.4.4.4.4.4.<.:.:.1.<.1.1.<.4.D.4.:.:.<.<.1.<.D.D.4.4.5.4.4.D.D.G.D.4.4.4.4.D.4.4.<.1.<.4.D.5.4.<.:.:.:.1.4.4.<.:.*.:.<.<.<.5.5.4.<.*.*.&.;.<.3.<.*.*.*.*.&.&.=.&.<.<.<.*.=.=.&.*.*.*.<.1.<.<.*.&.*.:.*.:.:.<.4.4.<.<.*.*.<.<.<.<.<.:.*.*.*.*.1.<.<.1.1.<.<.<.<.:.:.:.*.:.<.1.:.<.<.4.4.:.=.*.1.4.<.:.:.:.:.:.:.4.4.<.:.:.1.1.-.-.1.D.4.:.*.&.*.*.*.<.<.<.<.:.*.*.<.4.<.<.<.<.<.5.4.4.1.1.:.1.4.4.4.<.<.<.<.<.<.4.4.4.<.4.4.5.4.4.4.<.<.<.4.4.4.5.4.4.5.5.5.4.1.<.4.D.5.5.5.I.I.5.5.G.I.I.I.I.I.5.4.4.4.4.D.5.N 6 ",
"} 6 =.T.5.<.3.<.<.*.*.<.<.<.<.<.*.*.*.*.*.*.*.=.=.=.=.*.*.*.=.=.=.*.*.*.&.=.=.W W =.=.*.=.=.=.*.*.*.*.*.*.=.=.=.*.*.*.=.*.:.<.<.:.*.=.=.=.=.*.*.*.*.*.*.:.:.<.:.=.=.*.:.:.=.1.:.:.*.*.*.&.*.*.*.=.=.*.=.=.=.=.=.*.*.=.*.*.*.*.*.=.*.*.&.&.:.<.<.*.*.=.&.&.=.=.=.=.=.=.W =.} =.=.=.=.=.=.=.=.=.W W O.=.&.*.*.*.&.=.=.T =.=.=.=.=.=.=.=.=.=.=.=.*.:.=.=.=.=.=.=.&.*.:.1.:.=.=.W W =.:.1.1.1.1.:.*.-.=.=.=.=.:.:.*.*.*.*.*.:.1.<.<.1.:.:.*.*.:.1.<.1.:.-.:.:.:.:.:.*.=.=.*.*.*.*.*.*.*.*.*.=.&.&.=.=.=.=.=.=.=.=.=.=.=.*.*.&.&.*.:.*.*.*.*.*.<.<.<.:.:.:.:.1.:.-.-.:.:.=.=.=.=.=.O.O.=.=.*.*.*.=.=.=.=.=.=.=.=.=.=.=.D D =.=.=.*.*.=.O.=.=.*.=.=.=.=.*.*.=.=.*.*.=.=.=.=.&.*.*.=.=.=.=.=.=.=.=.=.*.*.*.*.=.*.*.*.=.=.=.=.=.=.=.=.=.=.=.=.=.=.=.=.=.=.=.=.=.=.=.*.&.=.=.=.=.*.=.=.*.*.*.:.*.=.*.=.*.*.*.=.:.&.&.*.:.*.*.*.*.*.*.*.=.=.=.=.=.=.=.=.=.=.*.*.*.*.*.*.;.*.&.=.| ;.;.;.| | | | | } } ' ' | =.=.} ' ' ' ' | =.&.*.&.*.=.O.=.*.*.*.&.*.:.:.:.*.*.*.*.=.*.*.&.&.=.=.=.=.=.*.&.&.=.=.| =.=.=.=.O.' O.=.=.=.=.=.&.=.=.=.=.&.*.=.O.=.=.=.O.O.O.=.O.O.=.=.=.T T O.-.=.=.=.=.' ' O.=.&.&.=.O.D D =.=.=.=.O.O.=.=.=.=.T R T T =.=.=.=.W T T =.=.=.*.=.=.=.=.=.$.=.=.=.=.=.=.=.=.=.=.=.*.*.=.=.=.=.=.*.<.<.<.*.*.&.&.&.*.*.*.*.&.&.=.=.=.=.:.<.B s ",
"| s O.I.*.C h C C C Z Z Z Z Z Z Z Z Z Z Z N N j h f h j C C j j j C j h j j h h j C Z Z C C C C C Z Z Z C C C C Z C C C C C N N Z C j h h j C C C N C j j N Z C h h j N C j C N N C C C C C C C h h j N N N N C N N N N N h C N N N N N N H D D D H H N j g H H B g g h f f h g g j j j N N g g g f g N Z N N j h h h h g h j j j h h j j j j N j g j j g j j j j N N N N B g g N Z N N Z Z Z Z N N N h j C Z C Z Z Z N N Z D H V H N N Z N N H N N N N Z Z Z C C C C C C C Z Z Z Z Z C j C C C j h h C C C C C C C C C h h j N j j h h C Z Z N j C j j C j g N H N N j j j h f h h j N N N C j h h j j h h h h h h h h j j N N j h h h h f f f h j j j C C C C C C C C j C C C C j j j h j C C C C j h C C j j h h h h j h h h h h j C C j h h j j C j j j j C C h h h j j C C C C C h h j j C C j N N Z Z Z Z Z Z C C C C C j j C C N N N N N N N N N N j j j N N C C C N Z j j j j j j j j j j j j h f f f f h j j N j B g g g H N B N N H H H H H H j H H N N N j j j j j Z Z N N j j j j j h g g g j j g g g j j j j j N j g g N H H j j j N C C Z Z Z Z N H H H H D H Z N N j j H g f f f f g g h f h h j h h f f f h g h h h h h j j j Z Z N j j j C j j j C C C C C j C C j N N C j C j C C C C j C C C C C C Z Z C C C C j j h D *.N f ",
"=.f D I.*.h h C C ) _ [ [ [ ) C ) C h h h h j h f 6 h h j h h h h h h h h h h h h h h h C C C C C C C C C C C C h h C C C h h h C h h h h h h h j C C j h h j h h h h h h h 0 C C h h h h h h h 0 h h h C C C j h h h j h f f h C C C C Z Z Z Z Z Z j j j g j j g f g h f f g g g g f f g g g g f f f j j j h h f f f s f f j j j f f f j j j j j f j j j j j h j j j h B N j j Z C C C C C C C h h C h h h h C _ [ C C C Z Z Z D N N C C C C Z C j C C j Z C h h h C C C h C C C C C h C C C h C C h C h h C C h h h h f h h h h h h h h j h h h h h h C C j C N C j h h h h h h h j j j j j j j j C C j h f 6 f h j j j j C C C j h h 6 6 6 0 h h h h C C C C C C C ) C C ) C C C C C C C C C C C h h h C C C C 0 h C h 0 0 0 h 0 h h h h h h h C C C h 0 h h h 0 0 h h C C C C h h h h h h h h h j C C h C C C h C C C C C h h C C C Z Z Z Z N H H j j j g j j j B H j g g g g g d g j j j g d g g f u u f f f f f g g g g g g g g g h h j N j g j j j j j j g j g g g g j j j j g N j j g g g g g g g j j g g j R j j g g B H B B H l j j N N C C C N Z C C N N N N H H H H H g j H g f f f f u f s f h j j h h h h f h h j j C C C C j h j C C C C C C h h h h C C C C h C C C j h C C C h h C C h h h h h C C C C ) ) ) ) C j j h D <.C f ",
"&.6 N I.*.C ) ) ) [ o.o.o.o.o.o.o.o.[ ) ) [ [ [ Z C C [ | ..[ ) ) [ C C _ [ ) ) C C Z [ | [ ) [ ..[ ) [ [ [ [ [ [ ) [ ) ) L L [ | [ Z C C C C C ) ) [ [ C C [ L C ) { [ ) [ ) ) ) [ [ ) ) [ L C Z Z Z [ | ....[ L Z Z Z Z C C Z N N D ' ' O.' O.T H R j j P k j g j H H H B g j j g d d d g d g g d g j H j d g g g g d g g j H j h f f j H H H j j j l R R j j j g g B R R H D T O.D ' | | | [ Z N H N C [ [ [ | o.| ' ' ' | | =.| ..[ Z Z Z ' [ C Z Z Z D ' [ _ C Z Z [ [ Z Z [ ' ' [ Z [ [ ) C C Z h Z [ [ L C C C C j C Z Z h Z _ [ [ _ Z j j H H Z Z ' D H H D N C C j j j j C C C L Z [ [ [ L Z [ Z C C C C C [ ' Z Z [ | [ [ Z j h C C C C ....[ ) [ ..| o.....o.o.......[ ) ) [ ........[ | | [ [ [ | | [ ) ) ) [ ) C C C h C [ C C Z C C ) [ ..[ C ) C C C C C C ..| ' C C Z ' C C Z ' [ Z N H ' ' D D ' Z [ | | | ..C Z ' | | | =.=.=.=.=.O.T R R R R H R R T T H j H j j k k l k g j j g g g d y y u d g j j j j g j R R j g N D N H T k k k k k j j j j j j j j j j H N N D T H g g j j g j j k k k j R P P P P P k P P R R R R R H N Z Z D D H Z N B B B H R T V D D H R E R B g g g g d f h Z ' Z j f H H j g N [ [ Z [ ' [ [ [ [ [ [ [ [ [ ..[ _ ) [ [ | | [ C [ | [ C C [ [ [ [ [ [ [ [ [ [ [ [ ..) ) ..o.| ..[ [ Z j j D <.h f ",
"&.6 N I.*.[ [ [ ..o.e.e.e.e.3.9.9.e.7.o.| | | | =.| [ | ;.o.o.o.;.;.| ..=.| | | | ' | o.o.o.;.;.o.| | ;.;.o.;.;.;...| | | | | | ;.o.| | | | | | o.o.>.o.| } | | ..o.o.o.o.8.o.| | o.;.o.o.;.| | | ;.;.;.3.3.3.;.| | | } } } | | ' } =.| &.*.*.*.=.=.W R R E E P k R R T W T B P P P k j j j k k k j j j l l k j j k j j j H H ' H H g j H T R R T R l P P R R R H j j R E W T T =.=.=.=.&.=.| =.D D T D ' | | o.;.e.3.;.;.;.;.;.*.;.o.o.| } | | ' [ [ | | =.| =.| ' ' | ;.o.| [ ' | | | | &.| [ [ [ [ [ ' =.;.| [ Z Z ' D O.=.| | | | ;.;.| =.O.=.=.=.} &.*.*.=.=.=.=.} ' ' D Z D ' } | | &.&.;.| | | ;.=.| } } ' | =.*.&.=.;.;.o.o.&.} Z | ;.| o.3.e.3.| o.;.3.e.e.e.e.e.9.9.e.;.| o.o.o.e.e.3.;.o.| | | | o.o.o.| ..| | | | [ Z C [ | [ [ | | | | ;.;.| Z ' | | | | | ..o.3.;.} } &.;.} [ | =.;.=.=.=.*.*.=.=.=.=.=.=.;.;.;.| | | ;.;.*.*.*.;.<.5.*.T W W W W D T =.=.=.W D D R R k l l P k l l k k k k d d d g j k k k H H R T H j j =.=.H T =.R R P l l R R R R l R R R j R T T =.=.=.O.R B R R R R R R k R R P P P P P R E P R R T W O.T =.=.} ' } =.=.O.T D V T R T W =.=.=.W W W R T T O.D B d g H } ;.| [ Z T =.W V ' ;.;.| | | | | | ;.;.;.o.o.o.,.;.o.| o.;.3.;.o.| ;.;.| [ | ;.;.3.o.o.;.o.o.o.o.o.o.;.o.| o.3.e.3.o...[ Z j D :.h f ",
"&.6 N I.*.[ [ [ | e.e.e.e.e.e.e.e.u.e.e.9.o.o.;.;.;.o.o.e.e.e.e.e.e.;.o.3.;.3.3.;.=.&.e.e.e.3.3.3.3.;.3.e.3.3.e.e.3.>.o.3.3.;.;.3.3.3.3.3.3.3.3.e.e.e.e.3.o.....o.e.e.3.e.u.e.o.o.e.e.e.e.e.e.3.3.3.3.3.e.t.t.e.3.;.;.;.| ;.3.3.;.;.;.3.3.3.3.<.1.1.+.=.W W +.W R R W +.=.W P P P P P P l P P P P R R R P R k k k k k k j R O.T T R H j j H D O.=.W P E E E O.O.R H H R E W W =.=.;.;.;.| | ;.*.=.T =.=.;.;.3.e.e.e.e.3.;.;.;.3.3.e.e.e.;.;.o.;.=.| | o.;.;.=.;.;.;.o.3.e.e.;.| | ;.;.;.;.3.;.o.o.;.;.| ' ;.3.;.| | | &.=.&.3.3.3.3.e.e.;.=.=.&.*.*.&.;.3.e.e.3.3.*.*.;.;.;.=.' =.*.;.;.e.e.e.e.3.o.;.3.3.;.*.3.;.;.3.3.3.;.*.3.3.3.3.;.| 3.e.e.e.u.p.u.e.e.e.e.e.e.u.e.e.e.e.u.u.e.e.e.u.u.u.u.e.o.| o.;.3.e.u.e.3.o.o.;.;.o.| D Z [ | | | ;.3.;.;.3.3.;.[ } &.;.;.3.;.o.3.e.3.;.;.3.3.;.| | ;.;.;.&.;.<.<.&.&.&.&.;.;.<.3.3.;.;.;.3.3.e.3.<.3.3.4.&.T W =.O.=.W =.=.=.&.&.=.=.O.R P k P E P R k k P l l k d d j j R R R H R W T H N D ;.=.D D =.W R E P R P R R R R R E W R T W +.:.*.=.O.W T R R R P W R R W P P P P E E E W T T T =.&.=.O.*.4.;.| | | =.*.&.O.O.:.=.W =.*.<.*.=.T W O.=.&.;.*.T H R O.&.;.;.;.| =.:.-.D | 3.3.3.;.o.;.;.;.3.3.e.e.e.e.e.3.3.3.3.e.e.e.e.3.e.e.;.| ;.3.e.e.e.e.e.e.e.3.o.o.e.e.e.3.3.e.u.u.3.| [ Z j D 1.h f ",
"=.6 N I.3.[ | ..o.e.e.u.u.u.u.u.u.u.u.e.e.7.o.3.e.3.o.o.e.e.e.e.e.e.e.e.e.3.e.e.;.=.;.u.e.e.3.3.3.e.3.3.e.3.e.u.u.u.3.o.e.e.3.;.3.e.u.u.e.e.e.e.u.u.e.e.e.3.o.;.u.p.e.e.e.u.t.e.e.t.t.e.e.p.t.e.e.e.e.e.t.i.p.p.e.e.e.;.;.3.e.u.e.e.e.u.e.3.*.*.:.<.:.-.=.=.:.+.W R W =.=.W P P P P E W R P P W W P P P P P k g k k P k j H H T R R R j j H T =.&.O.P E E +.O.O.T T T R R T O.| ;.3.3.o...o.3.*.W T =.*.<.e.e.e.e.e.u.e.;.;.3.3.3.e.u.e.3.;.o.;.| | o.3.3.;.| &.3.3.3.e.u.u.3.;.;.;.;.3.e.3.3.3.3.3.;.| ;.;.3.3.o.;.;.<.&.;.3.e.e.u.u.u.8.| =.*.=.=.*.3.e.y.u.u.i.r.3.3.3.3.;.' =.*.;.3.i.i.i.e.3.3.e.e.3.3.3.e.e.e.e.r.4.*.3.e.e.3.3.3.3.e.u.t.u.u.p.p.p.u.e.e.e.e.p.u.u.e.e.u.u.e.e.u.p.p.p.p.u.;.o.3.e.u.u.p.p.e.e.e.e.3.o.| ' ' [ | ;.;.3.3.3.o.3.3.;.} O.=.;.3.e.e.e.u.u.e.;.;.;.;.;.;.;.;.;.;.3.<.3.;.| ;.;.&.;.3.3.3.;.;.3.3.3.e.e.e.3.3.3.*.=.=.=.+.=.*.:.=.O.=.&.3.&.=.O.O.T P P E E P P P P E P k d d g H R R R R R W T H D O.;.=.' ' O.=.O.Q E P R R T T T W +.E R W E -.:.&.O.T =.=.P k l P W W W =.P P P P E W =.=.=.O.=.*.*.=.} *.3.;.o.o.| o.*.&.O.O.:.<.*.*.<.*.=.' D O.=.=.o.;.*.=.R T &.;.;.3.3.o.=.&.=.} o.e.e.3.;.o.;.3.;.;.3.e.e.e.e.e.e.e.e.e.e.u.e.e.e.e.e.3.o.3.e.e.u.u.u.e.e.e.e.9.e.e.e.e.e.e.e.p.t.e.o.[ C h ' <.h f ",
"=.6 N I.<.| o.o.o.e.u.p.p.u.p.p.u.u.u.u.u.e.e.e.e.3.o.e.e.u.u.u.e.e.e.u.u.e.e.e.;.;.;.e.e.e.3.e.r.e.;.3.e.e.e.u.p.u.e.e.u.i.e.3.r.u.y.y.y.i.e.e.u.u.e.u.t.e.3.e.p.p.p.t.p.p.p.p.p.p.p.u.p.p.p.p.p.p.p.p.p.a.p.p.p.p.u.e.e.u.u.u.u.u.u.i.e.e.3.*.*.:.*.<.:.:.:.:.=.W +.:.=.W E I P E E +.W P E E W P P P P P k l l P P P j j H R R P R R B T =.&.&.O.R P E W W T T W =.W T T =.;.;.3.3.o.| ;.3.*.O.T =.*.e.u.u.e.e.e.u.e.3.;.3.3.3.e.p.u.e.3.e.;.o.;.3.e.e.3.=.=.3.3.e.i.y.u.e.3.;.;.;.;.3.e.e.e.e.3.;.;.3.3.3.e.3.3.3.3.&.;.3.e.i.i.u.i.e.;.<.*.*.*.*.3.y.y.y.y.y.r.3.;.3.r.4.=.=.<.<.3.u.y.i.e.e.e.e.e.e.;.3.e.u.u.u.e.3.3.3.e.e.3.e.e.e.e.u.t.u.u.p.a.p.p.p.p.u.e.u.p.p.p.u.p.p.e.u.p.p.p.p.p.t.e.e.u.u.p.p.p.p.u.e.e.e.3.o.| } | | ;.3.e.e.3.3.o.3.e.3.;.T ' ;.e.e.e.u.u.u.e.;.;.;.;.;.;.3.;.;.3.3.3.3.o.o.3.3.&.=.*.<.3.3.3.e.e.e.u.u.e.3.3.3.&.&.*.*.*.*.:.:.+.W O.*.<.;.=.=.=.=.T W Q E P P P P E P l g g j R O.W R j R T T D D =.;.;.| =.=.=.=.E P k R R T =.W E E E W W E Q +.=.W W +.+.P k k R W =.=.O.E P P P W =.=.=.=.=.&.<.<.*.=.3.3.;.o.3.o.| ;.*.O.O.*.4.3.;.*.=.=.O.=.=.;.;.o.3.;.=.T T =.=.| 3.e.e.&.O.T &.3.e.e.e.3.3.3.3.;.;.;.3.e.u.u.u.e.e.e.e.u.i.u.u.e.u.e.e.3.e.e.e.u.p.p.e.9.e.e.e.e.e.e.u.u.u.p.p.p.e.o.[ Z Z ' <.h 6 ",
"=.4 Z I.3.| ;.o.o.e.u.p.p.u.p.p.u.u.u.u.u.e.e.e.e.3.e.e.e.e.t.u.u.e.e.u.y.u.e.e.3.;.;.;.3.3.3.r.r.3.;.3.e.e.e.u.u.e.r.r.r.r.e.r.y.y.y.u.u.u.u.u.u.e.e.u.t.u.e.e.p.p.p.t.t.p.p.p.a.a.p.p.p.a.a.p.p.p.p.p.p.p.p.p.p.p.u.e.u.t.p.p.p.p.p.u.e.e.r.3.*.*.<.4.*.*.*.&.+.=.:.<.*.=.Q E E E E +.E E E E W P P I P P l I E E E P R j H R E P P E E O.=.=.=.=.T P P E P P W W Q W W &.3.3.;.;.;.;.;.3.e.;.=.=.;.3.e.u.u.u.e.e.u.u.e.;.<.<.=.;.e.e.3.3.e.e.e.e.e.e.3.3.=.=.;.3.e.r.i.r.e.3.<.&.;.;.e.3.3.3.3.3.3.;.;.3.e.e.e.r.r.6.;.3.e.e.e.u.u.i.u.3.6.4.*.*.*.3.e.u.y.y.i.e.;.;.<.4.<.*.*.<.3.3.e.e.e.e.e.e.e.e.3.;.3.e.e.u.e.3.3.3.e.e.e.e.e.e.u.u.u.u.u.u.p.p.p.p.p.p.p.e.e.p.p.u.u.u.p.e.p.p.a.p.p.u.u.i.e.u.i.a.a.a.a.u.e.e.3.;.o.| | ;.;.;.;.;.3.3.3.3.e.e.3.;.O.} ;.e.e.e.e.e.e.3.3.3.;.| | ;.;.;.o.;.3.3.;.;.3.e.3.=.=.=.&.3.e.e.e.e.e.u.u.u.e.3.3.3.<.3.3.*.3.6.<.=.W O.*.*.*.=.=.&.*.=.=.Q W P R P P P P P k P H T W W R H R T T T =.=.;.=.=.=.=.T W R R R R R R W E E E E E E E E W Q W W W E P P R R R W O.T W E P P W W =.=.T D ' =.*.*.=.;.3.3.3.3.3.o.;.*.*.*.<.3.;.;.;.=.' =.*.*.;.3.3.3.;.=.T O.=.=.| 3.e.9.&.D D &.3.3.3.e.3.3.e.3.;.| | o.3.e.e.e.e.3.3.3.e.e.u.u.u.u.u.e.e.e.u.u.u.u.u.e.9.e.e.e.e.e.e.u.u.u.p.p.u.>.o.[ [ Z ' <.h 4 ",
"} 4 Z I.4.| ;.o.>.e.u.p.p.p.p.p.u.u.u.u.u.u.e.e.3.3.e.u.u.u.t.u.e.e.e.u.t.t.u.e.3.3.;.;.3.3.3.4.<.<.3.e.r.3.3.e.e.3.r.r.r.r.4.r.y.y.y.e.e.e.y.u.r.e.e.u.u.e.e.e.p.p.p.t.u.i.p.a.a.a.a.a.a.a.9Xa.a.a.a.a.p.p.p.p.p.p.u.e.u.t.p.p.p.p.p.u.e.u.e.3.3.3.3.r.3.<.*.&.-.*.5.6.<.1.+.Q E W P E +.W E E W E E I I P P I I E E E W R H T W E P E Q -.&.&.*.*.=.W E P P E Q Q E E W *.3.;.;.;.*.3.e.r.e.3.*.*.3.e.u.u.t.u.e.e.u.u.e.3.<.&.=.;.e.3.<.3.e.u.u.u.u.e.3.&.=.O.=.*.r.4.r.r.3.*.*.&.;.3.e.3.3.3.3.3.3.3.3.3.r.e.3.3.r.r.3.3.r.e.e.e.u.i.y.e.r.6.*.&.&.*.;.e.r.r.3.;.;.3.<.*.*.&.<.6.e.e.3.3.3.e.e.e.3.3.3.3.3.3.e.e.e.3.3.3.e.e.e.e.u.u.u.u.u.t.i.u.e.u.p.p.a.a.p.u.t.p.p.u.u.u.t.t.p.p.a.p.p.u.u.y.u.e.t.i.i.i.p.u.u.e.3.3.;.o.;.;.;.;.| ;.;.3.3.e.e.e.3.| O.;.3.e.e.e.3.;.;.;.3.e.3.=.' | ;.o.o.o.o.;.;.e.e.i.3.=.=.=.=.3.e.e.e.u.e.e.u.u.e.e.3.3.3.e.e.e.e.e.3.<.:.:.*.*.&.=.=.<.3.<.*.=.W E P E P P P P E E R T =.W R H T =.=.=.=.&.3.| =.*.=.T W W W =.W E E E E E Q Q Q E E E E Q Q W P P P E E R R W O.O.=.W W W W =.=.+.=.=.=.=.&.=.=.;.3.3.3.3.3.3.;.3.3.e.r.3.3.3.3.*.O.=.*.<.3.e.3.3.;.=.=.=.*.;.;.;.3.>.} T W =.3.3.3.3.3.3.r.3.=.=.&.3.3.e.e.e.3.3.3.3.e.e.u.i.u.t.t.u.u.y.i.i.u.e.e.e.e.e.e.e.u.u.u.u.u.u.u.t.u.3.o.| [ j D :.f 4 ",
"} , Z I.<.;.;.3.e.u.p.p.p.p.p.p.p.u.p.u.p.u.e.3.3.3.e.t.t.t.t.t.u.u.e.e.u.u.e.e.e.3.e.r.3.3.3.<.3.3.e.y.r.<.;.*.*.<.6.r.r.4.3.r.i.y.e.e.e.e.y.y.i.e.e.e.e.e.u.t.p.p.i.e.e.i.p.p.a.a.a.9XQ.9X9X9Xa.a.a.6Xa.i.p.p.a.p.u.e.u.t.t.p.i.i.i.t.t.t.u.e.e.y.y.i.e.3.3.3.3.e.i.r.6.<.:.=.+.=.W =.:.-.W E W Q Q E P l I P P E W W O.O.T =.=.P E Q -.:.:.*.&.*.*.=.E E Q B.B.Q Q =.=.*.&.;.&.&.*.<.4.4.<.*.<.6.e.3.3.e.e.e.e.e.e.e.e.3.;.*.;.3.e.3.;.3.e.e.u.e.3.;.;.;.;.=.;.;.e.3.3.3.*.<.<.<.3.3.3.3.3.e.t.y.i.e.6.r.r.;.;.;.3.r.3.r.r.e.3.3.e.y.y.e.e.3.3.3.;.3.e.u.e.3.3.3.3.4.4.*.&.*.e.i.y.y.i.e.3.3.3.3.3.3.r.e.e.e.u.u.u.e.3.e.u.u.e.e.t.u.u.u.p.p.i.p.e.u.p.p.p.p.t.u.u.p.p.u.e.u.p.p.p.i.a.a.p.p.p.t.u.e.u.u.e.e.u.u.u.r.r.3.3.3.;.e.e.3.3.o.;.3.3.3.e.3.;.| =.3.3.e.e.u.e.;.o.;.e.r.3.=.} =.;.;.3.3.3.3.3.e.e.u.3.;.;.;.3.3.e.e.e.e.e.3.e.e.e.3.<.,.3.t.y.t.e.3.3.r.6.6.3.*.&.&.*.<.r.6.<.&.O.T =.1.W T W E Q Q T T =.O.H } } $.$.} =.*.3.| =.*.*.*.=.=.=.-.+.W W W W =.:.:.-.+.=.+.+.-.-.W P E Q &.*.=.=.=.*.*.;.*.&.&.=.*.:.:.*.*.3.3.*.;.| ;.3.e.e.3.3.3.3.3.e.t.u.e.e.e.3.;.=.O.=.<.3.3.3.e.3.&.=.*.3.3.;.| o.o.&.=.=.*.;.o.;.3.3.3.3.<.;.;.;.3.e.t.u.e.3.e.e.3.e.e.u.p.u.p.p.p.t.y.y.t.e.e.e.e.e.e.e.e.e.e.e.e.e.e.u.p.e.e.o...[ N D <.f 4 ",
"| > Z y.;.| ;.3.e.u.p.p.p.p.u.u.p.p.p.q.u.e.e.>.3.e.u.u.p.p.i.y.y.i.e.e.r.u.e.u.e.r.r.r.3.3.<.<.3.r.r.r.r.*.*.*.*.<.r.r.4.<.4.r.y.y.r.y.i.e.e.y.r.3.4.e.e.e.u.t.p.p.p.e.3.t.p.p.a.a.a.9XW.6X6Xa.a.6X6X6Xa.a.a.a.a.a.p.u.t.p.t.u.u.t.p.t.p.t.e.e.u.p.i.i.u.u.u.u.u.t.u.e.e.r.4.<.<.<.<.4.6.6.:.*.:.:.C.-.E E E P R W Q Q +.&.:.*.=.W Q C.D.<.<.<.<.<.4.1.:.:.-.-.-.:.1.<.<.<.3.3.3.3.*.<.<.4.*.;.<.3.e.3.;.;.3.e.e.e.3.3.3.;.;.3.e.e.e.e.e.e.e.e.u.e.3.3.3.e.e.3.3.3.e.e.3.3.<.3.e.3.3.3.3.e.e.i.i.i.i.i.r.r.3.;.;.3.3.3.3.e.e.e.e.e.u.i.i.e.e.e.u.u.u.u.i.i.y.e.3.3.r.4.<.:.3.r.e.u.i.i.i.i.e.r.3.3.3.3.r.i.u.e.u.t.t.t.t.u.e.u.e.e.e.u.e.e.p.p.p.p.u.p.p.p.p.p.p.t.t.p.a.a.p.p.p.p.p.a.a.p.p.a.p.i.t.e.u.u.e.e.e.e.e.3.3.3.3.e.e.u.e.e.u.u.e.3.3.3.3.3.3.*.;.3.3.e.e.u.p.u.3.;.3.e.*.| ;.;.e.e.e.e.3.3.o.o.3.e.e.3.3.3.3.e.e.e.3.3.3.3.e.e.e.<.&.;.3.e.e.e.3.<.<.3.r.r.4.:.&.*.<.<.3.&.=.=.&.=.1.G.=.T =.Q k.Q W W =.=.=.;.&.$.&.| =.<.e.3.3.3.3.3.*.*.:.-.+.=.*.:.*.<.4.5.5.<.:.:.:.<.4.:.=.=.*.<.3.3.3.3.e.e.e.e.3.;.=.=.&.*.*.<.e.e.e.3.3.e.e.u.e.e.;.;.3.e.e.e.u.u.e.e.e.3.;.=.&.<.3.3.3.3.e.;.*.*.3.3.;.o.o.o.<.*.*.3.3.3.3.3.3.3.3.3.3.3.;.| 3.e.e.e.e.e.e.e.u.u.u.y.y.y.y.y.y.i.i.p.u.t.t.e.e.e.9.9.9.e.e.e.e.e.e.u.e.e.o...[ C J <.f 4 ",
"| > Z 6.| | 3.e.e.p.i.a.a.a.a.E.$X$XQ.Q.a.i.y.y.y.y.y.y.i.p.a.+X&X+X+X@XI.y.u.u.r.3.3.3.3.4.<.*.*.4.6.r.3.3.3.<.3.e.i.r.4.4.r.y.y.y.r.y.y.u.y.i.e.;.3.e.e.e.i.i.p.p.i.u.u.p.i.a.a.a.a.9X6X5Xp.a.a.a.6X6X6Xa.6X6Xa.a.p.p.p.p.p.u.e.p.p.p.p.p.p.u.p.p.p.p.t.t.t.y.t.t.e.e.y.y.r.y.y.y.y.i.y.y.y.r.6.5.G.D.:.-.-.Q -.1.F.C.B.-.*.&.=.Q B.F.F.<.4.D.H.H.G.4.4.5.<.=.*.6.r.e.e.e.3.e.r.r.r.3.3.3.3.3.3.3.<.;.&.o.3.e.e.e.3.3.<.<.3.e.e.e.3.e.e.e.3.e.u.r.;.;.e.e.e.3.3.3.e.e.e.e.r.e.e.e.3.3.3.e.y.i.a.a.a.a.y.r.e.e.u.i.e.3.e.e.e.u.i.y.t.p.y.u.t.i.i.p.i.i.t.u.y.u.e.r.r.3.*.<.r.r.e.e.e.u.i.i.i.y.e.e.e.3.e.r.u.u.u.t.p.p.t.u.u.u.e.e.e.e.e.u.p.p.a.p.u.u.a.a.i.p.p.p.p.a.a.a.a.p.p.p.p.a.a.p.p.a.p.p.p.p.p.p.u.u.u.e.e.3.;.;.;.3.e.u.u.e.u.t.t.e.e.3.;.3.e.3.;.;.;.3.e.u.u.y.e.3.3.;.;.;.;.3.u.u.e.e.e.e.e.e.e.u.u.e.3.e.e.e.e.e.3.3.e.u.t.t.e.3.;.3.3.3.3.4.4.*.=.;.3.3.3.:.:.:.<.<.<.$.$.1.1.*.1.D.1.-.-.Q k.Q B.1.:.*.4.4.4.<.;.;.3.4.r.r.e.e.e.r.4.<.1.-.=.<.4.4.<.3.r.r.6.6.r.r.e.y.y.r.r.4.3.e.e.e.e.3.e.u.e.e.e.3.3.3.;.*.;.3.u.u.u.i.u.u.t.t.u.e.3.3.3.3.3.3.3.e.e.3.3.3.3.3.3.3.3.*.&.3.3.<.=.;.3.e.3.3.3.>.;.&.=.<.3.3.3.3.e.3.3.3.3.3.o.| o.3.e.3.3.e.e.u.i.y.y.&X@X@X&X&XY.a.a.5Xi.i.y.t.u.e.e.t.a.E.I.I.y.y.t.u.u.e.o...[ Z W <.f 4 ",
"| , N 6.} | 3.e.t.i.a.Q.Q.$X&X;X<X<X1XeX&X&X&X&X*X*X*X@XI.t.y.@X#X;XXXXX@Xy.t.t.r.3.o.3.3.4.4.<.*.*.3.4.r.r.r.3.r.i.i.i.r.r.r.r.r.r.r.y.y.y.i.i.3.*.;.3.e.u.a.y.p.p.p.i.a.a.a.a.a.a.a.a.a.p.p.p.a.a.6X6Xa.a.a.p.p.p.p.p.p.p.p.p.p.a.p.p.p.p.p.p.p.p.p.p.p.p.t.t.p.y.t.u.y.y.y.i.y.i.i.p.p.p.i.i.i.y.y.I.5.5.4.1.1.1.C.F.C.:.:.1.C.Z.v.v.Z.5.4.H.'.'.G.4.4.5.4.<.3.y.y.e.r.6.6.r.r.i.r.3.3.e.e.e.e.3.;.*.*.3.e.i.u.3.;.;.;.3.e.u.e.;.o.o.;.3.3.e.e.e.;.;.3.3.3.3.3.3.3.e.u.p.t.u.e.e.e.e.e.e.t.i.i.i.a.Q.y.i.u.u.a.p.t.t.u.u.u.i.a.a.i.a.a.i.a.a.p.p.p.p.u.u.u.u.t.a.y.r.3.;.3.3.3.3.e.y.i.u.u.p.t.i.i.i.r.r.e.u.p.p.p.u.e.u.p.p.u.e.e.u.u.u.u.p.i.i.e.e.i.i.y.t.p.p.a.p.p.p.p.p.a.a.p.p.p.p.p.p.p.p.p.p.p.p.p.p.y.y.u.e.3.3.3.>.e.e.u.u.e.e.e.u.u.e.3.3.e.3.3.3.3.3.e.e.e.e.e.e.3.o.;.3.3.e.u.e.u.e.t.y.i.i.i.i.u.e.e.u.t.t.u.u.e.3.u.i.i.i.u.3.3.e.e.e.r.r.6.<.&.<.6.4.<.<.<.4.4.6.G.I.G.2.4.<.~ C.C.-.Q Q c.k.Z.H.1.<.6.4.<.<.<.4.4.4.y.t.t.r.r.r.r.5.4.1.<.r.y.y.e.3.e.e.e.e.i.p.p.t.u.u.y.u.u.t.e.e.e.e.e.e.u.u.e.e.u.y.t.3.3.e.t.u.u.u.t.p.p.p.p.u.e.3.3.3.3.*.*.3.3.<.3.3.3.e.e.e.3.<.;.;.3.<.=.&.;.e.e.3.e.9.&.=.W &.;.;.&.;.3.3.3.3.e.3.3.;.3.e.e.e.3.3.e.u.i.a.%X<X,XOXXX;X@XE.a.Q.$XE.a.a.a.a.u.I.#X:XoXoXoXXXI.y.t.e.3.o...' =.4.f 4 ",
";., N 5.=.=.3.e.t.a.Q.$X$X$X&X;X;X].&X&X+Xy.y.y.I.+X+XI.y.y.y.+X@X+X@X@X@XI.y.i.y.r.e.r.r.r.4.4.*.*.<.<.r.r.r.r.r.i.a.y.r.3.<.<.3.3.6.r.y.y.i.i.r.4.3.3.3.u.u.e.u.e.u.t.i.p.p.a.a.a.a.a.a.9X9Xa.a.a.a.6X6Xa.p.p.p.a.p.p.p.p.p.p.a.a.p.p.p.p.p.p.p.p.a.p.p.p.p.t.i.i.a.a.t.y.i.i.y.y.y.e.t.a.a.a.a.a.a.y.y.y.r.4.4.<.4.G.G.I.U.U.'. XJ.J.S.I.4.C.F.A.D.D.D.D.5.5.6.r.3.3.<.<.<.4.5.r.4.3.3.e.u.e.u.e.3.3.4.6.i.i.u.3.;.;.3.e.u.p.u.e.e.3.3.3.3.3.3.3.3.3.3.e.3.3.3.3.3.u.p.p.p.t.t.y.y.t.u.e.y.i.a.a.a.a.a.y.y.i.a.a.p.i.i.i.i.i.a.a.a.a.a.i.i.i.p.p.p.p.y.r.e.u.i.i.a.y.e.3.3.y.r.e.e.y.y.u.p.t.i.a.y.r.r.3.3.e.i.i.u.e.e.u.u.p.p.e.p.p.p.p.p.p.i.u.u.u.i.i.i.y.a.a.p.p.p.p.p.p.a.6Xp.a.a.p.i.a.p.p.a.a.p.p.p.p.u.y.y.y.i.u.3.o.8.e.u.u.e.e.e.u.u.t.u.e.3.3.e.e.e.e.e.e.3.e.e.u.e.3.3.3.e.e.u.e.e.e.e.u.e.u.u.e.e.e.u.t.t.p.p.t.i.r.e.e.u.y.p.t.u.u.t.e.e.r.r.3.<.6.6.3.<.3.3.4.3.6.G.I.I.D.2.4.1.F.C.1.1.C.C.Q C.G.1.<.3.6.4.D.H.D.6.r.y.y.y.y.y.y.y.y.5.4.6.y.y.y.y.t.t.u.e.e.p.p.p.t.e.3.e.u.u.p.t.p.p.e.e.u.u.u.e.e.u.p.p.u.u.u.p.p.p.u.p.p.p.p.p.u.u.e.e.r.r.:.*.3.3.*.*.*.;.3.e.e.e.r.3.3.e.<.=.=.;.e.e.3.e.9.3.&.=.&.<.;.&.&.;.3.<.3.3.3.3.e.e.e.u.e.e.3.e.u.u.y.&X;X].`.@X+XI.y.y.a.a.y.y.y.t.u.e.6.I.`.[.[.oXXX+Xy.i.u.e.o...' =.4.f 4 ",
";., N 5.*.;.3.e.y.a.a.Q.a.a.$X>X*XI.y.i.i.u.e.e.e.e.e.e.u.p.p.i.i.i.y.Y.].I.y.i.y.r.r.y.r.r.r.r.4.*.<.3.6.r.4.4.r.i.y.y.r.3.3.r.r.r.6.6.6.6.r.r.y.y.4.3.3.e.e.e.u.u.u.y.y.p.p.a.a.6Xa.a.a.9X9Xa.a.a.a.9X9Xa.i.p.a.a.a.i.p.p.p.p.a.p.p.p.p.a.p.p.p.p.p.p.p.p.t.u.i.a.a.a.y.y.i.i.y.y.e.e.y.a.a.a.a.a.a.y.y.y.y.y.y.6.G.U.@X%X@X@X`.XX.X[.S.I.2.1.D.D.D.G.G.D.5.y.y.r.6.<.<.1.4.4.4.4.4.3.3.3.e.e.u.e.3.3.3.3.e.e.e.3.<.3.3.e.u.p.u.u.i.e.e.3.3.3.;.;.3.e.e.e.e.e.3.3.3.e.p.p.p.i.y.y.y.y.y.t.y.i.a.a.a.a.Y.a.i.a.a.a.a.a.a.a.i.i.a.a.a.a.i.t.t.p.a.a.a.i.y.r.3.t.i.p.a.a.y.e.e.i.i.u.u.i.u.t.p.i.i.r.e.4.6.<.<.e.y.y.u.u.u.u.p.p.p.p.p.p.p.p.p.p.i.y.y.i.u.i.i.y.a.a.p.i.a.a.a.a.6X6Xp.a.i.y.y.a.6Xa.a.a.p.p.p.t.u.u.y.i.i.u.e.3.3.e.e.e.e.e.e.u.t.i.y.e.e.e.e.e.e.e.e.3.3.e.t.i.y.i.e.e.3.e.e.e.e.e.e.e.e.u.e.e.e.u.u.u.t.i.i.u.e.r.3.3.3.e.i.i.p.t.y.e.e.r.r.3.<.5.6.4.3.e.e.e.e.3.<.<.2.2.4.4.2.D.D.D.D.G.1.1.1.4.4.4.G.I.H.'.[._.D.y.y.y.y.y.y.y.y.y.5.G.y.i.p.y.y.i.i.i.y.t.p.a.a.i.r.r.r.i.u.p.p.p.p.p.u.u.p.u.e.e.e.p.p.p.t.t.p.p.p.p.p.p.p.p.p.u.e.e.u.u.r.3.*.3.<.*.<.*.;.*.e.e.e.r.r.e.e.;.*.&.3.e.3.3.3.e.e.3.<.<.3.3.*.&.<.3.e.3.3.3.3.e.e.e.u.e.e.3.e.u.u.y.&X&XG.a.a.a.a.u.e.e.e.e.e.3.>.9.9.9.e.t.6.G.@X&X$Xa.i.p.e.o.| ' =.<.h s ",
";.4 H 5.&.;.3.e.p.a.Q.Q.a.a.$X*X&Xy.q.q.e.e.e.e.e.9.>.7.9.u.p.p.5Xp.p.y.@XI.a.i.i.r.r.r.r.r.e.e.e.3.3.4.r.4.4.4.4.6.r.r.6.6.r.r.r.r.5.4.:.:.4.r.y.i.r.3.3.3.r.e.e.u.y.y.i.u.p.a.6X6X9Xa.6X9X9X9Xa.a.a.9X9Xa.a.a.a.a.a.i.p.a.a.p.p.t.u.t.p.a.i.p.p.p.p.p.i.a.p.t.a.a.a.a.i.y.y.i.y.y.u.u.i.Q.Q.a.a.a.a.y.y.a.y.I.I.I.@X#X#X@X+X+X`.`.].'.I.I.I.I.I.I.G.I.H.G.y.y.y.y.r.r.r.4.4.<.<.3.r.4.3.3.e.t.u.u.e.3.;.*.3.e.e.e.r.3.3.e.u.p.u.u.i.e.e.e.3.3.3.3.3.e.e.e.e.e.e.3.3.e.u.p.i.y.r.e.t.i.a.a.i.a.a.a.Y.qXY.y.y.i.a.a.a.a.a.a.y.i.a.a.a.i.i.i.y.t.i.a.a.y.r.4.3.r.i.p.i.t.t.t.t.p.p.y.y.y.y.i.p.r.4.4.6.6.r.6.6.6.r.e.e.e.u.u.a.p.p.p.p.p.p.p.p.a.i.i.y.i.y.y.u.u.i.i.p.i.a.a.a.p.6X6Xp.a.y.e.t.i.a.a.a.a.p.i.i.t.e.e.i.i.t.u.e.e.3.3.e.e.e.e.e.u.y.y.t.e.e.e.e.e.t.e.e.e.e.e.t.i.y.t.t.e.3.3.e.e.e.e.e.e.e.e.3.3.r.i.u.u.t.i.i.u.3.3.3.3.3.e.y.i.p.i.i.3.4.6.r.4.<.6.5.6.6.r.u.t.u.3.*.1.<.4.6.6.4.4.5.5.4.2.4.4.4.5.I.@X@X#X@X'.[._.H.H.y.I.I.y.r.r.r.y.5.I.y.i.t.y.y.a.a.a.i.i.i.a.a.i.a.a.a.i.p.p.p.p.p.i.p.u.u.u.u.u.u.p.p.i.u.t.i.a.p.p.p.p.p.p.p.t.u.u.u.u.u.e.3.;.:.<.6.3.;.;.3.e.e.u.u.u.e.;.*.*.3.3.;.;.3.e.e.3.3.3.3.3.<.*.3.e.y.3.&.&.;.e.e.e.e.e.e.e.e.e.e.y.$X*X+Xp.p.p.p.u.e.9.e.e.9.>.>.>.9.9.e.u.t.t.y.+XE.a.p.p.e.o.o.} =.4.j s ",
";.4 Z 5.&.=.3.e.i.a.9X9Xa.a.E.&X$Xe.9.9.e.3.3.3.3.>.o.o.7.9.u.6X9Xa.t.y.@XI.y.i.y.r.r.r.r.e.e.e.e.r.4.<.4.4.4.4.<.<.<.4.r.r.i.u.e.r.4.4.=.=.<.y.i.r.r.3.3.3.r.r.e.r.3.3.e.t.p.p.6X9X9X9X9XQ.Q.Q.a.a.a.Q.a.a.a.a.a.a.a.a.i.a.a.y.t.t.t.p.y.i.a.i.i.i.p.i.a.a.i.y.a.a.y.i.i.y.y.y.y.i.i.t.a.Q.9XQ.a.a.a.a.a.E.$X@X].].XX;X=X@X+X&X+X+X`.@XI.+X+X+XI.I.H.@X'.G.y.t.y.y.y.y.y.r.6.4.;.3.e.3.3.3.e.t.u.e.e.3.;.;.3.r.t.e.e.e.e.e.u.p.y.p.u.u.e.3.e.3.3.3.3.e.u.u.u.e.e.3.3.e.i.i.i.y.e.e.u.a.a.a.a.a.a.a.Q.qXa.y.u.i.a.a.a.a.Q.y.r.i.a.a.a.i.i.a.i.p.i.i.a.y.4.:.4.y.i.p.t.t.t.p.p.p.p.p.y.y.y.i.u.4.4.5.y.y.y.y.y.r.e.e.e.e.e.u.a.a.p.p.a.6Xa.a.a.a.a.i.i.r.t.y.y.t.y.a.i.a.a.a.p.p.p.6Xp.p.u.e.e.t.p.a.a.a.i.i.i.y.e.e.y.y.u.u.u.u.e.e.e.r.e.e.e.u.y.i.e.e.e.e.e.r.t.3.e.y.y.u.t.y.t.u.u.u.e.3.3.e.e.u.e.3.3.3.3.3.r.y.i.u.y.i.y.3.3.3.r.r.r.i.i.i.i.y.r.3.4.r.r.4.<.<.4.6.e.y.y.y.u.3.4.4.4.4.5.r.y.y.6.4.4.4.6.6.r.y.@X;X:X;X=XH.H.'.'.H.I.+XI.y.r.e.e.y.5.I.y.i.a.y.y.a.a.a.a.a.a.a.a.a.a.a.9Xa.p.p.p.p.p.p.u.u.e.u.p.p.p.p.p.y.p.p.t.p.p.p.u.u.u.p.p.p.u.u.u.e.t.u.e.*.*.3.r.e.o.o.>.e.u.u.u.u.e.3.3.3.e.3.;.=.;.3.e.e.3.3.3.3.<.3.3.y.y.3.| =.;.e.e.e.e.e.u.u.e.e.e.e.$X*X$Xp.p.p.p.t.e.3.9.e.>.o.,.,.>.e.u.e.p.y.y.+XE.p.p.p.e.;.| ' =.<.h s ",
";.6 Z 5.=.' ;.3.t.i.a.a.a.a.y.$XE.e.3.o.o.;.| | ..| [ ..o.9.e.u.p.p.y.I.'.I.y.i.i.r.6.e.e.e.r.e.3.e.4.*.*.<.5.r.4.<.<.4.r.i.u.e.3.*.:.1.:.=.<.r.i.r.6.<.;.;.4.6.5.<.*.*.3.u.p.p.a.a.a.a.a.a.a.a.a.a.9X9XQ.a.a.a.a.a.a.p.a.a.p.p.t.t.t.p.p.i.p.p.p.t.t.p.i.i.y.y.a.a.y.i.a.i.i.t.p.i.i.i.a.$XwXQ.Q.a.a.Q.a.$X*X;X:XoX3XoX=X@X@X#X&X'.].].@X@X&X@XI.H.'.:XXXH.t.a.y.y.y.y.y.e.<.;.;.3.3.3.3.3.e.u.e.e.e.3.o.o.3.e.e.3.3.3.e.e.e.u.t.r.u.e.3.3.3.3.3.3.3.e.e.e.e.3.3.e.e.e.u.y.y.e.r.r.y.a.a.a.a.a.a.a.a.a.y.y.y.y.i.a.a.a.a.r.<.r.y.i.t.y.y.a.p.p.i.y.y.4.1.<.4.y.y.e.e.e.e.e.t.t.y.y.i.u.i.r.3.1.5.y.y.y.y.t.r.e.e.3.3.3.e.u.i.i.t.t.p.p.p.a.a.a.p.u.3.e.p.y.y.t.i.i.i.a.a.a.p.p.p.i.i.u.e.r.r.i.a.y.y.t.y.i.y.y.e.e.t.y.t.t.t.t.t.u.e.e.u.u.t.e.e.e.e.e.e.e.e.t.e.>.e.p.i.p.t.u.e.e.e.e.e.e.>.e.t.u.e.3.3.3.3.e.u.u.u.u.u.t.e.>.3.e.e.e.e.e.t.t.u.u.e.e.e.r.r.r.e.3.3.3.e.e.u.e.e.3.3.3.4.5.G.5.e.3.5.H.G.G.y.y.y.y.+X=X;XXX'.G.H.].XX'.@X+XI.y.t.t.y.y.I.+Xy.p.p.t.y.a.a.a.p.p.p.p.a.a.a.a.a.a.p.u.p.p.p.p.p.e.e.u.p.p.p.p.i.t.i.i.p.i.i.p.u.u.p.u.u.e.e.u.u.u.u.e.3.=.=.4.r.3.o.;.3.e.e.e.3.3.3.3.3.3.3.<.*.=.&.<.3.3.3.3.;.&.&.;.3.r.r.3.;.3.e.e.e.e.e.e.e.e.e.e.e.3.+X%Xy.p.p.a.p.e.e.[ C [ ) L L L ) ..3.e.t.y.I.@X+Xp.p.a.e.;.' Z W 4.h s ",
";.4 Z D.=.D | ;.e.u.i.y.y.y.y.y.i.e.o.) 6 4 4 > > > 4 C o.9.e.e.e.e.y.I.@XI.r.i.y.r.6.u.i.y.y.r.e.e.e.;.;.3.y.y.r.4.<.6.r.y.r.3.3.<.<.1.:.*.<.r.y.r.5.<.*.*.*.<.4.D.4.<.6.r.y.i.a.a.a.a.a.a.a.a.a.a.a.9X9XQ.a.a.a.p.p.p.p.t.t.t.t.e.9.e.i.y.u.u.w.9.t.e.u.u.t.y.a.a.y.y.y.y.t.p.t.y.y.y.$X&X%X&X+X+X+X&X&X@X@X;X:X4X4XoXXX@XXX;X;XXXoXoXoX;X@X@X@X@X@X:X:XH.y.y.y.I.I.y.r.6.<.*.*.3.6.6.r.r.r.r.r.r.e.e.e.e.e.e.e.5.<.<.6.r.r.r.5.y.i.r.r.5.4.3.6.6.<.3.e.3.3.3.3.e.r.y.y.y.r.r.r.y.y.y.a.a.a.a.Y.Y.Y.I.I.I.I.y.y.y.y.y.y.5.<.4.r.y.y.y.y.E.Q.a.y.6.6.6.6.6.6.y.y.<.<.4.5.5.<.4.5.5.6.<.<.<.1.1.5.I.y.y.y.r.r.6.e.3.3.3.3.e.y.y.t.t.t.t.t.t.t.y.y.6.4.5.y.r.6.6.y.y.y.y.y.y.y.y.y.i.r.4.<.4.<.5.I.y.5.6.4.6.r.r.y.e.e.e.t.t.t.e.y.e.3.3.3.e.t.e.3.3.3.3.t.t.u.t.t.e.u.i.i.y.y.3.3.t.y.y.t.e.e.e.u.u.3.;.3.3.3.e.p.i.u.e.u.e.e.3.3.r.y.y.6.3.3.e.e.e.e.3.3.3.3.r.e.3.4.3.e.e.3.<.3.3.<.<.D.`.].'.G.G.`.XXXX`.I.y.+X+X+X`.]. X'.+X`.'.].XX;X&X+Xy.y.y.y.+X@X@Xy.p.p.p.y.i.i.a.i.t.t.i.a.E.a.a.a.a.y.u.t.u.t.y.t.e.e.e.u.u.u.u.u.y.i.i.y.y.y.i.e.t.p.t.t.e.3.3.r.r.r.6.*.=.=.4.4.<.*.*.*.:.<.<.<.*.*.*.<.*.:.4.:.:.:.:.<.<.<.<.:.-.+.*.<.5.6.6.6.6.6.6.4.4.4.3.3.3.3.e.e.3.I.+Xy.e.p.u.u.u.3.6 % > , , , , 4 6 | 3.t.y.+X@X+Xa.a.i.3.| [ N W <.f s ",
"&.6 H D.=.D | ;.3.e.u.e.3.3.y.y.y.e.[ 4 o . . . . . $ h 3.9.3.3.e.e.y.y.H.5.r.e.e.4.r.y.y.r.r.3.6.r.r.r.5.I.I.I.I.G.4.4.5.5.G.G.G.D.D.D.D.4.5.I.I.I.G.D.r.5.4.4.D.G.G.G.P.r.I.I.I.I.I.I.I.I.I.I.U.I.I.I.@X@XU.I.I.I.I.I.I.I.I.I.I.G.5.G.+X`.y.y.y.y.y.y.y.I.I.I.I.$Xy.I.I.I.y.y.y.y.I.I.+X@X@X@X`.'.@X@X@X]. X].'.=X;XXX].;X@X@X'.[..X.X.X].`.@X#X@X`.'.=X'.I.I.I.I.I.H.G.G.D.D.D.I.I.I.I.I.I.5.D.D.D.G.I.I.G.G.G.G.G.G.I.I.I.5.5.y.I.r.5.D.P.I.I.5.<.;.3.3.<.<.4.6.y.I.y.y.y.y.r.y.y.r.y.y.y.y.I.I.I.I.G.I.I.I.y.y.5.y.I.I.I.I.I.I.I.H.H.I.I.y.5.D.D.G.I.I.5.5.D.4.4.4.D.D.1.1.C.4.1.1.1.1.1.B.C.F.G.D.4.1.5.5.r.5.4.<.6.5.D.D.4.4.4.5.r.5.r.I.I.D.F.F.D.D.C.D.D.D.2.I.I.I.I.I.I.5.4.5.G.G.D.4.D.G.G.G.I.P.r.y.I.I.r.r.I.P.D.5.5.5.6.3.3.3.3.4.4.<.<.4.4.5.5.P.P.D.D.I.I.I.D.D.D.I.I.I.I.D.D.D.G.G.F.F.F.G.D.D.G.G.G.G.G.G.H.G.H.U.U.U.G.F.F.G.G.G.D.D.D.D.G.H.H.H.J.S.G.C.C.C.A.G.H.S.J.J.J.H.H.@X@X=X'.H.I.+X+X$XI.I.@X=X@X@XH.H.S.H.@X@XI.I.I.y.y.H.H.U.I.i.a.a.y.y.y.Y.a.y.y.I.I.I.I.y.I.I.y.y.y.5.5.5.5.6.6.5.r.r.r.r.y.6.6.r.r.5.4.5.I.I.I.y.5.<.<.<.<.<.<.4.<.1.:.1.D.D.4.4.4.<.<.<.4.4.4.4.4.D.4.4.4.1.:.:.:.:.:.4.4.1.:.4.D.4.<.<.5.4.<.1.:.1.<.<.4.4.6.y.6.5.G.I.6.e.u.u.u.u.3.4 . * , , > & $ > | 3.t.y.+X#X+Xa.a.i.3.} Z N T :.f s ",
"&.4 H G.-.' ;.;.e.e.e.3.6.2.6.u.t.e.) > o $ @ - @   . 6 o.3.3.<.3.3.6.5.A.4.e.e.3.3.5.5.5.<.:.:.<.<.D.D.G.G.F.F.F.H.F.F.F.C.C.C.C.C.C.C.C.D.D.G.H.H.H.G.I.5.4.1.4.D.D.D.5.5.D.D.D.I.@XI.I.F.G.F.F.C.F.G.H.H.H.H.@X@XI.G.H.U.U.H.H.G.H.K.L.L.K.R.K.F.Z.S.S.K.L.K.J.I.G.H. X XU.I.I.+X+X%X@X@X@X`.H.H.G.D.`.;X,X;X;X&X@X#X#X*X@X@XH. X.X.X X@X@X@X@X@X@X@X@X@X@X@XU.H.G.G.H.H.H.H.H.H.H.H.H.G.G.D.D.C.C.C.F.F.C.C.C.D.D.D.G.G.5.<.<.6.I.D.4.4.4.P.5.<.<.;.3.3.<.*.&.<.r.4.4.r.r.r.r.y.y.y.y.y.y.y.6.5.D.I.G.I.I.I.y.r.4.6.y.I.I.I.I.I.U.H.F.D.P.r.5.1.:.4.r.r.4.4.4.y.r.5.5.4.4.4.4.4.4.<.<.4.<.C.C.F.D.D.1.1.1.5.5.5.4.<.<.4.D.G.D.-.+.:.4.5.5.5.D.4.1.C.4.C.C.C.C.1.1.G.y.y.I.y.r.5.4.G.I.G.D.1.1.4.D.G.I.5.5.r.5.D.D.D.G.F.D.D.4.4.5.5.<.<.<.4.D.D.V.:.D.D.C.C.D.F.C.C.C.I.D.D.D.D.4.4.D.D.F.F.F.Z.Z.Z.Z.Z.F.C.B.-.C.F.Z.H.H.H.H.H.H.H.F.Z.Z.F.F.H.F.F.Z.Z.S.S.{.2X2XL.Z.C.1.1.C.A.K. XJ.M.Z.G.G.D.H.+XI.H.@X#X@X@X@X#X=X X=X@X'.XX[.S.D.G.G.G.5.6.6.G.H.H.G.y.y.y.y.y.y.I.I.y.G.I.I.I.I.I.I.I.G.D.D.D.D.D.C.1.1.4.D.D.D.D.I.4.6.5.4.-.-.4.U.U.G.F.D.:.:.1.<.<.<.<.<.1.1.1.4.D.5.5.6.4.<.<.1.<.D.D.4.4.<.1.1.<.<.<.<.:.*.1.:.:.=.:.1.1.:.<.5.<.<.1.4.4.:.=.*.<.4.5.G.G.@X=X@Xi.i.u.u.e.| 4 $ 4 h C f > o > | 3.t.y.$X*XI.y.i.i.3.=.' H T :.f s ",
"&.4 H G.=.' | ;.e.8.e.6.I.@Xy.e.e.>.C % & u N C h > o 6 o.3.<.4.6.e.r.5.H.5.r.e.r.4.4.4.4.4.D.D.1.1.1.1.1.1.C.1.C.C.F.G.F.D.-.-.:.4.4.4.1.1.4.4.F.F.F.D.r.6.<.3.3.6.r.r.r.r.<.1.<.I.+XI.I.y.r.3.*.3.3.y.y.6.6.y.$XE.y.e.e.y.y.y.r.r.y.G.H.H.U.I.D.*.=.<.G.G.I.G.G.5.D.H.:X:X@XT.+X$X$X$X$X+X+X+XI.I.I.G.G.@X<X<X*X&X$X&X%XwX*X&X@X;X:X;X'.%X%X%X@X%X&X$X+X#X@XU.I.5.4.D.D.G.G.F.D.4.D.G.G.G.G.4.<.1.<.<.<.;.&.$.&.=.1.4.5.y.y.6.4.r.r.6.1.<.4.i.6.6.r.r.e.e.r.3.3.3.e.3.r.i.y.y.y.y.a.y.y.y.y.y.r.r.I.I.I.I.Y.Y.a.y.6.3.3.e.3.e.r.r.y.y.y.y.a.a.y.3.3.3.t.t.y.y.y.i.i.a.a.a.y.r.<.4.r.y.y.y.i.y.i.i.i.t.i.u.r.r.y.y.r.6.r.r.y.y.y.3.3.r.y.y.y.y.t.e.3.3.i.y.y.r.4.r.i.e.e.y.y.y.r.r.r.r.r.6.<.<.<.<.4.4.<.<.3.e.3.3.3.4.<.&.&.*.*.1.<.<.4.3.<.3.r.4.4.4.6.6.6.4.4.6.6.6.y.y.y.y.6.3.e.e.3.6.5.5.<.<.4.5.6.5.r.4.=.=.&.*.*.*.*.*.<.r.5.4.1.1.1.1.1.<.<.<.4.5.5.D.Z.H.K.H.<.3.3.3.3.<.I.+XH.D.`.;X;X@XG.5.G.H.XX,XXXXX#X;X;XXX;X;X;X,X:X].I.I.I.y.y.y.y.+XH.@X@XY.y.y.y.y.y.y.y.6.6.6.5.y.y.I.T.I.4.1.4.4.<.<.<.<.4.4.5.5.<.:.:.4.3.3.<.=.W <.r.y.5.5.5.4.4.6.r.y.r.e.e.3.3.6.6.6.e.e.e.e.<.*.;.<.4.<.*.$.&.3.3.e.3.3.3.<.<.<.<.<.<.<.<.<.<.<.<.<.4.6.5.4.*.=.&.<.1.1.4.D.H.@XI.y.r.e.e.3.| 4 % h ..} Z 4 o 3 ..e.t.y.I.I.5.e.e.e.3.&.=.D T &.f s ",
"&.4 H P.=.' | | 8.8.;.6.`. XG.e.3.o.0 % , V W $.Z , o 6 | 3.<.4.5.r.6.6.D.5.6.y.y.y.5.:.4.D.G.G.D.4.4.4.1.<.<.<.<.<.5.I.I.y.4.4.r.y.y.e.3.<.3.6.<.:.6.i.p.t.y.p.p.p.i.i.i.y.e.e.u.a.Q.a.a.Q.a.p.t.t.p.6Xa.t.u.p.a.6Xp.w.p.p.p.p.p.p.p.u.t.t.i.p.e.>.9.u.p.p.p.p.p.p.y.#X:X=X$X9Xa.a.a.a.a.a.a.a.a.$X$Xa.y.+X&X&XE.Q.a.Q.Q.$X+XE.$X+X+X+Xy.Y.$X$X$X$Xa.a.$X*X@XU.y.6.3.6.r.y.r.4.<.3.3.6.r.y.a.y.e.3.e.u.u.e.e.e.o.;.3.y.y.y.y.y.e.e.;.&.&.<.r.i.i.e.u.i.i.y.u.e.e.e.e.e.y.i.i.a.a.a.i.y.t.y.a.a.a.a.y.y.r.y.$XqX9Xa.e.u.y.a.p.p.a.a.p.p.p.a.8X8Xp.p.p.a.a.Q.9X9X9Xa.9X9X9X9Xa.t.e.y.a.6X6X9X9X9X6Xp.p.5X5X6X6X9X9Xa.a.a.a.Q.Q.9XQ.a.p.9X9XQ.9X9X9X8XW.8X6X6Xa.p.u.a.6Xa.Q.Q.9X9Xa.a.a.a.i.p.p.p.i.t.i.i.u.u.u.a.p.p.p.t.e.e.e.e.u.e.e.e.e.e.e.e.e.3.3.e.i.p.t.e.e.t.t.t.i.t.a.t.e.e.t.p.p.p.t.e.e.u.t.t.t.t.u.e.o.;.;.3.3.3.8.e.u.a.t.3.o.o.3.3.3.e.e.u.u.i.y.r.e.y.I.y.e.e.e.e.e.e.y.y.y.t.5.@X;X=XG.5.5.H.=X;X;X@X@X+X&X&X&X&X&X#X&X+X$X$Xa.a.a.a.E.$X$X%X&X$Xa.y.p.i.a.a.i.t.t.t.t.i.a.a.9Xa.t.y.i.a.i.i.i.t.a.a.a.a.u.e.3.t.p.p.u.e.e.t.p.p.p.u.e.3.t.a.i.i.p.t.t.t.t.u.u.u.u.u.u.u.e.e.e.e.e.3.3.=.;.e.e.e.u.u.3.3.3.e.e.e.e.e.e.e.r.<.&.*.3.e.r.r.;.;.3.r.3.3.3.4.D.G.4.3.3.3.3.e.| 4 % Z *.&.J h $ 3 ..3.3.6.6.4.6.3.3.<.&.=.=.H T &.f f ",
";.4 Z 5.=.[ o.o.9.e.e.6.G.S.G.e.>.o.0 % s 1.G.I.<.f $ 6 &.;.;.<.<.<.3.<.1.4.6.e.e.y.y.<.<.5.G.D.4.5.r.r.r.e.e.e.r.e.r.y.a.y.e.e.t.t.t.u.e.3.e.e.3.3.y.a.p.p.p.p.p.p.p.a.p.p.p.p.p.9X9X9X9XQ.a.p.p.p.a.a.Q.a.a.a.p.6Xp.p.p.p.p.p.p.p.p.p.p.i.a.6Xp.p.p.a.a.a.a.a.a.6XQ.%X*X$Xa.5X9X6X6X6X6X6Xa.p.a.a.a.a.p.a.$Xa.a.p.p.p.a.9Xa.a.a.a.a.a.a.a.a.Q.a.a.a.a.E.%X@XI.y.e.3.e.u.u.u.e.3.3.3.3.u.a.6Xa.u.e.e.u.u.u.u.e.3.3.3.e.u.u.u.e.e.e.3.3.3.3.u.u.u.e.e.u.t.u.e.e.e.e.e.e.u.t.p.i.a.a.i.u.e.p.a.a.a.i.e.3.3.y.a.9X9Xa.t.i.a.9X9X9X9X8X6X6X6X6X6X6X6Xa.6X9X9X6X5X5X5Xa.5X5X9X9Xa.u.p.a.9X9X8X8X9X9X9Xa.Q.9X9X9X0X0X0X9X9X9X9X9X9X9X0X9X9X9X9X9X9X9X9X9X9X9X8X9Xp.p.p.9X9X9X9X9X9X9X9X9X6X5X5Xp.5X5X5Xp.a.a.p.u.p.a.p.p.p.p.p.a.p.p.p.u.u.e.e.9.9.u.e.3.e.u.a.p.e.e.t.y.t.u.t.i.i.i.8.e.u.a.a.a.e.e.e.i.a.i.i.y.e.o.;.;.3.3.3.e.e.u.p.a.a.u.e.o.e.u.u.e.t.p.i.i.y.r.u.y.y.y.y.u.e.e.u.t.t.y.y.e.6.G.G.G.I.Y.T.I.@X@XI.Y.Y.Y.qX$XQ.Q.a.a.a.6XQ.a.a.a.a.a.p.a.a.a.Q.9Xa.p.p.p.9X8Xp.p.p.p.5X9X5X5X6Xp.p.p.5X8X5X5Xp.p.p.p.5X5Xp.q.9.u.u.p.p.u.p.5X5X5Xp.u.9.9.u.6Xp.p.p.u.u.u.p.p.p.u.u.e.u.u.u.e.e.e.e.e.e.;.3.e.e.u.u.e.o.o.3.e.e.e.e.e.e.e.e.3.| =.3.u.e.3.3.3.e.u.r.e.e.6.I.G.4.3.3.<.3.e.| , > | y.6.<.N * > ) >.3.4.2.A.D.6.<.;.&.} ' H O.:.f f ",
"*.4 Z 5.=.[ | o.9.e.u.6.2.~ 4.3.>.X.6 $ f I.uXyX$X0 . 6 | o.3.3.4.3.3.e.4.G.5.e.t.y.y.r.6.4.4.5.6.y.y.u.e.e.u.u.u.i.i.y.y.r.r.i.y.t.e.e.3.3.e.e.e.t.p.p.a.p.p.6Xp.p.a.a.a.p.p.p.a.9X9X9X9Xa.p.a.a.a.a.9X9Xa.a.a.p.a.p.p.p.p.p.p.p.a.p.p.p.p.p.a.a.a.a.9Xa.a.a.Q.a.Q.9X9X9X9X9Xa.Q.9X9X9X9XQ.a.p.i.a.a.p.a.a.6Xa.a.a.a.a.9X9XQ.Q.Q.a.a.a.a.a.a.a.a.a.y.t.r.5.I.I.I.y.e.e.i.u.u.y.e.3.3.3.e.y.i.y.e.3.u.u.t.p.u.u.u.3.3.3.e.e.3.3.r.y.y.y.y.y.y.e.e.e.e.e.e.e.e.t.p.p.p.p.p.u.t.i.y.t.t.u.u.p.a.a.i.u.e.e.p.a.a.a.a.a.a.9X9X9X9X9X9X9X9X6X6Xp.6X6X6X9X9X9X8X8X9X8X9X9X6X6Xa.a.a.p.6X6X9X9X9X9X9X9X9X9X9X9X9X9X0X0X0X0X0X0X9X9X0X0X0X0X0X0X0X0X9X9X9X9X9X9X9X9X6X6X6X9X9X9X9X9X9X9X9X6X6X6X6Xa.a.a.9Xa.a.a.t.u.p.a.p.p.p.p.a.p.p.p.p.p.p.e.9.e.e.u.t.e.e.u.i.u.e.y.i.t.u.u.t.p.t.u.e.e.e.p.p.p.t.u.u.i.i.p.y.e.3.o.3.e.e.e.e.e.e.u.p.p.i.i.e.e.u.p.u.p.p.u.p.i.y.e.u.i.y.y.p.i.e.u.p.p.p.t.t.e.e.6.5.G.I.Y.$X$X$XY.a.a.Q.Q.Q.$XQ.Q.Q.a.a.6Xa.a.a.a.p.p.p.p.p.p.p.p.a.a.p.a.p.p.Q.a.p.a.a.a.a.p.p.p.p.p.6X6X6X6X6Xp.p.p.p.p.u.u.e.u.p.p.p.p.p.p.p.p.p.p.p.p.i.i.p.p.p.p.u.u.u.t.u.3.3.3.u.u.e.e.e.e.9.9.9.o.;.e.e.e.e.e.;.o.=.&.;.;.o.e.e.3.e.3.;.*.;.e.e.3.3.3.e.u.u.e.e.y.+X+Xy.y.r.r.e.e.[ , , e.iXiX*XJ $ 3 ) >.4.D._.}._.D.<.3.| [ [ Z =.*.f 6 ",
"*.s Z 5.=.| ;.e.e.u.y.y.2.~ 2.3.,.o.0 * s G.uXyX$X0 $ 6 | o.e.y.I.y.e.t.H.I.I.y.a.a.y.y.r.4.<.4.r.y.y.y.t.e.u.i.y.y.y.r.r.y.y.i.y.y.e.e.e.u.t.p.p.p.a.a.a.a.a.a.a.Q.a.i.p.a.a.9X6X9X9X9Xa.a.a.a.a.a.9X9X9Xa.a.a.a.a.a.a.a.a.a.a.a.a.a.p.p.p.a.a.a.a.9X9X9Xa.Q.9Xa.a.a.a.a.a.6X9XQ.Q.a.a.a.a.a.y.y.i.p.p.p.a.a.a.a.a.a.a.a.a.a.a.y.i.i.a.a.a.a.i.y.y.y.y.1.1.4.5.5.y.t.e.y.y.e.y.i.r.4.4.r.e.u.e.e.e.u.i.i.i.p.t.t.u.e.3.3.3.3.r.r.y.y.y.y.y.i.e.e.e.e.t.u.u.y.y.p.a.6Xa.p.p.p.a.p.p.p.i.i.p.a.a.p.p.p.p.a.9X9X9X9X9X9X9X9X9X9X9X9X6X9X9X6Xp.6X9X9X9X9X9X8X8X8X8X9X6X6X6X9X9X6Xa.6X9X9X9X9X9X9X0X9X9X9X9X9X9X0X0X0X0X0X0X0X0X0X0X0X0X0X0X0X0X0X0X9X9X9X9X9X9X9X9X9X9X9X9X9X9X9X9X9X6X6X6X6X6X6X9X9X9Xa.a.i.i.a.a.p.p.p.p.a.a.p.p.a.a.p.p.p.p.p.p.i.p.t.i.y.u.t.i.a.i.i.i.i.t.p.y.y.y.i.a.p.a.i.t.t.i.i.p.u.e.3.e.e.u.y.t.y.i.u.u.p.p.i.t.u.u.t.p.p.p.t.p.i.y.e.e.i.i.y.y.i.y.e.t.i.p.p.t.u.u.y.6.4.4.y.a.$X$XY.Y.a.a.$X9XQ.$X$XQ.a.a.a.9XQ.a.a.a.p.u.p.p.p.p.p.p.p.y.p.i.a.a.Q.a.a.a.a.a.a.p.p.p.p.6X9X9X6X6X6X6Xa.a.p.p.p.u.e.e.e.u.u.p.p.p.p.p.p.p.a.a.a.i.p.p.p.p.p.p.e.e.e.>.3.e.u.e.e.e.e.u.e.e.e.e.3.e.e.e.e.e.e.3.;.&.&.o.;.3.3.3.3.3.3.4.3.e.e.3.3.r.u.e.e.e.i.I.&X&X+XE.y.y.e.e..., = y.pXaXuX=.% > [ 3.y.@XXX|.'.2.6.e.3.| ' D =.:.f f ",
"*.f Z 5.&.| ;.3.e.i.y.y.`.'.`.6.,.{ 0 * 6 <.+X&X3.6 * h | o.e.Y.$XI.y.y.@XH.G.y.a.i.y.r.5.6.6.r.i.y.y.y.r.e.u.y.y.y.r.r.i.y.y.y.y.i.e.e.t.p.p.p.6Xa.a.a.a.a.p.Q.a.a.y.y.i.Q.9X9X6X6X9XQ.a.a.a.p.a.a.a.9X9Xa.p.p.a.a.9Xa.a.p.p.p.p.a.p.p.p.p.a.a.a.a.9X9X9X6X9X9Xa.a.a.a.a.a.6X9X9X9X6Xa.9Xa.a.i.e.e.u.i.p.a.a.a.a.i.i.a.a.p.y.e.e.i.i.i.a.a.a.y.y.I.I.D.1.C.F.D.4.6.t.t.y.y.e.y.r.4.<.4.6.r.e.t.u.u.t.i.y.y.y.u.u.u.u.e.e.3.3.r.y.y.i.i.i.y.i.t.e.u.t.i.p.p.t.t.p.a.a.p.p.p.p.a.p.p.p.a.a.a.Q.a.p.p.a.9X6X9X9X9X9X9X9X9X9X9X9X9X9X6X9X9X6X6X6X9X9X9X9X9X9X9X9X9X9X6X6X9X9X9X9X9X6X9X9X9X9X9X9X0X9X9X9X9X9X9X0X0X0X0X0X0X0X0X0X0X0X0X0X0X0X0X0X0X0X9X9X9X9X9X9X9X9X9X9X9X0X9X9X9X9X9X9X6X6X6X9X9X9X9X6Xa.a.a.a.p.p.p.a.a.a.p.p.p.p.p.p.p.p.p.a.a.p.a.a.a.p.u.a.a.a.a.a.a.a.p.p.p.i.a.a.a.a.a.a.i.i.y.p.t.u.e.y.y.e.u.i.t.t.i.p.p.p.u.u.e.u.t.p.p.p.t.u.t.i.u.e.e.y.3.3.e.y.i.u.r.u.t.y.u.u.y.y.<.=.1.y.a.$X$XY.I.y.I.$X$Xa.a.a.Q.Q.a.a.a.a.Q.a.a.p.u.p.p.p.p.p.p.i.i.i.i.p.a.a.y.i.y.a.a.a.a.p.p.p.a.a.6X6X6X9Xa.a.a.p.p.p.p.u.e.e.u.p.p.p.6Xp.p.p.a.a.a.a.p.p.a.p.p.p.p.u.e.e.3.e.t.p.e.e.e.u.u.e.3.3.e.e.9.e.e.e.e.u.e.e.3.;.o.o.3.<.;.&.*.4.3.3.3.3.3.3.r.i.e.e.e.r.I.&X&X+XE.a.i.e.e.[ = = 6.uXyXiXO.* > | 3.y.+X].[.H.6.r.y.3.<.=.' =.:.f s ",
";.4 Z 5.&.=.;.3.u.i.y.y.`.].+X3.,.{ 0 * , =.4.4.} 6 = h o.9.e.y.$X$Xy.y.H.H.G.y.a.y.y.4.r.r.y.y.y.e.6.6.r.y.i.i.y.i.r.i.i.y.i.y.y.i.u.u.t.p.p.9X6X6X9X9Xa.a.a.t.t.e.r.u.i.a.p.p.p.p.a.a.9X9X9X9X9XQ.p.p.p.p.p.a.a.Q.Q.a.p.p.p.p.a.a.a.p.p.a.a.a.a.p.9X9X9X9Xa.a.a.6X6X6X6X6X6X9Xa.a.a.6Xa.a.a.y.e.y.y.i.a.a.a.a.r.e.r.a.a.a.e.e.y.a.a.a.a.Y.a.y.y.I.I.D.C.G.H.G.1.<.6.y.i.y.i.y.4.*.<.6.6.r.y.i.i.t.y.i.r.e.e.e.u.u.i.y.y.r.4.4.y.i.i.y.i.i.i.i.t.t.i.i.p.p.a.p.t.p.a.p.p.p.6Xa.p.p.p.a.a.6X6X6X6Xp.6X9X6X6X6X6X6X9X9X9X9X9X9X9X9X9X9X9X6X6X6X9X9X9X9X9X6X6X9X9X9X9Xa.9X9X9X6X9X9X9X9X9X9X9X9X0X9X9X0X0X0X9X9X9X0XrXrXrXrX0X0X0X0X0X0X0X0X0X0X0X0X9X9X9X9X9X9X9X9X9X9X9X9X9X9X9X9X9X9X9X6X6X6X6X6X6Xa.6Xa.i.p.p.p.p.a.a.p.p.p.p.W.p.p.p.p.a.6X6X6X6X6X6Xa.a.a.Q.6X6X6X6Xa.p.p.p.i.a.a.a.a.a.a.a.p.p.t.t.u.e.i.y.e.e.u.t.u.u.i.a.i.e.3.e.u.t.i.t.e.e.t.y.u.u.e.e.r.3.3.e.i.i.u.e.y.y.r.y.y.i.6.1.-.<.y.a.a.Y.I.I.I.+X$X$Xy.y.a.qXqXqXQ.a.Q.a.a.a.p.p.p.p.a.a.a.t.i.a.a.a.i.a.i.e.3.y.a.a.a.a.p.p.a.a.p.a.a.a.a.p.p.p.p.p.p.p.p.p.p.p.p.p.p.p.p.p.p.a.a.p.p.p.a.a.a.p.p.u.u.e.e.e.e.u.e.9.e.e.e.e.o.&.<.3.3.9.9.e.e.e.e.e.e.e.3.o.o.;.=.} &.:.3.3.3.4.<.&.;.3.r.r.r.e.y.+X*X*X+Xa.i.i.u.e...= * | $X*XI.j $ 3 { 9.3.6.G.H.5.6.e.y.3.<.=.' =.:.f s ",
";.4 N 5.*.;.3.e.u.i.i.y.G.G.4.3.>.| 0 @ > Z <.&.} s & h >.9.9.t.a.a.y.e.G.G.5.y.a.y.5.5.r.y.t.t.r.r.<.1.4.y.i.i.i.e.r.i.i.u.u.u.y.y.y.y.y.p.p.6X9Xa.a.a.9X9X9Xa.t.u.i.y.p.p.p.p.p.p.a.a.a.a.9X9X9Xa.6Xp.a.9X9X9XQ.Q.9X9Xa.p.p.a.6X6Xa.a.Q.Q.9X9Xp.p.a.9X9X6Xa.a.a.6X9X6X6X6Xa.a.y.a.a.a.a.a.a.a.a.y.i.y.i.i.i.y.e.3.r.a.a.a.i.y.y.a.a.a.a.a.a.y.I.+XH.D.D.D.G.C.-.=.<.y.y.r.y.y.3.<.6.r.6.<.6.y.i.u.t.e.3.3.3.e.e.u.i.y.r.r.3.<.y.a.i.i.i.i.a.a.y.t.p.p.p.p.a.p.e.e.a.a.p.p.6Xa.p.p.p.p.p.a.6X6X9Xa.9X9X6X6X6X6X6X9X9X9X9X9X9X9X9X9X9X9X6X6X6X6X9X9X9X6X6X6X9X9X9Xa.a.9X9X9X6X9X9X9X9X9X9X9X9XqX9X9X0X0X9X9X9X9XqXrXqXrX9X9X9X9X9X9X0X0X0X0X0X0X0X9X9X9X9X9X9X9X9X9X9X9X9X9X9X9X9X9X9X9X9X9X6X6X9Xp.p.a.a.p.u.u.p.p.p.p.p.p.p.p.a.Q.a.a.p.a.a.6X5X5X6X6Xa.a.a.a.6X6X6Xa.a.p.p.p.i.a.i.u.p.a.a.a.i.i.i.y.e.e.i.y.e.3.e.u.u.u.a.a.p.3.o.e.u.t.i.i.e.3.y.y.u.e.e.e.i.3.3.y.a.p.e.e.y.y.3.6.I.y.<.1.4.G.y.a.a.Y.I.I.I.&X*X$Xy.a.a.9XqXqXqXqX9Xa.a.a.a.p.p.p.a.a.y.u.u.y.i.i.a.a.a.e.e.i.a.a.a.a.a.9X9Xa.p.p.a.a.p.e.p.p.p.p.p.p.p.p.p.p.p.p.p.p.p.p.p.a.a.p.p.p.a.a.a.p.p.u.u.e.e.e.e.e.e.9.9.9.9.>.| | <.>.>.9.9.e.e.e.e.e.e.e.3.o.;.3.| | *.4.3.;.3.4.4.*.*.3.e.e.e.e.e.I.+XI.6.t.p.p.e.u.o.= = [ y.I.G.N * 3 { 9.9.e.y.+Xy.y.t.y.3.<.=.' W :.f s ",
";.4 Z 5.*.*.4.e.u.t.t.y.5.2.3.>.>.o.0 * > Z } } L 4 % h >.9.9.e.u.p.i.t.5.5.5.y.y.r.4.r.y.y.t.t.r.r.:.1.6.y.y.y.r.3.r.y.a.u.u.3.r.r.r.y.y.y.p.p.a.a.a.a.a.6X9X6Xa.a.Q.a.a.p.p.p.a.9X9Xa.a.p.p.p.a.9X9X9X9X9X9X9X9X9XQ.a.a.a.a.a.6Xa.p.a.9X9X9Xa.a.p.9X9X9Xa.a.a.a.6X9X9X9X9Xa.a.i.a.a.Q.a.a.a.a.a.a.y.y.t.t.y.y.r.6.r.a.a.a.a.a.a.a.a.a.a.a.y.y.I.I.I.5.I.I.D.1.-.=.:.6.r.y.y.y.r.4.r.y.r.<.<.r.i.u.t.e.3.3.3.e.u.e.3.6.r.r.6.6.y.y.y.y.i.a.a.y.t.t.t.t.t.i.a.a.u.u.a.a.p.p.a.a.i.t.t.p.p.a.a.a.a.a.Q.9X6X6X9X9X9X9X9X9X9X9X9X9X9X9X6X6X6X9X6X6X6X9X9X6X6X6X9X9X9Xa.9X9X9X9X9X9X9X9X9X9X9X9X9X9X9X9X0X9X9X9X9X9XqXqX9X9X9X9X9X9X9X9XrX0X0X0X0X0X0X0X0X9X9X9X9X9X9X9X9X9X9X9X9X9X9X9X9X9X9X9X9X9X9X6Xa.a.a.a.p.p.p.p.p.a.Q.a.a.p.6X6X6Xp.p.5X6X5Xp.p.a.a.a.p.p.p.a.a.a.a.p.p.p.p.a.a.p.e.u.p.a.a.a.a.a.i.u.e.u.u.e.3.e.u.u.u.p.p.t.3.3.e.u.p.i.u.e.e.t.y.u.e.e.e.i.u.y.y.i.u.e.e.y.r.<.<.5.D.4.1.D.I.a.a.a.Y.Y.I.I.U.%X$Xa.Q.9X9XQ.Q.9X9Xa.a.a.a.Q.a.a.p.i.i.u.e.t.u.u.p.p.p.a.a.a.a.a.a.a.a.9X9X9Xa.p.a.a.a.p.e.p.p.p.p.p.p.u.u.u.t.p.p.p.p.p.p.a.a.a.p.p.p.a.a.a.a.p.p.p.p.p.t.u.e.u.e.e.9.e.e.;.=.=.3.e.e.e.e.e.u.e.e.e.e.e.3.e.3.3.3.3.e.<.&.&.*.4.r.r.e.3.3.e.e.e.6.4.4.4.t.t.p.e.e.o.* $ C o.&.*.f o > { 9.t.t.I.&X+Xy.y.t.<.&.| ' =.:.h h ",
";.6 Z 5.*.<.r.e.t.i.a.y.y.6.e.e.e.>.0 * 4 | } L C 4 ; C o.9.u.p.u.t.p.a.I.I.5.r.y.6.4.4.r.y.t.y.y.5.1.4.y.y.a.y.y.y.r.i.a.a.u.3.3.3.3.r.y.y.p.p.a.a.9X9X9X5Xp.9X6X6X9X9X6Xa.a.a.9X9X9X6Xa.a.a.a.a.a.9X9X9X9X9XQ.p.p.p.a.a.a.a.p.p.p.u.p.p.6Xa.p.p.p.9X9X6Xa.p.a.a.9X9X9XqXqXqXQ.a.a.qX9Xa.a.a.a.i.i.i.i.y.y.y.y.y.r.y.y.a.p.p.i.p.i.i.a.i.p.i.y.I.I.I.y.y.y.4.1.:.:.1.<.r.y.y.y.r.4.r.i.r.<.<.3.u.i.i.r.r.r.r.e.u.<.3.3.r.y.y.y.y.y.y.t.e.e.e.e.u.t.t.u.u.p.t.a.a.a.a.a.p.p.p.a.p.t.t.p.p.p.p.p.p.a.a.Q.8X8X9X9X9X9X9X9X9X9X9X9Xa.a.6X6X6X9X6X6X6X9X9X6X6Xa.9X9X9X9X9X9X9X9X9X6X9X9X9X9X9X9X9X9X9X9X9X9X9X9X9X0X0X9X9X9X9X9X9X9X9X9X9X0X0X0X0X9X0X0X0X9X9X9X9X9X9X9X9X9X6X9X9X9X9X9X9X9X9X9X9X9X9X9X6Xa.Q.a.a.6Xa.a.a.a.a.a.p.p.p.6X6Xp.p.p.5Xp.p.p.p.a.p.p.p.p.p.p.p.p.p.p.p.p.p.p.p.t.t.p.p.p.p.a.i.y.i.u.i.i.e.3.3.u.i.p.p.p.t.e.r.e.u.u.u.e.e.3.3.u.u.e.e.y.i.u.e.u.u.u.e.t.y.y.<.*.4.D.D.C.C.5.y.a.a.a.a.I.G.G.I.$Xa.Q.Q.9X9Xa.a.a.a.i.a.a.a.a.a.p.a.y.y.y.y.y.u.i.a.p.a.a.a.a.a.a.a.a.p.p.a.9Xa.a.a.a.p.p.p.p.p.p.p.u.u.e.e.e.p.p.a.p.p.p.p.a.p.p.p.p.a.a.a.a.p.p.p.p.p.p.u.u.p.u.e.9.9.e.;.' D 3.e.e.e.e.e.e.e.e.e.e.e.e.e.3.3.3.3.e.3.*.=.;.3.y.r.e.3.3.e.u.e.3.4.5.I.p.p.p.e.e.o.= $ h ..} =.f o 3 ..e.e.y.I.&Xy.y.t.e.3.<.| } &.<.h h ",
"*.4 j 5.:.*.4.e.u.p.p.y.5.6.e.9.>.e.C * > h N h 4 * $ h o.>.9.p.p.e.e.p.+Xy.6.r.r.5.4.4.4.r.r.e.e.e.6.y.y.a.a.a.a.i.i.i.a.p.u.u.y.e.e.t.i.a.p.a.p.a.a.a.9X9X9X6Xa.a.a.a.a.a.9X6X6X9X9X6Xa.a.a.a.a.a.a.a.a.a.a.p.p.p.t.t.a.a.a.p.p.p.p.p.p.5Xp.p.u.p.9X6X6X6X6Xa.a.9X9X9X9X9X9X9X9X6X9Xa.i.i.i.i.p.i.i.i.a.p.p.t.r.4.<.6.y.a.i.y.y.y.y.t.t.p.y.4.Q C.I.y.y.y.y.6.<.<.4.5.5.4.4.4.<.<.6.r.6.3.3.3.r.y.y.3.e.e.e.e.r.<.e.t.y.y.y.p.r.r.r.y.y.e.3.e.t.p.p.u.e.p.a.t.p.p.p.p.p.p.p.a.a.p.p.t.p.p.p.a.p.p.p.a.9X9X9X9X9X9X9X9X9X9XQ.a.a.a.a.6X6X9X9X9X9X9X9X9Xa.a.6X9X9X9X9X9X9X9X6X6X5X9X9X9X9X9X9X9X9X9X9X9XqX9XqXqX0X0XqX9X9X9X0X9X0X9X9X9X9X9X0X9X9X9X9X9X9X9X9X9X9X9X6X9X6X6X9X9X9X9X9X9X9X9X9X9X9X9X5X6X6X6Xa.a.a.a.a.p.6X6Xp.p.p.p.p.p.p.p.p.p.p.p.a.a.a.p.p.p.p.p.p.p.p.p.p.6Xp.p.a.a.p.p.a.p.t.e.e.y.t.t.p.p.y.e.e.e.y.y.i.t.t.t.e.u.u.u.u.u.u.y.e.e.e.e.<.3.r.6.e.e.u.e.e.i.y.y.3.*.1.1.C.C.-.1.D.y.i.i.a.$XI.I.I.Y.a.6XQ.Q.a.i.y.a.a.i.p.p.a.a.i.y.e.3.e.a.a.p.p.p.p.p.p.a.a.a.a.p.a.a.u.u.y.a.a.a.p.p.p.p.u.p.p.p.p.u.u.e.e.t.a.a.a.i.t.p.p.a.9Xa.a.p.a.a.a.a.a.a.i.t.p.u.u.u.e.e.e.e.e.e.3.| | e.e.e.e.e.e.e.e.e.e.e.9.9.e.3.3.3.3.3.3.<.;.3.3.e.3.;.;.;.;.3.r.6.5.@XH.y.u.e.e.e...* . 4 j N s * . > o.9.e.t.y.@X+Xy.3.3.3.3.=.' =.<.h j ",
"*.6 h 4.*.=.*.3.u.i.y.y.5.6.e.e.e.y.) @ . o @ % o . o 0 >.9.9.e.e.e.u.p.y.y.G.5.r.5.4.r.r.r.r.r.r.r.y.y.y.a.a.a.a.a.i.i.p.t.t.t.u.e.y.a.a.p.p.a.a.9X9Xa.9X9X9X6Xa.a.a.a.9X9X6X6X6X6X9Xa.p.a.a.a.a.a.6X9XQ.a.a.6XQ.a.p.t.p.p.a.a.p.p.p.a.a.a.a.a.p.a.a.a.9X6Xa.a.Q.Q.9X9XQ.Q.a.a.Q.Q.Q.a.i.t.u.t.t.y.y.y.i.i.i.y.r.*.*.<.i.i.i.y.y.e.u.y.y.a.y.<.=.1.y.y.i.i.y.y.r.5.4.5.5.<.<.<.6.6.r.r.r.r.r.6.r.r.r.3.3.e.u.e.3.4.r.u.y.y.y.i.r.r.y.y.y.y.e.i.a.a.i.t.i.i.a.i.i.p.p.p.p.p.p.a.p.p.a.i.p.p.i.a.i.p.i.a.9X9X9X9X9X9X9X9Xa.Q.a.a.a.a.6X6X9X9X6X6X6X9X9X9X6Xa.a.9X9X9X9Xa.6X6X6X9X9X9X9X9X9X9X9X9X9X9X0X0X9X9X9XqX9X9X9X9X9X9X9X9X9X9X9X9X0X9X0X9X9X9X9X9X9X9X9X9X9X9X6X9X9X9X9X9X9X9X9X9X9X9X9X9X9X9X9X6Xa.a.a.a.p.a.a.6X6X5Xp.p.p.p.6X5Xp.p.p.p.a.a.a.6X6Xa.a.p.p.p.p.p.p.p.5X6Xa.a.a.a.a.a.a.a.u.e.e.u.p.i.p.p.i.y.u.u.u.i.y.i.p.u.p.p.y.t.t.t.u.u.i.u.u.r.4.*.<.<.3.e.y.y.y.y.y.y.r.6.4.5.D.4.1.=.*.r.i.a.a.Q.Y.I.I.Y.a.a.9XQ.a.y.a.a.a.i.y.a.a.a.t.3.3.<.3.t.y.a.p.p.p.5Xp.p.p.a.i.p.p.p.t.t.t.i.p.p.p.p.p.p.p.p.p.p.p.p.u.u.u.p.i.i.a.i.p.p.a.a.a.6X6X6Xa.a.a.a.p.p.u.u.u.p.p.p.e.e.e.e.e.e.e.3.o.e.e.3.3.3.e.e.u.u.u.e.e.e.e.3.;.3.e.e.3.3.3.r.r.3.3.3.;.;.;.;.<.<.G.@XG.e.e.e.9.e.[ * . o * * $ . . > o.>.e.t.y.&X$Xa.t.t.e.3.;.O.=.<.h j ",
":.s h <.=.O.;.;.e.i.y.4.4.4.3.e.e.e.) > @ @ * > > > 3 C >.9.9.e.e.e.e.e.e.6.1.:.:.<.<.r.r.6.6.6.y.6.r.y.y.a.a.a.a.a.y.u.t.p.p.t.t.u.u.t.p.p.p.p.a.a.9X9X9X9X9X9Xp.p.a.9X9XW.6X6X6Xp.a.p.p.p.p.p.a.a.a.9Xa.a.a.a.6Xa.a.p.p.p.a.a.p.p.p.a.a.a.a.a.a.a.a.a.9X9Xa.a.a.Q.Q.a.a.Q.a.a.a.Q.9X9Xa.a.p.p.y.y.y.y.y.a.a.y.y.r.6.r.y.t.y.y.y.u.u.y.y.y.y.y.6.6.y.t.i.a.i.i.4.<.4.4.6.r.r.i.y.i.e.e.r.y.y.r.4.6.6.3.3.e.y.y.3.6.i.u.e.y.y.i.r.r.r.r.y.y.r.i.a.a.t.p.a.a.i.i.a.a.u.p.p.p.a.i.p.p.a.a.p.p.a.a.a.p.i.6X9X9X9X9X9X9X9X9Xa.a.a.i.a.6Xa.a.a.a.6X6X6Xa.a.6X6Xa.a.a.Q.9X9Xa.p.p.6X6X6X9Xa.a.a.9X9X9X9X9X9X0X9X9X9X9X9X9X9X9Xa.a.9X9X9X9X9X9X9X9X9X9X9X9X9XQ.9X6X6X9X9X9X9X9X9X9X9X9X9XQ.9X9X9X9X9X9X9X9X9Xa.i.a.a.a.p.a.6X6X5X5Xp.p.p.6X6Xp.p.p.5X6X6X6Xp.5X6Xp.a.i.p.p.p.p.p.p.p.p.6X6Xp.p.a.a.a.a.p.u.u.u.p.p.a.a.a.i.y.u.e.e.r.y.y.u.p.i.t.e.t.p.e.t.i.t.u.i.r.*.=.<.<.3.y.y.y.y.y.e.y.y.y.r.r.6.6.<.<.y.i.a.a.a.a.I.y.y.Y.a.a.a.y.y.y.a.a.i.y.a.a.a.p.3.3.3.e.e.t.a.p.a.5X5Xp.p.p.p.i.p.p.p.p.p.p.i.t.p.p.p.p.p.5Xp.p.p.p.p.p.i.u.u.u.p.i.a.p.p.p.a.a.6X6X6X6Xa.a.a.p.u.u.e.u.u.p.p.u.e.e.e.e.e.e.e.3.e.e.e.>.3.e.e.e.e.e.e.e.e.e.3.o.3.e.e.3.*.<.4.4.<.3.3.3.;.} } =.*.1.H.A.3.3.e.9.e.o.h 3 > > * @ @ @ 6 o.3.3.3.6.I.I.y.t.e.e.3.=.' =.<.h h ",
":.s f :.=.T =.;.3.t.3.4.1.2.6.y.y.y.3...{ ....o.o.X.{ o.>.o.3.e.y.y.u.e.e.<.Q E =.*.<.3.4.<.<.<.5.6.r.y.t.t.i.i.a.y.3.3.t.a.a.p.i.y.e.e.t.p.p.p.a.a.6X9X9X6X6X6Xp.a.9X9XQ.a.a.a.a.a.p.p.p.p.p.p.a.a.a.a.a.a.a.p.Q.Q.p.p.p.8XQ.a.p.p.p.p.p.p.p.9X9X6XQ.6X6X6Xa.i.a.Q.a.a.a.6X6Xa.a.6X9X9X9X6X5Xa.y.e.e.t.i.i.p.t.i.y.y.y.y.u.r.r.y.y.i.y.y.y.y.y.y.y.y.i.i.a.y.r.*.:.1.4.5.r.y.y.y.y.u.3.3.r.r.4.<.<.5.6.3.e.r.6.<.6.r.e.e.r.y.a.t.e.e.t.e.e.r.y.t.u.t.p.p.p.p.p.p.a.p.p.p.p.p.i.y.u.y.i.i.p.p.p.p.p.p.a.6X6Xa.a.a.6X9XQ.a.a.i.t.i.a.i.i.a.a.a.a.a.p.i.i.a.a.i.a.a.a.a.i.u.p.i.a.p.a.i.i.y.a.9Xa.a.9X9X9X9X9X9X6Xa.a.a.y.y.y.a.Q.Q.9X9X9Xa.9X9X9X9X9XQ.a.a.6Xa.a.a.a.a.a.a.Q.9X9Xa.a.6X9X9X9X9X9X9Xa.a.a.i.i.a.a.p.a.6X6X5Xp.p.p.6X6X6Xp.p.p.6X6X6Xp.p.p.p.p.p.p.p.p.p.p.p.p.p.p.p.a.p.p.p.u.p.p.p.p.p.p.u.u.p.i.i.i.u.e.3.3.3.e.i.u.i.t.e.3.e.e.e.t.t.u.e.y.6.1.:.1.<.<.3.r.r.6.3.e.t.y.y.y.e.r.y.r.6.y.y.i.a.a.a.y.5.y.y.a.y.t.6.4.r.y.a.i.a.a.a.a.a.t.i.y.y.t.u.p.p.p.p.p.p.p.p.t.i.p.p.p.a.a.p.i.p.p.p.p.p.p.5Xp.p.p.u.u.t.u.e.e.e.e.i.i.p.p.p.p.p.p.p.a.a.p.p.p.p.u.e.t.t.u.e.e.e.e.e.e.9.e.e.e.3.e.u.t.9.9.e.u.e.e.e.e.e.e.9.3.;.3.3.3.*.*.*.*.*.<.3.;.3.<.&.J D W -.G.F.<.3.3.3.3.;.| o.....{ ) ) ) ..3.3.3.6.6.y.y.e.e.3.3.;.' D =.1.f f ",
"<.6 f :.=.T =.*.3.e.3.1.1.1.<.4.4.3.e.e.u.e.e.e.e.e.>.,.,.o.<.4.r.r.r.e.6.:.E E =.:.<.3.3.*.:.1.4.4.6.e.u.u.e.r.r.y.6.3.3.y.y.p.i.i.e.e.t.t.t.p.a.a.a.Q.Q.a.a.a.a.a.Q.Q.a.a.a.a.a.a.i.i.t.t.p.p.a.a.a.p.p.p.a.a.a.Q.p.p.a.a.9Xa.a.a.a.p.p.p.p.a.9X6X9Xa.a.a.a.i.y.a.a.a.a.6X6X6X6X6X6X9X6X6X5Xa.i.e.e.t.i.i.p.p.i.p.p.y.y.y.6.6.3.y.i.y.y.r.y.y.a.a.i.i.y.y.e.r.5.4.-.4.r.y.y.y.t.y.r.e.3.3.4.4.:.:.5.4.6.6.4.<.4.6.r.e.3.3.y.a.r.3.6.r.3.<.6.y.e.3.t.t.t.p.t.u.t.i.p.p.p.p.i.i.y.e.r.y.i.p.t.p.p.t.p.p.a.a.a.a.i.a.a.a.i.y.e.e.y.i.e.e.y.i.i.i.i.i.u.u.i.i.i.i.a.a.a.i.e.u.y.i.t.y.y.r.e.i.a.a.i.a.a.a.a.a.a.i.i.y.I.y.6.6.r.y.i.a.9Xa.a.a.Q.9X9Xa.a.a.a.a.y.i.e.e.y.i.a.a.a.Q.a.a.a.a.a.a.a.a.a.a.a.a.y.i.a.a.p.i.a.6Xa.a.a.a.a.p.p.p.p.p.a.6Xa.a.a.a.a.i.t.t.t.p.p.p.p.p.p.p.i.i.i.p.u.e.e.p.p.p.t.t.u.e.u.u.i.r.e.3.3.4.<.3.r.y.y.e.3.&.3.3.3.3.3.3.e.y.6.<.=.<.6.r.r.6.<.<.<.6.6.y.y.y.3.r.y.r.r.r.r.y.i.p.a.y.5.<.5.y.r.r.6.<.<.5.i.i.i.a.a.a.a.a.i.i.a.t.e.e.p.p.p.p.p.i.t.u.u.i.a.a.a.a.i.y.i.a.a.p.p.p.p.a.a.p.e.3.3.e.3.3.3.3.y.a.p.p.t.t.p.p.p.a.a.a.p.p.p.u.u.t.t.t.e.3.>.>.e.e.e.u.e.e.3.e.p.p.u.e.e.e.e.e.e.e.3.3.,.;.*.3.*.*.*.=.=.=.=.<.4.;.;.<.*.=.D V E C.Z.1.<.<.;.| | 3.3.,.o.,.,.o.o.o.e.y.I.I.y.6.3.e.3.3.3.&.} D =.1.f f ",
"4.f f :.+.T #.*.3.3.*.=.1.1.=.=.*.<.3.3.e.e.3.3.o.o.3.3.;.| =.=.-.-.*.<.-.Q E W *.*.<.3.3.:.:.-.-.:.6.y.y.y.r.r.r.y.y.6.4.3.e.e.t.u.i.y.y.y.e.t.y.i.a.a.a.i.y.i.a.Q.Q.a.a.p.i.a.a.i.y.t.t.t.t.i.a.a.a.t.t.i.y.y.y.i.p.a.a.a.a.a.a.a.i.i.t.t.y.a.a.a.a.y.i.a.y.y.r.y.y.a.a.a.a.a.a.a.a.a.a.a.a.y.y.3.6.y.y.r.e.r.i.a.y.y.r.r.5.<.3.y.a.a.y.6.y.Y.Y.Y.y.r.r.6.3.r.I.D.-.:.6.y.y.y.y.r.6.r.6.4.4.:.-.:.4.4.5.5.*.:.D.4.r.r.5.<.<.r.4.<.<.4.<.:.<.r.r.3.r.e.e.y.y.3.3.e.u.u.y.i.y.y.r.4.6.y.i.e.e.r.y.t.t.t.y.y.i.y.y.y.i.y.y.e.3.3.e.r.3.3.3.r.e.u.i.r.3.3.e.e.3.r.i.i.y.i.e.e.e.e.3.6.r.3.3.3.r.y.i.i.y.i.i.y.i.r.4.4.4.4.<.4.1.<.e.i.a.i.t.y.a.a.a.i.y.y.y.a.y.3.;.<.6.u.y.a.a.a.a.y.a.a.a.a.i.y.i.i.a.a.y.y.a.a.a.a.a.a.i.a.a.a.a.p.t.p.p.p.i.a.a.i.i.i.i.t.e.e.t.t.u.u.t.p.p.p.y.y.i.u.e.3.3.e.t.t.e.r.e.e.e.r.6.3.3.3.4.<.*.*.4.y.y.r.<.*.*.*.*.=.*.<.<.<.1.=.=.<.y.y.r.:.-.:.:.<.5.y.y.4.<.4.5.r.r.4.4.6.r.u.p.y.4.4.5.5.5.y.5.<.1.4.r.r.r.r.e.u.t.i.y.y.y.e.e.e.u.t.p.i.i.y.i.e.u.y.i.i.e.r.r.e.y.a.a.p.p.p.a.a.i.r.*.=.*.<.<.<.1.4.y.y.y.y.y.t.e.e.e.u.y.y.t.t.u.u.u.e.e.3.;.&.o.;.3.3.e.e.e.3.<.e.u.p.t.e.3.;.3.e.3.3.<.&.&.*.<.4.4.<.*.*.+.=.T *.<.*.*.*.*.O.H H P E k.Q -.=.=.} } ;.3.3.;.3.3.;.o.o.3.I.I.I.y.e.3.e.3.3.;.&.| ' =.1.f f ",
"4.s f :.=.R O.*.*.3.$.W Q Q =.=.&.*.;.;.3.;.;.;.o.o.| | | D B P P R V T E I E =.;.;.*.3.*.:.:.Q W Q <.r.y.r.3.3.<.6.r.r.r.3.3.3.e.e.y.y.y.y.e.r.e.y.y.a.a.y.i.y.a.Q.Q.a.y.t.y.i.y.y.y.e.e.e.t.y.y.a.y.t.e.i.i.r.r.e.y.a.a.a.a.a.i.i.y.r.6.4.6.y.a.y.y.r.r.I.I.D.4.<.4.r.y.y.y.y.a.a.a.a.a.a.i.r.<.1.4.5.4.*.<.5.y.y.3.6.4.4.4.<.3.y.a.a.y.6.r.y.y.y.y.6.<.<.6.r.5.4.1.1.5.r.y.r.r.6.6.5.5.5.4.:.Q -.:.5.y.5.*.+.V.D.P.I.D.:.+.<.:.:.1.:.:.:.:.4.4.P.r.4.r.r.r.<.*.4.r.r.r.r.y.r.4.<.6.r.r.4.4.r.r.r.r.r.e.t.y.t.e.e.y.y.r.3.;.;.3.3.<.*.3.3.3.e.e.e.;.;.*.*.*.*.3.r.r.3.;.;.;.;.| =.&.*.<.<.3.r.4.3.4.3.;.3.3.3.*.=.=.+.:.1.+.=.;.e.u.e.e.e.i.y.u.e.e.r.i.i.r.3.;.*.3.e.u.i.a.a.i.u.i.a.i.y.y.t.t.y.y.y.y.y.i.i.a.y.t.u.e.u.i.i.i.u.u.t.t.t.t.p.p.p.u.e.e.3.3.r.r.r.3.e.i.p.i.t.y.r.r.3.*.*.*.3.r.r.4.4.3.4.r.r.<.<.*.*.<.:.=.&.<.r.r.4.<.1.:.=.T Q -.+.=.:.:.+.*.4.y.y.4.*.-.-.-.1.5.5.<.*.:.<.<.6.<.*.*.4.r.t.t.r.4.1.4.4.5.5.<.:.:.<.1.:.:.<.4.6.r.y.y.y.y.3.<.<.e.y.y.i.y.i.r.r.e.r.y.r.<.*.<.3.r.i.i.t.t.i.p.t.y.r.*.=.=.+.-.-.-.-.5.r.4.r.y.y.3.;.;.3.e.y.y.u.e.e.e.r.6.*.=.O.*.4.4.4.3.3.3.*.&.3.3.e.i.3.&.=.*.3.:.:.:.=.T =.*.*.<.*.=.=.:.O.R O.*.<.3.&.=.T H H P E Y I E P H ' | | | ;.;.;.3.;.} ..3.I.H.2.6.3.>.>.o.o.;.&.=.' =.1.f f ",
"6.s s :.W H =.:.:.:.:.-.-.-.-.&.*.*.3.3.;.*.3.3.3.o.&.&.} O.T W W E E P I P P W +.=.=.:.*.+.W E E Q *.*.*.$.=.W W -.:.:.*.*.*.*.*.<.<.3.4.4.4.4.4.4.5.5.<.<.<.4.6.r.r.r.6.6.6.4.<.<.<.<.<.4.3.3.3.3.<.:.:.<.4.4.1.*.<.6.y.r.6.4.5.5.4.4.:.-.-.1.4.4.<.<.5.5.D.D.-.-.-.:.:.-.:.<.D.5.<.<.5.r.5.<.*.:.:.:.:.+.+.:.:.:.:.:.:.:.:.:.4.y.y.y.r.6.5.5.4.4.<.*.:.:.:.:.1.1.-.:.:.:.:.4.:.+.-.:.C.B.Q E E Q +.1.D.:.-.-.-.1.D.D.B.-.Q Q Q Q Y E Y Y Q -.-.B.:.:.:.4.:.&.=.O.:.4.4.4.4.4.1.1.<.4.4.:.:.:.:.1.1.:.4.4.4.6.4.<.:.:.=.=.=.=.=.=.=.=.=.=.&.*.<.*.=.D V T =.&.&.*.*.&.=.O.D H H O.=.=.W W W =.=.=.+.=.T W =.=.R B B R W E P E W =.=.=.=.&.*.&.&.&.&.-.:.:.:.*.=.=.&.*.*.*.3.3.3.3.i.y.y.r.r.4.*.4.6.5.<.*.<.r.y.y.6.;.=.;.r.r.e.3.3.3.*.;.;.r.r.r.4.*.=.=.=.:.1.*.=.*.r.r.r.4.:.*.=.=.=.W W =.:.:.=.=.-.Q +.Q R R E W E E W +.-.+.+.+.Q E E E P E E Q Q Q +.-.:.1.4.1.:.+.+.+.-.-.1.-.-.-.+.-.:.:.:.+.+.-.4.4.<.:.:.-.-.C.1.:.Q E W +.:.=.=.=.*.:.<.<.<.<.:.:.:.&.*.3.5.I.5.4.:.&.:.5.D.4.+.+.+.=.:.<.5.r.5.r.r.6.<.=.W W E E E E E Q -.1.1.D.I.I.4.=.W =.=.1.1.*.=.*.<.4.4.:.=.R E :.:.:.:.-.+.+.=.=.:.<.:.=.=.=.+.:.+.W R R R W W W +.+.W W T T T H V *.&.O.=.T N g j E Q P P E +.*.&.;.;.;.3.3.,.| | | | <.<.<.<.;.3.3.,.o.&.&.*.&.=.:.h s ",
"6.f s :.T h j H V V H H H B j N Z D [ Z Z Z Z Z C h N Z g g j P P P j j g B R W T T =.=.=.T R R W :.:.:.:.:.1.C.C.C.1.:.:.:.:.:.:.*.*.:.1.1.4.4.4.4.4.4.1.:.<.1.4.4.4.4.<.<.1.:.:.:.1.<.<.:.:.<.4.4.4.1.1.D.D.1.1.1.4.5.D.5.4.4.D.G.D.1.1.-.-.1.1.1.1.4.4.D.D.D.C.C.C.C.1.1.4.D.I.D.5.5.5.D.D.D.D.D.D.D.1.:.:.1.1.1.1.1.C.C.D.4.5.y.r.5.<.5.D.D.D.D.D.D.4.4.4.1.1.C.C.C.D.4.5.D.D.1.1.D.D.C.1.C.C.C.1.C.D.D.F.C.C.C.C.D.C.-.-.-.-.-.-.Q -.B.B.B.B.-.-.-.:.:.:.:.-.-.:.1.1.:.:.:.1.4.4.4.4.1.:.:.:.:.:.4.4.4.<.<.<.:.:.+.+.-.:.:.-.=.=.=.=.=.=.&.&.=.=.=.=.=.:.:.:.:.*.=.=.=.W T =.:.:.:.-.+.=.=.W Q +.=.W W +.+.=.W Q -.B.-.E E W W O.=.=.=.=.=.W O.+.:.:.:.:.+.W T T =.=.:.:.*.:.<.4.4.4.4.<.1.:.<.4.4.4.:.:.<.5.5.6.*.*.*.:.<.<.<.<.<.:.:.<.6.r.y.5.<.*.*.:.<.4.<.:.:.4.4.<.*.=.=.W W W W Q -.:.:.-.+.+.+.-.=.W -.-.-.-.:.:.1.1.:.:.:.:.+.Q Q E +.+.-.:.1.D.D.D.4.4.4.4.4.4.1.:.1.1.1.1.1.-.-.:.:.:.:.:.:.4.4.1.1.D.D.F.D.C.C.-.-.-.1.4.:.-.-.:.1.4.1.1.1.1.1.:.:.:.:.4.4.4.4.:.1.D.D.4.4.-.-.-.+.:.1.4.4.1.:.:.:.:.-.-.-.-.Q Q Q Q C.C.F.C.D.F.D.1.-.-.-.:.1.1.1.1.1.4.4.4.4.1.+.Q Q +.-.-.-.-.1.1.1.<.<.:.*.=.=.+.-.-.+.+.+.-.:.:.:.:.+.W W =.+.=.O.W =.=.=.T =.O.H g i i P P R R H H [ _ _ [ [ [ [ | | ' [ D D [ | [ [ [ Z D ' ' H T &.s s ",
"6.h 4 &.D f h h j j j g f f s f j C f 6 4 4 4 4 6 4 , t t t u f g g g f g H R W T H W W +.+.+.:.D.I.G.G.F.G.H.H.H.F.F.D.D.D.D.G.G.D.F.F.D.G.G.H.G.G.G.G.D.G.G.G.G.F.F.D.F.G.D.D.D.D.G.G.G.D.5.5.G.G.G.G.G.G.G.F.D.D.G.I.I.I.G.D.G.U.U.G.G.F.F.G.D.D.D.G.I.I.I.G.G.G.D.D.D.D.D.G.G.D.D.G.G.G.D.G.G.G.G.D.D.D.D.1.4.D.D.G.G.G.D.G.D.G.D.5.4.D.I.U.I.G.G.G.G.G.D.D.D.D.D.D.D.G.G.G.D.D.D.G.G.G.I.I.U.U.I.I.I.I.U.U.G.G.G.G.G.G.G.F.F.G.G.F.G.H.H.H.F.D.4.4.4.5.D.G.G.G.G.G.G.F.D.F.G.G.I.I.G.G.D.D.D.D.P.I.G.G.G.G.G.G.D.D.D.D.D.D.D.4.4.4.D.5.4.4.<.:.4.4.4.D.D.D.D.D.4.4.4.4.4.4.4.4.4.D.4.1.:.:.:.4.4.4.4.4.:.:.1.1.1.4.D.D.:.-.+.:.:.<.<.4.:.:.:.:.D.D.D.D.4.4.:.:.:.:.D.D.D.D.D.G.G.I.I.G.G.G.D.D.D.I.I.P.D.r.5.5.P.5.4.:.<.4.5.5.5.5.5.5.D.I.I.I.I.5.4.4.4.4.5.5.5.5.4.<.<.:.:.:.:.:.:.:.1.C.D.D.C.:.:.4.4.4.4.4.D.D.D.P.P.I.G.D.D.D.D.D.4.D.D.:.:.1.D.D.I.I.G.D.D.5.5.5.D.D.D.4.<.4.4.4.1.1.D.D.D.D.D.D.G.G.D.G.G.U.H.G.G.D.D.D.D.G.G.D.D.D.D.D.D.D.D.D.D.D.D.D.D.G.G.I.G.G.G.G.G.D.4.4.4.4.D.C.D.D.D.D.D.D.D.D.D.D.D.D.C.C.C.C.C.C.D.D.F.F.D.1.1.:.:.D.D.4.4.D.D.G.G.D.G.G.G.4.1.:.:.1.1.1.4.D.D.D.D.5.4.4.4.4.4.4.4.4.D.D.D.4.4.4.4.:.:.4.D.4.4.<.*.W T T W =.=.D g g B g g d f f s f s s f 6 6 f h h j h h h f h h f f f f f g g H &.f s ",
"<.f 4 &.O.Z ' Z H D D N N j N Z } } ' Z Z Z Z ' ' _ D H j g B H R T T O.D D T W R j R 1.D.D.4.4.4.:.=.=.T W =.=.W R V H H D D =.=.=.T T T T T O.O.T T D D T =.=.W T T T T T T T T T T T D D D D D J T T T D H H H H D D D D Z N H H H D D D T D H Z H H D D D D V H H Z N N N N N N N Z N N N H H H H H N N N N N H D T T O.T T T D ' D D O.O.O.=.' T D T T T D D D D D D D D D H V H H H V D ' } =.=.} ' O.O.D H D D O.=.=.=.T T T T T T T T T H N N N Z Z N Z D D D H D H H H T T =.' D D D D H D ' ' D D D D D H Z H H H D D D D D ' ' ' ' Z Z Z Z H D D ' ' #.| ' ' ' ' ' ' ' ' ' ' D Z N N H H H D ' D D D D D D D D H Z j j Z D ' D H Z Z Z Z H ' ' O.O.O.' H H D ' =.O.O.' =.&.=.=.=.=.=.=.=.=.=.=.O.O.' ' ' ' ' ' Z ' ' ' ' ' ' ' ' ' ' ' ' ' Z Z Z Z Z Z D D Z N N N Z N N N N Z Z H H H H H H H N N N N N N H N N H H H H H H H H H H H H H H H ' ' ' D D N N H H H D H H N N N N j N H H H D D D H T H H H H H H N N N N N N H N H H H N N H H H H H N N H H H H H N V D H N N N H H H H H N N N H D H H H T T T T R R H T T O.T T D H N g g N H N N H H H D D R D D D N N N N N N N N N D H Z Z N Z N N H N H N N N N N N N j j N =.<.5.5.<.:.=.=.W =.=.=.=.D V D O.T ' D H N j j ] [ C C C j j Z ' ' ' [ Z j f g g d g g j W :.h f ",
";.6 6 *.&.O.=.O.O.=.=.D D T D ' =.&.&.=.| } } | &.&.&.=.V R W =.=.=.&.=.=.=.W W R R -.D.4.*.D C f 4 4 4 , , , > > * * * * > > > > > > > > > > > * * * * * * > * * * * * * * * * * * * * * * @ * * * * * * * * * % $ @ * % * * * * * * * * * * * * @ * * * * * * * * * * @ @ o o o o o * * * * * * * * * . . . o o o $ * * * * * * * * * * @ @ @ @ @ o o $ $ $ * * * * o o o * * * * $ $ $ % % * * * * * * * * * * * * * = = * * * % & & & & % * * * * * * * * * * * * * = * * * * * ; * * > * * * * * * * * * * * * * * * * * @ * @ * * * * * * * * * * @ * * * * > = = * * * * * * * * * * * o * * * * > * * * * * * * * * * * * * * * * * * * * * * * * * * * * * * * * * * * * * * * * * @ @ @ * * * * * @ @ @ o o @ @ o o o . @ @ @ @ o o o o o o o o o X o o o o o o o o @ @ o o o @ @ o @ $ o @ $ $ $ $ $ o o o $ $ $ $ % $ $ $ $ $ $ $ $ $ $ $ $ $ $ $ $ $ o o o $ $ o $ $ $ $ $ $ $ $ $ $ . $ * * $ $ $ $ $ * o o $ $ $ o o * * * * $ % * * * * * * * * * * * * * * % * * * * * * @ * * * * * * * * * * * % % * $ $ % $ $ $ $ * * @ o o o o o o o $ $ $ $ $ $ $ % % * * * * * * * * * * * * * % * * * * % % * * * * * * * * * % % % * > 4 j } *.4.5.1.-.-.=.=.=.=.=.=.=.} | =.=.' Z D ' | o...[ C N ' &.&.*.;.} Z H H H j j j H +.4.h f ",
"<.6 4 :.*.T O.O.=.=.T R R T O.=.=.&.;.o.| =.=.| &.&.<.*.W =.*.;.&.;.;.;.*.+.-.Q W -.4.1.D 6 > @ @ * @ @ @ @ o o o o o o o o X X o o o o o o o o o o o o o o @ o o o o o o o o o X o o o o o X X o o o o o O o o o o o o o o o o o @ @ O o o o O O + O O O O O O O o o o o X o o o X X X X X X X X X X X X X X X X   X X X X X X X X X X X     X X     X X X X X X X X X X X o o O O o o o o o o @ @ o o o o o o o o @ @ @ @ O o X o o o o o O o o O @ O O O @ @ @ @ @ @ @ @ O O o @ @ O O @ @ @ O O @ @ @ O O O O o o o o o o @ @ @ @ * @ @ @ @ @ @ @ @ o o o @ @ o o o o o o X o X . . . . . . . . . . . . . . . . . .     . . . . . . . . . . . . . . . . . . . . . X X X X X X X o O o o o o o o o o o o o o o o o O O X X X X X X X o o o o X o o X X O X X o X o o X o o o o o o O o o o o o o o X X X o o X X o X X X . . . . o o o o o o @ o o o o o o o O o o o . o X o X X X X X X X . . . . . X X o o X X o o X . . X X X X o o o o X . o o @ @ o o o O O o X X X o o o X X X X X X X X X X X X X o o . . . . . X X . . o o o o o o O O o o o o o o o . . o o o o @ @ o o o o @ @ O O o o O o o o o o o o o o @ o o o o @ o o o o . . X o > 4 C &.D.D.1.:.+.=.*.:.*.| | | ;.;.;.} D [ ..o.o.| [ D } =.&.<.;.| ' ' O.T T H H B +.4.f f ",
"y.6 4 :.+.R W =.=.W E R E E W O.=.&.;.;.3.*.*.=.&.*.<.<.$.*.3.3.3.3.e.3.:.W -.B.Q :.W s > o O O O @ @ - > > - 3 5 9 9 9 5 5 7 6 5 7 7 7 3 3 3 3 3 3 3 3 3 3 3 3 3 3 3 3 7 7 5 5 3 3 7 7 7 7 3 3 3 3 3 3 3 5 6 6 4 3 3 6 6 4 3 3 7 0 0 0 0 0 0 0 0 0 0 0 9 9 0 0 9 0 0 0 0 9 6 6 9 6 7 7 7 7 7 6 9 9 9 9 9 0 0 9 9 5 9 9 9 5 9 9 9 6 5 5 9 7 7 6 7 3 3 7 5 9 9 5 5 5 9 9 9 6 6 6 6 5 7 7 9 6 6 6 6 6 6 4 4 4 4 6 6 6 6 6 7 3 3 3 7 7 7 3 7 7 7 5 7 7 3 3 3 3 5 3 3 3 3 > > > * * > > > > > ; > * * * * > 3 3 3 3 > > > 3 > > * ; > > > > > > > > > > > > > * * * * * * * * * * * * * % $ $ $ $ $ $ $ % % $ $ $ $ % % $ o . . . o o o $ * % $ o o o o o o $ % $ o o $ * % & * & $ % * * > > > > > > > > > > > > > > > 3 3 > > > > = > * > 3 6 6 6 6 0 0 9 6 6 9 9 9 9 9 9 7 3 3 3 3 4 6 6 6 6 6 6 0 0 9 5 7 3 3 7 7 5 6 6 4 3 > > 3 3 4 0 0 9 5 9 0 c 0 6 6 9 9 6 9 9 6 6 6 5 9 9 5 3 3 3 3 3 3 4 4 4 3 3 4 6 6 4 3 3 3 3 > 3 5 5 6 6 5 6 0 6 5 3 3 5 6 6 6 6 6 5 5 5 6 7 3 3 6 6 6 4 3 3 3 7 5 9 7 7 3 3 3 3 3 7 3 3 3 3 3 4 4 6 6 0 0 6 6 6 0 0 0 6 7 6 6 6 6 3 > 4 4 3 5 6 6 6 5 6 6 5 6 6 6 6 3 3 3 6 7 3 6 6 9 5 6 9 0 0 9 5 7 0 6 > * @ @ o o X X o * s T 1.G.D.-.W =.:.:.;.;.3.3.3.3.;.=.' | o.o.| =.=.} } ;.3.;.;.| } &.*.W H H j O.4.f f ",
"5.h 4 *.+.P R Q E I E P P W T D } } &.3.<.<.<.&.&.;.e.r.<.&.3.e.e.e.r.4.=.P I Q -.C 3 X o X X O > 3 6 C ) C h Z <.6.3.3.>.o.>.3.3.3.e.e.e.e.o.9.9.9.9.o.o.o.o.9.9.9.9.o.o.o.>.X.{ { X.X.X.o.o.X. .) )  .X.{ ......[ ..o.o.o.) ) ) o.>.o.>.o.o.o.9.9.9.>.o.o.o.o.o.o.o.o.o.o.o.9.9.o.o.o...) ..>.9.9.o.o.o.9.e.9.>.o.X.X.o.o.o.o.o.o.o.o.X.{ X.o.X.) ( ) X.X.o. .)  .o.o.X.X.) X.X.X.X.X.X.X.X.X.X.o.o...) C [ | | ) ) ) ) ) ) C  . . . .) ( ( X.X.X.X.X.X.X.X.X.X.X. .) ) ( ( ( ) ) ) ) ) ) ) ) ( 0 0 ) ) ) ( ( ) ) ) o.) 3 @ @ * @ * * * * * * * * * * * * * * > > > * > > * > > > > > > > > & & * > ; & & & % % ; > ; % @ % % % * > > > > > ; > > > > = = = = * = > = > > = * > > , > > , , , < , 4 4 6 4 4 4 4 6 6 4 4 3 3 4 6 6 3 6 0 C )  . .X.X.X. . .o.o.) ) o.o.o.) 0 ( ) ) 0 h N N [ 3.e.o.o.o.{ ) ) { ..o.o.o.o.o.) h h ) o.7.o.X.)  .o.o.o.X.) ) ) X.X.X.o.X. .X.9.9.>.{ ( ) ) ) ) ....| L 0 C ..) ) ) ) 0 0 C ) { { ) ) { o.>.o.| ) c ) { o.{ ) ) ) { X.o.o.{ { o.o.o.{ { ) ) ) { X.o.X.X.X.) ) ) X.) ) ) ) [ ) ) ) ..o.o.) ) ) X.X.X.X.) ) ) ..{ ) C C C ) { o.o.o.o.o.X.X.X.o.o.o.X.X.o.o.X.X.o.o.o.X.X.X.o.7.o.X.{ { ) 5 9 0 9 > @ @ @ o o o = j 1.G.G.+.W +.<.3.3.e.e.3.3.e.3.| | ;.;.| =.*.=.W =.:.&.=.' } $.=.=.T j g R *.f h ",
"4.h 4 *.+.k R E E E E E R R T &.&.=.&.;.;.*.<.<.3.3.e.e.e.<.3.e.e.e.3.*.W E E Q f @ + X   O 3 6 0 0 0 0 C [ Z Z } <.3.3.3.3.e.y.y.e.e.y.i.t.u.i.9Xa.p.u.t.p.a.i.p.p.a.p.9.e.e.>.o.o.o.o.o.o.o.X. . . .X.X.X.o.o.o.o.o.e.o.o.o.o.o.o.3.e.e.9.o.o.e.p.e.9.9.9.9.o.o.9.9.9.9.9.9.e.e.9.9.9.o.X.o.9.9.9.9.o.7.9.9.e.9.9.X.X.o.9.9.7.o.X.X.X. .X.X.o.o.) ( (  .X.X. . . .X.X.X.X.X.X. .) )  .X.X.{ X.X.{ ) ) ) C ) [ | | ) ) ) ( 0 0 ) X.X.{ ) ) ) { o.o.{ o.o.o.o.o.o.X.X.X.X.{ ) ) ) X.X.X.X.X.X.X.) ) ) ) ) ) ) )  .X. .o.) 3 X       . . . . . . . . o o o @ @ o o o o X o o o o o o X X X X X . . . . . . . . . . . X . . . . . . . . . .               X . . . . . . X o o . . X o o o o o o o o o * @ * ; > 3 3 6 6 6 6 6 6 4 4 6 9 0 ) ) ) o.o.o.o.{ X.X.o.o.X.X.X.o.X.X.) ) ) ) 0 6 Z [ o.i.p.u.9.9.o.o.X.o.o.o.o.o.{ ) ) C C ) o.o.o.X.) X.o.o.o.o.) ) ) ) X.o.o.X. . .X.9.o.{ ) ) C C ) { | | C 0 c ) ) ) ) ) 0 0 0 ) X.X. .)  .X.X.X.) ) c ( ) ) ( ( ( ( ) ) ) ) ) )  . . . . . . .) X.X.X. . .) ) ( ( ( ) ) ) ) ) C C { o.o.o.) C ) { X.o.o.{ ) ..o.....| ) ) ) { o.o.o.o.o.o.o.o.o.9.o.o.o.9.o.o.o.o.7.o.o.>.9.9.9.7.o.o.o.{ ) ) { C 3 * * @ - @ o # * s *.G.F.-.W -.4.3.e.e.3.e.e.e.;.;.;.;.| =.=.&.=.W T T ' } =.=.=.=.R j g R =.f h ",
"5.h 4 *.-.k P l P R R T T R =.:.&.=.=.&.;.;.<.3.3.e.e.e.r.e.3.3.r.6.<.=.W :.=.s @     O 2 0 ) ) ) ) ) C C [ | [ | | ;.,.3.3.e.u.y.y.y.y.y.y.t.i.p.t.9.>.9.e.t.e.e.e.p.t.e.>.3.o.o.o.o.o.o.o.o.o.o.X.o.o.7.7.o.o.X.) X.o.o.o.o.o.o.o.o.e.e.>.o.o.>.9.9.9.>.9.>.o.o.e.e.9.>.o.>.e.9.9.9.9.9.o.>.9.9.9.9.9.9.9.9.9.9.9.X.X.o.9.9.9.o.X. . .) ) ) { o.{ ) ) X.X.X.X.) )  .X.X.X.{ X.) ) ) X.o.X.) ) ) ) L ) C C ) ) ) [ ) ) ) c 0 0 ( ) ) ) ) ) ) ) ) ..) L ) ..| ) ) ) ) ) ....) ) ) ) ) c c ) c c c c 0 0 ) ) ) ) ) ) ) ) 0 * X . .     . . . . . o o                                                                                                                                                         @ 3 3 3 3 3 > > > 3 7 7 7 3 7 9 9 0 c ( 0 0 0 ( ( ( ( ( ( ( c ) ( ( c 0 0 0 0 h ) o.o.o.) ) ) ( ^ c ) ) ) C 0 0 c c c C { { {  .)  .{ ) ..) ) ) ) ) ) ) ) ) ) c c ( ( c c C C 0 0 ) ) C 0 9 9 0 ( ( ( c 0 6 9 ( ( ) ) ( ( ( ) ) c 0 h / ) ) ( ( ( ( ( ) ) ) ) ) ) ) ) ) ) ) ) ) ) )  .X.X.{ { ) ) ) C ) { ) C C C ) ......) ) ) { o.o.o...) ) | [ | ....[ ) ............o.o.o.>.3.>.o.o.>.o.o.>.>.o.o.o.o.o.o.o.o.o.o.o...{ ) ) 0 3 @ @ > 5 3 @ + X o 4 =.D.1.+.W :.4.3.3.e.e.u.e.3.3.o.o.o.=.=.=.=.T D W } } =.=.=.W j j j R *.f h ",
"5.h 4 *.:.P k l P R T =.=.T T T T D } &.3.3.<.3.3.e.y.t.e.e.e.3.3.*.=.=.1.=.f o # + O 5 ) ......{ C 9 6 3 3 3 3 4 6 6 0 9 0 0 0 0 0 6 6 0 0 6 6 6 9 9 6 9 6 6 6 5 6 9 0 0 0 0 0 0 6 6 6 6 6 6 5 5 6 0 0 0 c c h 0 9 0 9 6 6 0 0 0 0 0 0 0 0 9 9 0 9 0 0 0 0 0 9 9 0 0 0 6 6 6 6 6 6 5 6 6 6 6 9 0 0 0 0 0 0 c C C C 0 9 0 0 0 0 0 0 0 9 6 6 5 6 0 0 0 0 0 0 0 9 6 6 6 6 5 5 5 6 5 3 3 3 3 3 3 3 > > ; ; ; > > > 3 3 3 3 3 3 3 3 3 3 3 3 3 3 3 > > > > 3 > 3 3 > 3 3 7 4 6 6 7 7 7 7 3 3 3 3 > > > 3 3 > 3 3 3 3 3 3 > - @ o       o X . X o * > 4 3 O                               sXsX      sXsXsXsXsXsX                                  sXsX                                                            3 0 3 @ @ @ @ @ @ * @ X . . . o @ @ - - - - - 2 > > > > > > ; * * * @ - ; ; * * > > > 3 > > > > > > > > > ; * * ; ; ; ; > > > > 3 3 > > > > > > > > > > > > > > - @ @ @ @ * * % * * > ; * > > * @ - * * * % @ * ; > > > > ; 3 > > > > 3 3 3 3 3 7 7 3 3 3 3 3 3 3 3 3 3 3 3 3 3 3 3 > 3 > ; > > > > > 3 6 4 > 3 4 4 4 4 4 4 4 4 3 3 3 4 3 > > > ; ; > > > > > 3 3 4 4 4 4 3 3 3 3 6 3 3 6 5 3 3 3 3 3 7 3 3 3 3 4 6 6 6 6 6 6 6 0 0 6 > > 3 3 5 3 O # o 4 O.D.:.Q =.:.<.3.e.u.u.9.e.;.o.o.o.| =.=.T T =.$.$.=.=.W W R H j l W *.f f ",
"5.h 4 :.-.P k P E W W =.=.O.D D W $.&.<.3.3.<.3.3.e.e.e.e.e.e.<.=.D W =.=.s @ X # @ 9 ) { o.o...C 3 3 3 4 , 4 6 6 4 4 6 4 4 4 4 6 6 6 6 6 h 6 6 4 6 0 h h h 6 6 6 6 6 6 h h h h h h 6 6 6 6 4 4 6 6 6 6 6 4 4 s s 4 , > > > , 4 4 4 4 4 4 4 6 6 6 4 6 6 6 6 6 6 6 6 6 6 6 6 4 4 , 4 6 4 4 6 4 4 4 4 6 6 s 6 6 s s 6 6 6 6 4 6 s s f 6 6 4 4 4 4 6 6 6 f 4 4 4 6 6 f f 6 6 4 6 6 6 6 6 6 h f f f 6 6 6 6 6 6 6 0 h h h 0 0 0 h h 0 c C C C C C L C C L L L C C ) ) ) ) ) { ) [ ) [ [ [ ) C C C C C C Z Z N Z Z Z Z Z Z C 6 * o .     . . X o > 4 6 6 >     # X X     X O         sXsXsXsXsXsXsXsXsXsXsXsXsXsXsXsXsXsXsXsXsXsXsXsXsXsXsXsXsXsXsXsXsXsX  sXsXsXsXsXsXsX      sXsXsXsXsXsX          O O O X   o 0 ) 0 3 3 3 3 > @ O X * s H R P R =.W =.=.=.=.W V V V V V V V D D H N N N C B h j j j N N N N N N Z H N N h h j j h h h j f f j j j f 6 6 6 6 f f f 6 6 6 h h 6 6 6 6 4 4 < 4 < < t < , < < 4 < < < < < u f u s s s f s 6 < , , < < < < < < < < < < , , > > , < , , < < t < < < , , , 4 , , < 4 4 4 , , , , , , , , , , 4 4 6 6 4 , , , 4 4 4 , > > , , , , , , , , 4 6 6 6 4 4 4 4 4 4 6 6 6 6 6 6 6 4 6 6 6 6 6 6 6 6 6 6 6 0 C ) ) ) 9 3 > 4 4 @ O X @ f :.D.Q Q -.*.;.e.e.u.9.>.o.o.o.o.&.=.T R T =.=.&.*.=.=.T R T R R T *.6 s ",
"5.h 6 :.-.P k P P E W =.=.D D D W =.2.4.<.&.<.e.e.3.3.e.e.e.3.&.D V W W s * X + @ 9 ( { o.o...0 > > 3 4 , 6 h H H Z Z Z Z C C C C C N N Z D Z Z N Z D D D D V D ' ' ' ' ' O.=.=.=.D D D V Z Z Z D D ' D ' =.T W =.V j j N Z Z D D ' ' ' D Z Z Z Z Z C C Z [ ' [ ' Z Z Z D Z Z Z C N N N N H N g g g B B g g g g g g B N g g g B H N B j g g g g g N H H H j j j H H H N N N N H D D Z Z H j g j h h h h h j j j Z Z Z Z Z Z N N C L Z Z Z D Z ' Z Z [ [ L L C C ) ) ) ) ) L C Z [ [ Z Z j N Z Z N Z H H V D D } =.=.*.<.<.=.h * . X X o @ * > 4 6 0 * X O O O @ o   X @       sXsXsXsXsXsXsXsXsXsXsXsXsXsXsXsXsXsXsXsXsXsXsXsXsXsXsXsXsXsXsXsXsXsXsXsXsXsXsXsXsXsXsXsXsXsXsXsXsXsXsXsXsXsX.   o @ @ @ O X @ C ..C 0 0 9 3 @ X o > H 1.C.Q Q Q Q Q Q B.C.C.Q -.-.-.-.-.-.-.-.-.+.W W T T T T W =.=.+.=.=.=.=.=.=.=.T T H H D H H N H H H H H H H N j j j j j j j h h h N N N g g g h g g j j j B j j g g g g j g j H R R R W R R H H j g B B B B j j B B H H R R B g j R R W E W W W E R R R V H H N H D T W =.W T D H H H H H H H D D D =.=.D D D V Z D V N h C Z D D D D D D W } J D D D D ' ' ' O.=.D H N N N N Z g C N Z Z D Z Z Z N C Z ..o.o.9.9.) 3 > 3 3 @ O X @ h :.F.-.+.=.&.;.e.9.e.>.;.3.3.;.*.=.R R W W T =.=.=.=.W T T T R T *.6 s ",
"5.N 6 :.-.k P P P E W W T D D R V W -.1.-.*.<.r.r.e.e.e.e.e.<.=.W W W B @ o o - 9 ( ) o.o.o.) 3 * > > * , f N g j H g j h h f f f f f f h h g f s f f f f f u f f f f h h f f g g f f f f f g g g g g g N N B B g f f f f f f f f h h g g h h h h h h h C N N j N j g h h g h h j j j j N j j g g g g g h f h g g g j j g g g g g g g g g g j j j j j R H B g g j H H B j j j B H H B j j g g g f 6 h f f f s s f g g j j j g g j j B B N g g j N N N h h h h h h h h h h h j j j j j f f f h g g g g g N N j g N H D W :.<.*.h * o X @ > > > 4 0 h > o @ @ * > * . o o     sXsXsXsXsXsXsXsXsXsXsXsXsXsXsXsXsXsXsXsXsXsXsXsXsXsXsXsXsXsXsXsXsXsXsXsXsXsXsXsXsXsXsXsXsXsXsXsXsXsXsXsXsXsXsXsXo o > > > @ # @ C | C 6 6 3 * X X * H -.-.E W =.=.=.W W W W W W R R R R R R R T R R B j g g g g g H H H H H H B g g g f f g g h h h h h g g g g g g g h h g g g g f h f f f f d f y u i d d d d d j g d f t t f f f d g g g g g g d d d u u d d d d d d j g g g g j g d i d g g d d g k k g d d g d f f f d g g j j j j g d f f d u d g g g g g d d f t t f u s s s s f f f f g g g j g g g f f f f f g j g f f s t t s t t s s s s s f f s < h ) ..9.w.5Xe.) 3 * > > @ O o > D D.D.-.=.&.3.e.e.u.e.3.3.e.3.;.=.R B R W O.H R T W W W T T R T *.6 s ",
"4.C s :.-.B R T R P P P T D R R B P W -.:.<.r.y.y.e.t.u.e.e.<.W -.-.N , o X 2 9 ) ) ) ....) 6 4 3 3 > 6 N =.=.=.O.=.=.O.D Z D D ' } } } =.*.*.=.V D D J =.D D D D ' ' ' ' ' O.' D ' D ' } ' ' =.=.=.=.=.=.=.=.=.=.=.=.=.=.=.=.| =.=.&.=.*.*.&.&.| } ;.;.3.<.<.*.<.*.*.;.*.;.3.3.3.3.3.3.3.3.3.3.3.4.3.3.3.3.<.<.<.4.4.4.3.*.;.<.3.*.;.*.*.-.:.+.Q +.+.+.-.+.=.=.:.:.:.:.:.:.:.:.1.4.1.-.+.+.-.=.$.&.&.&.&.&.=.&.:.:.*.*.*.*.*.*.&.*.*.*.=.=.=.=.=.=.=.O.D O.=.=.=.| | &.*.&.&.&.*.*.=.O.' ' =.=.=.=.=.=.=.=.' } =.&.=.O.O.O.&.*._ > o o > 4 3 4 h h > @ @ 3 3 3 > o o $     sXsXsXsXsXsXsXsXsXsXsXsXsXsXsXsXsXsXsXsXsXsXsXsXsXsXsXsXsXsXsXsXsXsXsXsXsXsXsXsXsXsXsXsXsXsXsXsXsXsXsXsXsXsXsXsXsX* 3 3 3 @ O * C } h 4 > > @   * C =.W =.*.4.r.r.r.r.r.e.e.e.e.3.3.3.4.3.3.3.r.4.3.<.;.;.;.;.;.*.<.3.3.3.3.3.3.<.;.;.;.&.;.=.=.&.&.;.;.*.*.*.*.&.*.&.=.=.=.:.:.:.:.*.=.=.=.=.=.=.&.=.=.=.=.=.&.&.*.*.=.=.} ' =.O.T =.=.=.W =.W =.W T T W W W W W W =.=.-.+.+.=.+.+.=.=.W O.W =.W W =.-.Q W T T T O.T D T R R T T O.T O.O.T T D D H D O.O.D T =.W V g h N N N N N C N Z N N D ' =.=.=.W T T ' O.O.D D O.=.=.D N g h h j j j j C C C N ' ' N s < h Z >.5X8Xp.p.) > * > > @ o o 6 =.F.C.-.=.<.e.p.e.e.e.3.;.&.=.=.R j B T T D j j R T T ' D H T *.6 s ",
"4.C s :.-.B R =.=.R k P R D R R H R W :.1.<.e.e.e.e.e.e.3.;.=.W -.W 4 o X @ 7 ( ) ) ..) C 0 6 6 4 4 h Z &.*.*.*.*.*.<.*.;.=.;.*.;.;.;.*.<.<.<.$.=.$.&.&.;.;.;.} | ;.;.;.;.3.*.*.;.;.o.3.3.<.*.*.3.4.3.<.3.3.3.<.<.3.3.3.3.e.e.e.r.r.y.y.I.G.y.y.r.6.y.y.y.y.y.y.y.y.y.y.y.a.a.i.y.y.y.y.i.y.y.y.y.a.i.i.y.y.y.y.y.r.r.y.r.e.3.e.e.e.r.r.3.<.4.:.-.-.+.W Q Q =.*.:.<.4.4.4.<.:.1.4.D.4.:.:.:.1.<.<.4.4.6.6.4.<.<.4.4.<.3.3.r.3.<.4.6.<.1.:.:.*.=.=.&.&.=.=.&.*.*.;.3.3.<.*.*.<.<.<.<.*.*.*.&.*.<.*.*.<.4.*.=.;.3.e.r.r.4.*.O.T &.&.Z > o * 4 4 4 h 0 3 @ 2 3 7 7 3 @ * *   sXsXsXsXsXsXsXsXsXsXsXsXsXsXsXsXsXsXsXsXsXsXsXsXsXsXsXsXsXsXsXsXsXsXsXsXsXsXsXsXsXsXsXsXsXsXsXsXsXsXsXsXsXsXsXsXsXsX> 6 3 3 @ @ * C | h > * @ @ o f =.=.=.<.r.r.e.y.a.a.y.i.i.a.i.i.i.i.i.i.y.y.i.y.y.y.u.u.u.u.e.r.r.i.y.y.i.i.y.y.i.u.e.e.e.e.3.3.3.3.3.r.3.3.<.3.3.3.*.*.*.:.4.4.:.*.*.*.3.3.3.e.r.<.*.*.<.4.3.4.r.r.3.3.3.3.<.=.=.=.*.:.:.:.*.*.=.*.*.*.*.=.=.=.*.:.:.<.1.<.<.4.4.4.4.<.<.:.1.1.1.<.4.:.*.&.&.&.&.&.*.*.*.=.:.<.<.*.:.:.<.<.<.4.*.*.*.*.<.<.4.<.=.} J } =.=.=.&.&.*.*.*.=.*.<.4.:.*.<.*.&.*.<.*.=.=.&.<.*.=.D D ' } | =.| =.;.| } &.3.<.&.D g h N ..u.8X8X8X9.0 > * > 3 @ o * f :.C.-.=.*.e.e.e.e.e.3.;.=.=.=.T H B R T T R R R R J | O.H T *.s s ",
"5.N s *.-.R W :.=.T R R T ' H H D =.:.*.*.3.e.u.e.e.e.3.;.=.=.:.=.h o   O 3 0 ) ) ) { 0 4 6 9 4 4 h D D W *.*.;.;.*.*.<.;.| | ;.&.| =.=.*.*.=.=.&.&.&.;.3.3.3.o.o.3.e.e.r.r.4.6.3.;.;.3.3.3.3.3.4.r.r.r.e.e.e.3.3.3.3.3.e.e.e.e.r.y.y.I.D.5.r.r.e.r.y.y.y.y.y.a.a.a.a.a.a.a.a.i.i.i.i.i.i.i.i.i.a.a.a.a.a.a.a.y.r.6.6.r.r.3.3.3.e.e.y.r.3.<.=.+.-.-.Q W W +.-.:.:.<.5.4.<.<.*.4.5.4.<.<.4.4.<.<.6.6.5.5.<.<.4.4.:.<.4.r.e.e.r.4.r.4.*.=.:.<.*.=.=.*.=.=.;.;.3.3.3.r.4.*.*.*.*.*.*.*.3.3.3.;.3.3.<.3.4.r.3.3.e.y.y.y.y.y.r.&.' D =.&.j = o > 4 6 h 0 3 @ 3 7 9 0 9 > , , .   sXsXsXsXsXsXsXsXsXsXsXsXsXsXsXsXsXsXsXsXsXsXsXsXsXsXsXsXsXsXsXsXsXsXsXsXsXsXsXsXsXsXsXsXsXsXsXsXsXsXsXsXsXsXsXsXsX4 0 6 3 > @ * C [ h > * o X 4 } *.O.*.y.a.y.u.y.a.qXa.a.Q.6Xa.p.a.a.a.a.a.t.i.y.y.y.i.a.a.i.i.r.r.y.a.a.a.Q.a.i.i.i.i.y.y.y.u.u.u.e.e.r.e.3.3.e.e.r.<.3.<.5.5.5.1.*.<.6.e.e.u.y.r.3.;.*.4.r.r.e.r.e.e.e.3.3.3.;.&.*.=.1.:.:.*.*.<.4.<.<.*.*.*.*.<.4.<.<.*.:.<.4.r.r.5.<.*.*.*.<.<.<.:.<.<.<.*.=.=.*.<.*.=.-.4.5.5.*.&.*.<.3.3.6.6.*.&.<.4.5.5.<.*.&.&.&.;.;.;.;.;.;.=.=.=.=.<.:.*.;.<.<.*.<.<.*.*.*.*.<.*.&.=.=.&.;.;.| | ;.| ' Z } *.&.&.<.*.D h h { e.p.u.e.o.6 @ @ 3 3 @ o > N -.:.=.&.3.e.e.e.e.3.3.;.=.=.=.} D T T T O.O.W R =.=.=.R T *.s s ",
"5.C 6 <.:.R W +.+.W W T =.=.' | | <.*.=.&.3.e.e.e.e.r.3.*.W =.:.H * o O 3 0 0 ) o.) 0 4 8 7 7 6 C W W D D =.<.<.<.;.3.3.3.;.;.3.*.=.=.W +.-.*.*.<.*.&.;.e.e.>.3.3.3.e.e.3.4.<.4.3.3.e.3.3.3.3.3.r.r.r.y.i.a.i.e.<.3.3.e.u.t.p.i.y.y.y.I.4.4.r.y.y.y.4.4.4.r.y.a.9X9Xa.a.a.a.a.a.i.a.p.p.p.p.i.a.a.a.6X9X9XQ.a.y.y.6.6.y.y.y.y.i.i.a.a.y.r.<.=.+.-.-.:.1.=.:.1.<.<.5.4.<.<.6.y.y.I.5.5.I.I.G.5.<.4.6.5.<.*.*.<.4.:.<.6.r.e.e.r.r.4.*.=.=.:.<.<.*.*.3.3.3.3.e.r.r.e.3.3.*.:.<.:.=.=.;.e.e.e.;.;.;.*.3.3.e.e.e.i.a.i.y.u.e.t.e.*.' D =.=.6 o * > 4 h h 3 @ 3 9 0 ) h 4 , , .   sXsXsXsXsXsXsXsXsXsXsXsXsXsXsXsXsXsXsXsXsXsXsXsXsXsXsXsXsXsXsXsXsXsXsXsXsXsXsXsXsXsXsXsXsXsXsXsXsXsXsXsXsXsXsXsXsX6 C 0 6 3 @ * h C 6 , > o $ N *.*.*.r.a.a.a.a.a.a.qXqXqXqX9Xa.p.6X9X9X6Xa.i.i.r.r.y.a.9X9Xi.y.y.y.y.y.Y.qXqXa.a.a.a.a.i.i.i.i.i.i.y.u.3.e.e.i.y.i.y.y.3.6.5.5.<.<.4.r.t.u.u.p.t.u.e.3.3.r.r.y.y.y.a.a.y.y.r.3.3.4.<.<.<.<.<.4.4.4.3.6.r.e.t.e.e.3.3.<.<.3.6.4.3.3.4.3.*.3.4.4.5.5.4.4.r.r.y.r.*.*.<.*.*.=.+.:.4.4.4.<.<.3.e.e.r.3.3.;.<.<.4.4.6.6.3.3.3.3.3.e.3.3.3.3.<.<.<.=.=.*.3.3.3.r.<.*.*.<.6.3.3.<.<.<.&.;.3.;.;.3.3.&.} =.=.=.} } &.<.*.D h h C o.o.9.>.) 4 * > 6 > @ * , D 4.-.=.*.3.e.e.e.e.e.3.| ..| =.O.R R R O.=.R W =.=.R P E =.s s ",
"4.j s *.:.R R R W O.=.=.=.=.=.;.;.&.=.&.;.3.e.e.e.u.r.3.&.W :.=.4 . O 2 9 c c ) ) 0 9 0 0 9 9 [ *.=.W W W } &.<.<.} | ;.3.;.;.;.<.*.=.W W W =.*.<.*.&.;.3.e.3.3.3.3.3.;.&.*.=.=.;.e.y.e.3.;.3.4.<.*.<.r.a.a.a.e.o.o.3.u.i.u.p.p.i.i.r.<.=.=.4.y.r.3.:.:.<.4.6.y.9XqXQ.y.u.y.a.a.a.a.p.p.p.p.a.6Xa.a.6X9X9Xa.a.i.y.y.5.r.y.y.a.a.a.a.a.a.i.y.4.:.+.-.4.<.<.1.:.1.5.6.*.*.3.r.y.y.6.5.y.5.5.5.4.*.*.4.5.*.*.:.:.:.<.<.r.i.y.e.r.6.6.4.:.*.<.4.6.r.3.4.y.r.3.3.r.y.r.;.=.*.*.:.1.*.;.3.u.e.e.3.| &.3.3.3.u.e.y.a.a.a.i.y.t.a.y.e.=.T =.*.j * @ > 6 C C 3 @ 7 0 ) ) ) 4 < , .   sXsXsXsXsXsXsXsXsXsXsXsXsXsXsXsXsXsXsXsXsXsXsXsXsXsXsXsXsXsXsXsXsXsXsXsXsXsXsXsXsXsXsXsXsXsXsXsXsXsXsXsXsXsXsXsXsX6 C 0 9 3 @ * h Z f , > $ 4 *.<.*.r.a.a.Q.qXqXqXqXqXqXqXqXqX9Xa.6X9X9X9Xa.a.y.y.t.i.6X9X9Xi.i.a.a.y.i.a.qX9Xa.i.i.a.a.i.i.i.i.i.a.i.u.3.e.y.i.i.i.y.y.r.r.6.<.<.5.e.r.u.e.t.i.y.u.u.r.y.y.y.y.i.y.a.a.y.y.e.e.r.6.6.<.*.*.4.r.r.3.;.3.u.u.u.t.e.3.;.3.r.y.y.r.;.3.3.3.3.3.4.6.6.<.4.r.y.y.y.r.<.<.<.<.:.-.Q Q =.=.=.*.;.;.3.e.3.3.3.<.<.:.:.<.4.6.e.3.3.3.e.e.3.;.3.3.4.:.:.-.=.:.r.3.3.3.=.&.*.1.<.<.<.3.<.<.&.&.3.3.&.3.&.Z D =.' =.&.&.} &.<.=.H h s h [ o.9.9.C > * 3 6 > @ * h :.:.=.=.<.e.e.e.e.e.>.o.o.o.=.D H H T O.T R W =.=.R P E =.s f ",
"<.h 6 *.*.H k k R W =.=.O.O.O.&.&.=.=.&.<.3.e.e.u.i.r.<.=.Q 1.T > X @ 7 0 c ) ) 0 0 ) ) 0 f [ <.*.W =.*.*.D D =.=.} } ;.3.;.;.;.&.*.=.W W W =.*.<.<.<.*.*.<.6.6.<.<.<.*.=.=.Q W ;.r.i.3.;.3.3.4.:.&.*.4.y.y.y.e.;.3.e.t.p.u.e.e.e.e.r.5.1.:.6.y.y.<.-.:.1.1.<.r.y.a.i.e.e.e.i.a.a.9Xa.p.p.a.a.6Xa.p.5XQ.a.p.t.i.Y.I.5.6.6.r.i.y.y.t.t.i.i.y.r.<.:.:.6.r.r.6.<.4.I.I.4.6.y.y.y.r.6.5.G.r.5.5.<.*.*.<.6.<.:.:.:.:.4.<.4.r.i.e.3.4.6.5.4.<.<.4.6.r.4.4.r.r.3.*.4.r.4.=.T &.:.*.*.<.3.e.e.e.u.3.| &.<.3.e.u.r.y.a.a.a.a.i.a.a.y.3.=.=.&.:.j > > 6 C ' [ 3 @ 7 0 ) ..) f s < .     sXsXsXsXsXsXsXsXsXsXsXsXsXsXsXsXsXsXsXsXsXsXsXsXsXsXsXsXsXsXsXsXsXsXsXsXsXsXsXsXsXsXsXsXsXsXsXsXsXsXsXsXsXsXsXsXh ) 0 9 3 @ > Z =.j , > * C y.r.3.y.a.9X9XrXqXqXrXqX6Xa.9X9X9X9X9X9X9Xa.a.a.7Xa.i.a.6X9Xa.p.a.a.a.y.i.a.a.a.i.i.i.i.i.y.a.a.a.a.a.i.y.e.y.i.i.t.u.y.y.y.y.6.6.r.y.y.u.u.u.t.y.t.t.y.y.y.y.u.i.i.e.3.e.r.3.3.3.e.r.r.4.*.*.6.r.y.r.3.3.y.t.t.p.t.e.3.3.y.y.y.r.3.3.r.r.r.4.6.r.5.<.4.y.y.I.y.6.4.<.1.1.4.1.-.-.-.=.:.<.3.3.3.3.3.e.e.r.5.:.:.4.6.6.r.3.3.e.y.r.3.3.3.r.5.<.:.:.:.*.e.y.3.&.=.*.:.=.*.*.3.;.<.<.*.=.=.*.*.<.*.H D =.W J &.<.$.$.*.*.W H j f C o.9.9.o.9 > > 6 3 o @ 4 T 4.-.W *.e.e.e.9.9.3.;.;.;.=.D H T W =.=.E E W T R P E =.s f ",
"4.C 6 *.*.H k k k P =.=.=.T O.=.&.*.=.=.3.e.t.u.e.r.r.*.=.-.-.h $ @ 3 9 0 ) ) C c { { ) 0 C =.:.=.=.=.*.<.&.D D D J } 3.3.3.;.&.=.&.=.W E W -.*.*.*.*.=.=.=.=.*.<.1.*.=.=.=.E W *.e.e.;.&.;.*.:.:.+.*.<.3.3.3.3.3.e.e.e.e.e.;.;.3.3.3.6.<.:.*.<.4.1.-.Q Q Q -.<.r.i.e.3.3.e.t.p.a.9X9Xp.p.a.a.6Xa.p.p.a.a.t.u.a.Y.I.5.<.4.r.r.4.<.3.6.r.r.r.r.6.4.4.6.r.y.r.<.4.I.I.D.6.y.y.r.3.6.4.4.5.D.4.1.1.1.<.6.6.<.:.:.:.1.:.4.r.e.3.3.<.6.5.4.1.*.<.3.3.4.3.3.4.*.=.&.<.:.=.=.=.*.*.<.3.e.e.e.e.e.o.;.;.*.<.e.e.r.u.i.a.a.a.a.a.a.y.3.;.*.:.:.j > > C | &.[ 4 @ 9 ) ) o...j g f .     sXsXsXsXsXsXsXsXsXsXsXsXsXsXsXsXsXsXsXsXsXsXsXsXsXsXsXsXsXsXsXsXsXsXsXsXsXsXsXsXsXsXsXsXsXsXsXsXsXsXsXsXsXsXsXsXC ) 0 9 3 @ > =.6.' 4 > > ) a.r.i.a.9X9X9XrXrXqXqX9Xa.p.a.6X6Xa.6X6Xa.a.a.a.6Xa.a.a.6X6Xa.a.a.a.a.i.i.i.a.a.a.a.a.a.i.a.Q.Q.a.a.a.a.y.y.y.i.i.u.e.e.y.y.r.<.<.6.e.e.u.t.i.y.i.u.y.y.y.y.r.u.y.y.e.3.6.r.3.3.e.y.y.y.4.*.<.4.r.r.r.e.r.u.i.y.y.y.i.e.e.t.u.i.i.r.6.3.r.r.r.r.5.6.<.5.r.y.y.4.<.<.:.:.:.1.1.-.-.-.W :.*.3.r.3.&.<.r.y.r.4.*.*.1.5.6.6.r.r.e.r.3.*.&.;.*.*.*.*.=.*.*.e.t.3.&.*.:.=.W =.*.;.3.<.<.*.W V T W =.W H H T T D J $.*.=.=.<.*.W H N C o.e.>.>.) 3 > 6 6 * * * h 1.1.W -.3.e.e.e.9.o.=.&.*.=.T T W W =.W P E E R R P W :.f f ",
"4.C 6 *.*.H k l P W =.&.=.T T O.=.*.*.&.<.3.e.e.e.e.6.&.W -.T , o @ 7 0 ) ) 0 0 { o.o.0 C D W =.} } | ;.4.<.=.Z D J } &.3.3.;.&.=.=.=.W R W =.<.*.$.W W W W P W W -.W W W W W W <.<.;.;.&.&.*.*.:.:.*.*.;.3.3.3.3.e.e.>.o.o.;.;.3.3.<.4.4.1.<.<.<.1.Q Q Q Q -.*.3.e.e.3.r.r.y.p.a.9X9Xp.p.a.a.a.p.p.W.9XQ.p.t.a.y.I.5.6.3.e.6.3.3.3.3.r.y.r.e.6.6.6.e.i.y.y.6.5.G.I.D.4.y.y.3.6.5.6.<.6.5.4.4.5.6.4.6.y.5.<.<.<.<.4.3.e.e.3.3.3.6.6.<.<.<.<.3.3.3.3.;.*.*.*.&.*.<.:.*.=.=.*.3.3.3.e.e.e.>.o.3.<.*.<.3.e.3.3.u.p.a.a.a.i.a.y.e.3.<.4.4.j = 3 C | *.[ 3 @ 9 ) ..o.| j H j o     sXsXsXsXsXsXsXsXsXsXsXsXsXsXsXsXsXsXsXsXsXsXsXsXsXsXsXsXsXsXsXsXsXsXsXsXsXsXsXsXsXsXsXsXsXsXsXsXsXsXsXsXsXsXsXj C X.) 9 3 @ 3 ;.r.=.f 4 > C r.e.i.a.9X9X9XqXqXqX9X9Xa.a.a.a.a.p.6X6Xa.a.a.a.a.a.a.a.a.6Xa.a.a.a.a.i.i.i.i.i.a.a.a.a.i.i.i.i.p.u.y.i.i.u.p.i.i.y.e.e.y.y.y.6.6.3.e.e.u.p.i.i.p.t.a.i.i.y.y.y.y.y.r.3.6.r.r.3.3.t.y.y.3.3.3.3.e.3.e.t.e.e.e.u.u.t.t.u.e.e.u.u.e.e.3.3.3.4.5.4.4.<.<.4.4.6.4.<.<.1.1.*.<.4.1.1.-.-.=.*.*.6.6.<.&.<.3.r.4.<.*.*.*.<.<.<.<.<.;.;.*.*.&.&.=.=.=.*.*.*.<.3.3.3.*.:.=.W W *.*.;.3.3.<.=.T V R B B H H H V V D J =.*.*.*.<.4.*.D D C ..9.9.9.o.0 > 3 6 > * * 6 *.4.W +.;.3.e.e.3.o.| | =.=.=.=.&.=.T T P P R R R P W 1.h f ",
"2.N 4 *.:.R P P E :.:.*.=.W R W $.<.<.3.3.e.e.e.3.3.3.=.W -.j * O - 9 ( ) 0 0 ) o.o...C Z W W } } } &.&.;.3.&.} } Z L | o.3.3.*.&.$.*.:.=.=.*.1.*.$.W W W W I U W Q W =.W W W =.=.*.*.*.*.*.*.*.:.:.:.*.*.;.;.o.o.3.3.3.3.3.3.3.3.3.3.4.4.4.4.<.1.<.1.1.1.:.:.4.3.3.e.e.e.e.u.t.p.p.p.u.t.p.u.u.t.t.u.p.p.t.e.3.6.6.6.6.6.3.<.3.3.e.e.y.y.y.y.y.y.y.y.y.6.3.6.5.4.D.D.4.4.6.6.6.6.6.3.<.4.6.6.r.6.6.3.r.r.4.<.<.3.3.3.3.3.3.3.3.<.<.<.<.<.<.<.<.<.;.3.<.<.*.*.&.;.<.;.*.&.&.3.3.3.3.3.3.3.3.3.<.<.<.<.<.;.o.9.p.p.a.a.a.a.Q.a.y.4.4.4.j * 3 h [ &.} 4 > 9 ) o.o.o.C H j o   sXsXsXsXsXsXsXsXsXsXsXsXsXsXsXsXsXsXsXsXsXsXsXsXsXsXsXsXsXsXsXsXsXsXsXsXsXsXsXsXsXsXsXsXsXsXsXsXsXsXsXsXsXsXsXsXh C o.) 0 7 @ 3 ;.4.[ h 4 > h ;.e.i.6X9X9XqXqXqX9X9Xa.a.p.p.p.i.t.p.u.p.t.u.p.p.p.t.t.t.u.u.u.t.t.u.u.u.u.e.u.u.u.u.e.e.e.e.e.3.3.3.e.i.e.u.u.u.e.r.e.3.6.r.3.3.3.3.3.e.e.e.t.t.t.u.e.e.e.e.e.e.3.;.;.&.3.3.<.<.3.3.3.3.e.3.3.3.3.e.3.3.3.3.3.e.e.e.e.3.3.3.3.3.3.3.3.3.6.4.6.6.r.6.r.r.r.3.3.<.<.<.<.3.e.6.4.<.3.;.*.<.4.4.<.<.<.;.<.<.<.<.*.*.<.<.<.<.*.*.*.*.*.*.*.=.=.=.=.=.*.*.3.&.&.*.*.=.W W $.&.&.| | } D Z V T V B V V V W W D D D W $.*.<.<.<.W H ) o.9.9.3.3.{ 7 > 0 4 * @ 4 =.D.Q W ;.e.r.e.3.3.3.3.;.&.=.*.<.*.=.O.=.W R R R R W <.h f ",
"5.Z 6 *.:.R R P Q 1.1.1.*.=.=.=.3.3.3.3.e.r.u.u.e.3.*.W W W f @ @ > 0 ) C 9 ) o.e.3.| L =.-.=.&.&.;.;.;.&.&.| } N s < < 6 6 h f s f h B B B B N N h f f N h f N h N N N N h f f h h N N B B g g g g g B N N N N h C C C C C C N C C Z Z Z Z L Z Z J Z D Z N N C C h C C C C C C Z Z N C C C C h N C C C C C C N B B B B g h N f f N B B N Z Z C N N N N N f N B B B B B B B Z Z N B N N N N C C h C C j j h f s f h h h h h h N N N B B N h h g h N N B g h h h j j C h h f j C C C C C C C h C C h C C D [ | e.p.a.i.a.a.Q.Q.y.6.4.<.j = 3 h [ &.| 6 > 9 ) o.o.o.N R j .   sXsXsXsXsXsXsXsXsXsXsXsXsXsXsXsXsXsXsXsXsXsXsXsXsXsXsXsXsXsXsXsXsXsXsXsXsXsXsXsXsXsXsXsXsXsXsXsXsXsXsXsXsXsXsXsXh ) o.) ) 9 @ 3 | *.Z h 4 * 0 3.e.y.9X9X9X6X6X9X9XQ.a.a.t.e.o.[ N C C C C C ) C C C C C C C h C C C h C C C C C C C C C C C C C C C N N C C C C C Z L C C C N N N h 0 h h h C C h h h h h h h 0 9 0 0 0 h C B B h f N N f f f s h h h h h h f h C C C C N N B N C C C C C C C L Z C ) ) ) ) ) ) C C C h C C C C C 0 N N C C C C N h N h N N N N h h h j j j j g h f f h g f f f h h h h h g f f f f h h h h s s t s s f f f f h f B D D V H V W =.=.1.1.=.D ) o.e.>.>.3.o.9 > 6 6 > * > D D.-.E *.4.4.3.3.e.e.3.*.=.*.<.3.3.*.*.*.=.W T R R W <.h f ",
"G.D s :.:.R R P E E Q 1.<.<.3.3.3.3.3.3.r.r.u.y.e.3.&.T Q T 4 @ @ > 7 6 6 3 ) e.u.u.o.Z =.4.4.<.<.<.<.;.;.&.Z s f f f f f N C N N N N B B B N N C Z Z Z Z Z Z Z Z [ ' ' D D W V D W W T R R B B B B B B B B B V V V B B Z Z V V V B B B B B B V V V H D D V V V H R P P W W =.=.=.=.$.$.$.$.W W W W W $.=.<.=.=.W W W W W V U V V V W W W W J J J J V Z Z Z V V V W W W $.<.<.<.*.<.<.=.=.W =.*.&.$.<.&.<.*.$.=.=.D Z J } } $.$.} } } J J J J J J W W W W D Z N Z Z Z Z C C N N j C Z N N Z Z J V N D D J D | o.e.i.i.i.i.a.a.y.3.4.<.j * 4 h [ *.&.6 > 9 ) o.o.| j R j .   sXsXsXsXsXsXsXsXsXsXsXsXsXsXsXsXsXsXsXsXsXsXsXsXsXsXsXsXsXsXsXsXsXsXsXsXsXsXsXsXsXsXsXsXsXsXsXsXsXsXsXsXsXsXsXsXh ) o.) C 9 * 3 | *.D j f > h 3.e.y.Q.9XQ.a.a.a.p.i.y.r.;.[ Z H V N H N Z Z [ [ ' } | | | | } | } } } } } } | | | | [ | [ Z Z Z Z Z Z Z C C C L L L L L L L L | | | | | | | | | | } W D V V V Z N N B B V W W W W W W W W W W R B B Z Z Z Z V J J } } J J V W W =.=.$.=.W U Q ~ ~ ~ ~ 1.1.! ! ! W W W W W W W W W D V Z N Z Z Z N C Z Z C Z Z C D D D D Z ' D D D D D D D V B B j N N N N H N V B B B N C N h f s s f f f u < s h h f j N H W =.=.W =.1.-.T C o.>.o.o.o.o.0 @ ; > * * * h 1.-.W -.1.*.&.3.r.3.<.&.O.=.<.3.3.<.*.=.=.W T R R =.<.h f ",
"G.V s <.1.R P P I I E -.4.3.3.3.3.<.&.<.<.6.e.y.e.3.=.R Q T 4 @ @ * > > * 3 o.u.t.u.o.[ *.4.1.*.;.| ;.;.| [ f f R Q W W $.*.*.1.=.=.<.<.<.<.<.$.} } $.$.$.=.3.&.<.<.<.<.1.1.~ C.C.D.1.C.A.D.D.D.H.H.G.G.H.H.H.H.H.G.G.G.G.G.U.@X@X@X@X'.=XH.H.=X=XH.G.H.H.H.`.@X XH.S.S.S.'.'.H.+X+X+X+X+X+X+X+XI.+X&X%X&X+X+X+X+X+X+X@X@X@X@X@X@X`.+X+X+X+X+X$X&X&X&X&X+X&X&X+XI.+X+Xy.y.y.y.y.y.+X$X$X@X`.@X@X@X'.+X$X$X+X+XI.$X+X$X$X&X&X$X$Xa.a.$Xa.y.y.y.I.I.I.y.y.y.y.y.y.I.$X+X+XI.I.G.5.5.6.6.5.4.4.4.1.1.<.*.=.=.*.<.| | e.u.t.i.a.a.e.3.3.<.h * 4 C | 4.<.6 > 0 ) o.3.;.N R j .   sXsXsXsXsXsXsXsXsXsXsXsXsXsXsXsXsXsXsXsXsXsXsXsXsXsXsXsXsXsXsXsXsXsXsXsXsXsXsXsXsXsXsXsXsXsXsXsXsXsXsXsXsXsXsXsXh C o.) 0 4 * 4 ;.4.O.H j 4 h 3.6.e.a.Q.Q.a.a.a.p.e.<.*.D D *.D.4.4.r.4.4.y.y.y.y.y.y.y.y.a.E.Q.a.a.a.a.a.a.a.i.i.i.i.i.a.Q.a.a.a.6Xa.a.a.i.y.y.y.i.y.y.y.y.y.a.a.a.y.a.y.y.y.y.y.y.I.I.+X@X'.H.H.S.[.[.@X*X#X&X*X*X*X*X*X*X*X*X*X*X%X%X%X%X*X&X&XtX&X&X&X+X+X+X+X&X#X=X=XXXoXoX2X|.|.|.}.}.}.!.[.S.S.H.H.H.H.H.H.H.@XI.I.I.I.I.G.r.I.I.I.y.5.y.G.G.y.r.5.5.<.<.<.6.r.r.3.<.3.<.&.=.&.<.<.*.=.<.W W =.1.<.<.<.<.<.} J } D D N D =.D N h h N =.:.=.W W =.-.W C ) o.o.e.e.e.) * * > @ o % f -.B.E Q -.*.*.3.r.3.<.*.O.=.;.3.3.;.&.$.=.=.T R R =.<.j f ",
"G.H s <.:.R R E E E E =.*.3.6.6.<.*.*.*.<.<.e.e.e.3.} H Q T , O @ * 3 > * 4 o.u.e.e.o._ &.:.=.| o.o.o.3.o.h h H W E P B D =.V H V W =.1.1.1.<.1.4.<.1.*.=.*.4.<.<.<.<.U U ! c.b.A.2.~ ~ ~ W -.D.H.A.1.A.H.H.G.2.1.1.C.C.1.4.G.G.D.A.A.[.J.Z.Z.Z.Z.Q Q C.Z.c.Z.Z.S.[.[.[.S.Z.A.G.I.E.$XE.E.y.E.$X&X$XE.E.y.y.y.y.y.y.E.+X+X&X&X#X@XG.5.5.y.y.y.$X$XwXwX*X*X#X#X&X&X&X$Xy.y.y.E.a.y.a.E.Y.+XH.`.].].'.+X+X+XE.5.I.+X%X$X$X$XE.y.y.a.9XqXqX$Xa.y.+X$XI.5.6.6.6.4.4.5.I.+XG.G.G.`.+XI.5.1.1.1.-.W W =.1.=.N W =.<.=.) o.3.e.y.a.y.e.<.3.<.h * 4 h | 6.<.6 > 0 ) o.3.3.Z H j .   sXsXsXsXsXsXsXsXsXsXsXsXsXsXsXsXsXsXsXsXsXsXsXsXsXsXsXsXsXsXsXsXsXsXsXsXsXsXsXsXsXsXsXsXsXsXsXsXsXsXsXsXsXsXsXsXj C o.) C 6 > 4 ;.4.O.H f 4 C 3.6.3.u.p.a.a.i.p.t.[ ' =.R O.=.=.Z ' *.O.T =.*.<.4.3.t.t.a.a.a.a.a.a.a.a.a.a.a.a.p.a.a.a.6X5X8X5X6X6X6X6X6Xa.u.u.i.i.y.y.y.a.a.E.Q.Q.Q.a.a.a.a.a.a.a.y.y.+X&X'.H.[.{.M.n.Z.H.I.H.I.I.+X&X%X*X*X&X*X*X&X+XI.y.y.y.a.Q.$X$Xy.+X+X+XI.G.H.G.C.A.H.'._._.n.n.!.!.M.M.J.S.C.1.2.G.2.4.2.5.F.C.D.D.D.:.-.&.:.4.4.:.*.1.5.I.G.4.1.:.-.-.<.5.y.r.3.3.3.6.<.$.$.4.<.$.W 1.C.H.A.1.1.$.<.<.$.D N V D =.Z N D D D N h g D W R V B R =.=.C ) ..o.e.e.e.) > * 4 * o $ g F.C.I Q 1.4.<.3.3.e.3.<.*.=.;.3.3.;.&.*.:.=.T T R =.<.h s ",
"I.D 6 <.1.H R E +.-.*.*.<.3.3.3.3.<.3.3.<.<.<.3.3.3.} B W W , O O > 6 3 > 9 o.u.e.e.o._ =.*.&.o.3.3.o.3.o.C N R P k e t j O.H j B B P W W W W =.=.W W R P P W -.-.W U U U U z.b.C.W W W R V W 1.2.1.U 1.C.C.Q W W W -.-.=.=.*.<.<.<.~ b.c.c.k.Q Y E R E E Q Q Q 1.A.Z.F.C.1.1.<.y.y.y.y.t.t.y.$X*X$Xy.y.y.t.t.e.e.6.6.4.4.D.`.`.G.1.<.1.<.6.y.y.a.a.a.$X+XH.`.&X%X$XE.t.e.e.y.y.t.t.a.$X+XH.H.'.`.H.5.5.5.6.<.2.5.'.@XI.y.6.e.e.a.a.9X9Xa.y.r.I.I.5.*.&.&.&.*.<.4.D.C.~ C.A.A.D.1.-.W W W E P B =.:.H H D =.<.&.C | 3.e.t.y.r.3.*.*.<.h * 4 h [ <.;.6 ; 9 ) o.3.3.Z D j .   sXsXsXsXsXsXsXsXsXsXsXsXsXsXsXsXsXsXsXsXsXsXsXsXsXsXsXsXsXsXsXsXsXsXsXsXsXsXsXsXsXsXsXsXsXsXsXsXsXsXsXsXsXsXsXsXj C o.) C 6 > 4 ;.4.T B f , h <.<.<.u.t.t.t.y.t.e.j H +.R R N f s N &.H B R R W W =.<.r.y.y.r.r.y.Y.a.y.y.y.i.t.t.p.p.a.p.p.9X9X9X6X6X6X6Xi.u.e.e.3.6.<.6.r.y.a.a.a.a.a.a.i.i.i.t.y.e.r.+X+XD.C.Z.n.v.z.c.C.C.1.-.1.4.I.&X&X&XeXeX$X6.<.<.=.&.3.y.a.y.4.<.1.1.1.1.<.1.1.*.*.2.2.2.2.1.D.A.c.c.c.C.Q E W =.<.=.=.J J E E Q Q Q E I W W -.:.-.W Q 1.4.4.+.E E E E -.4.5.6.3.<.<.<.=.V D <.<.$.W U Z.S.Z.W W W W $.W B g B N =.j s g H V D N N H T T T R R W =.[ C [ o.3.e.3.) > * 4 > @ * g C.B.I W :.<.4.3.e.e.3.<.*.*.*.3.<.<.<.<.*.=.T T T =.6.h s ",
"I.Z 6 <.*.H R T =.*.<.3.e.3.3.3.e.3.e.t.e.3.;.<.3.3.} B W W , O @ > 6 3 3 0 o.u.u.e.o.[ &.:.;.3.e.3.3.,...C H E I P i t g O.R g g i g B P W W W B B P P P B P E E P b n Y Y z.c.Q R H V H H V W -.W P W U W U B R R E W W W =.=.<.1.1.c.Q Q Q Q Q Q W E E Q E T <.D.1.=.*.<.4.3.r.r.y.r.3.3.r.y.y.r.r.y.r.e.t.e.r.<.*.W Q Q C.2.~ W R W W *.4.r.t.e.r.y.2.2.2.+X+Xy.3.e.3.3.y.y.y.y.y.y.6.2.1.1.-.-.<.<.<.1.1.-.:.Z.F.C.1.<.3.3.a.a.a.i.r.<.:.:.1.:.=.=.=.=.*.:.1.C.Q Y Y Q C.Q W E E I I I P P -.W g T =.&.<.&.L o.3.e.e.e.e.3.*.*.<.j * 4 h Z &.=.4 > 0 ) o.e.e.Z D N o   sXsXsXsXsXsXsXsXsXsXsXsXsXsXsXsXsXsXsXsXsXsXsXsXsXsXsXsXsXsXsXsXsXsXsXsXsXsXsXsXsXsXsXsXsXsXsXsXsXsXsXsXsXsXsXsXj ) o...C 6 > 4 *.4.=.N s > h <.<.6.y.a.a.y.i.e.3.j H +.R H V H u j *.R g k P I P W -.5.4.3.*.<.5.5.4.<.3.r.y.y.t.e.e.u.t.t.a.a.a.i.t.e.i.e.3.3.<.*.=.+.-.<.y.y.y.y.y.i.y.u.e.e.e.6.<.<.I.I.6.2.1.k.Y U E Q Q E W W 1.G.+X$X$Xa.e.| ' =.=.D } *.r.r.:.W E Q -.-.=.=.=.&.&.=.=.1.1.<.6.<.=.W W Q E I R R W W W W E P P P I I I P P W W Q Q E I I Q -.-.E P P I I I Q 1.<.:.=.=.=.T B H $.<.=.W U Q c.Y P P B B P B g u g D =.h < g H B D Z h Z W $.*.=.W W =.| C [ o.;.3.o.) * * 4 > * * g B.Q E =.*.*.3.u.e.e.3.<.<.4.3.<.<.4.<.<.*.W T T T =.6.h s ",
"+XZ 6 3.*.H T O.=.&.3.e.e.3.3.3.3.e.r.e.u.e.3.*.;.;.' g E W , @ @ > 6 9 3 0 o.e.e.3.o.[ =.<.3.>.3.3.3.o.o.C R E I I P u s T =.B i i i i i I I P P P P B B g g P P P b b b Y Q U B N N H P R P I E P B B B P P E E P P I P P E W W U W W E Q W W T W -.Q I P P R =.<.=.} | &.&.=.&.*.<.6.4.<.<.*.=.*.<.<.3.3.e.y.5.Q P I E I I I E W W E E O.*.6.3.3.<.<.1.=.<.6.3.3.3.e.e.3.3.y.y.t.3.<.<.*.*.=.=.=.$.=.$.=.Q E E Y Q -.-.$.&.3.t.t.y.<.W E P P E +.=.=.=.T W W Q Q Y I P P E P B B P P k P P R =.j g D =.=.*.} ) >.e.r.r.r.e.3.*.*.4.h * 4 j N T D , > h { >.e.e.[ ' D @   sXsXsXsXsXsXsXsXsXsXsXsXsXsXsXsXsXsXsXsXsXsXsXsXsXsXsXsXsXsXsXsXsXsXsXsXsXsXsXsXsXsXsXsXsXsXsXsXsXsXsXsXsXsXsX=.j [ o...C 9 * 4 *.5.-.H f > h <.<.4.y.a.a.y.r.e.3.j H +.R H V B f s } *.P k k k k P W +.=.=.=.-.:.+.W *.*.<.y.y.6.&.&.*.<.6.r.y.r.5.<.$.=.*.*.*.<.*.W E W 1.4.6.3.3.3.e.3.e.e.e.e.3.$.=.*.<.*.W R P R R W W E E W -.1.4.5.y.y.3.| Z D D T W *.<.<.*.=.P z I Y E E R T W T T T +.-.=.*.=.Z N T W E P P R P R R I P P i b P P P k P E Q E I I I P P E E k g P I b P I W *.=.R B R R R R W } V V P I I P P i i i i u u f H W D 6 4 H R H V N h Z $.$.3.3.*.=.*.[ 0 [ | ;.o.o.C * * 4 > * * g -.Q P $.<.3.e.e.u.e.3.3.3.3.3.6.<.:.<.<.&.=.T T T =.6.h s ",
"I.D f 3.*.V T =.&.<.3.3.3.3.3.e.3.3.r.y.e.e.e.3.;.o.Z f R W , @ @ 3 0 9 3 6 o.e.e.e.o.[ =.4.4.e.3.<.<.3.o.Z T E I P P f s V :.E d y d d g k P P P P B B g g d i p P P b v P U P V H D T R E I P I P B B B P E W E P P P k P I U U P B P P I E W W W Q Q Y I I R W =.=.} } | =.=.=.$.*.1.1.1.W W W W =.=.*.<.5.I.D.Q P P Y I p P P E Q E E W -.1.<.*.$.<.1.<.<.<.<.<.<.3.3.3.6.y.y.3.3.$.$.$.=.*.*.=.W W W W Q E E I E Q =.$.&.3.r.r.<.$.R P z P I E W =.W W W W P I Y I b i i i i g g g g B P W D h h D D H O.=.) o.e.y.y.r.y.r.3.3.3.h * 4 j Z D D , * 0 ) o.e.u.) } D *     sXsXsXsXsXsXsXsXsXsXsXsXsXsXsXsXsXsXsXsXsXsXsXsXsXsXsXsXsXsXsXsXsXsXsXsXsXsXsXsXsXsXsXsXsXsXsXsXsXsXsXsXsXsX=.j [ | [ C 0 3 4 *.r.*.Z h > h 3.<.4.r.y.y.r.r.r.e.C H +.T T T H g 4 [ *.W P d k k k P P E E W -.Q W W -.1.<.<.4.<.*.*.:.1.1.1.:.:.-.W W T W W =.=.=.W E W 1.<.<.&.$.;.3.;.3.;.3.3.&.} D W =.W V B P R R R E I I E Q 1.1.2.<.<.*.=.} W W =.-.1.1.-.=.W P k p p P k g P E R B P Q Q W W V B B B R P P I I P P P P P P p p P P p P I E E E I I P P P I P P k P I n P P E W W P g P I I E R B B B B P P b i i i u u u d H T =.h , s B B B N C h Z $.<.6.6.<.=.$.[ 0 ) | ;.o.| h * * 4 > * * g -.Q R =.3.e.u.p.u.e.3.3.e.e.r.6.<.=.:.1.:.=.=.W T *.5.h s ",
"G.H h 6.<.V T =.*.3.e.e.3.3.e.e.e.3.e.y.e.e.e.e.;.| L f R E , @ @ 3 c 9 > 6 o.e.e.e.o.' =.4.5.r.3.*.*.<.| Z V P g i g g s g =.Q k i i i P P P P P P B B g g g i g P P B B B R R V D } =.=.=.W E W W V V R W W W W W E I E E E E W U I P P I W Q -.Q Q Q Q Q Q =.*.=.*.*.&.*.<.<.1.1.1.1.1.-.+.+.-.-.-.:.1.4.4.5.D.-.E E E E P R W Q -.Q Q -.-.1.1.<.<.<.1.1.1.1.<.<.<.<.<.4.4.5.6.<.<.$.$.$.} &.*.<.=.W =.W Q Q E W W =.*.&.3.3.5.5.<.=.R P P P I W =.=.=.W T R P P I P v i i i i g g g j R -.:.j s j H H B W =.) ..3.r.r.r.y.y.r.3.3.C * 4 j Z D ' , * 9 ) o.e.e.) } D *     sXsXsXsXsXsXsXsXsXsXsXsXsXsXsXsXsXsXsXsXsXsXsXsXsXsXsXsXsXsXsXsXsXsXsXsXsXsXsXsXsXsXsXsXsXsXsXsXsXsXsXsXsXsXsXh ' ;.| [ h > 4 ;.4.=.C h 3 C r.3.*.:.r.r.r.r.r.3.C H W R D V H g < C &.=.W B g g P P P E E -.-.W W -.1.1.1.=.=.=.*.:.1.1.-.W W =.W W W T W W W =.-.+.=.-.1.1.*.=.=.&.$.$.$.&.&.;.*.=.T T W T T R R R R R W W Q Q Q Q -.=.$.W W =.W T W W -.Q W W T T R P z P P B P E E R R W Q Q W W W V H H R P R R E I P P P P P P P I I P E Q -.W W Q Q E E I E R R E E I I I E E W W P P E E I E R H B V R P P P B g u u t u g V T T 4 > s f u f B h f Z $.<.<.*.=.W =.[ 0 ) ..o.....h > * 4 3 * * g -.Q R } ;.e.u.p.u.e.3.3.e.e.r.6.<.=.*.<.1.=.=.=.W *.y.C 6 ",
"G.Z h 6.1.V T =.=.;.e.e.u.e.u.y.e.3.e.u.e.e.e.e.;.| C f R E , @ @ 3 C 9 > 6 o.e.e.3.3.' =.:.:.<.*.=.=.=.} N H R B g g g f f T =.P i i P P P P P W W T T R V V B B P B B B V D J } ' =.=.=.=.=.T T T D ' =.$.=.} ' =.=.=.=.=.=.W W W W W W T O.=.=.=.=.W W W =.=.=.=.=.=.&.;.*.*.<.<.<.<.*.*.*.*.:.1.1.<.<.<.*.*.<.:.-.=.=.W *.*.*.*.:.:.:.-.:.*.*.*.*.*.&.*.*.*.*.<.*.<.<.1.1.1.<.*.<.&.&.=.| ;.<.<.<.*.*.*.=.*.*.*.*.*.&.&.*.3.4.<.*.=.=.D H T =.*.*.;.&.=.=.=.=.W R B V H j j B B g g H T :.*.f f N j j R +.=.) ..o.3.3.r.r.r.3.;.3.C > 4 j Z &.=.4 * 9 ) ..e.e.[ Z V $   sXsXsXsXsXsXsXsXsXsXsXsXsXsXsXsXsXsXsXsXsXsXsXsXsXsXsXsXsXsXsXsXsXsXsXsXsXsXsXsXsXsXsXsXsXsXsXsXsXsXsXsXsXsXsXsXf [ e.3.[ h > 4 ;.;.| C h 3 C r.4.*.:.4.4.4.4.*.| h g T H H N B f s L &.*.=.D D D T T W =.-.*.*.1.1.1.<.<.<.*.&.*.<.<.4.<.*.=.T =.=.=.:.*.*.*.*.<.<.*.1.*.*.*.*.*.<.<.*.*.*.*.<.<.<.*.=.=.=.=.=.=.=.=.W =.=.:.:.-.-.-.-.*.*.&.=.*.=.=.-.:.:.:.-.*.=.=.=.=.=.=.=.=.=.=.=.W T W W W =.=.=.O.D ' D W W =.=.T T T T W W W T T W =.$.*.*.=.=.=.=.T W =.W =.=.&.=.=.=.=.=.=.=.$.=.=.=.W W T T D D D D V V H B g f f s s N T T h , , f g g h B h 4 C =.$.$.W T T =.[ 0 ) o...[ ) 0 > > 3 3 * > j C.Q R ' ;.;.e.e.e.e.3.3.e.e.e.6.<.<.6.5.4.*.=.=.=.<.y.h f ",
"D.N f 4.<.H T T T =.r.y.y.y.y.y.e.3.3.u.u.u.u.e.;.} L f R R , @ @ 3 0 9 > 0 >.u.e.e.3.' =.*.*.<.*.=.T T Z h H E R P B g h h N f < , , , , , , > > > > > > > > > > > > > > > > > > > > > > > , , , , , 4 4 3 3 3 3 4 4 4 4 4 4 , , , , < 4 , 4 4 , , > , , , > > 3 > > > > > 3 4 3 3 3 3 > > 3 3 4 3 > > 3 4 > 3 4 4 4 4 3 4 4 4 3 3 3 3 > > > > 3 3 > > > 4 4 , , 4 > , , > , > > , > > > > > > 4 > 3 3 3 3 > 3 4 4 4 4 4 3 4 3 3 3 > > > > > > 3 4 4 4 4 4 4 4 , , , , , 4 4 < < , , 4 4 , 4 4 , 6 j j T +.:.&.C [ | &.<.3.4.*.=.=.&.h > 4 C =.5.<.4 * 9 ) o.e.e.) D V &   sXsXsXsXsXsXsXsXsXsXsXsXsXsXsXsXsXsXsXsXsXsXsXsXsXsXsXsXsXsXsXsXsXsXsXsXsXsXsXsXsXsXsXsXsXsXsXsXsXsXsXsXsXsXsXsXh Z ;.;.[ h > 4 ;.r.;.[ h 3 h r.4.4.r.4.3.;.&.| ) 0 h R H H B H d s C C h 4 , > > > > > , , 4 4 6 4 4 4 6 6 4 4 4 4 4 4 4 , > > > > 3 4 3 4 4 4 3 3 4 4 , > , 4 , , 4 4 4 , , 4 4 4 4 4 4 4 4 4 4 4 , , 4 4 4 4 4 4 4 4 4 4 4 4 4 < < s s < 4 s s 6 4 4 s 4 4 4 4 4 , > > > , , , , > > , = = = , , , > > > > , , , , > > 4 4 3 > 4 , 4 4 4 , 4 4 4 4 4 4 4 4 4 4 , > > 3 4 4 6 6 4 4 4 3 > , , < < , , , , , > > 4 f f , 4 6 h B R H B h 4 j D V W T W W W ) ^ o.e.o...) 0 @ * > * @ * B C.-.W O.=.| 3.e.e.e.e.3.e.e.e.3.3.e.y.y.6.*.=.=.=.1.6.h f ",
"D.N f 4.<.R R R R =.4.y.y.y.y.y.e.3.3.e.e.t.t.e.;.} D h R W , @ @ 3 6 9 3 0 3.t.u.e.o.[ J =.=.*.*.=.T T Z h H W E R B g h j 4 o . X X X . X X . o o o . . . . . . . . . . . X X . . . . o . . . . . . X o o O @ @ @ o * @ @ @ @ @ @ @ * * @ @ @ @ @ @ @ @ * * @ @ @ @ @ * * @ @ @ @ @ @ @ @ @ @ @ @ @ @ > > @ @ @ @ @ @ - > > > > 3 3 > > * > 1 * @ @ @ @ @ @ @ @ @ @ @ @ @ @ @ @ @ * * * * * * * @ @ @ @ @ @ @ @ o * * @ * @ o > @ @ * * * * @ @ @ @ O @ @ @ @ o o o o o o X . . . . . X . . o 4 f N R +.-.:.=.C ..o.<.<.4.:.*.=.=.=.h * 4 Z *.I.4.4 @ 9 ) o.9.e.) D R *   sXsXsXsXsXsXsXsXsXsXsXsXsXsXsXsXsXsXsXsXsXsXsXsXsXsXsXsXsXsXsXsXsXsXsXsXsXsXsXsXsXsXsXsXsXsXsXsXsXsXsXsXsXsXsXsXh [ ;.| ) h > 4 ;.y.r.} h 3 h 3.6.I.I.r.3.;.;.o.) 0 h T T D H R g s 4 > $ o o o o @ @ @ @ @ @ * @ @ o @ * * @ @ @ @ @ @ @ * * * @ @ @ @ @ * * @ @ @ * > * * > > * * * * * * * * * @ * @ * * * * > * * * * * @ @ @ @ * @ @ * * * $ o o o o o @ @ o o @ @ @ @ @ @ @ @ o o o o o o X o o o @ o o o o . X X X X X X X X . . . o o . . . . . . . . X X X X X X X X o O o o o o o o o o o o X X . . . X . . . . . . . . . . . * f h f P W T H h 4 C D V R W W R T C ) o.e.e.| ) 0 @ @ > @ o * H F.1.W =.=.} ;.u.t.t.u.e.e.e.3.3.3.e.y.r.<.$.=.=.=.*.6.h f ",
"G.N 4 4.<.R R R P =.4.r.e.t.i.i.r.e.e.e.e.u.e.3.=.' H g E W < @ > 3 7 9 3 0 e.i.t.e.o.L } *.&.*.*.=.T W ' h R Q W W W H j 4 o X @ @ ; ; ; > > > > 3 > 3 3 3 3 7 3 3 > > 3 4 4 3 4 4 4 4 4 6 6 6 6 6 6 6 6 6 6 0 0 6 6 h 0 6 6 9 0 0 c 0 0 0 0 0 0 0 0 0 0 0 0 0 0 0 0 0 0 C C h ) C 0 0 0 0 0 0 ^ c 0 ) C C 0 C C C h 0 0 c 0 C C C ) ) ) C ) ) ) 0 0 c ) ( ) ) ) ( ( ( ) ( ^ 0 0 ^ / h h h h h / C h h h 0 0 0 0 0 0 0 0 h C h h 0 h h h 0 6 6 9 6 4 4 4 4 4 4 4 3 > > > 3 3 3 3 3 4 3 * * * * 4 6 g B W W Q T h | e.3.6.4.<.:.=.=.*.j * 4 C =.5.4.6 * 0 X.o.9.9.C W W >   sXsXsXsXsXsXsXsXsXsXsXsXsXsXsXsXsXsXsXsXsXsXsXsXsXsXsXsXsXsXsXsXsXsXsXsXsXsXsXsXsXsXsXsXsXsXsXsXsXsXsXsXsXsXsXsXf [ ;.o.) 0 = 6 r.y.3.[ h > h *.5.I.y.r.e.3.3.3.X.0 C W T T H R B s > > > 4 4 3 4 4 6 6 0 h h 0 0 0 h h 0 h C C C ) ) ) ) ) ) ) 0 0 ) ) C C h h c C ) ) ) 0 0 0 0 ^ ( ( 0 0 0 0 ^ 0 0 0 0 9 9 9 9 9 6 7 4 6 8 9 5 6 4 4 4 4 6 0 0 9 9 6 9 0 0 9 6 6 5 5 6 6 4 4 3 3 3 3 3 3 7 3 3 7 7 3 3 4 4 , 4 4 4 4 4 3 3 3 3 3 4 4 6 6 4 4 4 6 4 4 4 4 4 > > 3 > > > 4 4 3 3 7 4 7 3 3 3 7 4 4 4 4 4 3 3 > > * @ * = @ * @ o o o o > j f t R Q W T h 4 C =.R R R R R D L ) o.3.o.....C > @ @ @ @ > T H.C.W =.O.} ;.e.y.t.u.e.3.3.3.3.3.3.4.<.=.W W T T =.6.j f ",
"I.N 6 4.<.H R T =.:.6.r.e.4.6.y.y.u.u.u.u.u.e.3.| D g d E Q < @ > > 6 0 3 c e.a.t.u.e.[ Z *.*.*.*.W W =.} h H -.Q =.=.H f > $ @ > > < < < < s 6 6 h h h h h h h h h h h h h j j C j j j h h N C j C C C C C L ) ) ) [ [ ) ) ) ) | ....} [ | | ..[ | [ ) ) ) L ) [ ) [ ..............) ) ) ) ) | ..| ........{ { ..| ) ) [ [ [ | ......| ........| ) L ) ........[ ....o.....) ) ) ) ) ) [ Z L L ) ) L L L L L L ) ) ) ) L L Z Z L L C C C C C C L L C C h j C C C h h 0 0 0 h h h h f 6 4 > * > 4 f g V T W +.O.h ..3.r.r.6.6.<.:.1.*.h * 4 C D =.=.4 * 0 ) o.o.o.j R Q = . sXsXsXsXsXsXsXsXsXsXsXsXsXsXsXsXsXsXsXsXsXsXsXsXsXsXsXsXsXsXsXsXsXsXsXsXsXsXsXsXsXsXsXsXsXsXsXsXsXsXsXsXsXsXsXsXsX' ;.o.) 9 3 4 3.y.;.Z h 4 h ;.3.4.i.p.p.t.e.e.X.0 C W =.O.=.E j j s 4 4 6 6 6 0 h C L L Z [ [ C ) ) ) ) [ [ ....o...| | ......[ ) ) [ [ [ [ [ [ [ ..{ { ) ) ) ) [ ) [ Z [ ) ) [ [ C C C h h C C C C L L Z [ Z Z C C C C C Z [ Z L C C [ [ [ L C C C C C C C C C C C C C C C C h h h C C C C C h C Z C C C C h h C C C C C C C C h h C j h h j h h h h h C C C h h C C h h h h h h h h 0 0 6 f 6 4 4 4 f 6 4 , , , > * > h s s H R P B h 6 C W E Q W P P =.[ ) o.o.o.o.o.C @ * 4 3 @ > W H.F.W D =.&.3.3.t.t.u.e.3.3.3.3.r.r.<.=.+.=.W T D $.4.h f ",
"I.N 6 6.:.H T W :.4.r.y.y.r.r.t.y.t.y.u.e.e.r.3.*.D g d E Q s * > 4 0 0 4 0 e.a.i.u.u.[ J *.:.4.5.4.1.1.&.j H -.-.:.=.B f s > * * * > , > > > > > 4 4 6 6 4 , 4 4 4 4 4 4 4 4 4 6 6 4 6 , , 6 6 6 6 6 6 0 0 0 0 0 h h h 0 0 0 0 0 C C C C C C C C C C C C C h 0 h h C C C L C C C h h h 0 0 h C C C C C C C C C C C C 0 h h h h h h h h h h h h h 6 6 0 h h h h h h h h h h h h h h 0 6 h 0 0 h h h h h 0 0 0 0 h 0 h h h h j j h h h 0 h 0 0 6 0 h 6 6 6 6 6 6 6 6 4 4 < 6 4 4 4 4 4 > > * * > 6 j B T =.W Q O.C ..3.3.r.r.6.4.<.<.4.h > 4 Z ' =.*.6 * 0 ) ..o.;.N R Q > sXsXsXsXsXsXsXsXsXsXsXsXsXsXsXsXsXsXsXsXsXsXsXsXsXsXsXsXsXsXsXsXsXsXsXsXsXsXsXsXsXsXsXsXsXsXsXsXsXsXsXsXsXsXsXsXsXsX' ;...) 9 > 4 3.y.*.' C 4 h *.*.4.y.a.p.i.u.e.X.0 N W T H T I j R H s * > > , 4 6 0 h h C C h h h C C C C C C C C C C C C C C C C C C C C C C C ) ) L ) L C C C C C C j h h C j j h h h 6 6 f h h h h h j h j h h h h h h j h h 6 6 6 f f h h 0 0 6 0 h h h 0 6 6 0 0 h 0 h h 6 6 0 h f 6 6 6 6 6 6 f f 6 6 6 6 6 6 6 6 0 h 6 6 6 s f 6 4 6 6 6 6 6 6 6 6 6 6 6 0 6 6 0 6 6 6 6 6 6 6 6 6 6 4 4 4 > , , , > * * > > * , f s f H j j R j 6 Z =.W W W W W =.} C ..| o.o.o.) @ * 4 3 * > T H.C.T O.&.*.*.;.3.r.t.u.3.3.e.e.y.y.<.=.+.-.=.W T =.4.j f ",
"I.N 4 4.1.R T W +.:.r.y.a.y.y.t.t.i.y.e.3.3.r.r.<.=.g d E Q s * > 6 C 0 4 0 e.a.i.p.u.| =.1.<.6.5.4.1.=.} C H Q -.-.W g g B s & $ * * * * * > > > > > , , , , , , , , , , , 3 > , , 4 , , > > 4 3 > > > , 4 6 , 4 6 6 4 4 4 4 4 6 6 6 6 6 6 6 6 6 6 6 6 6 4 4 4 6 6 , < 6 s s 6 6 6 < < , , 6 6 6 4 6 s f 0 6 f f f 6 6 6 6 s s s 6 6 6 f s 6 6 4 < 4 6 6 6 6 6 6 6 6 6 6 6 6 6 h 6 6 s s 6 6 f f f 6 6 4 4 6 6 6 6 6 6 6 s f f u 6 6 6 6 6 < < 6 6 4 4 4 4 4 < , , , , , , , , , , , , , > * 4 Z Z B T =.E E O.Z | ;.3.r.r.r.4.<.4.4.h > 4 Z =.<.<.f = 0 ) ..o.;.H E W & sXsXsXsXsXsXsXsXsXsXsXsXsXsXsXsXsXsXsXsXsXsXsXsXsXsXsXsXsXsXsXsXsXsXsXsXsXsXsXsXsXsXsXsXsXsXsXsXsXsXsXsXsXsXsXsXsXsXZ ;.| ) 0 > 4 3.r.&.' Z 4 f *.<.3.y.a.6Xa.u.e.o.0 V Q R j R P g P Q R , & > > > , , 4 4 4 4 4 6 4 4 6 6 6 f f 6 6 6 6 6 f 6 6 6 6 4 6 4 4 s f h f f h h h f s 6 f f f s s 6 6 s s 6 6 4 4 4 4 4 4 6 6 6 6 s s s s s s s u s f s s 6 s 6 6 4 6 6 6 4 4 < 4 6 6 4 4 4 4 4 4 4 4 , 4 4 4 4 4 4 , 6 4 4 4 6 4 , 4 6 4 6 6 6 6 6 6 6 6 4 , , , , , , , , , 4 4 4 , , , , , , , , < < , , , 4 4 , > > > > > > > & & & * * * 6 N f g H g g H B f Z $.=.=.=.W W =.[ 0 ) | ;.3.o.) @ > 4 3 > > T F.C.R O.&.*.=.;.3.r.y.t.e.3.e.e.y.y.6.:.-.:.=.=.W -.D.j f ",
"I.N 4 5.<.T O.=.=.*.r.a.p.i.t.e.u.i.y.e.3.3.3.r.4.=.j d E Q s @ 3 0 ) ( 6 0 3.y.t.t.e.| =.1.<.<.<.+.Q W D N H W W W E g d H B , & & * > > > t t t t u t t t t < < < < t t t s < u f f s u f f f s < < < < < s s u 6 6 < s s 6 6 4 6 6 < u u f f s < s f f s 6 6 f f f f g g h h h h h f s s s s s h B N N h h h h h f s f f g g B N h h g g g h f f f f g g h h C C h h h h s s s f f f f h B h j j h h h s f h h h h h B B g f f h g h f s u u s s s s s s 4 < t t t , , , < < < , , , < t < h | Z h R R R +.=.Z | 3.3.r.y.r.4.<.<.3.h * 4 Z &.6.6.h * 0 [ | ;.&.j P P & sXsXsXsXsXsXsXsXsXsXsXsXsXsXsXsXsXsXsXsXsXsXsXsXsXsXsXsXsXsXsXsXsXsXsXsXsXsXsXsXsXsXsXsXsXsXsXsXsXsXsXsXsXsXsXsXsXsXZ ;.| [ 0 > 3 3.r.;.=.[ 4 f <.<.3.i.6X6Xa.i.u.o.h V Q P j P P g d Q -.g , 4 < < 4 4 s f h f j N h h h s s f j N C C C j j j j h 6 u s s u f h h h h f h h f f u u f d g g f s f h h f s s s s s f f f f g h h h h g h f u u f f h h h h h h h f f f s < t s f s < < < , < < < < < < < u u u s h f 6 s f f s 4 < < < 6 f f f s s s t , t < < < < < < < < s s < < < < < < t t t , , < < < , > : : > : & & * = = = & = < Z O.f g R g g B B 6 Z $.=.1.1.-.W =.[ 0 ) | 3.e.o.) @ * 4 3 > > R F.C.T =.*.*.;.3.e.r.y.y.y.3.e.y.y.y.6.:.:.:.:.:.=.:.D.j f ",
"I.C 4 5.4.T =.*.=.*.y.a.p.i.y.t.u.y.i.e.3.;.*.4.*.=.j d W Q s @ > 0 ) ) 4 0 3.t.u.e.9.| =.1.1.<.:.W W R N g H W E R E g u g R g t : , u f g g g g g P B g g g B B g i i i g g i n P P B B P P P P B B g g B V R R B B N D V V H N N V P P I E W P V W W W R P R W W W E W W W =.=.=.=.W T T W W =.:.4.1.=.=.=.W W R B B B P R W =.=.W W =.*.=.=.R R E R E E W -.1.*.=.J W T V B B P I W E 1.1.W H R Q Q W B H D T W R W W W W P W W W T H B g B B B H V N B g g B B g B B B j g g d f f f u f ' ;.Z h R H E -.&.Z | <.<.6.r.r.4.<.<.3.h * 4 Z =.r.r.h > 0 [ ;.3.&.g P P & sXsXsXsXsXsXsXsXsXsXsXsXsXsXsXsXsXsXsXsXsXsXsXsXsXsXsXsXsXsXsXsXsXsXsXsXsXsXsXsXsXsXsXsXsXsXsXsXsXsXsXsXsXsXsXsXsXsXZ ;.| [ 0 > 7 e.I.3.;.[ 4 h <.6.3.u.p.6Xa.i.u.7.h V Q E R E P g t P B.I g j B H H H H H D =.=.=.T T H B B T =.=.=.=.=.=.D D T D H B R P B P R R R T V R R R P P P P P E E V B R W W R R R R R R R W W W W W W W =.=.W E P g k R W =.=.=.=.T T V V R R g B P E R P B B B B B B g g g g B B P W W R H N B H V B B P B B B B B B R P v b P g g g g g g g g g g g R W R g g g g g i i g g g f u u d g u t t , t t t , t g =.' f g R V H P g 6 C W =.=.=.1.1.=.Z 0 ) ..o.>.o.0 @ > 4 3 > > H F.C.T =.&.3.e.e.e.e.r.r.r.3.3.r.t.t.6.<.:.:.:.*.=.:.D.j f ",
"I.C 4 5.4.T =.=.*.3.y.a.a.a.y.y.t.u.e.e.3.3.*.*.&.T j d W Q s @ 3 9 ) ) 4 0 >.y.t.e.>.| =.1.1.1.*.T E H N f B E E E E j t t R R u t u i g g g k k P P R g g P W W I B i B P b n Y n P P I E E E Y U I I P P E Q E P B W =.=.W W R W W Y Y j.k.Q Q Q Q -.-.Q Q Q 1.Q c.c.Q E W <.<.<.1.*.-.-.1.1.1.D.G.C.-.=.1.1.-.Q E E Y Y E W =.=.W =.=.<.1.W R W E E E Q -.C.4.1.*.1.1.1.Q E Y Y Y Y c.C.1.1.=.Q S.Z.c.Q E Q Q Q Q 1.1.-.W W 1.1.1.Q E P P P P P E W V H V H P P I I I I E E P P j g g i g &.=.j h T V R +.=.Z | <.*.<.<.4.6.<.*.3.h * , Z | 3.6.h > 0 [ | ;.=.g P B & sXsXsXsXsXsXsXsXsXsXsXsXsXsXsXsXsXsXsXsXsXsXsXsXsXsXsXsXsXsXsXsXsXsXsXsXsXsXsXsXsXsXsXsXsXsXsXsXsXsXsXsXsXsXsXsXsXsX[ ;.| _ 0 * 7 r.$Xr.;.Z 4 j 4.r.6.u.p.p.a.i.u.o.h R Y P P E P g t g +.W P R E E W W T V W 1.:.=.+.Q W I E W =.W T =.*.=.W D T T E W E E I E E W W W W Q Q E E I I E Y k.Q W W Q 1.Q E E Q Q Q E E Q Q Q -.-.-.1.1.1.-.Q E I P E -.1.:.=.=.=.=.W W Q Q E P I E E E W E Q -.Q Y I P I P P I E Q Q Q W V H R W Q Y z.Y n b P P W ~ Y j.j.j.I P I I P P P I I I I Q C.Q P P k p p i k P P g d i g P P P i i u i u u u g D =.N t g R R V B h 6 C T W W W W -.:.[ 0 ) ..o.o.o.0 @ > 4 3 > > H F.C.T } | 3.e.e.u.e.4.*.=.*.4.r.3.3.6.4.:.-.=.=.=.*.5.j f ",
"I.j 4 5.4.T =.=.<.r.u.p.a.p.e.3.e.e.e.u.y.r.4.<.&.T H j E -.s * > 3 0 0 3 0 3.a.p.e.9.;.=.1.1.:.=.B j B N f B Q E E R j f , g B g f u u i i d g j P W R j j R Q Q E k i k P b n j.n b I W E Y Y Y I I I I I Y Q E P P W W W W E E E E Y k.j.Y Y Q -.Q Q Q Q E E Y j.c.v.k.E W 4.6.<.1.*.=.-.-.1.C.G.G.C.-.1.1.~ Q Q E Y Y Y W -.1.=.$.=.*.4.<.=.R W E Y Y k.C.C.1.1.1.1.1.Q E Y I I j.c.Z.C.2.1.1.1.x.v.c.j.k.Q Q -.1.C.C.+.Q -.1.1.1.E E I E I k P Q Q R R W P P P I Y I P P P P k g g g i R <.} j g W V P E T Z | <.<.<.<.4.5.<.<.;.h * , N | 3.3.6 > 6 ) [ | } j R V * sXsXsXsXsXsXsXsXsXsXsXsXsXsXsXsXsXsXsXsXsXsXsXsXsXsXsXsXsXsXsXsXsXsXsXsXsXsXsXsXsXsXsXsXsXsXsXsXsXsXsXsXsXsXsXsXsXsX' ;.| ) 0 @ 3 e.$X6.[ h , j r.r.y.i.p.p.i.y.p.o.h R Q I R E P u 4 h =.-.E P W W Q Q W R =.1.-.W E E E I E E +.=.W =.*.*.=.D V E E Y Q E I I E E E W W W E I I Y j.I k.k.Q Q -.Q k.Y I Y Q Y E Q Q -.-.-.-.:.:.1.1.Q E Y k.Y I E -.1.1.=.T W =.W Q Q Q E I I Y I E Q +.Q Q Y I n I I P P I Y Q Q E W W V P P j.z.g.d.m Y Y Y Y Q f.x.m.g.f.I Y Y Y P b I Q Q k.c.Q Q Y I b p p P P P P k k k P P P p i r i t t u d H =.' 4 > g j g g B g f Z W W R H W -.4.[ 0 ..3.e.3.o.0 @ > 4 3 > * g C.:.H Z | >.e.u.u.u.4.&.T *.6.r.3.3.6.4.:.+.W T T *.5.j f ",
"5.C 4 4.<.R O.=.=.3.y.y.u.e.3.*.=.;.u.p.p.u.r.3.*.&.H d W -.s @ * 3 0 9 3 0 >.p.p.p.e.| O.-.-.*.*.=.T N N s P Q Q Q I k f , s g g d y y i g i i j R E R k k P E E P g i i g n n Y Y n P P I I I I P P i B P W W P P P R W W E Q E E E Y Y Q Y E E Q 1.-.Q Q Q Q Y j.c.Z.k.E W 1.4.1.<.=.=.=.-.1.C.D.G.1.1.1.1.1.Q E E E E P Q 1.1.W W =.=.:.-.W W E E E Q -.1.1.1.1.1.1.1.1.Q Q E I Y Q c.Z.C.C.2.2.c.c.c.c.c.Q Q -.1.1.1.1.-.W 1.1.-.W E I P k k E Q W W W W R P P I I I P E E E P P k k B :.4.' f j W T R R D Z =.1.*.<.<.<.:.:.4.4.h * 4 h | 3.*.6 > 0 C C | [ h D D *   sXsXsXsXsXsXsXsXsXsXsXsXsXsXsXsXsXsXsXsXsXsXsXsXsXsXsXsXsXsXsXsXsXsXsXsXsXsXsXsXsXsXsXsXsXsXsXsXsXsXsXsXsXsXsXsXsX' ;.| C 6 * 3 ;.I.;._ Z 4 0 e.y.I.9X9X5Xp.p.u.o.h R Q E P P P g , 4 Z <.=.T W +.-.W W W W =.=.=.W E E E E Q Q +.=.=.:.*.=.T B P I Q Q E E Q Q Q Q Q -.W W E I I I I Y Q Q Q W +.E E E Q Q Q Q Q -.-.-.-.-.:.1.1.-.E E Y I I I E Q -.-.Q W W W =.=.-.W E E I E W W W W +.W I E Y I Y E I I I W E W W R B B P U Y m d.j.j.Y Y E I Y z.x.x.d.n n Y Y P P I Y Q Q Q ~ Q E P p p k P P I P k g P P P k k i y i i y y d P P f * = u i u d B f s N W W Q W W 1.1.[ 0 o.e.u.e.o.0 @ > 6 3 > * h 1.-.H ' | o.9.u.p.t.y.r.3.3.y.r.<.6.5.1.=.=.=.O.T *.y.C h ",
"5.C 4 4.4.T O.=.=.<.t.t.t.u.r.6.<.3.u.p.i.y.y.r.3.*.O.j +.-.s * > 3 0 9 3 0 e.p.p.e.7.| =.1.-.&.<.*.W V C f B I I I I P u , h N h s 4 s f d d f f h h g g B N B g h s u u s g P P P B N N H R R V V H g g N D D V N N N D D D T =.W T R T W T D J } =.J D T W W W W E W W D D } =.&.&.&.&.&.=.*.*.1.:.*.*.=.=.$.=.W =.T H B D D J D ' ' ' } =.=.=.=.T T T =.&.=.=.} } } | D D D V V B R W =.=.*.*.=.W Q Q Q =.=.W =.=.=.=.=.=.D Z J =.=.D H g g g H Z Z Z N N C h g g B B B H H H j g f f f h C j N T W +.+.-.&.Z } =.<.D.D.4.:.*.<.3.h * 4 h =.3.*.6 > h [ ..o.| N T V > . sXsXsXsXsXsXsXsXsXsXsXsXsXsXsXsXsXsXsXsXsXsXsXsXsXsXsXsXsXsXsXsXsXsXsXsXsXsXsXsXsXsXsXsXsXsXsXsXsXsXsXsXsXsXsXsXf C [ [ h 6 > > ;.r.;.[ h > 0 r.I.+XqX9X5Xp.p.p.o.h H E I P R R B 4 4 C *.=.N Z D D D Z Z D ' ' D D H H H T T =.} } ' [ [ Z Z N N H H B H H R D D D D Z Z D D T R P H R T W D D D D D T W =.=.=.=.=.=.=.=.=.&.*.=.=.=.=.W R B N V D D D Z Z C Z D J =.=.W W D D =.O.D ' D N N R R P B V H H H V D D D N C N V V P v U U W W W W V B P I I P B B B B B R W W W W W W W V H B g g H H H B h f g g g g g f u , t < t s s s 4 , t g g g j V g s j W Q 1.1.Q Q -.} ) ..o.o.3.o.0 @ * 3 3 * * g C.-.H } ;.e.e.u.u.t.y.r.3.3.e.3.*.<.4.<.*.=.&.=.=.*.y.C f ",
"y.N 4 <.<.D ' =.;.e.e.u.u.u.y.6.<.r.u.p.a.y.r.r.<.*.D g W :.f @ > 3 0 9 > h 3.y.t.e.o.| =.1.=.&.3.<.*.T C f B P p i P P f , 6 , * o o o o $ $ $ o o o * > > * > * * * * * * * * * * * = * * * * * * * * * * > > * * @ @ @ @ * ; > * * * > > ; > > > * * > > > > , , > > > > > * @ @ * > > > > > 4 4 4 4 4 > > > 3 3 3 > > * > > > 3 3 3 3 @ * > > > > > > > > > > > > @ @ * * > * * * * > > > > > > , , , , , , > = , , > > > * * > > * * * * * * * * * * @ @ o @ @ o o @ @ @ * * * @ o o $ o o > h W E W W +.&.Z D =.1.F.F.1.-.=.:.<.h * 4 C | 3.3.6 > C | o.e.o.B T V > . sXsXsXsXsXsXsXsXsXsXsXsXsXsXsXsXsXsXsXsXsXsXsXsXsXsXsXsXsXsXsXsXsXsXsXsXsXsXsXsXsXsXsXsXsXsXsXsXsXsXsXsXsXsXsXsXf Z [ [ C 6 > > | r.;.] j , 0 y.I.I.$XQ.p.p.t.t.o.0 g P I R E E N 4 3 3 4 > * @ * * * > * * * * > * * * * > > > > > @ @ @ @ @ @ @ @ * o * * * * @ @ O o o @ @ * % o * * > > 3 > > * > > > > > > > > > > > > > > > > > > > * * * > > > > * * * * > > > > > > > > > > > > * * * > > * * * * * * * * * * @ @ @ * * % $ % * ; * * * * o $ % & * * @ o o * > , > * * * * * * * * * * * * * * @ @ @ * * * * o o X o @ @ * * @ * , s j B B H H g s g R Q C.F.c.Y -.} ) ) o.o.o.o.0 @ @ > > * > g D.:.H =.3.e.e.e.u.p.i.r.3.3.e.3.;.3.r.r.6.*.&.=.=.<.y.C f ",
"I.j 4 <.<.D ' &.3.y.u.u.t.t.e.<.<.r.y.i.i.y.e.e.*.=.H g W 1.f @ > 3 0 6 > 0 o.e.e.e.o.' W -.=.| 3.<.<.=.N f B P i i k P d > @ X   . . o o o o o o o o o o o o o X X X X X X X X X . o o X o o o o o o @ @ * o o o o o o o o @ @ * * * @ @ @ @ @ @ @ @ @ * * * > > > > > > > > @ @ @ > > > > > > > > > > > > - * * * @ @ @ @ * @ @ * > @ @ @ @ * * > > > > > > > > > > > > > > > > * * * * > > > > * * * * * * * * * * * * * * * * * @ @ @ @ * @ @ @ @ @ @ @ @ o @ @ @ @ @ @ @ @ @ @ @ @ @ o o o * f T W R R W O.Z D =.E -.C.C.-.=.*.*.f * , h | 3.3.6 > h o.o.e.o.B R H > . sXsXsXsXsXsXsXsXsXsXsXsXsXsXsXsXsXsXsXsXsXsXsXsXsXsXsXsXsXsXsXsXsXsXsXsXsXsXsXsXsXsXsXsXsXsXsXsXsXsXsXsXsXsXsXsXg | ;...) 0 > > | r.;._ j 4 h y.y.5.I.a.a.p.t.u.o.h g P E E W W H 4 * @ o o @ @ @ @ * @ @ @ @ @ * * * * * * * > > > @ @ @ @ @ @ @ @ * * * * * * @ O + O O O O @ @ @ @ @ @ @ * @ @ @ * * * * * * * * * * * * @ @ * * * * * * @ @ * * @ @ @ @ @ @ @ @ * @ @ o @ @ @ @ @ @ O o o o * * @ @ * @ @ @ @ @ @ o o o @ @ o X o o o o o o X o o X o o o X o X o o o o O o X o o o o o o o o o o o o O o o o o o o o o o o o o . X $ , t j R E B B g s g R W C.C.Q Y -.Z 0 ) o.3.3.o.0 @ * 3 > * * g C.:.T =.;.e.e.e.p.p.u.e.<.4.e.e.3.3.r.y.r.4.<.=.=.<.y.C h ",
"5.j 4 :.<.D D &.3.y.u.u.u.y.y.3.<.y.t.p.i.i.y.r.<.&.V B +.1.f @ > 3 0 9 > 6 ..3.e.e.o.[ V -.<.3.3.6.<.=.Z f B I P P P P u * . X o o * * > > > > > > > 4 , , , > > > > > > > > > , , , , > > , , > 4 4 4 4 4 4 4 4 , , > > > 3 4 4 6 6 4 4 4 4 4 4 4 4 6 6 6 6 6 6 4 4 6 6 6 6 6 6 6 6 0 0 6 6 6 6 6 6 6 6 6 6 4 6 6 6 6 6 6 6 6 6 6 6 6 7 4 4 6 6 6 6 6 6 6 6 6 6 6 6 6 6 6 6 6 6 6 6 4 6 6 6 6 6 4 4 6 6 6 6 6 6 6 6 6 6 6 6 6 6 6 6 0 6 6 6 6 6 6 6 6 4 4 4 > 4 4 4 4 4 4 4 4 4 4 3 > > > = * , s g R W W W =.Z D W E E Q C.1.-.=.;.6 * , h | 3.3.6 * 0 ..o.e.o.j R B : . sXsXsXsXsXsXsXsXsXsXsXsXsXsXsXsXsXsXsXsXsXsXsXsXsXsXsXsXsXsXsXsXsXsXsXsXsXsXsXsXsXsXsXsXsXsXsXsXsXsXsXsXsXsXsXsXg #.3.| C 6 * > ;.y.;._ j , h y.5.4.y.a.a.a.t.t.o.h H W W E W W g = * @ * > 3 4 4 4 6 6 6 6 4 4 6 6 6 6 6 6 6 6 f 6 6 4 4 4 4 4 4 4 4 4 4 4 4 4 4 3 3 4 4 6 6 6 6 6 6 6 6 6 6 4 4 4 4 4 6 6 6 6 6 6 6 6 6 6 6 4 4 6 6 6 6 6 6 4 6 6 6 6 6 6 4 4 4 6 6 6 6 4 4 4 4 4 4 4 > > , , 4 4 4 4 , , 4 4 4 3 > > , 4 4 4 4 3 3 3 > > > > > > > , , , > > > > > , , 4 3 3 > 3 3 4 3 3 > > > > , > > > > > > > > > > > > > > = * * * s f g P R B B d s g R I Y Q Y Y +.Z 0 ) o.e.3.o.0 @ * 4 > @ * g C.:.T ' *.3.u.i.p.p.t.e.<.3.r.u.e.e.e.r.6.4.<.*.=.1.y.C h ",
"y.j 4 *.<.D ' | ;.e.e.e.e.e.y.r.<.r.p.p.a.a.i.r.3.&.D B -.C.h * > 3 C 9 > 6 ..e.e.e.o.C H :.<.3.e.<.*.T Z h P Y E E E P g , o X o $ $ $ % % $ % * * * * * > * * * * * > > > > > > > > > > > > > > , , , 4 4 , , , , > > > > > > , , , , , , , > > > , 4 4 4 4 , , , 4 4 4 4 4 4 4 4 6 6 6 6 4 4 4 4 4 6 4 4 4 4 4 4 4 4 4 4 4 4 4 4 4 4 3 > , 4 4 4 4 , < 4 , , 4 4 4 4 4 , , 4 4 4 , , < 4 4 4 4 4 4 4 4 4 6 6 4 6 6 6 6 6 6 6 6 6 6 6 6 4 6 6 6 6 4 4 4 4 > > > , 4 4 4 > > > > > > > > > * > s f h R W W =.=.Z D W W Q -.C.D.1.*.;.6 $ , h =.3.3.6 * 6 [ ..3.| g R B : . sXsXsXsXsXsXsXsXsXsXsXsXsXsXsXsXsXsXsXsXsXsXsXsXsXsXsXsXsXsXsXsXsXsXsXsXsXsXsXsXsXsXsXsXsXsXsXsXsXsXsXsXsXsXsXsXh } ;...C 4 * 3 ;.y.3.[ j > h y.I.4.I.a.a.a.y.u.o.h T +.E R R W g , > * ; > = , 4 4 4 6 6 6 4 6 6 6 6 6 6 4 4 4 4 4 , , > > > > > > > > , , , 4 4 4 3 3 4 4 4 4 4 4 4 4 4 4 4 4 3 , , 4 4 4 6 6 6 6 6 6 6 6 4 4 4 4 6 6 6 4 4 4 4 6 6 4 4 6 4 4 4 4 4 4 4 , , , , > > > > > , < < 4 , , > > , > > > * * > , , , > > > > > > > > > > > > > > > > > > , > > > > > > > 3 4 , , , > , , , > > * * * * * * > > * * * * * * * * f g i g B P B g s j E I E Q Y Y -.Z 0 ) o.3.o.o.0 @ * 4 3 * * B F.1.T ' *.3.r.i.u.u.u.t.3.3.e.u.e.e.e.r.<.*.*.=.=.1.I.C h ",
"y.h 4 :.<.D ' | | 3.r.e.3.3.e.3.3.y.i.p.a.a.y.i.3.*.W V 1.C.h * > 4 h 9 3 0 3.u.u.e.o.) D 4.<.3.3.*.T V Z B P Y E Q Q I g s > o o o $ $ * * * * * * * * * * $ * * * = = > > * = * = = = > > > > > > > , , , > > > > > > > > > > > > > * > > > > > > = = * > > > > , , > , , , , , 4 4 4 4 4 4 < , , , , , > > > > > > > , > > = > , , > > > > > > , , , , , , , , 4 > 4 4 , , , , , , , , , > 3 4 4 > 3 3 3 3 > , , 4 4 4 4 4 4 4 > , 4 4 , , 4 , , > > > > > > > > > > > > > = * * * * * $ $ < H H f T =.W +.=.Z } *.&.:.:.D.D.<.*.;.6 $ , h ;.r.3.4 * 6 ) ..;.| g R R : o sXsXsXsXsXsXsXsXsXsXsXsXsXsXsXsXsXsXsXsXsXsXsXsXsXsXsXsXsXsXsXsXsXsXsXsXsXsXsXsXsXsXsXsXsXsXsXsXsXsXsXsXsXsXsXsXj ..3...C 4 * 4 3.Y.3.[ j , h y.I.G.I.i.a.a.i.e.o.h O.-.W R R W B H j , * , , , , 4 4 , , , 3 4 4 4 4 4 , 4 4 4 4 4 4 4 4 3 > > > , , , , , , , > 3 3 4 4 4 4 , , < 4 4 4 4 4 4 > > , , , , 4 , 4 4 4 4 4 4 , > > > 3 3 4 4 , 4 4 4 4 4 , , 3 > 3 3 3 3 3 > > > , > > , 4 3 , , , , , , > > > > > > ; > > = > > , , , > > > > > > , > > , , , , , , , , , > > > > > > 3 > > > = * * * * > > * * * * * * * * * $ * * % * < N g i B R R W B s H E E E Q Q C.:.Z 9 o.e.3.o...9 @ ; 6 4 * > H F.1.T =.:.<.3.3.e.u.p.y.3.3.e.t.u.u.y.r.<.=.=.W =.<.I.C h ",
"y.j , *.<.D T | ;.e.e.e.e.e.r.3.<.3.y.a.a.9Xa.i.e.;.=.T C.F.h * > 6 h 0 3 0 3.y.e.e.o.) Z 1.6.<.*.=.W H Z N R Y Y Q -.R f B j > $ * * > , < t s s s < < < < < 4 s f f f f f h h f f f h f f 6 0 h h h h h h s < < 6 6 6 4 4 6 6 f f 4 s s 4 s s f f s < 4 4 < < < < < < s s s s s f f s s f f h h h j j h h j h h h j h h h h f f f s 6 6 6 6 6 f f f j h h h f s 6 s f f s s f f s s s f h h C C C C C C C C N N C j j j C C C C C j j j g g j j h h h h h h h 6 s s s f s f s s s s 4 , , , j O.H g R W T =.=.Z | <.*.:.4.r.r.<.<.&.6 * , j &.r.3.4 @ 6 L | &.' g E R , $ sXsXsXsXsXsXsXsXsXsXsXsXsXsXsXsXsXsXsXsXsXsXsXsXsXsXsXsXsXsXsXsXsXsXsXsXsXsXsXsXsXsXsXsXsXsXsXsXsXsXsXsXsXsXsXsXg =.*.[ 0 4 * 4 3.Y.e.[ h > h r.I.5.I.y.a.p.e.e.o.h W -.P B T W j R =.j t f f j j h j j j C h h C C C C C j j j h C j j j j j h f f h h h h j h h h C C L L C h h Z h h Z Z C C C C C j j j j j j j j j C C C C h h h h h h f h h j C C C C C C C C C C C j j j j j j h h h j h h h h h f s f h f s s f f 6 f f s s 6 h h 6 f h h h f 6 f f f f f f f f h h j C C C C Z N B g h f f u s s h f f f f u u d d f f t t , , h Z h f R T W W B s H =.W W -.1.1.1.) 0 o.u.3.o.) 9 @ > 6 4 > > R F.C.T =.*.4.;.;.e.y.p.i.e.3.e.y.t.p.y.y.3.*.O.W =.<.I.C h ",
"y.h 4 *.<.T T &.3.e.u.u.u.e.u.e.3.3.y.a.6X9Xa.a.u.3.=.W C.F.h > 3 6 C 0 3 0 ;.e.e.3.o.[ Z *.<.*.*.*.=.D Z C R Q Y E Q R f N T h , < s f g j j j g g g g i i P g g B P P P k P P I I P R R W W W W W W W -.-.Q E E W =.=.W W W =.=.=.W W W W W W W W =.' ' ' } =.=.W W =.=.*.*.*.*.;.&.} =.*.&.*.*.*.<.<.&.;.;.;.&.&.*.*.*.*.&.&.=.&.;.=.| J D J W W =.=.<.*.*.&.=.=.| } D V D =.=.W E W Q Q -.1.1.1.*.=.=.+.Q E E W W W W W =.*.<.<.<.1.1.1.-.:.1.1.Q W W W =.O.T T T T T W Q E I P P B g d d D =.j f H j H O.=.D =.3.4.6.r.r.r.4.*.*.6 * , C | e.3.4 @ 6 C Z | D g P P : $ sXsXsXsXsXsXsXsXsXsXsXsXsXsXsXsXsXsXsXsXsXsXsXsXsXsXsXsXsXsXsXsXsXsXsXsXsXsXsXsXsXsXsXsXsXsXsXsXsXsXsXsXsXsXsXsXsXD | h 6 4 > 4 r.$Xy.o.) 4 h r.I.y.y.a.a.p.e.u.o.h T Q E R W W g B :.-.H H H W W W W W W =.:.:.=.=.=.W T W $.$.$.$.$.=.=.=.=.W J W W $.+.W W W =.=.=.=.=.=.W T W W *.<.<.<.<.<.4.4.4.<.$.$.=.=.=.=.=.=.*.<.<.<.<.=.=.=.:.-.W +.1.D.4.1.4.4.1.:.=.*.=.W W Q -.-.W W W T T T T T W W W E E E E E P R R R T R R R P P E R R R R T T R B B P P P R E E I I E E W W T D T R R P P E E R R H H T V V D H H R E P R j d u t < N } h h R T W W H f H W R -.D.D.D.4.[ c o.e.3.o.{ 9 @ > 4 4 > > P F.C.T =.*.4.r.u.u.i.a.i.e.3.3.i.i.i.t.u.r.<.&.=.=.<.I._ h ",
"y.j < <.4.T T &.*.e.u.u.e.e.p.y.e.3.r.a.9X9X9X6Xi.r.&.W C.F.h 3 7 0 C 0 > 6 | 3.3.3.o.[ Z *.*.*.<.<.1.=.[ C R Q E I E R f g W R f u g g k P P P P P P P i i P P P P P E E E I Y Y Y E E W W W W W W Q B.C.k.Q Q Q Q Q -.=.=.$.$.=.=.-.-.-.-.W W =.=.*.&.=.&.<.6.<.<.4.4.4.<.4.6.y.y.3.&.<.6.4.4.4.r.6.3.<.3.3.<.<.<.<.4.<.<.<.<.<.<.6.6.<.*.*.*.*.1.5.G.I.5.<.4.6.6.6.<.<.<.1.<.1.4.D.C.Q Q C.4.4.4.1.=.-.-.C.k.Y Q Q -.-.-.-.1.1.1.1.1.1.1.1.C.C.C.-.Q =.=.=.=.T T =.+.+.W E E I I P P k d g D [ h j W j j T =.Z | 3.r.y.y.r.3.*.<.*.6 * , j } 3.3.6 ; 6 C N =.R i P P & sXsXsXsXsXsXsXsXsXsXsXsXsXsXsXsXsXsXsXsXsXsXsXsXsXsXsXsXsXsXsXsXsXsXsXsXsXsXsXsXsXsXsXsXsXsXsXsXsXsXsXsXsXsXsXsXsXsXZ } C 6 6 > 4 e.$Xy.3...0 h r.I.y.a.a.a.p.t.u.o.h H Q E R T W g t R -.R R W E Q Q -.-.-.1.1.1.1.1.D.D.D.4.4.4.4.5.4.4.4.1.<.<.1.=.=.1.C.+.W W -.1.1.1.1.1.1.1.4.4.5.5.5.6.6.y.y.y.y.6.*.*.4.D.1.1.-.=.1.4.6.6.5.4.:.:.-.:.-.-.1.C.1.-.:.4.5.<.<.<.:.+.Q Q -.:.-.W =.=.-.-.=.=.-.-.+.E Y k.Y I E W W Q Q +.Q Q E Q C.E I E Q Q W W Q Q Q Q Q Q Q Q Q Y E E W =.W W E W E E E E E E R R T T T D H H H H R E R B d t t s D =.h g R E W W H f T =.W -.D.D.D.4...( ) ;.;.o...0 @ ; 4 3 > , B F.1.W =.*.e.u.t.t.y.p.i.i.e.e.u.t.t.t.y.y.3.&.=.=.<.I.Z h ",
"y.C 4 <.6.=.O.| ;.3.u.u.p.u.p.p.y.3.e.i.Q.9X9X6Xi.e.=.P B.C.h 3 4 0 C 0 3 4 ..;.3.3.o.) ' 1.1.<.<.<.1.=.[ j R Y I P P R f u W W g i k k k P P P P P P P g g P E E E E E Q Q I Y B.C.Q R =.=.=.=.=.=.-.D.C.Q Q c.~ ~ W =.:.*.&.&.&.:.4.+.+.-.:.:.:.:.=.=.$.$.1.1.1.1.1.1.1.<.4.4.r.5.<.=.<.<.<.4.4.5.5.<.*.<.4.<.1.1.1.1.1.4.4.4.:.-.4.4.4.:.:.:.:.:.D.I.I.D.4.4.5.G.5.4.4.5.r.<.:.D.H.C.-.-.4.5.6.6.4.1.:.:.1.C.C.C.C.1.1.1.4.5.4.D.D.D.1.D.D.D.C.1.4.4.<.*.*.=.W W 1.1.1.W W +.+.Q E R P k R &.[ h j R W R T O.C } 3.3.r.6.*.&.*.<.*.6 * , C } 3.e.6 ; 4 N D =.E i P P x sXsXsXsXsXsXsXsXsXsXsXsXsXsXsXsXsXsXsXsXsXsXsXsXsXsXsXsXsXsXsXsXsXsXsXsXsXsXsXsXsXsXsXsXsXsXsXsXsXsXsXsXsXsXsXsXsXsXZ | [ C 6 > > 3.Y.e.o.) 0 h 3.y.y.y.a.a.p.u.u.o.h V -.Q R R R j < N -.W E Q -.:.1.:.:.1.4.4.4.4.4.1.1.4.D.D.D.D.D.D.D.5.<.:.:.:.:.1.D.D.:.=.=.<.5.5.4.1.1.1.<.6.6.P.P.r.r.r.y.Y.Y.I.4.:.:.D.D.D.D.C.:.D.P.I.I.6.5.5.4.:.1.D.:.4.4.1.*.<.5.y.6.r.5.<.=.-.:.:.:.*.=.*.<.<.*.*.*.*.&.=.=.Q k.E R T =.:.:.-.W =.-.Q 1.C.Q E Q 1.-.=.=.:.1.-.:.1.:.-.-.k.Q Q R =.=.=.=.W =.+.+.Q E Q Q W W =.=.=.W W W E E E E P g i y d B =.N s g P P E W H f T :.+.+.+.Q -.1...c ) ..o.o.o.0 @ > 4 3 > > P F.C.=.&.*.e.t.t.u.u.e.t.y.u.u.u.t.p.a.a.y.3.=.=.=.<.y.C f ",
"y.C s 4.5.} =.=.;.3.e.t.p.u.u.p.i.e.3.u.a.9X6Xa.t.3.O.B B.C.f 3 6 h C 0 3 7 [ 3.e.e.o.) } 4.1.1.:.-.=.} Z h R Q I P P R f < H W g y i i i i k P P P P P i i P I I I P p p P I Y l.c.Y P T Q W E E P I Q k.Y k.j.k.Q E W Q W W W W -.-.E Q Q Q Q Q Q Q Q W W W -.1.-.-.-.-.-.1.1.4.4.1.=.-.-.-.1.4.D.4.1.=.:.<.1.1.1.1.-.-.-.C.1.-.Q -.1.1.Q -.+.Q Q 1.F.G.D.1.1.1.4.4.1.1.1.1.=.W 1.F.C.Q B.C.1.1.1.1.-.Q E I k.c.C.k.Q Q -.:.1.1.C.C.-.Q Q C.B.k.Q -.C.:.=.W R R W Q -.Q I E E E P P k k g R &.L f g l W R T T N D ;.3.r.<.*.*.*.<.*.h * , N <.i.e.6 * 4 Z W -.E i P I w sXsXsXsXsXsXsXsXsXsXsXsXsXsXsXsXsXsXsXsXsXsXsXsXsXsXsXsXsXsXsXsXsXsXsXsXsXsXsXsXsXsXsXsXsXsXsXsXsXsXsXsXsXsXsXsXsXsXZ ;.[ C 6 * , 3.a.e.o.) 9 0 3.r.6.y.a.6Xp.p.p.o.C W B.Q R H R j < h W W E E Q Q Q Q Q Q -.C.D.D.C.-.-.C.C.C.C.C.D.D.D.1.-.W W Q Q -.1.C.-.Q -.1.D.D.C.-.Q W W -.:.1.1.1.4.4.D.I.I.5.:.-.-.-.B.B.B.B.B.C.D.D.D.4.1.-.-.-.-.-.B.B.B.-.1.1.4.G.G.G.5.-.W W -.B.-.Q -.-.-.=.=.-.-.W E R E Y Y I P P W Q Q W P I I I Y k.k.Y Y Q Q E E Q Q E E E E Y Y k.k.Y I R E W E P P P I I I I I I I P P P P E E I P k I p i y i g R =.f t j R g P W H f T -.+.Q W E W =.[ C ) ..o.o.o.0 * > 4 3 * > B F.C.W =.;.e.t.p.p.u.u.p.i.y.y.y.i.i.y.r.r.<.&.=.=.<.y.C f ",
"y.C s 5.5.=.=.&.*.e.e.p.p.p.u.p.p.u.e.u.a.a.a.i.u.3.D B B.C.f 3 6 0 C 0 3 3 ..3.e.e.o.) =.D.D.:.W T W D Z h E k.Y P P R f > g R g i i d i d g P P P P P p p P I I I I P b P I j.l.l.j.I E E E E E I I Y k.l.j.j.j.Y Y E W W W W Q Q Q Q Q Q Q Q Q Q -.-.=.W =.1.1.1.1.1.1.-.=.-.:.<.:.-.:.=.=.:.4.4.4.:.=.:.1.1.1.1.:.-.-.-.1.1.-.-.+.=.=.W Q Q Q Q 1.C.D.4.1.-.-.-.:.1.-.Q =.W W Q c.k.k.k.-.-.-.Q ~ Q E I I Y k.k.k.k.C.C.B.Q 1.C.C.Q E E Q k.k.Q k.k.Q E W W W E -.-.Q E E E I P P z l R =.=.h s g P R R =.O.N D ;.:.<.:.:.:.*.*.*.h * , C <.r.e.6 @ 4 Z =.-.W i P Y y sXsXsXsXsXsXsXsXsXsXsXsXsXsXsXsXsXsXsXsXsXsXsXsXsXsXsXsXsXsXsXsXsXsXsXsXsXsXsXsXsXsXsXsXsXsXsXsXsXsXsXsXsXsXsXsXsXsXZ ;.| C 6 > , 3.a.e.o.) 9 h 3.r.5.Y.6X9Xa.p.e.o.C T -.E k j R j 4 s N R R W Y Y Y Y Q k.C.C.C.F.C.B.B.C.F.F.C.1.1.1.1.1.W W W W W W Q k.Q Q Q Q -.C.B.Q Q E E Q Q 1.1.1.1.1.1.D.D.1.-.-.-.Q -.-.B.C.C.1.1.1.D.F.C.-.Q E Q Q C.C.C.C.C.C.C.1.C.D.C.-.Q Y k.k.Q Q Q Q Q Q Q -.-.Q E I E I I Y I P E E Q E I E Y I Y l.l.k.k.k.Y I Y k.k.Y Y Y Y Y Y j.j.Y I I E E I I P P I I E E E E E E R P W +.Q E P p l g i d k P R N < s g j d B R H f H W W +.-.Q W W L C ) ;.o.o.o.0 @ > 3 > @ % B F.C.J } ;.e.i.a.i.i.i.i.i.i.i.i.i.y.e.3.3.<.*.=.=.<.y.C f ",
"y.Z s D.5.=.=.=.*.3.e.u.p.p.p.p.p.p.t.p.a.a.y.y.e.<.D B B.C.f 3 6 0 C c 3 6 o.e.e.3...) *.D.F.-.R W W W D f I l.h.I P E h > s g g u , , , , < t t t < , < < t u t u f f f f d g g g g f f f f h g g g g B B B g g g f f s h h h j g g g g f f f h h g h h j C N D D D V N h h h h j j h j h h h h h j h f f h h h h j g g H N C h f s 6 s s s s f h g j g g h f s s f h h h h h h h g h h f s s s f f f f f f f g g g B N g h s N B B g h h g j g g g h h f f f h h g j g g N g g g g f f g =.Z s s H P W +.:.=.N O.*.:.+.Q :.:.:.:.*.6 * , C &.3.;.4 @ 4 Z D =.R i P Y r sXsXsXsXsXsXsXsXsXsXsXsXsXsXsXsXsXsXsXsXsXsXsXsXsXsXsXsXsXsXsXsXsXsXsXsXsXsXsXsXsXsXsXsXsXsXsXsXsXsXsXsXsXsXsXsXsXsX| 3.| C 6 > , 3.wXa.e.) 9 h 3.r.5.y.a.qXa.p.u.o.h V Q P k R R j , s H T j d g f f f g g g N C C j j j j N N N h f s s 6 6 f f f h h h g h h f s s f h h h f s s h h h h h f h g g g h h h h g j N H N j j N N Z Z N j h j N H g f f s s 4 s h j C N h g g h f f f s s s h h h h f f f s u u t < < 6 s f f g g d g B B g g u u t u i g g g g g f f d u u t t t t u s t u u u f f f f f s s t f g j g d g s f f s d d f < , h g j P R R N s N W W -.1.-.E W C C o.e.e.3.o.0 * > 3 > @ * B F.1.D } &.3.r.i.i.a.i.i.i.i.i.i.i.y.r.6.4.*.=.=.=.<.y.C f ",
"y.j s r.r.| #.=.;.;.e.t.i.p.p.p.p.p.p.p.a.a.y.3.<.*.V B -.C.f 3 9 0 ) ) 3 0 o.u.e.3...) =.D.D.*.=.=.=.W D B I j.Y I I E H < , < > $ $ o @ $ $ $ @ o o o o o o @ o @ @ * * * * * * * % @ @ o o * * * * * * * * * * @ @ @ @ @ * > > = * > > > * * * * * * > > > > > > > > > * @ @ * * * > > > > * * > > * * * * > > > > 3 3 4 3 > * * @ @ @ @ @ @ * * * * * * * * @ @ * * * * * * = = = > * @ @ @ @ @ @ @ * * > > > > > > * * * * * * * * * * * * * * * @ * @ @ @ @ @ @ * > > > * * * @ @ O * > , , f R W :.4.5.<.H O.<.&.=.+.:.:.:.:.*.6 * 4 h } ;.o.3 @ 6 C Z O.T g P I t sXsXsXsXsXsXsXsXsXsXsXsXsXsXsXsXsXsXsXsXsXsXsXsXsXsXsXsXsXsXsXsXsXsXsXsXsXsXsXsXsXsXsXsXsXsXsXsXsXsXsXsXsXsXsXsXsXsX&.3.| C 6 > > e.tX9Xu.o.6 0 3.y.<.6.y.a.a.i.t.o.h N E P R R R h 4 4 h 6 , $ * * @ * * > > 3 3 3 3 7 7 7 3 3 3 > @ @ @ @ O @ * * > 3 > > > > * @ * * > 3 3 3 3 3 > > > > * * * * = * * * * > > * > > * * * > * * > 3 3 3 3 3 4 3 3 > * * @ @ @ > 3 3 > > > 3 3 > > @ @ @ @ @ * * * * * @ @ o o o o o o @ * > > ; > > > * * @ o o o o * * > > * * * * @ @ o o o @ @ * * * * * * * % % @ @ o o o @ * * * * * * * $ * * * * 4 N V R R W W B s H W W -.-.Q Q W Z h ..e.y.u.>.0 * 3 4 > @ * g C.1.W } *.;.;.e.u.i.p.i.i.y.y.y.y.y.y.r.4.*.=.T =.<.y.h f ",
"y.j f r.r.| } =.;.3.e.t.t.u.u.t.i.p.p.a.a.i.e.3.*.=.R B -.C.h 3 0 0 ) ) 3 0 o.u.e.e.o.) =.4.4.*.&.&.=.=.=.B P I I I I E R , $ * o @ * * > * ; > > > > > > > > > > 3 3 3 3 > 4 4 4 4 3 3 > > > 3 4 4 4 4 4 4 4 3 3 3 3 3 3 3 3 7 7 7 4 6 6 6 6 7 7 7 3 7 7 6 6 6 6 6 6 6 6 7 3 3 7 7 7 7 6 6 4 9 9 9 9 6 6 6 6 3 3 7 4 6 6 9 9 6 4 3 3 3 3 3 3 3 3 7 4 4 7 7 6 4 4 3 3 3 3 4 4 4 4 4 4 4 4 > > > > * > > > > 4 4 4 4 4 3 3 4 3 3 3 3 3 3 3 3 3 3 3 3 3 3 3 3 3 3 3 3 3 3 3 3 3 3 > * @ @ O X . . & < H :.4.D.I.<.D =.3.*.<.<.:.:.*.4.*.6 ; 4 h D 3.o.4 * 6 C } =.T g P P & sXsXsXsXsXsXsXsXsXsXsXsXsXsXsXsXsXsXsXsXsXsXsXsXsXsXsXsXsXsXsXsXsXsXsXsXsXsXsXsXsXsXsXsXsXsXsXsXsXsXsXsXsXsXsXsXsXsX;.3...C 6 > 4 e.tX6Xe...6 h 3.5.<.6.y.y.a.y.t.o.h H W E H H H h = * * - * > 7 7 7 6 6 6 9 9 9 9 0 0 0 0 0 0 0 9 7 3 3 7 7 7 7 4 6 6 6 6 6 6 7 7 7 7 4 7 7 4 4 4 4 6 6 4 7 7 3 4 3 3 3 3 4 6 6 6 4 6 3 3 7 4 4 4 4 4 6 6 6 6 6 6 6 3 3 3 3 7 3 7 6 6 6 6 6 6 6 6 3 3 3 3 3 3 3 3 3 4 3 3 > > > > > > * > 3 3 3 3 3 4 4 > > > > > > > > 3 3 3 3 3 > > > > > ; @ @ * * > > > > > > > > > > > * * * > 3 3 > * @ @ o o o X o > h V T W +.=.B f H =.=.-.:.Q W =._ h ) 3.u.u.9.0 * 3 6 3 * ; B C.1.T =.;.;.;.e.t.i.p.i.y.e.e.y.i.y.r.r.4.*.=.O.O.<.y.h s ",
"r.j f r.r.| } o.3.e.u.t.u.3.3.u.i.p.p.a.a.t.e.3.4.*.R B -.C.h 4 0 0 C C > 0 o.t.p.e.>.) ' 1.<.<.;.;.*.=.} B P I z P Y E g & o o o @ * * @ * * * * * * * * * * * * * > > > > > > > > > > > * * * > > > > > > > > > > > > * * > > > 3 3 4 , > 3 3 > > > > 3 4 4 4 4 4 4 4 > 3 > > > 3 3 3 3 3 3 3 3 4 4 3 3 3 3 3 > > 3 4 4 4 4 4 4 3 > > > > > > 3 3 3 4 , , 4 4 > > > > > > > > > > > > > > * * @ @ @ @ % * * * * * * * * * * @ * * * * > > > > > > > 3 3 3 > > > > 3 4 4 4 4 4 4 4 4 4 > 3 > > , s B W 4.D.I.*.D =.<.*.4.6.4.*.;.6.4.f * 4 h } 3.;.4 * 6 C } &.O.g I P & sXsXsXsXsXsXsXsXsXsXsXsXsXsXsXsXsXsXsXsXsXsXsXsXsXsXsXsXsXsXsXsXsXsXsXsXsXsXsXsXsXsXsXsXsXsXsXsXsXsXsXsXsXsXsXsXsXsX| 3.o.C 6 > 4 e.$Xu.o.) 6 h <.6.<.r.y.y.a.i.p.o.) T +.W H N N 6 * o @ - > 3 > > 3 3 3 3 3 3 3 4 4 4 4 4 4 3 3 3 > > > > > > > > 3 3 4 4 4 3 > > > > * > > > > > > > > > > > * = * * * ; > > > > > > > * * > > ; * * * * ; > > > ; * * * * @ o @ * * * * > > * * * * @ @ @ * * * * > > ; * * * * @ @ @ * * * > > > > * * * * @ o . . o o o o * * * * * * * @ @ @ @ * * * * * * * * * > > > > > > > > , , 4 3 3 > * * * o , s B W :.1.-.H h Z =.*.4.4.-.W <.} h C o.3.e.9.C * 3 6 4 > > B D.:.D | ;.3.u.t.p.a.a.p.y.6.<.r.y.r.6.6.6.3.;.=.=.<.y.h f ",
"r.j f r.r.| ' | e.y.y.y.e.3.3.e.i.i.a.a.a.i.y.y.r.<.T j -.C.h 3 0 0 C c , 6 o.p.p.p.9.) C *.<.3.3.3.<.=.[ g E Y I P E E u , * * > * * % * * * * % % % % % $ $ % * * * * > > * * * * * * * * * * * * * * > > > * * * * * * * * > > > > > * * > > * * * * > > , , , , > > * * % % * * * > * * * * * * * * * > > > > > > > > > * * * * $ $ $ * * % % * * * * * * * * * * * * * * > ; > * * * * o o % % $ o $ % & & > = = > > > > > > > * * * * > * * * * * * * * * * * * > > > > > > > > > > > 4 4 C D H W +.4.4.*.Z &.3.3.3.r.r.3.;.3.<.6 * 4 N =.3.;.3 * 6 C [ =.T d E P % sXsXsXsXsXsXsXsXsXsXsXsXsXsXsXsXsXsXsXsXsXsXsXsXsXsXsXsXsXsXsXsXsXsXsXsXsXsXsXsXsXsXsXsXsXsXsXsXsXsXsXsXsXsXsXsXsXsX| e.o.C 6 > 4 3.y.;.[ C 6 h *.<.<.r.y.y.y.i.u.o.) =.:.=.H D H f = * * > @ @ * * * * * > * * > > > > , > > > * * * * * * * * * * * > > > > * * * * * = > > > > > > > = * * * * * * * % % % * * * * * * * * * * * > > > , , > > > * * * % % * * * * > > > > * & & * * * * * $ $ * * * * * $ $ $ $ o o o o o * * * > * * * * * $ o % % & * & * > * * * * * $ $ $ $ * * * * * * * * * * * * * > > > > > > , 3 3 4 4 , > > , h h g W -.=.W j j Z &.3.y.r.=.W <.| 0 h ..o.e.9.C * 3 6 3 > > B C.-.V ..,.e.p.p.p.a.a.t.y.6.&.4.y.6.4.r.r.e.;.=.=.<.y.h f ",
"r.C f r.r.} ' o.u.p.t.t.y.e.r.r.e.p.a.a.p.a.i.i.i.3.} N :.F.h 3 0 0 ) ( 4 6 o.p.p.u.o.) _ *.<.3.3.3.<.| [ g E k.Y I I P f h < * > , , , , < 6 6 < < s s s s s s s s s f h f f f f f s 6 6 6 6 6 f f f s s f s s s s s s s s f f f f f s s s s s f f s s s f f f s s s s s s 6 < 6 6 s s s s f f s s s s s s s f f f h s s s f s 4 4 4 4 6 s 4 < < s s 6 f f 6 4 6 6 4 4 4 6 s s f s s s s 4 4 4 < 4 s s s s s s f s s f f f f f f f f f f f f s s s 6 6 6 6 s 4 4 4 4 4 4 4 4 4 , , , > > > > , C D N T W =.:.&.Z | 3.e.r.r.y.3.| 3.&.6 * 4 N *.e.;.4 * 6 C [ ' R i P P % sXsXsXsXsXsXsXsXsXsXsXsXsXsXsXsXsXsXsXsXsXsXsXsXsXsXsXsXsXsXsXsXsXsXsXsXsXsXsXsXsXsXsXsXsXsXsXsXsXsXsXsXsXsXsXsXsXsX=.r.;.C 6 > 4 3.r.;.[ C 6 f &.<.*.r.y.i.i.y.u.o.C } :.=.T =.=.j f s , , , < s f f f f h f h h h j C C C C C j h s s 6 4 6 s f f f f f f f s s f f f h f f f h h h f f f f f f s s 4 4 s s s f f f f f f f f f 6 s f h h h h f f f h h h h f s s h h h h f f f f f f f f s s s f f f f s s s s s 4 4 6 4 4 6 s f f h f f f f f s s t < s < < s s 4 4 , < < < < , , , < 4 4 4 s 4 , , , < < , 4 4 4 4 6 6 4 , , , , , , s D H g R W H H g f D *.6.y.y.<.$.<.[ 0 C | o.e.9.c * 3 6 > @ * B D.:.V ..e.t.u.p.p.p.a.i.a.y.3.r.y.r.r.y.y.u.3.| } <.y.h f ",
"y.C f r.r.| | o.e.u.p.t.y.y.r.3.3.u.a.p.p.p.p.i.e.3.} V 1.F.h 3 0 0 ) ( 4 6 ..e.u.e.o.C Z &.;.>.>.o.=.| | h P Q k.E I B f N h > > , , < t s s s f f f h g g h h h f f h g B g g g j j g j j h g N N B g g g g g g g g g B g B B B B N B B g g h j j N N N g B B B j g g h h h h j j j j N N Z N N N j j N B N Z N N N N N N D N N j N N N N g g j B N Z Z C j C C C N j h h h N N C g j h h j j h h g g g g f f g g g j N N N N h h j j j h g g g h h h j j h h f f f f f f f f s 4 4 4 4 t < h ' Z f V W W *.*.Z | 3.r.r.y.y.3.&.&.&.4 * 6 H *.4.;.4 * 6 C Z ' R i P j % sXsXsXsXsXsXsXsXsXsXsXsXsXsXsXsXsXsXsXsXsXsXsXsXsXsXsXsXsXsXsXsXsXsXsXsXsXsXsXsXsXsXsXsXsXsXsXsXsXsXsXsXsXsXsXsXsXsXT *.' f 4 * 4 3.r.;.[ C 6 6 =.<.<.r.y.y.i.u.e.X.h ' =.T H H R f j T g t t f g H H H H V H N N N H D D D D D D Z N N N N j N N N N N N N N N N N j j j j j N N H H H N j H N N N j j g g g g h h g g j g h g N Z N N Z D D D j j j N N N H Z Z Z D ' ' ' Z N H H H H Z N N g j N H H H j j g g g h h N j j h h h h h h h h h g g g g g g h f h g f f s f f f s s s s s s f h f f s 4 s s s s 6 6 4 4 4 4 s < < < > > , h T N f R R V V h f D :.4.6.6.<.<.<.) 6 ) o.3.e.9.c * 3 6 > @ ; H F.C.T | e.p.u.p.p.p.i.i.a.y.y.y.a.y.y.i.p.e.3.| | <.y.C f ",
"y.C h r.r.| =.3.e.u.p.i.y.y.r.3.3.u.i.p.p.p.i.u.3.*.=.T D.G.h 3 9 0 ) ) 4 6 ..e.e.3.o.h Z &.;.o.o.o.&.| | h P Y Y I I P t h V u > , , t f d d d g d d g H H j N H H H j B R P R R R R R H H H V T T R R R R R R V T W T T T W =.W =.=.:.=.T T T O.O.' D D D T T W =.=.O.T T T T =.=.T T =.&.&.=.=.' O.O.W =.=.=.=.=.=.=.=.=.=.=.T W W W T O.T R E W =.=.&.=.=.=.=.=.Q =.=.T T O.=.=.D D H D N N H H H H T R g j R H H H H T V H N H D D D H H H H N j j j j g h h h h g B N j g f f f f f t s ' =.j f =.W W *.*.[ | 3.r.r.y.r.4.*.<.*.6 * 6 H *.4.;.4 * 6 C L ' R y k d $ sXsXsXsXsXsXsXsXsXsXsXsXsXsXsXsXsXsXsXsXsXsXsXsXsXsXsXsXsXsXsXsXsXsXsXsXsXsXsXsXsXsXsXsXsXsXsXsXsXsXsXsXsXsXsXsXsXsXj R H s < > 4 3.a.3.| C 4 6 =.<.4.I.y.y.y.u.e.X.0 } =.R g j j f s =.T f f f H T T T W W W T D D =.=.&.&.&.=.=.=.=.=.=.=.=.=.=.&.&.*.*.=.=.=.=.=.=.D D ' } O.=.=.+.+.W W W =.=.W =.W T T T T D D T T W W D T T ' ' ' =.=.} ' ' =.=.O.T W W ' =.=.=.=.=.*.*.=.=.=.+.=.=.=.T V D T W W W T T D D D H H R H N j j N H N N H H H H R H H H H j j H T H H N H H H g B N B h j N D Z j j h g g j H N g h f f f f f s t > > , H T f f R R W =.N f T -.-.*.<.<.4.<.C 8 ) o.e.9.o.0 > 3 4 > * > H F.D.W ;.e.p.p.u.u.t.i.i.i.i.i.a.i.t.y.p.p.e.o.&.=.<.y.C j ",
"y.) f r.5.| =.3.e.u.p.p.p.y.e.e.e.i.p.p.i.i.y.e.;.*.=.W C.A.h 3 0 0 ) ) 4 9 o.3.>.3.o.h C *.&.| o.;.<.;.| h I k.I I E R < < H g < , t d j P E P P k k k j P R R T W W R R P E -.B.Q E R R W W W Q Q Q Q W W W Q -.-.-.-.W W -.:.1.4.4.D.4.:.=.:.<.:.*.*.*.:.=.=.=.4.5.4.*.=.:.1.<.<.:.:.:.<.5.5.<.<.<.<.:.:.1.<.4.6.<.1.1.1.1.:.-.-.-.1.1.:.-.-.-.1.4.4.D.4.<.1.:.-.C.C.-.-.-.-.:.:.:.:.:.:.=.R R W E W Q E R E Q W W W +.-.=.T =.=.&.=.=.T T W W W W T T R R R R R R E W W W E P P P B g d g =.;.j h =.W =.*.*.Z | 3.3.r.y.P.4.<.6.3.6 > f N =.4.;.4 * 6 C Z ' R y k i % sXsXsXsXsXsXsXsXsXsXsXsXsXsXsXsXsXsXsXsXsXsXsXsXsXsXsXsXsXsXsXsXsXsXsXsXsXsXsXsXsXsXsXsXsXsXsXsXsXsXsXsXsXsXsXsXsXsXk P B f < > 4 3.Y.e.| C 6 6 =.<.r.Y.y.y.u.u.9.X.h D -.R H H k N s T =.B g g R W W +.+.+.+.*.<.<.<.<.4.5.4.<.4.4.4.<.1.:.4.4.5.5.D.I.I.<.<.<.<.<.:.*.*.<.<.<.:.:.-.C.1.1.1.1.1.1.:.:.:.C.-.-.:.1.1.4.4.:.-.-.:.*.*.<.4.<.*.*.<.4.4.:.=.+.-.*.<.5.5.5.6.5.D.4.-.+.:.1.1.<.:.=.+.-.+.-.+.+.+.=.W W =.+.+.=.=.=.W Q -.E Q W =.+.+.W T =.:.=.T T O.=.W T T W =.O.W W -.=.R H O.=.=.T H H H H j H R T R B j j k g g f , , f =.H u f H R W -.H f R Q E W +.1.4.4.[ 0 ) ;.3.>.o.0 * 3 6 3 ; > R F.D.W | 3.u.p.a.p.p.a.a.i.i.i.i.p.u.u.p.t.e.3.&.} <.y.C j ",
"y.[ f r.5.=.=.*.3.e.t.p.i.i.p.p.t.i.p.t.p.p.t.e.3.&.W R C.Z.f 4 0 h C ) 3 6 o.e.>.>...h Z *.*.&.&.&.*.&.} h W C.k.Y E R s > B R d u u d P P I Y I Y I P p k E W W Q Q E P k Y c.Z.Q P P P Q Q E Y k.k.E I Q C.C.1.1.1.1.1.1.1.1.4.G.I.G.D.-.+.1.D.D.D.1.1.1.-.W :.G.G.D.+.W -.1.4.4.4.4.1.4.D.G.G.G.G.D.1.-.1.D.D.G.5.1.1.C.C.C.C.1.-.C.C.F.C.C.C.F.F.F.C.D.D.4.1.Q c.c.k.k.k.k.Q Q Q C.C.C.Q P R E E E E P P E I Y E Q Q +.+.Q :.:.:.:.-.+.Q Q Q Q Q E E E E E Q -.-.Q E E P P P P P P d d T <.| h h R W -.4.*.Z | 3.<.6.5.D.4.<.<.3.6 > f j H :.*.6 * f Z ' T R i k k & sXsXsXsXsXsXsXsXsXsXsXsXsXsXsXsXsXsXsXsXsXsXsXsXsXsXsXsXsXsXsXsXsXsXsXsXsXsXsXsXsXsXsXsXsXsXsXsXsXsXsXsXsXsXsXsXsXsXp P k u , > 6 3.Y.y.;.) 4 4 =.4.r.y.y.y.e.e.e.o.h D +.E R R P g s j =.W P R E E Q -.+.Q -.5.I.G.D.4.D.I.G.D.D.D.D.C.C.C.D.D.D.D.I.U.G.1.1.4.1.:.:.D.F.D.D.D.1.Q k.F.F.C.B.-.C.C.C.1.C.F.C.k.C.F.H.G.C.-.-.B.B.4.4.D.D.D.1.1.D.G.F.-.E Q B.4.5.D.5.5.D.G.I.D.-.+.-.1.D.D.D.C.B.B.B.B.C.C.-.Q E E Q B.k.-.-.Q Y k.k.v.c.Q Q Q Q Q -.-.-.Q E E Q Q Q Q E E E E Q Q B.-.E P E Q Q W W E R k d B E Q E E P k p y y y t u j +.g u g H R Q -.T g R Y Y E E Q 1.<.[ h | 3.;.>.o.0 * 6 C 6 > > R F.D.T | ;.3.i.i.i.p.a.y.y.y.i.a.i.u.p.i.e.3.<.&.} <.y.C j ",
"y.[ f D.4.T T T *.4.r.u.i.a.i.p.p.p.t.t.t.y.y.y.3.=.V H 1.Z.g 4 0 C C ) > 4 o.e.>.o.{ h Z $.*.*.*.=.W =.} B W C.k.Y E H s > s R B i i i k z p P I I Y I p p P Q E E E I P P n j.c.Y P b P E E I Y k.k.I P Y c.k.Y E Q B.C.-.-.+.-.D.G.C.-.W W -.C.C.-.-.-.-.Q Q -.F.F.C.E E -.C.1.1.1.1.1.1.4.D.D.D.D.C.Q Q -.C.1.1.1.1.Q Q B.B.B.-.Q Q B.C.c.k.c.c.c.Q Q C.C.1.-.E Y j.j.j.l.l.j.Y Q C.C.Q E I E E E E I P P I I Y Y E P E E Q -.Q Q Q Q Y E I I k.Y I P P P P E B.B.k.I z I I I I l k d g W *.[ 4 f R P W 1.:.Z [ 3.3.6.5.D.4.1.<.<.6 , h j Z &.&.6 * f Z ' O.R i P k & sXsXsXsXsXsXsXsXsXsXsXsXsXsXsXsXsXsXsXsXsXsXsXsXsXsXsXsXsXsXsXsXsXsXsXsXsXsXsXsXsXsXsXsXsXsXsXsXsXsXsXsXsXsXsXsXsXsXp P g f 4 > 6 3.$Xy.3.[ 4 4 =.4.4.3.3.e.e.e.e.o.h D Q E R T R N s s H W E R P P E Q Q Q -.D.D.C.-.-.C.H.H.F.C.Q Q Q C.F.F.C.C.F.H.G.C.-.1.1.-.W Q D.C.C.-.-.B.k.k.C.C.C.Q Q -.C.1.Q Q k.Y Q C.F.F.C.E E Q B.B.C.C.C.C.-.-.-.C.F.C.B.E E Q 4.1.1.:.:.D.G.F.C.-.Q Q -.C.C.C.Q Y k.k.k.k.c.k.Y I I Y k.l.Y Y Y j.j.j.M.v.l.Y I I k.k.Q E I I E Y Y k.k.I P P I Y k.k.Y I I I I E E E E I P k k I I Y Y I p i y y y y i P W d u j R R W +.W j W Q Y Q W W 1.<.| ) o.e.;.>.o.0 * 6 C 6 > > R F.C.T ' &.3.3.i.y.i.y.r.r.y.i.a.a.i.i.y.e.<.*.&.W 1.I.C j ",
"y.[ f I.D.R R E Q :.4.r.p.p.p.p.p.p.t.e.e.e.r.r.<.=.V B -.Z.h 4 0 ) ) 0 > 3 ) >.o.o...h Z =.=.:.*.W R W } B W B.Q E R V h > < N B g g g P P P P P P I I P P P E E E E E I I E k.C.k.E E E Y Y Y j.c.c.Y Y Q c.c.Y c.c.c.C.c.~ Q 1.C.C.1.-.Q Q -.-.1.-.-.-.-.-.C.C.F.F.C.-.Q 1.4.4.4.4.4.4.G.G.G.G.G.G.D.C.1.1.C.1.1.D.F.C.C.B.C.C.C.c.C.C.F.F.Z.Z.F.Z.F.F.G.I.I.G.C.C.c.k.c.Z.Z.C.c.C.F.F.C.-.-.Q E E E P P P E -.B.B.Q E E Q -.B.Q Q Q Q -.Q Q Q k.-.-.Q Q Q E Q k.C.k.E I E k.k.Y P P P E =.=.j 4 g R g P W =.D } 3.4.<.4.D.4.<.<.*.6 > h C ' &.&.4 * f Z O.T R g P g & sXsXsXsXsXsXsXsXsXsXsXsXsXsXsXsXsXsXsXsXsXsXsXsXsXsXsXsXsXsXsXsXsXsXsXsXsXsXsXsXsXsXsXsXsXsXsXsXsXsXsXsXsXsXsXsXsXsXp k d f 4 3 4 3.Y.e.| ) 4 4 *.6.3.3.3.3.e.e.e.o.0 V W R B H B j 4 4 j =.:.+.W W Q -.-.-.1.C.D.4.1.C.F.H.H.H.F.F.F.F.F.G.F.C.C.F.G.G.F.D.D.D.C.-.-.-.C.1.C.C.F.H.Z.C.C.F.F.D.D.G.D.C.C.C.B.C.F.H.H.C.-.-.C.D.C.1.1.1.C.C.D.F.G.H.H.F.-.Q Q D.D.4.4.4.D.G.D.D.C.1.:.1.D.F.C.C.k.k.C.C.C.Z.Z.C.C.C.C.C.k.k.k.k.k.c.Z.J.J.v.k.Y Q -.Q Q Q Q Q Q Q Q k.k.Y Y Y Y k.k.k.k.Q Y Y Q B.B.-.-.Q E P P E Q Q Q I p i i i i d P E R u t j H H H W T j W Q Q -.:.1.1.<.[ / o.;.3.e.>.0 @ 6 C 6 > > R F.C.T ' *.*.*.3.3.i.r.<.3.y.i.i.p.i.y.e.*.=.=.W T :.I.C j ",
"y.Z h I.G.W W -.-.:.<.r.i.p.p.e.e.p.p.u.3.3.:.*.=.T R k -.C.h 4 ( ) c 0 3 7 ) >.>.>.o.) Z =.=.:.:.=.W =.W B W C.Q W E V h ; 6 N N f s t u f f g B B H H B B N j N N B B N Z j B B B g g f u i i i v B i g g g B B B B B B B B B B B B D D H D D D V H T T R W =.=.W W W D D Z Z N N N N Z Z N N N N N N j g g g N N N D V B B B B B B B B g f f g g g h h h C C N N f f f g B B h h h g g B B B g h g g f f h N H T T R H H H H H H B B H H B B B g g B H g g g g g g g g i g P P I E E R W :.*.j s g R W W -.:.D | 3.<.<.<.4.4.4.4.*.6 > h C } <.<.6 * 6 C T T R g P g % sXsXsXsXsXsXsXsXsXsXsXsXsXsXsXsXsXsXsXsXsXsXsXsXsXsXsXsXsXsXsXsXsXsXsXsXsXsXsXsXsXsXsXsXsXsXsXsXsXsXsXsXsXsXsXsXsXsXp k d s 4 > 4 <.a.;.[ C , 4 *.6.6.6.3.e.e.e.e.o.C D Q E B B g h 4 4 C &.<.D Z N H H N N N N N Z N N N N N g g g g g g g g B g h C N N N N N H N h f j N H V D V H B B H H N Z Z h s t u u s f g H B g g N N h h h h g N N N Z H H H g g N N Z Z j j j N g h j N N N N g f f s f d d g f g g g h h h g g g f f f B P P B g h h h f f s s s s s f f s s f h f f f f f f f f h g g g B g f f s f h j h s t s s f f g V T D f s g N V W =.H f H W W 1.5.G.4.<.) 0 ) o.e.u.9.0 * 6 c 6 > > R F.D.T O.*.*.*.<.3.r.5.*.*.r.y.p.p.i.y.3.*.W W T R :.I.N h ",
"y.Z j I.I.W +.C.1.:.:.4.y.p.e.e.e.p.p.t.e.3.*.*.=.O.P P -.C.h 4 ) ) ) 0 4 4 { e.9.e.>.) [ *.-.-.:.=.W W D g W C.k.Y E T h > > 4 * o . . . . . o . . . . . . . . . . . . . . . . . . . . . . . . . . . X . . . X X X X . X X X X X . . . . . X . . . . . . . . . . . . . . . . . X . . . . . . . . . . . . . . . . . . . . . X X X . X . . . . . . . .     .       . .     . .         . . . . . . o . . . . . . . . . . . . . . . . . . . . . . . . . . . . . X X . . . . . . . . $ $ * $ > < s 4 s B P Q 4.D.<.Z } 3.3.4.4.4.4.<.4.4.6 > 6 j ' 4.3.f * 4 f N T R k P g % sXsXsXsXsXsXsXsXsXsXsXsXsXsXsXsXsXsXsXsXsXsXsXsXsXsXsXsXsXsXsXsXsXsXsXsXsXsXsXsXsXsXsXsXsXsXsXsXsXsXsXsXsXsXsXsXsXsXk P g s 4 > 4 <.a.3.| C > < &.r.r.r.r.e.e.e.3.| 0 V Q E R H B N 4 * * > ; o o o o . . . . . . . . .       . . . . . . . . . . . . . . . . o . . . . . X . . . .   . .             . . . . . . . . . . . . . .   . . . . .       . . . . . . . .               . . .   . . . . . . . . . . . . . . . . .           . . . . . .     .                             . .       . . . . . . . .                 . . . . $ $ > , s H T =.*.=.V h V W W 1.5.5.4.&._ 0 [ ;.e.e.9.0 * 6 C 6 > > R F.D.=.D &.*.<.3.r.y.r.<.3.y.y.y.p.u.e.3.1.:.=.W T :.I.C f ",
"5.Z h I.I.W +.4.1.:.:.<.r.t.u.e.t.p.p.t.u.r.r.6.<.*.R B -.C.h 3 9 0 C c 4 4 X.u.u.e.9.) [ *.:.:.*.=.W W D f E c.C.k.E E N > o X . . . . .   . . X X o o o o o o @ o o o o o @ @ o o * * * @ @ @ @ * * @ q @ * * * * 1 1 * @ * * * * * * ; > > > * * * * * * * * * * * * > > > > > > 3 3 3 3 3 3 3 3 3 3 3 3 3 > > > > * * * 1 1 1 3 3 3 3 > * * > > > > > > > > > > > ; > * * * * * * * * * * * * * * * * * * * * * * * * ; > ; * * * * * @ @ o @ * * * * * * * * * @ * * @ @ @ @ @ o O X . . . $ , j R W 1.4.*.Z | r.e.r.r.4.<.<.5.4.6 * 6 j ' 4.<.6 * 4 f j T R k P g $ sXsXsXsXsXsXsXsXsXsXsXsXsXsXsXsXsXsXsXsXsXsXsXsXsXsXsXsXsXsXsXsXsXsXsXsXsXsXsXsXsXsXsXsXsXsXsXsXsXsXsXsXsXsXsXsXsXsXk W H h 4 > 4 <.Y.e.| j * , =.3.e.y.r.r.e.e.3.| f R Q Q W T V h 4 * X . o @ o @ @ * * * * > * @ * > @ > > * > > > > > 3 > > > 3 > > > > > > > > > > 3 3 > > > > > > > > @ @ * > * * * * * o @ @ * * * > > > > > > * @ * * @ * * * > * * * > * * @ @ @ @ @ * * * * * @ @ @ o o o o o o o o o o o $ * $ o o o o o o o o o o o * o o o * * * @ o o o @ * @ o * * @ * * * o o o o o o o o o o @ o . X . . o o o o . . . . . * s V W -.=.W H f V Q W 1.4.<.=.*._ 0 ..3.e.e.>.0 * 6 C 6 > > H F.D.=.D =.&.3.e.t.y.y.e.e.y.y.y.p.u.e.3.1.:.=.W T :.y.j f ",
"6.N h I.G.W &.<.4.:.:.4.y.y.y.y.i.p.p.u.u.y.y.y.6.*.H B -.C.h 3 7 9 0 0 4 4 X.t.u.u.e.) [ *.1.1.:.=.W W D f I c.c.k.E R g * . o @ o * * ; * * > * > > > > > > > > > > 4 4 4 > 3 4 4 4 4 4 , > > > > > > 3 3 > < 6 6 6 4 4 6 6 6 6 4 4 4 4 4 4 4 4 4 4 4 6 4 4 4 4 4 4 4 6 6 4 4 4 4 4 4 4 4 4 4 4 4 4 4 4 4 4 3 3 4 4 4 4 4 4 6 6 6 4 4 4 4 4 4 4 4 4 3 4 4 4 4 4 4 , , 4 , , , , > > 3 4 4 4 4 4 4 4 4 4 4 4 4 4 4 4 6 6 4 4 , 4 4 4 4 4 3 > > > 3 4 6 6 6 6 6 6 6 6 6 6 4 3 3 , , , , > 3 > * * , g R =.1.1.$.Z &.r.u.y.r.6.<.:.5.4.6 * 6 j =.4.*., * f j H W R d P d $ sXsXsXsXsXsXsXsXsXsXsXsXsXsXsXsXsXsXsXsXsXsXsXsXsXsXsXsXsXsXsXsXsXsXsXsXsXsXsXsXsXsXsXsXsXsXsXsXsXsXsXsXsXsXsXsXsXsXk W D h 4 * 4 <.I.3.[ h * , | 3.e.y.i.i.e.e.;.| h R B.Q W W T N , * * 3 4 4 4 6 6 6 6 6 6 6 6 6 6 4 4 3 7 4 6 0 0 6 6 6 6 6 6 6 6 9 0 6 6 0 0 0 0 6 6 6 6 6 6 6 7 4 9 0 6 4 4 4 4 4 4 4 > > 3 3 3 3 3 4 4 4 4 3 3 3 3 3 3 3 3 > 4 4 4 4 4 4 4 4 4 3 > > > > > 4 4 , , > > > > > ; > > > > 4 4 4 4 4 , , , > > > > > > > > , , , , > * * * * * * ; > > > , , > > > , , , , > > 3 4 4 4 4 4 , > > , > > > > > > > * * * * 4 f j R E W E j f T -.-.1.:.=.=.$.Z 0 ..3.e.e.9.0 * 0 C 6 > > B C.C.W D =.&.3.u.t.t.p.t.t.y.i.p.t.u.e.<.*.=.=.T D *.y.j f ",
"r.C h I.5.D *.6.r.6.3.6.y.y.y.i.p.p.p.u.a.a.i.y.3.&.H B -.B.h > 5 9 0 0 4 3 X.e.p.u.9.) [ =.-.-.-.W I E R g I k.E P P R f % . o @ % * * * * % * * * * > > > > > > > 3 > > > > > > > > > > > > > > > > > > > > > 3 > , > > > > > > > > > > > 3 3 > > > > 3 3 3 > > > > > > > > , 3 3 > > 3 3 3 3 > > > 3 3 > > > > > > > > 3 3 3 > > , > > > > > > > > > > > > > > > = = > * * * * * * * > 3 3 > 3 4 4 > > > > > > > 3 4 4 , , , 4 , > > > = = = * > > 4 4 4 4 4 4 4 4 4 4 4 3 > > > > > > > > * , s h H W =.*.=.Z | 4.e.y.y.6.4.:.5.3.6 * 6 j =.<.&., * s j R P k d k f % sXsXsXsXsXsXsXsXsXsXsXsXsXsXsXsXsXsXsXsXsXsXsXsXsXsXsXsXsXsXsXsXsXsXsXsXsXsXsXsXsXsXsXsXsXsXsXsXsXsXsXsXsXsXsXsXsXsXk P N h 6 > 4 4.I.<.[ 6 * > | r.e.y.y.r.r.;.;.[ h T -.+.R T R h , ; * ; > > 3 > 3 4 4 4 4 4 4 4 4 > > > > > 3 4 4 4 4 4 4 4 3 3 3 4 4 4 4 4 7 4 4 4 3 3 > 3 > > * * * > > * * * @ * * @ * * * * @ @ @ * * * * @ @ @ @ @ @ @ @ @ @ * > > > > = = * * * * * * * * ; ; > > * * * * @ o * * * = > > = = * > * * * & % * * * * * * * * * * * * * * @ @ * * * > > > > > > > > > > * * ; ; > > > = * * * * * * @ @ @ @ o o o > C s g R H j B g h T =.=.-.=.T W =.C 0 ) o.e.u.e.0 @ 0 C 6 > * h -.:.D Z | 3.e.e.t.t.p.p.p.p.p.i.t.u.e.*.=.W T H D :.y.h f ",
"6.C f y.4.D *.y.y.y.r.i.y.e.u.p.p.p.p.a.a.a.a.u.3.;.D H -.-.h 3 9 0 0 0 4 4 o.u.p.u.o.) ' =.-.Q E I I E R j E Q P g P W B t $ . o o o o o @ @ @ o o @ @ @ @ @ @ * * * @ @ * * @ @ @ * % % * * * * * * * * % $ @ * > * * > = = > * * * * * * * * * * * * * * * * * * * * * * * * = = = = = = * * * * * = * * * * * * * * * * * * * * * * * * * * * * * * * * * @ * * * * * * * o o o o @ @ * * * ; ; ; ; ; ; ; * * * * * * * * * = * * * * * * * * * * * * * * * * * * * * * * * * * * * * % $ , h h N D D =.*.&.Z | 3.3.r.y.r.4.:.4.<.4 * 6 j =.<.*.4 * 4 f j R j d k g % sXsXsXsXsXsXsXsXsXsXsXsXsXsXsXsXsXsXsXsXsXsXsXsXsXsXsXsXsXsXsXsXsXsXsXsXsXsXsXsXsXsXsXsXsXsXsXsXsXsXsXsXsXsXsXsXsXsXp P H h 6 > 4 3.T.<.[ 6 * > [ 3.r.y.r.4.*.=.=.Z f T +.R H T T g s 6 * o @ @ @ * * ; > > > > > > > * * * * * * * * * * * * = ; ; > > * > > > > * * * * * * * @ o @ @ o @ * @ o @ * @ @ % * * * * @ @ @ @ * * * * @ @ @ @ o @ @ @ * * * * * * * * * * @ @ o o o * * * * * * * % % o o o o o o o % % & * * * * o o o o o o $ * * % * * $ $ * * $ o o o * * % % * * * ; ; * * * * * * * * * * @ @ o @ @ @ o o o o o o o % f Z f g R j g B B g T W W =.=.W Q &.C 0 ) o.9.u.e.^ @ 0 C 6 > > N 1.:.D ' ;.e.u.e.e.u.t.t.t.t.t.u.u.u.u.3.*.=.W ' D :.I.h f ",
"5.Z f r.5.=.*.y.y.y.i.y.i.t.t.p.W.p.p.a.a.a.a.p.3.;.=.H +.1.h 3 9 0 0 0 , 3 ..e.u.e.;.[ J Q Q E P P P I V j E Q P P W W P P f % $ @ * > > > 3 3 > > > 4 4 4 4 4 4 6 6 4 4 6 4 4 4 4 4 4 < 4 4 4 4 4 4 6 6 s f f h j h j h h h f 6 6 h f f h h h f f f s s f f 6 0 f f f h h j j C C j j j j h h h h h j j h h h h f f h f f f f f f f 6 f 0 f f f s f f 6 6 h h h f f s 6 4 4 4 4 4 4 4 4 6 6 6 6 6 6 6 6 6 6 4 4 6 6 f h h h h h f f f f 6 4 4 s 6 6 6 6 4 6 6 f 6 4 4 4 6 6 6 6 6 4 4 4 < , h Z C N =.D *.4.*.[ | 3.e.y.y.y.4.*.:.&.4 * f C &.5.*., * 4 f j D j d k g & sXsXsXsXsXsXsXsXsXsXsXsXsXsXsXsXsXsXsXsXsXsXsXsXsXsXsXsXsXsXsXsXsXsXsXsXsXsXsXsXsXsXsXsXsXsXsXsXsXsXsXsXsXsXsXsXsXsXP Q D j 6 > 3 ;.y.<.[ h * * [ 3.r.y.4.&.=.T T H f T -.W V =.=.g g D s > > , 4 6 6 6 6 h h h f f 6 6 6 6 4 4 6 6 6 6 6 6 f f 6 6 6 f 6 6 h h h h 6 6 6 h h 6 6 6 0 h 6 6 0 0 0 0 0 0 6 6 s 4 4 6 f h h h h h h h h h h f 6 6 6 f f h f f h h h h s 6 6 6 4 6 6 6 6 s s 6 6 6 6 6 4 6 6 < , 6 6 6 s s s 4 4 , , , , , 4 4 4 4 6 4 4 4 , , 4 , , , , , 4 4 , < 4 6 6 6 6 4 4 4 4 4 4 4 4 4 , 4 4 , , , , , , , , , > , < Z j u g R j j B j g T W W -.+.E E =.C 0 ) | o.o.o.0 - 0 C 6 > , D D.1.' ' ;.e.u.e.e.e.t.t.t.t.e.e.e.u.t.e.3.;.&.=.=.:.I.h f ",
"6.Z f I.5.=.4.y.y.r.u.i.i.p.p.p.W.p.p.a.6XQ.a.a.t.3.=.H +.C.h 3 9 0 0 0 > 3 ) >.3.3.| [ ' Q Y I I P P I R g E Q E R W E i P T f , < < s s s s h g g g g j j j N Z H H N N N g g N N C N H N N N H B N H V D =.=.' D =.*.*.*.*.=.D } &.=.*.*.*.*.*.=.=.W W =.=.=.&.*.=.=.*.&.*.<.4.<.<.<.<.*.*.*.&.&.*.*.*.=.=.=.=.=.=.=.=.=.=.=.=.=.=.| =.=.=.=.T T O.=.} &.;.;.=.D H H H D D D D D D D D D D ' [ ' } ' ' D Z Z D ' =.=.=.=.=.=.=.=.' ' D N N N H H H H D D D D D D Z N D D V V H N N h h f f D D h h } T <.I.3.[ | e.i.y.y.y.<.=.W | , * f Z &.6.&., * 4 h C ' N d P g & sXsXsXsXsXsXsXsXsXsXsXsXsXsXsXsXsXsXsXsXsXsXsXsXsXsXsXsXsXsXsXsXsXsXsXsXsXsXsXsXsXsXsXsXsXsXsXsXsXsXsXsXsXsXsXsXsXsXP +.' j 6 > > | r.3...h = * [ 3.r.r.*.=.W W W H f T :.+.T =.=.g g *.D f s j h N H ' O.=.=.=.=.=.=.} } } [ [ | | } } =.=.*.*.=.=.=.*.&.&.*.3.<.<.*.*.<.<.*.=.=.=.=.&.=.| | | 3.3.3.| D D H N D =.=.&.&.=.=.=.=.=.=.=.=.D H H H D D D H D T =.=.W R H B N Z Z D Z N N V ' ' D V H N N N N N Z H H R R R T P g g j g g j h j j N g j j j h h h f h j N N h f B H H H H g g j N Z Z Z C j h h j g g g h h h h f s s < < f ' f u j P R j R j g T +.-.1.-.P P R j 0 ) | o.) ) 9 > 0 C 0 > > T D.4.} } &.;.e.t.p.e.u.t.y.y.e.e.e.t.p.u.3.;.;.| } 1.I.h f ",
"6.C f I.5.=.:.<.3.e.y.i.a.i.a.p.W.p.t.i.a.a.a.a.y.r.=.D -.1.h 3 9 0 0 0 > 3 ) o.o.| [ C D Q Y I E P P P R g I E E P Q Q u f W B u u d g g g g k k P P P R E W W R P P P P B R R H N N V =.=.W R P P P R W -.4.4.=.=.:.4.1.4.1.:.=.=.:.1.:.-.:.:.1.1.-.-.-.-.1.<.<.4.1.1.:.:.<.D.I.G.5.5.5.5.5.5.<.<.4.5.<.:.*.:.1.1.:.<.<.4.:.*.*.:.*.*.<.*.*.:.-.-.-.-.:.4.5.5.<.=.W =.=.:.:.=.=.=.=.:.-.=.=.=.*.*.*.=.=.W =.W W =.=.=.=.=.*.*.&.=.=.=.=.W T R R T R T =.=.W W W W T D T T T T T D N g f d g =.H s h Z O.4.I.6.[ | r.y.y.y.r.:.=.W } > * s j &.r.;.4 * 4 h C | Z d P d & sXsXsXsXsXsXsXsXsXsXsXsXsXsXsXsXsXsXsXsXsXsXsXsXsXsXsXsXsXsXsXsXsXsXsXsXsXsXsXsXsXsXsXsXsXsXsXsXsXsXsXsXsXsXsXsXsXsXP T Z h 4 > > ;.y.3.) 6 * > [ 3.3.4.*.=.Q E W H f D :.-.T =.=.g f =.=.g f N R R T O.+.:.C.-.-.Q W W 1.1.1.1.*.&.*.<.<.1.<.1.4.4.4.<.<.<.4.4.4.<.<.4.I.D.4.:.4.6.3.*.*.&.=.&.r.r.3.*.=.W E T =.:.:.*.*.*.=.=.:.1.:.:.=.T R E W W =.D V T T -.-.E P P H D =.&.*.W H H T =.=.=.W R R V T T W T T T W W Q E Y j.k.Y b B j j H R R H H R R H H N H H D W T j j R W E P R R R R T W T N j N H R R R R R R j B H g f f s s g Z , f R E R B R j f T =.-.-.-.I k B h 0 [ o.e.o.) 9 @ 6 ) 0 > > D G.4.} O.} | ;.u.t.e.u.u.t.t.t.e.u.p.p.t.e.;.;.| } 1.I.N h ",
"y.C f I.5.W &.=.*.r.y.y.y.y.a.5X5Xp.p.i.a.a.a.i.y.3.=.R -.1.h 3 9 0 0 0 > 3 { e.e.o.) h N Q Q Y Q E P R V j E Q E I Q -.s 6 O.R u u i k P P P I P P P P I E k.Q Q Y Y Y I I I E E R R R Q Q Q E P b P I E Q 1.-.W W Q 1.1.C.-.Q -.-.C.C.-.+.-.1.C.1.-.Q Q Q -.D.D.C.1.1.1.1.4.5.I.I.I.I.I.I.I.I.4.4.5.G.D.1.-.4.4.4.4.4.D.G.D.1.4.4.4.4.4.*.:.-.Q k.Q -.4.5.D.5.1.-.Q -.C.D.C.-.+.Q -.-.Q Q Q :.4.:.Q W W Q Q Q Q W =.=.+.:.:.4.:.-.:.C.1.B.-.-.+.Q W -.:.:.=.Q Q Q Q W W W E R R T R g f f H =.H s h Z D :.I.4.[ =.r.y.y.y.r.4.:.:.| > * 4 j &.r.;.4 * 6 C ) ..[ g P d & sXsXsXsXsXsXsXsXsXsXsXsXsXsXsXsXsXsXsXsXsXsXsXsXsXsXsXsXsXsXsXsXsXsXsXsXsXsXsXsXsXsXsXsXsXsXsXsXsXsXsXsXsXsXsXsXsXsXP D Z h , * 4 e.$Xe...0 * = [ 3.3.r.*.=.W W O.Z 0 T 1.-.=.=.=.g s T =.H d H E R W W Q -.Z.C.C.Q U Y C.A.A.1.=.$.<.5.G.D.1.C.D.D.D.4.4.4.<.<.<.<.4.4.4.4.:.:.D.I.r.*.&.=.=.=.<.4.<.*.W E P E +.:.+.=.=.=.W W -.1.1.:.E P I E E W T H B H T +.Q E P P R =.:.1.:.=.V V W *.:.:.Q E I P R =.=.=.W T W W Q Y j.v.v.l.m p i P E E P R E W E P B R W T =.=.R j R E E E E P R H R W =.T B g R E P E P P P R R P B d s u u d H j = f R E T H B g f D =.W W +.E I R h 0 o.3.e.9.o.9 @ 6 C 6 > > D G.D.=.T O.} ;.e.e.e.u.t.p.p.p.y.y.p.i.y.e.;.;.=.=.<.I.N j ",
"y.) h I.G.W =.=.<.y.y.e.3.r.i.p.W.a.i.i.a.a.a.y.3.;.T H +.-.f 3 9 0 0 0 = 3 o.i.t.e.{ 0 N Q Q Q Q E R R H j E k.k.k.k.W 4 4 =.W d u d i k p p p n I I P P I k.Q Y Y I I b b I E Y Q E I E Q Q Y n b b P Y k.Q Q Q Q Q Q C.1.E E Q B.Q E E Q -.1.C.Q Q C.Q Y B.F.G.C.Q -.1.C.1.4.G.G.G.G.G.G.I.G.4.1.D.G.D.-.-.1.4.4.1.:.D.D.:.+.-.1.4.4.4.:.-.Q k.k.Y Q D.D.1.+.W I I E -.C.C.-.Q Q Q Y E Y Q C.-.W E E E Q k.k.k.W Q Q Q Q Q +.-.-.+.-.Q Q E E E E E W -.=.W E E E Q E E E E R R W R j d d H =.j s N ' H =.4.<.' ;.r.y.y.r.5.4.4.4.;.4 * s j ;.r.3.> > 0 ..o.o.| g j d % sXsXsXsXsXsXsXsXsXsXsXsXsXsXsXsXsXsXsXsXsXsXsXsXsXsXsXsXsXsXsXsXsXsXsXsXsXsXsXsXsXsXsXsXsXsXsXsXsXsXsXsXsXsXsXsXsXsXE =.' C 6 > 6 y.wXu.o.C > * Z 3.3.r.*.=.W T O.Z 0 =.D.:.:.=.W h s H +.R j H B P E +.-.Q Q c.c.j.n m v.n.b.~ Q =.:.D.G.G.1.1.C.C.:.-.1.:.:.:.<.5.4.1.-.-.-.-.D.D.5.*.=.=.=.=.&.*.<.:.E P I E E E W W +.+.T R E -.+.Q P g P Y Q +.T H B H T T R P B B T *.:.1.*.T B H R =.-.-.E P P k B T *.1.=.V H R P Y v.x.f.f.x.Y n Y k.Q I P E E I P g R W W W W B j P E I I P P P j H E W R j B E I z i p k k P P P R d u s d j W j * f B B R B B B h =.=.W =.Q E Q W f 0 o.e.e.9.o.0 - 4 h 7 * > D U.G.=.T =.&.<.r.u.e.u.p.p.p.p.p.u.u.t.e.3.o.;.&.=.<.I.N g ",
"y._ h I.G.W T =.4.5.5.<.3.r.a.a.p.p.p.a.a.a.i.e.;.&.T B Q -.f 3 9 0 ) 0 > 3 ) e.e.e.o.C j T -.+.E E E W N B E k.k.k.Y E < 4 [ T P g i p p p a a n h.I I I I Y j.Y I n n n s.h.j.j.Y Y Y I I Y Y I n n n j.l.j.Y Y Y k.k.k.k.k.j.j.j.j.Y Y Q Q Q Y Q Q Y Y Q Q c.C.Q Q Q Q C.C.C.F.F.Z.F.F.F.F.C.B.-.Q Q Q Q Q Q Q Q -.-.Q Q Q B.B.-.-.-.-.Q Y Y Y Y Y k.C.c.Y I I I I I Y Y k.k.Y I I I I Y j.k.Y Y Y I I I h.j.h.I Y I I I I Y Y I Y Y I I I Y Y Y I I Y I I E E I I I P P P P P E P g i g R T g s j D T T :.:.' | 4.6.r.r.4.4.4.4.;.4 * 6 Z ;.r.3.4 > 0 ) o.o...j B i $ sXsXsXsXsXsXsXsXsXsXsXsXsXsXsXsXsXsXsXsXsXsXsXsXsXsXsXsXsXsXsXsXsXsXsXsXsXsXsXsXsXsXsXsXsXsXsXsXsXsXsXsXsXsXsXsXsXsXR =.} C 6 > 7 u.qXi.o.C > * C ;.*.<.:.=.W H H j f O.D.1.-.=.T C s g W W j g B P E E Y Y I j.z.z.d.m j.z.Y ~ ~ ~ Q -.C.C.B.B.-.Q E B.C.C.B.1.1.1.1.Q -.W W -.-.1.1.=.O.D D =.&.&.=.W E P z I E E E E Q E E P P E P k p p k P I E E P B B R R P P P P I Q 1.-.W E E I P I I P P P p p k E +.-.W R R P P Y x.x.f.g.m.x.x.x.c.k.I P P P P P k P P R P P P k k P P P P P z k k P P P k P I I p z p p p p p b g i y i k P P , , s g H R T E P f ' 1.-.+.E I E W h 0 o.e.e.o.o.0 @ 3 h 4 * > T U.G.:.T W &.:.4.u.p.p.p.i.i.p.t.e.u.3.;.*.*.&.=.T 1.I.B f ",
"5.Z h I.D.T W =.:.<.6.r.r.y.i.p.p.p.p.a.9XQ.a.t.3.*.D j Q C.h 3 9 0 0 0 > 3 ) 9.e.>.o.) j R Q W W Q Q -.V g Y k.k.j.Y E s 4 [ W R B B i i i i v b b P P P P I P P P P P P n n I I P P I I P n n n n n n n Y U U U U P I E E E E E E E E E W W W E E W E E E E T T T T W W =.=.+.-.Q Q -.-.-.W W T T R R R R R R R R T T R R W W W W T D D T R R R B P R W W R B B B B B B R R R R B j g g P P R R R P j g g P P P P R R H H B R R R P P P P P P P R R R R R H R T W R E E E R H H R B g d d T =.h < h D R W 1.<.' | 3.4.r.r.r.4.:.<.;.4 * 6 Z ;.r.3.4 > 0 ) o.o.| j P i $ sXsXsXsXsXsXsXsXsXsXsXsXsXsXsXsXsXsXsXsXsXsXsXsXsXsXsXsXsXsXsXsXsXsXsXsXsXsXsXsXsXsXsXsXsXsXsXsXsXsXsXsXsXsXsXsXsXsXT &.| Z 6 > 4 i.qXi.>.C > * [ 3.*.=.=.W W T O.Z 6 T 1.-.=.=.=.N < h W W B g H H T T T R R P I E U U P B B R T =.=.=.+.Q W W E P P P Q +.+.=.=.=.W W D D V V R T D Z N j j N Z D H H B g g k P R R H H g g g g g f f f f f f d g g f f h h g g g g g B V V V H B B B B g j j g g d d g j H V V V H H g B I I b P c.z.Y Y U I B g g g B B g g g g g j g g j g j g g g g g g g g g g B B j g g g g g g g j d d f d g j g , < f B P W Q Q R j =.1.Q E P k I W j 0 ) o.o.o.o.0 @ 4 C 6 * > T U.G.=.T =.=.&.3.u.p.p.i.y.t.t.p.p.t.e.3.*.*.=.=.T 1.I.B f ",
"5.Z j I.G.W =.=.&.<.r.y.a.a.p.p.a.p.p.a.9XQ.a.i.e.;.H j Q F.g 3 6 6 0 6 > 3 ) 9.9.>.| ) j R W E W Q Q :.D g E c.j.k.k.E s 6 C h < > * $ $ $ % % % & & & % % % % $ $ % % % % % & & % $ % % $ % & & % % * & % % & * * * % $ $ $ $ $ & & & * * * > > ; = * = > > = = * * * * > > > > > > > > * & * * * * * * * & % & * * * * % % * & * % % % % $ % * % & * * * * * % $ $ $ $ % * * * * $ $ $ $ & & % $ $ $ $ $ $ $ $ & & * * % % * $ $ $ $ $ & & & & & & % % % % * * * * * = > > > > > > > , , f h s s g V W -.D.<.' ;.e.4.r.r.r.4.-.:.;.4 * 6 [ ;.r.3.4 > 0 ) o.o...g g i , sXsXsXsXsXsXsXsXsXsXsXsXsXsXsXsXsXsXsXsXsXsXsXsXsXsXsXsXsXsXsXsXsXsXsXsXsXsXsXsXsXsXsXsXsXsXsXsXsXsXsXsXsXsXsXsXsXsXD ;.| [ 6 > 4 i.qXu.o.C > * [ <.=.R E E W =.=.' 6 =.1.-.W =.=.h s h C h < > > , , , > * * * & > & & % % % & * * = * * * * * * * & & > > > > > > > > > * * & * * * * * % % * * * * & & & & = > > = * % % % % $ * * * @ @ o o $ $ % % % % % & $ $ & & & * * * * * * * * * * * % % % % % & % % % * * * * $ $ & $ $ & & & & * * * * o $ % % % % % $ $ % $ $ $ $ $ o o o o o o $ $ $ $ % $ $ $ $ $ $ $ $ $ $ % & & * = > > > s B R W Q Q c.W h D W P P P P P R h 0 ) ) ..o.o.0 @ 4 h 6 * > T G.D.W D =.&.&.3.u.p.p.p.t.t.t.p.p.i.u.3.;.;.=.=.T 1.I.C f ",
"I.D j I.I.=.=.=.*.3.i.i.a.p.p.a.p.p.p.a.a.a.a.i.e.=.j d Q F.B 4 6 6 9 7 > 3 ) 9.e.e.o.C j P E Q -.B.-.-.H g E c.l.k.k.E f > > $ . X X X X @ @ X O X X X X X X # X X o @ @ o o O O O O O O O @ @ @ @ @ @ @ * @ @ @ @ @ @ @ @ @ @ @ @ * * * * * ; ; ; > > > > > * > > > > > > > > > ; > > > > * * * * * * * * @ @ @ * * * @ @ * * * * @ * @ * * * * * * * * * * * @ @ @ o o o o o o o o * $ $ * * * * * * * * o $ * $ * @ @ @ o @ * * @ o o o * $ $ % * o o o @ @ @ @ * * * * * * * $ o o @ o o * , h D T :.C.D.:.[ ;.i.4.r.r.5.:.W :.;.6 * 6 [ &.r.3.4 > h ) ..o.| H k i sXsXsXsXsXsXsXsXsXsXsXsXsXsXsXsXsXsXsXsXsXsXsXsXsXsXsXsXsXsXsXsXsXsXsXsXsXsXsXsXsXsXsXsXsXsXsXsXsXsXsXsXsXsXsXsXsXsXsXD ;.| [ 6 * 4 e.Y.3...C > * ' :.T P E E W W =.[ 0 W D.1.=.$.*.N 6 , > * o o o * * * @ @ @ @ * * * * @ @ @ * * @ @ @ * * @ * * 1 * * 1 = * * ; > > > > > > > > > > > * * * * * > > * > > > > > > > > > ; * * * * * * @ @ @ @ @ @ * * * * @ * @ * * * * * = = = > * * * * * * * * * * * * * @ @ % $ $ o o o o o o @ % $ o o o o @ o o % o $ % % $ $ % o o o o o o o o o o o o o $ $ o o o @ @ @ * * * * o $ $ o o . . o $ < g W 1.~ ~ c.W h H P k P E E P R f 9 ) ..o.o.o.0 @ 4 h 6 > > H D.:.H H O.*.3.e.y.p.p.p.p.t.t.p.p.p.t.e.3.;.&.=.O.1.I.C f ",
"I.D j I.G.=.=.*.<.r.t.p.p.p.6Xp.p.u.p.a.9Xa.a.y.3.| h f Q C.g 3 6 4 9 6 > 3 ) 9.e.e.o.C j P I Q B.B.Q +.N g Y c.v.l.Y I f * * $ $ & * > > > > > > > > > > > > > > > 4 4 6 6 , 4 4 , 4 4 4 6 4 4 4 < 4 4 4 < < < < < 6 6 6 6 6 6 6 6 6 4 4 6 6 4 4 4 6 6 6 , 4 4 4 6 6 6 4 4 4 4 4 4 4 6 6 6 6 4 6 6 4 4 4 4 7 4 4 4 4 4 7 7 7 4 6 6 4 4 4 4 4 4 4 4 4 4 4 4 4 > > > > 4 4 4 , > > > 4 4 4 , , 4 4 4 4 4 4 > > > > , , 4 3 4 4 4 4 4 4 4 4 4 4 , , 4 4 4 , 4 4 4 4 4 6 6 6 6 6 6 4 4 > 3 3 * * * , j T =.:.C.D.*.[ ;.y.r.r.r.4.+.W -.*.6 = h [ ;.r.3.4 > 0 [ ..o.| H k r sXsXsXsXsXsXsXsXsXsXsXsXsXsXsXsXsXsXsXsXsXsXsXsXsXsXsXsXsXsXsXsXsXsXsXsXsXsXsXsXsXsXsXsXsXsXsXsXsXsXsXsXsXsXsXsXsXsXsX' ;.| ) 6 * 4 3.Y.3.o.[ 4 * ' :.W P P E E T =.' h T :.Q W =.*.N > % @ @ * 4 > , 4 3 3 4 6 6 6 6 f 6 4 4 4 6 6 6 6 6 6 6 6 6 9 0 0 9 6 0 6 6 6 6 6 6 6 6 6 6 6 6 6 6 4 4 4 4 4 4 4 4 4 4 4 4 6 4 4 6 6 6 6 6 4 6 4 6 6 6 6 6 6 6 6 6 6 4 4 6 4 4 4 4 6 6 6 6 4 4 4 4 4 3 4 3 4 4 4 4 4 4 4 4 4 3 4 4 , , , 4 4 4 4 < , , , > > > 4 4 4 4 4 4 , , , , > > > > > > > 3 3 4 4 4 , 4 4 4 4 4 4 4 4 4 4 4 4 4 4 4 4 4 > * * o , f R Q Q Q ~ I h H I P E Y I P R f 9 ) ..o.o.) 9 @ 4 h 6 > , N 1.-.H N ' <.y.y.y.i.i.p.p.t.t.t.t.u.u.e.3.3.*.&.=.4.I.C f ",
"I.D j I.G.W =.=.<.r.p.p.p.p.p.p.p.u.u.p.a.a.p.y.e.;.h u Q C.h 3 4 7 9 9 > 3 ) 9.9.>...C N E I E Q E E +.N g E v.v.k.I k t & * * & & & ; ; > > > > > > > > > > > > > , , , , , , > > > > > > > > > > > > > > > > > > > > > > > > > > > > > > > * * * * * ; * * > > > > > > > > > > * > > > > > > > > > > > * * * * * * * > * * > > > > > > * * > > > > > > > > * * * * > * * * * * * * * > * * * * * * * * * * % * & * * * * * * * * * * * * > > * * > * * * = = > > > > , 4 4 4 4 4 > 3 3 > > = , f j T =.-.1.*.[ ;.y.y.y.r.<.+.W :.*.6 = h [ ;.y.e.6 > 0 ) [ o.| H P i sXsXsXsXsXsXsXsXsXsXsXsXsXsXsXsXsXsXsXsXsXsXsXsXsXsXsXsXsXsXsXsXsXsXsXsXsXsXsXsXsXsXsXsXsXsXsXsXsXsXsXsXsXsXsXsXsXsXsXD ;.| ) 6 ; 4 3.Y.3.;.[ 4 * D :.W P P P E W =.' f H Q W W =.*.g * $ @ @ o * * > * * > > > > > , , 4 4 4 3 3 > > > > > > > > > > > , > 4 > > > > > > > > > > > > > > > > > > > > * * * = * ; ; * * * ; > > > > > > > > > > > > > > > > > > > > > > > > > ; * * * * * * * * ; > > > > > > > > > > > > > > > > > > > = = = * * * > * * > > > > * * * * * * % % * * * * * * = > * * * * * * * * > > > , , < 4 4 4 4 > * * > f f B I I I Y I g T Q Y k.I I P R f 6 ) ..| o.) 9 @ 4 h 6 > , N D.:.H N } 3.t.y.i.y.i.i.p.i.t.t.p.u.e.u.e.3.<.*.=.4.I.C f ",
"G.D j I.G.W =.=.*.3.u.u.p.i.p.a.a.p.p.p.p.p.p.p.u.;.N u E C.f 3 7 7 9 0 3 7 { 9.9.o.) c C E Y E Q Q E -.D f E v.v.Y P I g > o o $ o * * * * o @ * * * * @ @ @ @ @ * * * * * ; * * * @ * * * * * * * * * * * * * * * * * * * * $ $ $ $ * * * * * * * o * * * $ * * * * * * * * * % % % & % % % % % % % * * * * * * * * * * * * * * * % & $ * * $ o $ * @ * * * * * * $ $ $ $ $ * * * * * * * * * * * % % % % * * % % * * @ * * * * * * * * * * * * * * * @ * * * * * * * = * > ; > > ; * * * * * 4 h H W :.1.4.<.' ;.y.a.y.r.:.-.+.:.*.6 , h [ 3.y.3.4 * 0 ) [ ;.;.H P i sXsXsXsXsXsXsXsXsXsXsXsXsXsXsXsXsXsXsXsXsXsXsXsXsXsXsXsXsXsXsXsXsXsXsXsXsXsXsXsXsXsXsXsXsXsXsXsXsXsXsXsXsXsXsXsXsXsXsX' ;.| C 0 ; , 3.I.6.;._ 3 > ' :.W P P P E W =.=.h R -.Q W =.*.B f 4 o . . . o o $ $ * * * > * * = = = * = = = * * * * * * * * * * * * * * * % % * = * * > ; * * * * * * * * * * $ $ % * * % % % * $ * * * * * @ @ * * @ o o $ $ $ $ % % * * * * * * % $ % % % @ @ @ @ o @ * * * * * * * o $ * $ $ * * * * * * * * * * * % % % * % @ o @ * * * * * $ $ $ $ % $ * @ * * * * * @ @ @ $ * % o * * * $ $ $ % * & % & $ $ $ 4 C B P Y U Y c.Q j R E Y Y I I I W f 7 h [ ..o.o.) 3 4 0 6 > > N D.1.H Z =.3.e.t.p.y.p.p.p.t.t.p.p.p.p.u.e.3.*.=.=.4.I.C f ",
"I.} C y.P.=.=.*.;.3.u.p.p.p.a.a.p.5X5X5Xp.p.p.p.u.;.j u E C.h > 4 3 6 0 4 9 o.9.9.o.) h j E Y E E E W =.D f I v.v.Y P P P H > $ $ o % > > > > & * & > & % $ * > > > > , , , , , < < < 4 4 4 4 4 3 > , , , , , > > , = * > > > > , , > > , > > * * , > * * , , > , , , > > > > > > > > > > > > > > > > > > > > > > > > > , * * > , > * * & * * * * * > > > > , > > > > > = * > > > > > = = , * * > > , , > > > > < < 4 4 4 4 6 6 6 4 4 , , , , = , , * * * * > > > > 4 , , , 4 , , > > * * * ; < D D h =.4.G.I.<...o.y.Y.y.6.*.:.:.4.<.6 > f C | e.;.4 * 6 [ o.e.3.H g i sXsXsXsXsXsXsXsXsXsXsXsXsXsXsXsXsXsXsXsXsXsXsXsXsXsXsXsXsXsXsXsXsXsXsXsXsXsXsXsXsXsXsXsXsXsXsXsXsXsXsXsXsXsXsXsXsXsXsX=.4.| ) 6 > > *.I.4.| C 3 * _ :.+.-.-.+.W H O.' h R Q Q W =.=.s f R = . o $ * * * * * > * = , , , , 4 4 , , , , , , , , , 4 4 3 > 3 > 4 , , , , 4 4 , 4 4 4 4 , , > > , , , 4 4 4 4 4 4 4 4 4 4 4 4 4 4 4 4 4 6 6 6 4 4 4 4 , 4 4 4 < < s f h h s 4 < < 4 4 , , 4 , < , 4 , , , < 4 < , , , 4 4 4 4 4 4 4 , > > 4 < 4 4 4 < < < > > > > > > > , , , , , , , , < , > > = = > > > > > > & & * * * > , = * * * * * $ $ > C Z f P k.v.N.M.j.g H W I E E E E W f > 0 L ..3.9.) * 4 h 6 > > H D.:.D H O.*.3.3.e.i.y.y.i.i.p.p.p.p.p.u.e.e.&.T T 4.I.C s ",
"I.D C I.I.=.=.*.3.e.p.p.p.y.i.i.p.5X5X5Xa.p.p.p.e.;.N f W C.h > 4 3 6 0 4 9 o.9.9.9.X.0 j Q k.Q +.W E W D g I k.Y Y E B j T g , & > < s s s f f f f f f f f h f h j N Z V V T T T T T T T D Z Z [ Z C h h j g g B N j j h C C Z Z H H B N C C j j j h j N N N N j N N C C C C C C C [ [ [ Z Z Z Z Z Z Z Z Z C C N Z Z Z N j C C N N N N h h N Z N N N N H N N N N N g g g j Z Z Z Z N j j j Z Z N C h h j j g g g g j N D D D H Z Z Z Z Z Z N j N j j j N C h h j N N N N N N N g h h f 6 6 6 N =.D C &.=.-.D.<.| 3.y.y.y.6.<.:.-.4.<.6 , f C | e.;.4 > 6 ) o.e.3.H j g sXsXsXsXsXsXsXsXsXsXsXsXsXsXsXsXsXsXsXsXsXsXsXsXsXsXsXsXsXsXsXsXsXsXsXsXsXsXsXsXsXsXsXsXsXsXsXsXsXsXsXsXsXsXsXsXsXsXsXO.3.| C 6 > > *.I.<.} C 3 * Z :.+.:.-.Q T V D C h R Q E R D D s t W j , > , 6 f h j N N N j N N N j j N H D O.D D D D D Z ' [ [ Z Z Z D D D D D D ' D D D Z Z N j N Z H H H N Z Z ' ' ' ' D ' ' ' ' } } } } ' D =.=.' D D ' } ' ' D H H V D T T D H H H D D D Z Z D D H D D V D H H H D D D N j j j N N H j f g g H H N N j g h N g h f g g g d g j g d d d g B B B g d d g g g h h h f f f f g g g h f f f s 4 > , 6 C j < B Q c.S.L.k.g N R R W W E W =.j > 0 ) o.e.e.0 * 4 h 6 3 , H D.:.D H D &.3.3.e.y.i.i.i.i.p.p.p.p.p.p.t.e.;.=.=.4.I.C s ",
"I.O.Z T.I.&.&.*.3.e.u.e.u.e.t.p.p.p.p.5X6X6Xp.u.e.| N f W C.h 3 6 4 6 0 3 6 X.e.9.9.o.0 C Q C.Q W T T T D B W E I E Q j f V D f : , u f g g g g j g g g g g j g H H D R R W Q Q Q E W W W W =.*.*.=.T T W W W W W =.=.=.Z ' =.=.O.W R R T O.' } D N H W =.=.=.J D ' =.=.=.=.} ' ' } &.&.&.=.W =.=.=.=.=.*.=.D =.*.*.=.=.=.T &.*.*.*.:.*.=.V W &.=.=.T T =.=.=.W W T R R R W =.=.O.T T T H R T &.=.' N H D T W R k k R T W W T O.=.$.=.=.T T T T R H R T W R B N D W =.W W W W W R H g f f f f T =.h h | W R -.=.| ;.r.y.r.e.4.:.+.4.3.f , h C | e.3.4 > 0 ) o.e.3.H P g & sXsXsXsXsXsXsXsXsXsXsXsXsXsXsXsXsXsXsXsXsXsXsXsXsXsXsXsXsXsXsXsXsXsXsXsXsXsXsXsXsXsXsXsXsXsXsXsXsXsXsXsXsXsXsXsXsXsXT =.' C 6 > > &.r.*.[ C 3 * ' :.+.:.+.W W W =.C 6 P Q E P H V h , H R f t f h B V T W W W +.-.-.-.+.=.+.-.-.:.=.=.=.=.*.=.*.*.&.=.=.=.=.=.=.-.-.-.=.=.=.:.:.*.=.W W =.W +.=.W T T =.*.*.=.O.=.=.=.=.=.=.=.=.=.=.:.:.=.=.=.$.=.W T W T T T =.+.=.T T =.=.=.=.=.=.=.=.=.=.=.=.-.-.W W W +.+.+.E R T W W W W P k k P I P P H R R R R B j P R j g d k R k d d d j P P R j g j j R H H V R P j g B R R H j j H g g f , t h Z h , g U W Q c.I h } =.W -.-.E R W h > h [ >.e.o.0 @ 4 h 6 4 4 D D.-.H D } ;.3.e.t.i.y.y.i.p.p.p.p.p.p.p.t.e.*.=.=.4.I.C f ",
"G.D C I.I.=.&.*.3.e.e.e.e.e.t.p.p.p.p.p.p.6Xp.p.e.| j f W D.h 3 6 5 9 0 3 7  .e.u.e.o.C C W -.-.=.T T W J N W Q Q W W H t f H g t t u d g d d d k k P k i g P P E W W R R E Y Q Q Y Y I P Q -.1.:.=.W W E I Y Y E Q =.=.} =.*.&.W E P E =.=.=.&.=.H R =.-.=.=.=.D O.=.*.*.*.=.D D =.*.<.*.=.W W +.+.W -.1.=.D =.1.1.=.=.=.W =.:.:.=.=.=.T T =.:.:.=.W W =.=.*.=.W E P P E +.:.=.T T E R R R W =.=.=.D T W +.E P k k E W W W W =.4.1.:.=.T R E E P R E Q Q R B R W -.-.Q Q Q Q Q E I B g f u j -.W f C | *.W -.=.[ o.3.e.e.e.6.:.&.<.*.f , f C o.t.3.4 > 6 ) o.3.;.H P g & sXsXsXsXsXsXsXsXsXsXsXsXsXsXsXsXsXsXsXsXsXsXsXsXsXsXsXsXsXsXsXsXsXsXsXsXsXsXsXsXsXsXsXsXsXsXsXsXsXsXsXsXsXsXsXsXsXsXW &.H h 4 * > =.4.=.[ C 3 = O.4.+.+.+.=.*.*.&.Z 6 R B.Q R V T C > g T g u u f B R W Q Q E E Q Q Q Q E Q Q Q Q W W =.=.-.-.=.=.=.=.=.=.+.Q Q +.-.-.+.Q -.:.:.:.+.+.E Q Q Q Q E R T =.:.:.W T =.=.+.W W W W W W -.-.+.T W =.=.=.T R R E R R Q Q W R W =.=.=.-.:.=.=.=.:.-.Q Q -.Q E E E Q -.Q E P P E E E E P k z I I z k k R E W P P P I P k d k P E P g g g P P P P k d j k P E W W R P g i P E P k j j g d d u t f N D s < B V B B W B C | =.-.:.:.=.R T f , h | o.o.o.0 @ 6 h 6 4 4 D D.+.H D =.3.u.p.p.t.t.t.t.p.p.p.p.p.p.p.y.3.;.=.=.<.I.C f ",
"4.Z C I.I.=.=.=.*.3.e.u.e.e.t.p.p.p.p.p.p.p.p.a.e.| j f W 1.j 3 9 9 9 0 3 7  .9.u.e.o.C h R -.=.=.=.W =.D g W C.1.-.+.D s < B g t t u d d d d i i P P k y i g I E W E P P P E E Y E I P P W -.1.:.=.E E I I I I I E W T } =.*.=.W R k R W =.=.=.T j P W -.=.W W D H T =.-.=.T H D =.*.:.=.T T W E W E W =.=.D W =.=.W W W R W =.+.W W W T R W +.=.=.T R V W =.:.W P B P R W =.T R R P P P P R R T T D R R W E P p k E Q W R T =.4.1.-.W E E E P P P E Q E P j P W -.Q Q E E E E I P g u u d R :.V s C ..:.Q F.1.[ ..>.3.e.e.r.4.*.:.*.4 > 6 C ;.y.3.4 > 6 ) ..3.o.H P g & sXsXsXsXsXsXsXsXsXsXsXsXsXsXsXsXsXsXsXsXsXsXsXsXsXsXsXsXsXsXsXsXsXsXsXsXsXsXsXsXsXsXsXsXsXsXsXsXsXsXsXsXsXsXsXsXsXsXW =.N s , * > } <.| [ C 4 > =.4.-.O.W &.<.*.<.} h W F.B.W V D C , f T V g u u g R E E E I P I E E E E E E E W E R W W =.=.W T T T W =.+.E E E Q Q E I W +.=.W E W E E E E E E P R =.:.+.W T W =.=.W W W T R E -.+.W R W -.=.+.W R R R R R W W E R R W T T =.-.=.W T =.+.W W Q Q I P I E Q E P k B P P P P z p p z z p p g P E E k k P E P k d P E E P d i g P P P k d d g k P E W E P g i i g R P k d d d i u y u d H N < u V W V W W B C [ W W =.*.W T V f 4 C [ ..o.o.0 > 6 C 6 4 4 D D.-.H H &.r.i.p.p.t.e.u.p.p.p.p.p.p.p.p.u.3.&.=.=.4.I.C f ",
"1.C j I.I.=.=.T =.*.e.y.t.u.t.p.p.p.p.p.p.p.p.i.3.| j f W C.j 3 0 9 0 0 4 6 ) 9.9.o.) 0 h V -.=.*.:.=.=.D f E C.1.-.=.D 4 , h g u u i i d g g g k P I P g g P E E T E R R I W Q Q Q E E W W -.:.1.:.+.W E E E E E W =.=.=.=.*.=.=.W E R W =.=.=.T R W +.-.=.=.=.T D T =.-.-.=.T T =.:.:.=.=.W W +.Q W =.=.=.=.=.=.+.=.=.+.W W +.-.=.=.=.=.W =.-.:.-.=.W W =.:.1.=.T R R W =.=.=.W R R R R E E W =.=.W T T W E E P P E Q =.W =.+.:.:.-.-.+.Q E I I E Q Q Q E R W +.-.-.Q Q W W E E E R g d B +.:.B s C ..-.Q H.C.D ..o.3.e.t.r.4.:.:.&.4 > h [ ;.y.3.6 > 0 ) o.3.;.H P g & sXsXsXsXsXsXsXsXsXsXsXsXsXsXsXsXsXsXsXsXsXsXsXsXsXsXsXsXsXsXsXsXsXsXsXsXsXsXsXsXsXsXsXsXsXsXsXsXsXsXsXsXsXsXsXsXsXsXP T N s , * > =.6.&.[ C 4 > =.5.-.+.=.:.<.*.*.} h -.H.C.+.T D C , < H T H j B V W W W Q Q W E Q +.-.-.-.+.Q Q W W =.:.:.=.W =.=.O.W =.+.E E W Q Q Q E W +.+.=.W Q W W E E Q W T T W =.=.=.=.=.+.-.+.=.W W W +.-.-.W W +.:.:.+.W W W W W =.W W W W W =.W W =.-.=.W =.+.=.=.+.+.Q E E E E W W E R R R B k P P k k l P P P R E E E R P E E I k j E Q E P k k P P E P P P P P P R W +.=.T B j g P R P R P j j d d d d j E j > s V W W Q Q B C ' W W =.=.=.W J 4 = 0 C ..o.o.0 > 9 C 0 4 4 D G.:.H D *.e.i.i.i.t.e.t.i.p.p.p.p.p.p.u.e.;.| =.=.4.I.C f ",
"1.C h I.P.=.&.=.=.*.e.i.t.u.t.p.p.p.p.p.p.p.p.u.;.} j f W C.j 7 0 0 0 ( 4 6 { 9.o.o.) 0 h R -.:.:.<.:.=.D g I Q Q Q W D 6 > s j g u u u u i d g i i i i g g d g g j B B B B B B P P j j H B B B B H B g g g B B B B N N H N N B B j k j H H V H B g B H H H H B j g j H R R H N B H R T H H H H R H H H N N H H H H H R H j j B H V H H V R V V D V V B B V D D N g h g j j N N H j g d d d j j H H B B B B P P k k j B H H H j H H H R E P P k P P E E R R R H H H R P P B B j B B j f f g T T f 6 [ 3.-.C.H.C.' | o.3.t.t.i.r.<.:.=.4 > h [ ;.y.3.4 > 0 ) o.3.;.H P k & sXsXsXsXsXsXsXsXsXsXsXsXsXsXsXsXsXsXsXsXsXsXsXsXsXsXsXsXsXsXsXsXsXsXsXsXsXsXsXsXsXsXsXsXsXsXsXsXsXsXsXsXsXsXsXsXsXsXE +.V f , > , &.I.<.[ C , > =.4.&.:.:.<.<.*.*.D h :.F.C.:.=.D C , 4 H D N f f f g g g g j g g g g k P P j g g g g B H V B h g j g g g j j g g g g j g g g g g g d f u u u d d f f f d g g g g g g g g f f g g g g f d g j g g f f f d g g g f f g g g d g d f f f g g f d d f f d d f u u u f f f t t t u u u u y y i d f f f i f d i g i u t u u u u t f f g d d i d d i d d g j j g g g d d d g g j g f u u u i g P h > f V W Q 1.2.W N =.W R W 1.4.2.W 4 * 4 0 ) o.o.0 @ 9 ) h 4 4 T G.D.D D &.3.e.p.i.t.t.i.a.i.p.p.p.p.p.u.3.;.} =.=.4.I.C h ",
"D.C j I.D.=.=.+.+.:.3.e.u.e.u.p.p.a.p.p.p.p.u.3.| ' N f W D.j 4 0 0 0 c 4 6 o.e.e.>.{ C h E Q C.D.C.Q =.D h W c.Q Q W D 6 , h s = $ $ o o o $ o @ o o o o o o $ @ @ @ @ @ @ o @ @ @ o o o @ o o o o o o o o o o o @ @ @ $ % * * * * * * * * * * * $ * * * * * % * * * * * * * * * * * * @ @ @ @ @ @ @ @ @ @ @ @ * * * * % * @ @ * * * * * * * @ @ * * * * * * @ @ @ o @ @ @ @ @ * @ $ $ $ o * * * * @ @ @ % % % % * % $ $ $ $ $ * * * * * * * * * * * * * = * * * * * * * * * * % % * $ o % > , 6 h [ 4.1.c.Z.1.[ o.e.u.p.p.y.r.<.1.=.6 > f O.<.I.<.4 * 9 [ o.3.;.N R j & sXsXsXsXsXsXsXsXsXsXsXsXsXsXsXsXsXsXsXsXsXsXsXsXsXsXsXsXsXsXsXsXsXsXsXsXsXsXsXsXsXsXsXsXsXsXsXsXsXsXsXsXsXsXsXsXsXsXk.B.H h 6 > > *.I.<.' h , * H 4.=.:.4.4.-.=.=.N 6 T 4.1.1.*.&.[ 4 4 f , * o o @ @ @ * * * * @ @ o * * $ * @ @ @ @ @ @ @ @ @ * * * * * @ * * @ @ o % o o o o o $ $ @ o o o o o o o o . o * * * * @ * * @ @ @ * @ @ @ * * * * @ @ @ @ @ @ * * $ $ * * * $ @ @ o o @ @ @ @ @ @ @ o o o o o o X o o X . X X X . . . $ $ $ o . . o o o o o o o . . o X . o o @ @ @ o o o @ @ @ @ o o o $ * $ o o o o * * * * $ $ . . o % > , , h V W Q ~ c.U H =.Q E W Q C.F.-.4 > 6 0 ) X.o.0 @ 4 C 0 3 , O.U.D.R R T =.*.i.i.p.p.i.p.p.p.p.p.p.p.e.3.3.;.| } 4.I.C f ",
"I.N j I.D.=.&.-.-.*.<.e.u.t.p.p.p.p.p.p.p.p.u.;.} D g g +.F.Z 6 ( c 0 0 3 4 o.t.p.t.>.) j E Q Q -.-.E W } N Q C.-.-.*.=.s > , & . .     o o o o . . X X X X . o o o o o o o . X X o o o o * @ o o @ @ o o o o @ @ @ @ * * * * * * * * * * * * @ @ @ @ @ @ * * @ @ @ @ @ @ @ @ * @ @ @ @ @ @ @ @ @ @ @ @ @ @ @ @ @ @ @ @ @ @ * * * * > > * > > > > > > > > * * @ @ @ @ O O O O O @ o o o o o o o o o o o o o o o o @ @ @ @ * * * @ @ * * * * * @ @ @ @ @ * * * > > * * * * * * * * o o o o o o * 4 h } 4.C.c.n.~ [ 9.i.i.p.p.y.r.:.<.*.6 > h H =.4.<.6 > 6 [ &.3.&.B P k & sXsXsXsXsXsXsXsXsXsXsXsXsXsXsXsXsXsXsXsXsXsXsXsXsXsXsXsXsXsXsXsXsXsXsXsXsXsXsXsXsXsXsXsXsXsXsXsXsXsXsXsXsXsXsXsXsXsXk.Q H h 6 > 4 <.U.4.D h , * H 4.&.:.4.:.=.=.=.H 6 ' 4.1.1.*.;.| 6 * o o * * - > > > 3 3 3 3 3 3 3 3 3 3 3 3 > > > @ @ @ @ > 3 > > > * @ * @ @ @ * ; > > > * * * * > > > > > > > > > * > 3 3 3 3 3 3 3 3 3 3 3 3 3 3 3 3 3 3 > > > > 3 3 3 3 > > > , > > > > 3 > 3 3 3 3 3 3 3 3 3 3 > > * * * > * * @ @ * * * * * * $ o * * * * * ; > > * * * @ o o @ @ @ @ * * * * * * * @ @ o o o o o @ @ o o @ $ $ * o o X . . . o > < B V W 1.C.Z.W B =.-.E E E Y B.Q 6 3 ) ..o.o.o.( @ 4 h 6 > 4 =.U.F.W T T =.*.e.t.t.u.u.p.p.a.a.p.t.u.e.6.3.*.=.=.4.I.C f ",
"U.Z j I.D.=.&.=.&.*.3.e.u.p.p.p.p.u.p.i.a.i.r.4.&.T g g +.F.N 6 ( C 0 9 3 7 ..t.p.p.e...N W Q Q Q E W =.} N W c.k.-.1.=.f * * o o @ @ * 3 3 3 3 > 4 4 4 4 4 4 4 6 6 6 6 6 6 6 6 6 6 6 6 6 6 6 6 6 6 6 6 6 6 6 6 6 6 6 6 6 6 6 6 6 6 6 6 6 6 6 6 9 9 6 6 6 6 6 6 6 6 6 6 6 6 6 6 0 0 6 0 0 0 0 0 0 0 0 0 0 0 0 0 0 0 0 0 0 0 h 0 0 0 0 0 0 0 h h 0 0 0 h h h 0 0 9 9 9 6 6 6 4 4 4 4 4 4 6 6 4 6 6 6 6 6 6 6 6 0 0 0 0 0 6 6 6 6 0 0 0 h h h h h h 6 6 0 h h h h h 0 0 0 0 0 0 6 6 4 4 4 3 3 > > 3 h &.4.~ v.S.Q C o.p.i.i.t.e.*.&.:.*.4 > h j H -.:.4 = 6 Z } *.&.P P k & sXsXsXsXsXsXsXsXsXsXsXsXsXsXsXsXsXsXsXsXsXsXsXsXsXsXsXsXsXsXsXsXsXsXsXsXsXsXsXsXsXsXsXsXsXsXsXsXsXsXsXsXsXsXsXsXsXsXY W R g s > , *.D.=.N h < = H <.*.:.:.-.=.=.=.D f =.D.1.1.<.;.Z 6 * * > 3 6 6 0 0 c c c ( ) ) ) ) ) ) ) ) ) ) ) C C 0 C ) ) ) ) ) ) h h h 0 0 h 0 0 0 0 0 0 0 0 0 0 0 0 0 0 0 0 0 0 0 h C ) ) ) ) ) ) C C C C C C C C C C C C C C C C C C ) C h C C ) C C C C C C C C h h h h h h h h h 6 6 6 6 6 6 6 6 6 6 6 6 6 h h h h h h h h j C C h h h 6 6 6 6 h h 0 h h f f f h h 0 0 6 6 6 6 6 6 6 4 4 4 4 4 4 6 4 4 > > * * % , h B W c.A.Z.W H =.Q E E E I Y W f 7 ) o.o.e.9.) @ 3 h 6 > 4 =.U.F.T D T &.3.e.t.t.u.u.p.p.a.t.e.e.r.6.<.1.=.=.W 4.I.N f ",
"@XV j I.D.=.=.=.*.3.e.t.p.p.p.p.p.u.e.p.a.i.r.:.&.W j g +.F.N 6 ) ) 0 0 3 7 ) e.e.t.e.o.Z Q k.Q Q E E -.' h W c.Q -.-.W s % o X @ @ @ @ > > > > > > > > 4 4 4 4 4 6 6 6 6 6 6 6 6 4 4 4 4 4 4 4 4 4 4 4 4 4 4 4 6 6 6 6 6 6 6 6 6 6 6 6 0 0 6 6 6 6 4 4 4 4 4 4 4 6 6 6 4 4 4 4 6 4 6 6 6 6 6 6 6 6 6 6 6 0 0 9 0 0 0 0 6 0 h h 0 0 0 0 0 0 h h h 0 0 h 0 0 0 0 0 6 6 6 6 3 3 4 4 4 4 4 4 4 4 4 4 4 4 4 4 6 6 6 6 6 6 6 6 4 4 4 4 4 6 6 6 6 6 f f 6 6 6 6 f h h 0 6 6 6 0 0 6 6 6 4 4 3 > 3 > > * 6 &.4.C.v.M.~ [ 9.u.i.i.e.;.=.T -.*.4 * f j R -.:.4 * 6 Z J *.*.P P k & sXsXsXsXsXsXsXsXsXsXsXsXsXsXsXsXsXsXsXsXsXsXsXsXsXsXsXsXsXsXsXsXsXsXsXsXsXsXsXsXsXsXsXsXsXsXsXsXsXsXsXsXsXsXsXsXsXsXI R V g f , , =.5.O.j f 4 > H <.&.:.4.4.:.=.=.D f =.D.1.1.<.&.6 > * > 4 > 4 6 6 6 0 0 0 0 C C C C C C C ) ) C C h 0 0 0 0 0 0 0 0 0 0 0 0 0 6 6 6 6 6 6 6 6 6 6 6 0 6 6 6 0 0 0 0 0 0 0 0 h h C C C h 0 0 0 0 h h 0 0 0 0 0 0 0 0 0 0 0 0 0 0 0 6 6 6 6 h h 0 0 6 6 6 6 6 6 6 6 6 6 6 4 4 4 3 4 4 4 3 3 3 3 3 3 3 > > > > > > 3 4 6 6 6 6 4 4 4 4 4 4 4 4 4 4 6 4 4 4 4 4 6 6 6 6 6 6 4 4 6 4 3 3 3 4 4 3 > > * * o o o , N B W Q z.c.U H *.Q E Q Q Y Y W f 7 ( { o.o.o.C @ 3 h 6 > , =.H.C.R D T *.r.r.r.y.i.i.p.p.i.e.3.*.:.:.-.W W W W 4.I.N f ",
"U.N C I.D.W =.=.*.e.p.p.p.p.p.p.a.p.p.p.i.i.:.*.O.R g d W F.N 6 ) ) C 0 3 6 ) 9.9.9.>...Z -.C.-.-.-.Q *.=.B Q c.Q Q W T u & o . X X o o o o o o o o o o o $ o % * * * * * * @ @ @ @ @ @ @ * * * * * * * * * * * > = = = ; * * * * * * > = = * * * * * * * * * * * * * * * * * * * * * * * * = = = > > > > > > * * * * = > > > > * > > > > > , , > > > > , , > > > = * * * * * $ $ $ $ $ % * * * * * * * * * % * * > > * * * * * * * * * * * * * * * * * * * * > > > ; ; > > > * * * $ o o o o o * 6 D <.C.n.[.c.[ 9.u.i.i.3.;.O.W -.*.4 * s j W :.:.4 > 6 Z D *.:.P P i % sXsXsXsXsXsXsXsXsXsXsXsXsXsXsXsXsXsXsXsXsXsXsXsXsXsXsXsXsXsXsXsXsXsXsXsXsXsXsXsXsXsXsXsXsXsXsXsXsXsXsXsXsXsXsXsXsXsXP D D j 6 > 4 *.I.<.' j 4 > Z 4.=.:.4.4.:.=.=.D 6 =.D.:.1.4.*.C < > $ % o * * * * > > > > > > > > > > > > > > > > > > > > * > > > > * > > > * * * @ * * * * * * * > = = = = = * ; ; ; > > > > > > > > > * * * * * * * * * > 3 3 3 > > 3 3 > > > > > > > > > > * @ @ @ @ @ @ @ @ @ @ @ * @ @ @ @ @ @ o o o @ @ @ @ @ @ @ @ @ @ @ o @ @ @ @ @ @ @ @ @ @ @ @ O O @ O o o o o @ * @ @ * * * * * * * * * * * * o o o o o o > f B B Q Y Y j.I N &.-.Q Q Q Q E R 6 9 ( ) ) o.o.0 * 3 h 6 , < T F.:.R O.=.*.4.4.r.y.i.t.e.u.t.e.3.*.-.+.W W R W W 4.I.N f ",
"I.N C I.D.W =.=.<.e.p.p.p.p.i.i.t.t.i.a.i.i.r.*.O.R g d Q C.N 4 0 0 0 0 3 6 { 9.o.o.o.) Z -.C.4.<.1.=.=.} B Q c.Q E W R d f < $ $ % * * * & & * > * * > > > * > , , , , , , , , , , , , > > , , > > > > > > , , , , , , > > > > > > > > > > > > > > > > > * * & & > > > > > > * > > > > > > > , , , , > > > > > > = * * = > > > > > > > > , , , , > > , , > > > > > > , > = * = * * & > > > > > > > , > > > > > > > > > > > > > > > > > = * * * * = = , , , , , , , > , , , , , > > & & & * % % f Z D *.Q  X4XH.[ o.u.u.u.3.*.=.W -.*.4 * 6 j W 1.*.4 > 6 C D *.=.P k g & sXsXsXsXsXsXsXsXsXsXsXsXsXsXsXsXsXsXsXsXsXsXsXsXsXsXsXsXsXsXsXsXsXsXsXsXsXsXsXsXsXsXsXsXsXsXsXsXsXsXsXsXsXsXsXsXsXsXR =.} C 6 > 3 3.qXy.;.Z 4 * Z r.*.:.:.:.-.=.=.D 4 D D.1.1.4.<.Z N h * % & % = = > , , , , , , , , > > > , , , , 4 , , , , , , > , > > > , , , , , , > , > > > > > > > * * * > > * > > > = > > > * * * > > > * * * * * * * * * * * * > > > > > > > , , , > > > > > > > > > > > * * * * * * * * * * * = > > > > > > > * * * * * * * * * * * * = > > * * * * * * = * * * * * * > > > > > 4 4 4 4 , , , , , > > > * * > < C D V P Q j.j.z.U B =.=.-.-.+.E E H 6 5 0 ) ) { [ 0 > 4 h f 4 , T D.:.R =.*.*.*.;.3.i.t.u.e.e.u.u.e.*.&.=.=.W W W =.4.I.N f ",
"P.N N I.D.=.=.&.3.u.p.p.p.p.i.3.;.e.i.a.a.a.i.i.*.O.g d W F.Z 4 9 0 0 0 3 5 { e.e.o.) C Z 1.D.5.6.<.=.*.} N Q c.c.Q Q P i R B < , , < < t t s s f f f f d f f g g g g g g g B N H H B B B N N N N h h h h g g g B B B B N H N N N g h g g g g B B B B B g h f f f f h g g g g j N N N N N N N N N N N N C j C N j j j j h h N N N N N N N H H H N N N N j g N N N N N N N j j N N g g B N H H H R R H H j j g g N j j j j j N N N N N h h h f f h g N N N N N N N N N C C N N j h h s s < < , u } =.N *.1.S..XC.| 9.u.u.i.e.<.:.=.-.&.4 * s j O.4.<.6 > 6 Z =.<.=.B P g ; sXsXsXsXsXsXsXsXsXsXsXsXsXsXsXsXsXsXsXsXsXsXsXsXsXsXsXsXsXsXsXsXsXsXsXsXsXsXsXsXsXsXsXsXsXsXsXsXsXsXsXsXsXsXsXsXsXsXR 3.;.C 6 3 3 3.$Xi.o.[ 6 * _ r.3.4.:.:.:.+.=.D 6 D D.1.1.4.<.C D &.h < , t h B N N N Z Z N N N N C C C Z Z D D D D ' Z H N N N N N N N Z H N N N N N N N N N Z Z Z N N C N N N N N N N N N N N C C C C Z C C N C h h f h h h h h h h h C Z N N h h h j h j N N N N N Z Z Z C j j j j N j h h h h h g h h f h f j j j j j h h h f f f f f f f f s s f h h f j j h h h f f h h N N N N N N N j N j g h h f f s s < t f D W B B Q j.z.v.Y B } =.1.<.:.E E R f 7 h ) ......0 * 4 0 f 4 , T D.:.H ..3.r.e.3.e.u.e.e.e.e.u.u.e.3.*.*.*.&.=.=.=.4.I.N f ",
"I.N C I.D.=.=.&.;.e.p.p.p.p.y.3.;.e.i.a.a.a.a.a.r.*.N d Q F.H 4 9 9 6 0 4 6 o.e.e.o.[ ) Z 1.G.6.3.;.*.<.} N Q n.v.Q E R d g R g t < t f t u d d g j j j g j j R R P R P P P R R E E E E E W =.=.=.W R P P E W E Q W W =.*.*.*.=.=.D D D T =.=.=.=.*.=.=.*.=.=.W =.W T W =.=.=.:.<.:.*.*.*.=.=.*.*.:.*.=.=.*.*.*.*.*.*.=.W W W =.*.*.=.=.-.=.=.+.=.=.&.=.*.*.*.*.*.:.:.*.*.*.*.*.=.=.=.=.=.:.:.+.+.+.=.=.=.=.=.=.=.=.=.=.&.*.=.=.&.&.=.W R R P R R W =.=.=.W W =.=.=.=.=.W W =.T D H N h s 4 < h =.Z C *.-.Q 1.=.) 9.e.u.i.y.6.<.=.=.=.4 * 4 g T 4.*.4 > h ..&.3.&.B P B : sXsXsXsXsXsXsXsXsXsXsXsXsXsXsXsXsXsXsXsXsXsXsXsXsXsXsXsXsXsXsXsXsXsXsXsXsXsXsXsXsXsXsXsXsXsXsXsXsXsXsXsXsXsXsXsXsXsXT 3.;.C 6 3 3 o.a.e.| [ 6 * C r.e.4.:.:.:.+.+.D 6 ' G.4.:.<.:.f h :.T f f f V T =.=.=.=.=.=.=.=.=.=.=.&.*.=.*.<.<.*.*.-.+.=.T T W =.=.=.=.:.=.=.=.=.O.=.=.=.=.=.:.<.*.=.=.:.-.-.-.-.-.:.=.=.*.*.*.*.*.:.*.:.:.-.:.=.=.W W W W W =.=.*.*.1.<.*.&.=.W T T =.:.1.1.:.=.=.*.:.*.=.=.=.W W T W T T T R R R R R R R R H H H H R H H R T D H H H B B H B H T T T W T =.W W T R R P R T =.-.W T T W R H R H H g g g d f t f H =.Z s g U Y x.n.Y N | &.<.6.<.W R V f 7 0 ) o.o...0 * 3 h 6 4 , D :.=.H [ ;.y.y.u.u.t.u.e.e.e.u.u.u.3.3.*.:.*.=.T T 1.I.N f ",
"I.N j I.D.=.=.;.3.r.r.t.p.p.y.y.e.t.a.a.a.a.a.a.e.&.j d Q F.H 4 9 9 9 0 4 6 o.9.9.o.o.) Z :.4.4.3.<.:.1.K C Q n.c.Y E R f u B P u < t u u i d i g P R B g j H R E E R P B P W W W Q W E W +.-.*.*.=.W E I I Q 1.Q W =.<.<.4.<.&.=.&.&.=.=.:.1.:.*.<.<.<.:.*.*.*.<.-.=.*.<.:.*.4.5.5.5.4.:.:.*.1.<.<.:.-.:.<.<.4.4.<.1.=.Q Q :.:.:.:.*.=.:.:.1.:.=.*.*.<.<.&.*.<.4.4.4.4.:.:.<.:.=.=.:.:.:.:.1.:.-.-.-.:.-.=.=.=.*.1.:.<.<.:.*.*.;.<.*.=.W E R R R =.1.=.W +.:.:.*.=.W W =.=.=.T D D N h s s u V J 0 6 ;.*.-.1.&.) o.e.i.i.y.r.<.=.W =.4 * 4 f R 4.:.4 > h | ;.3.&.B P R > sXsXsXsXsXsXsXsXsXsXsXsXsXsXsXsXsXsXsXsXsXsXsXsXsXsXsXsXsXsXsXsXsXsXsXsXsXsXsXsXsXsXsXsXsXsXsXsXsXsXsXsXsXsXsXsXsXsXH | | C 6 3 3 | y.3.| C 4 * C e.e.e.3.*.-.+.*.} 0 O.G.1.*.<.*.j 4 ] =.B g g H T =.+.=.=.=.-.-.-.=.=.:.<.:.=.*.4.<.=.=.-.:.:.=.T =.:.:.*.:.:.:.=.=.+.=.=.=.=.=.*.:.<.*.=.:.1.1.1.:.:.:.:.:.*.<.4.<.:.:.1.-.:.1.4.4.:.=.*.:.:.=.=.:.<.1.1.4.4.4.4.:.-.Q W -.1.D.D.1.:.:.4.4.:.=.+.-.Q E W W =.T T R R E W W R R R H T R R W W T W W T T R R P P P R W +.+.W W =.=.=.+.W P P P P E +.-.W T W W W W R R j g j g f s t f V ' s < g P I z.v.U h ) | &.<.4.-.W T f 7 0 ) o.o...c @ 3 0 6 > 4 D :.=.D ' ;.e.u.t.t.u.e.e.e.e.e.e.e.e.8.*.=.=.=.W W 1.G.N f ",
"I.Z C I.P.*.*.;.r.r.3.t.a.p.u.t.t.i.a.a.a.a.a.y.3.=.j d +.H.D 4 9 9 9 0 3 6 o.e.e.e.o.) _ =.1.<.r.4.4.*.| Z E z.Y E W W h , f R j t t i i i y y g P R B g g B R E E R g g I E E E Q W R R =.=.=.=.T R W I P Y Q E R =.<.4.6.<.=.=.*.<.=.=.-.1.:.:.<.<.<.=.=.=.<.4.:.=.=.<.<.<.6.r.I.P.<.*.*.<.5.5.<.:.=.:.<.<.4.<.<.*.=.+.+.1.*.=.:.1.:.=.:.1.:.=.=.*.<.<.=.=.<.4.1.1.1.*.*.4.:.T =.:.:.+.-.:.-.Q Q -.-.+.W W =.1.=.=.*.*.=.=.=.*.<.*.T E E I P R -.=.W T =.:.4.:.=.T T =.1.*.D N N H B f s f R D 6 0 | *.1.D.<.) o.e.i.i.y.6.:.W W W 4 * 4 f W D.<.4 > h | 3.3.&.B E E sXsXsXsXsXsXsXsXsXsXsXsXsXsXsXsXsXsXsXsXsXsXsXsXsXsXsXsXsXsXsXsXsXsXsXsXsXsXsXsXsXsXsXsXsXsXsXsXsXsXsXsXsXsXsXsXsXsXsXT ;.| C 6 3 3 ..r.3.[ h 4 * C 3.3.e.6.<.:.+.*.=.0 T F.1.=.:.*.Z > j =.E d d B R W Q Q E E Q Q E E E -.1.-.W =.:.:.=.W Q :.:.T H =.:.=.+.=.W W =.-.-.-.W W =.=.:.:.<.<.:.:.1.C.-.-.-.-.+.=.=.<.<.=.=.=.:.:.-.-.:.:.W W =.1.-.T W =.:.:.+.:.-.:.:.-.Q E E Q Q -.-.-.+.+.:.:.Q W Q -.E P P E W P P P P E E E E P B R W P P E W R P l P R k P P P k P W Q W R R E W Q E P P P P P P E Q E E E I E E P g g g j g f s s j D N > > g H g I Y P h ) | &.<.*.-.-.=.f 3 0 ) ..o...0 @ > 0 4 > 4 D 1.=.H H =.o.e.e.t.u.e.e.u.e.e.e.e.e.e.*.=.=.=.O.W :.5.C f ",
"U.H h I.5.*.3.r.r.4.3.3.y.y.e.e.e.i.a.a.a.i.i.r.3.*.H g +.H.D 4 9 9 9 0 > 7 o.t.t.e.o.) C =.1.4.r.<.*.$.J C W j.Y E W =.B < s H H d u i i i y y i P I P g g P P E P k i P E E P P E W R E +.-.W R B P I I I I Y Q W =.*.<.<.1.=.W *.1.W W W Q -.:.1.1.-.W R W 1.1.W E W 1.4.4.5.5.5.<.=.T =.1.4.4.:.=.=.:.<.1.:.=.=.=.W W Q +.W =.1.4.:.W Q Q Q E W -.1.=.V T :.:.:.:.-.W W -.-.W W Q Q E E Q Q Q Q Q E E E W -.1.E E W Q W W +.:.:.W P P I I I I E W W E E Q -.+.E B R +.:.=.H g B B g f d g E j 4 h | *.1.H.<.) o.u.e.u.e.<.=.P E T < * 4 g =.G.<.4 > h ..o.3.;.B E E sXsXsXsXsXsXsXsXsXsXsXsXsXsXsXsXsXsXsXsXsXsXsXsXsXsXsXsXsXsXsXsXsXsXsXsXsXsXsXsXsXsXsXsXsXsXsXsXsXsXsXsXsXsXsXsXsXsXP =.6.&.C 6 > 3 ..e.;.[ h 4 * C 3.3.r.r.<.:.+.-.=.h T G.1.-.:.:.C 4 f =.W B g j P E E E E E Q Y I P I Q -.-.W W Q -.-.Q Q B.Q E E W Q W E W R R -.D.C.-.Q E Q +.-.-.1.4.:.-.-.C.-.E E E E T T =.=.W E Q -.-.-.-.1.-.W W :.1.-.R R W -.-.-.-.-.-.Q E E E Q Q Q Q Q Q +.-.-.-.E E Q k.E P g P E P P P P P P P P k P Q Q E I E Q E E P P P g k P I P P I P P P P P P I I P p P I I P I E E I I I P p i p k P g i u t f H H h & , N H H R E V h ..3.<.<.*.=.+.=.h 3 0 ) ..o.o.c * > 6 4 > 4 T D.-.H H D | o.e.t.y.e.e.u.u.u.e.e.r.r.:.:.=.=.W R -.5.C f ",
"U.Z j I.5.*.*.4.;.*.4.r.i.i.i.i.p.a.a.9XQ.i.r.r.4.*.H g +.H.D 4 0 9 7 7 > 7 o.e.e.e.o.) h =.1.<.<.*.-.<.} Z ~ n.c.1.-.=.H < < g H g f g j B B g k P I I E E E E E I P P E Q Y I I E Q Q +.-.Q W E E W E Y Y Y Y Q 1.-.:.1.1.1.=.=.=.=.W E W E Q -.1.-.-.W W Q 1.1.E E Q C.D.D.D.4.4.:.-.=.=.:.:.-.W W +.1.<.1.1.:.:.-.W E E W W +.:.1.1.-.W E E Q Q -.-.W R E -.1.C.C.-.W W Q -.-.Q Q E E E Q Q Q Q Q E E E Q -.-.E I E E Q Q Q -.Q E I P I E E E E Q Q Q Q -.-.Q E E W -.-.Q W R R R R B H W -.h > h *.1.4.H.<.[ o.u.u.u.3.*.O.R W T , * 4 N :.I.<.4 > 0 ) ..3.;.H E P sXsXsXsXsXsXsXsXsXsXsXsXsXsXsXsXsXsXsXsXsXsXsXsXsXsXsXsXsXsXsXsXsXsXsXsXsXsXsXsXsXsXsXsXsXsXsXsXsXsXsXsXsXsXsXsXsXsXP T 3.| C 4 > 3 | r.;.[ h 4 * j r.r.y.r.*.-.+.-.=.h W H.D.1.1.:.C 4 s H =.W H R W =.+.-.-.1.B.Q Q E E +.-.-.Q Q -.C.C.C.C.B.Q Q Q Q Q Q Q Q W W :.D.D.C.k.Q -.-.-.:.4.D.D.1.C.F.C.B.Q Q Q W W =.=.W Q Q -.-.C.C.1.-.E E Q -.Q E E E Q -.-.-.-.Q W R R W -.-.+.+.+.:.:.:.:.-.Q W Q Q E P P R T W W Q E P k k P P E +.E P P E E Q Q Q Q Q P P I I I Y E E E E W P P E E P P I E I I I E E E E E P k k P E E P P g d j R B < > s V W Q ~ 1.T h o.3.<.<.<.=.W T 6 7 0 ) ..o.o.0 @ > 4 4 > 4 T D.-.H H =.*.3.e.u.u.e.e.u.u.u.e.3.*.*.:.-.=.=.W R :.5.C f ",
"D.j h I.D.*.=.=.&.:.5.r.y.a.a.a.i.p.6X9X9Xa.y.r.*.&.H g +.H.D 6 0 0 6 6 3 6 o.e.e.e.o.) h T :.*.*.*.1.1.$.D A.oX.XA.-.=.H s 4 h f , * = > > , > , , , t t s s u u u t t t u u t t t u f f f f t t u u u u i i g g g h h f f f s s s < t t t t u f f s f s s s s s u u f g N N N N h h g h s s h s s u s h h h g g g f f u u f f s s f f f t t u u f f s t t f f f g g f s f f g g h f u u u u u f f u t t u f f u t t , , , , , t , < t t t t t t f f f f g g g d f f f h h f f f f f t < 4 s f 4 4 Z <.5.D.H.<.[ >.u.i.i.e.3.&.T W T , * 4 j :.I.<.4 > 0 ) ..3.;.H R P sXsXsXsXsXsXsXsXsXsXsXsXsXsXsXsXsXsXsXsXsXsXsXsXsXsXsXsXsXsXsXsXsXsXsXsXsXsXsXsXsXsXsXsXsXsXsXsXsXsXsXsXsXsXsXsXsXsXE W &.} j 4 > 3 | y.;.[ h 4 * C r.r.I.6.*.&.&.*.=.0 =.H.F.1.1.*.C , 4 N D h 4 4 4 s s s f h f f f s t s s s t t f g H H j g g g g d f g f f t s f g g g g g f f f f h N g g g H B j g u f f s s s f u f u f f h f s t t t < < t , , t t u t < < , , < < < < < < 4 s s s s s s s t t < < , , < 4 s s f t t t t t t t t , , , , t t u u < > : , t t u u t s f t t t s t t < t t t t t u g g g d d u t t t s t t t , t t t = 4 s B W ~ ~ 1.T h o.<.*.4.<.=.W V 6 7 ) o.o.o...0 @ > 4 4 > , T D.:.H H *.r.e.e.e.e.e.e.u.u.e.;.=.=.&.=.W T T T R :.5.N f ",
"D.h f I.G.=.=.O.=.:.<.r.y.a.6Xa.a.a.a.9X9XQ.y.r.*.=.H g +.H.D 7 0 0 0 0 3 9 o.e.e.9.o.( h =.:.*.*.<.4.1.&.D C..X[.A.=.W V u , > $ . . . . . o . . . X o o o o o o o o o . . o o o o o o o o o o o o o % % % % * % % @ * o o o o o o X o o o o o @ @ @ @ @ @ @ o o @ @ * = * > = * * * * * * @ @ * * % $ $ * @ o $ * * o o $ o $ o o o $ o o o o o o o o o o * * o * * * * @ * * @ @ @ o * % o @ @ @ o o o o o o o o o o o o X o X o o o o o o . o o @ @ @ @ o o * * @ @ @ @ $ * * * $ o o o o $ * 6 [ *.5.G.H.<.L o.u.i.i.y.y.4.=.=.D , * < g :.I.6.4 > 0 ..o.e.o.N R P sXsXsXsXsXsXsXsXsXsXsXsXsXsXsXsXsXsXsXsXsXsXsXsXsXsXsXsXsXsXsXsXsXsXsXsXsXsXsXsXsXsXsXsXsXsXsXsXsXsXsXsXsXsXsXsXsXsXQ =.<.} j 4 > 3 ;.Y.e.[ h 4 * j 3.r.y.r.3.3.*.;...0 =.U.G.4.1.=.C 4 4 4 , * @ o @ @ * * * * * * * * @ o @ @ @ @ * * * > = * > * * * * @ @ @ @ @ @ @ @ * @ * * $ $ $ o @ o o $ * * * * % % % o o o @ * @ o @ @ @ * @ * * o o @ @ @ @ @ @ @ o o o o o o o o o o . . o o o X X X . o X o o o X X o o o o o o . . . X . o o o o . . . . . .   . . . . . o o o o o o o o o o o X . o . o o * * * $ % $ o . o o $ o . . . . $ * 4 h H W Q Q Q T C ;.<.1.<.*.=.T D 6 9 ) o.o.o.) 6 @ > 6 4 > , T G.1.D O.*.e.e.e.e.e.3.e.e.u.e.<.=.W =.+.W T T T W :.D.N f ",
"G.j f I.D.=.=.O.-.4.<.r.i.a.a.6Xa.a.6X6Xa.a.y.r.*.=.H g +.H.D 4 0 c c 0 > 9 >.u.e.>.o.) h =.1.1.1.1.1.1.&.[ Q c.c.1.W W H < * o . o o * * * * * @ @ @ > > > 3 > * * > * @ @ @ * > * > > > * * * > > > > > > > > > > > > > > > @ @ > @ * > > > > > 3 3 3 3 3 > > > 3 3 7 7 3 3 3 3 3 > > * 3 3 3 > 3 > > > > > > * * * * * * * > > > > > > 3 > > * * * > > * 3 3 3 3 3 3 3 3 3 3 * > 3 3 3 > > 3 3 3 > > > * * * > > > 3 3 > @ * > 3 3 > * * * - > > 3 3 3 3 > 3 3 3 3 3 3 3 3 3 3 3 3 > > * * * > h D *.4.D.G.<.L o.e.t.i.i.y.r.*.=.D , * < g =.I.6.4 > 0 ..o.e.;.H P P sXsXsXsXsXsXsXsXsXsXsXsXsXsXsXsXsXsXsXsXsXsXsXsXsXsXsXsXsXsXsXsXsXsXsXsXsXsXsXsXsXsXsXsXsXsXsXsXsXsXsXsXsXsXsXsXsXQ Q -.<.} h 4 > 3 ;.Y.r...h , * j 3.3.r.y.e.e.3.>.{ 0 =.U.I.4.<.*.C 6 4 > * * * > > 3 3 3 3 4 7 7 3 3 3 3 3 3 3 7 7 7 7 4 4 7 7 4 7 7 7 3 3 3 3 7 7 7 7 7 3 3 3 3 3 > 3 > > > > > > 3 > 3 > > * > > 3 3 3 3 3 3 3 3 3 3 3 > > 3 3 3 3 > > > * @ * > > * * * > > ; > > > * * * * * * * * * * * * * * * * @ @ @ @ @ @ * @ @ @ @ @ @ @ @ @ @ @ @ @ @ @ O @ @ @ * * * * * * > * * @ * * * * * = * * * @ @ @ @ @ * @ @ @ o . o $ 4 h H W Q Q Q T C ;.1.1.:.=.T T D 0 9 ) o.o.o.) 7 o > 6 6 > , =.H.D.T =.*.;.3.e.u.u.e.e.u.u.u.e.;.&.*.-.=.T T R T :.I.C f ",
"D.j f I.G.=.=.=.:.r.r.i.i.a.a.a.a.5X6Xa.a.a.a.y.3.*.R g +.H.D 4 ( c C ) 3 9 o.e.e.>.o.) C =.1.1.1.1.1.1.} | =.c.~ W W D h , o o * * * > > > > > > > 3 4 4 4 4 4 4 4 4 4 4 > > 4 4 4 4 6 4 4 3 4 4 6 4 4 4 4 4 6 4 4 4 4 3 3 3 4 3 3 > 3 3 , , 3 3 3 4 4 4 4 4 3 3 4 6 6 6 6 6 0 h 6 6 6 6 6 6 6 6 6 6 6 6 6 4 4 4 4 4 4 4 4 3 3 7 7 4 4 4 6 4 4 4 4 4 4 4 4 6 6 6 6 6 6 6 6 6 6 4 4 4 4 4 4 4 4 4 4 4 4 4 4 4 4 , > 4 4 4 4 3 3 3 3 4 4 3 > > > > 4 4 6 6 6 4 4 4 4 4 6 6 6 6 4 4 4 4 4 4 3 > > > 6 Z =.=.1.G.<.) o.e.u.p.i.y.e.;.=.' 4 o , f T D.4.4 > 0 [ o.e.;.H P sXsXsXsXsXsXsXsXsXsXsXsXsXsXsXsXsXsXsXsXsXsXsXsXsXsXsXsXsXsXsXsXsXsXsXsXsXsXsXsXsXsXsXsXsXsXsXsXsXsXsXsXsXsXsXsXsXsXE Q :.<.} h 4 > 3 ;.Y.r.| C > % j *.*.6.i.t.e.e.e.X.0 } I.G.<.<.1.N , * * > 3 3 3 3 6 6 6 6 6 0 0 0 0 6 6 6 6 6 6 0 0 h h h j h C C h h 6 6 0 0 0 h h h 0 0 6 6 6 6 6 4 4 4 4 4 4 4 4 4 4 4 3 4 4 4 3 4 6 6 4 4 4 6 4 4 4 4 3 3 4 4 4 4 4 4 3 3 > 4 4 , > , 4 4 4 4 4 4 > > > , , , , > > > 4 3 3 4 4 , , > > > > > > > > > > > = * * ; ; > > > > > * * > 4 , , , 4 , , , , > > > , > > 4 4 4 4 4 4 > > > 4 > 4 > * * % $ o , s g R W Q Q W C &.<.-.+.=.T T ' 0 9 ) o.o.o.) 7 o 4 h 6 > , =.U.D.=.=.=.&.;.e.e.u.u.u.u.u.u.e.e.e.3.*.&.=.D D T 1.y.N f ",
"G.j f I.D.=.=.*.4.r.r.y.a.a.a.a.p.a.9Xa.a.i.a.y.r.*.D j +.H.D 4 0 ) C ( 3 6 X.9.e.e.o.) C W -.1.4.1.-.-.} | 1.c.c.1.W R s > o . o o @ @ @ * * * * * * * * * * * * * * * * * * * * * > > > > > > > > > > > > > > > > > * * * * > * * * * * * * * * > * > > > > * * > > > > 4 4 4 4 , , , , > , , 4 4 4 , , > > , , > > > > = > > > > * > > > = * * * > > > > , > , > > 4 4 , 4 > > > , > > > > * > * > = * * * * * * * * * * * * * * * * * * * @ * * ; > > > > > > > > > > > > > > > > > > * * $ * 6 N =.=.1.U.4.) o.e.u.p.p.t.e.;.=.' 4 * 4 f H :.*.4 > 0 ) | ;.;.H P sXsXsXsXsXsXsXsXsXsXsXsXsXsXsXsXsXsXsXsXsXsXsXsXsXsXsXsXsXsXsXsXsXsXsXsXsXsXsXsXsXsXsXsXsXsXsXsXsXsXsXsXsXsXsXsXsXsXI E W &.} j 4 > 3 ;.y.3.| C 4 % C *.&.<.e.t.t.e.e.o.0 Z G.4.*.<.<.D < , * * > > > > > > > 3 4 4 4 4 4 3 > > > > 3 3 4 4 4 4 4 4 4 4 4 4 > > > > > 3 3 7 > > > > > > > > > ; > > ; > * * > > * * * * > > 3 > > > > > > > > > ; > > > > > > > * > > > > > > > , > , > > > * > > ; * * > * * * > > * > > * > * * * * * * * * * > > * @ o o @ * * * * * * * * ; * * * * * * * * * * % * * * > > > > > > > > > * * * * * * % % $ 4 s B -.Q Q Q W C *.W W W =.W W =.h 9 ) o.o.e.o.9 o > 0 6 3 , T G.4.' D =.&.;.e.e.e.e.u.t.t.u.e.e.e.e.;.*.=.T D T 1.y.C s ",
"G.N f I.D.=.=.*.r.y.y.i.a.a.a.a.i.i.a.a.i.y.y.y.4.*.H g +.H.O.6 0 ) ) ) 7 5 X.9.e.e.o.) C W =.-.<.1.<.-.&...1.c.k.Q W W f < > . . . X . o $ o o $ $ $ $ $ o o $ o o o o o o o o . o o o o o o o $ $ $ o $ $ $ $ $ $ $ o $ $ $ $ o o o o $ $ $ o o o o o $ $ o o o $ $ $ $ $ % * * $ $ % $ $ $ $ $ % % o o $ $ $ $ $ o o o o o o o o o o o o o . . $ $ o o $ $ $ $ $ o $ $ o o $ o o $ $ o o o o o o o o o o o o . . o o o o o o o o o o o o o o o o o o $ % @ $ * $ % % $ $ % * * % % % % $ & * 6 C Z :.=.4.U.<.) o.u.p.p.p.u.3.| &.' 4 * 6 h H :.*.4 > 0 ) | o.| H P sXsXsXsXsXsXsXsXsXsXsXsXsXsXsXsXsXsXsXsXsXsXsXsXsXsXsXsXsXsXsXsXsXsXsXsXsXsXsXsXsXsXsXsXsXsXsXsXsXsXsXsXsXsXsXsXsXsXI P T &.} C 6 > > | r.;.[ h 4 * C &.} ;.e.t.t.e.e.o.0 Z D.1.*.<.4.T h j , $ * @ * * * * * * * * * $ $ o o $ * * * * * * * * * * > > > > > > * * * * * * * * * @ * * * * * * * * @ * $ $ $ % % % $ $ $ * * * @ o o @ * * % $ @ @ * * @ @ @ @ o $ o o o o $ % * * $ $ $ o o o . . o . o o o o o @ o o o o o o o o o . X . . . . . o . . . o o o o o . . o o o o $ . o o o o o o o o o o o @ @ * * $ * * * @ @ * * $ $ $ o % > N N T D.C.Q c.W N =.R P R Q W Q =.h 9 ) ..o.e.o.9 o > h 6 3 , T G.1.Z D =.;.3.e.e.e.3.3.e.u.u.u.u.e.e.3.*.=.D V T <.I.C f ",
"G.N j I.D.=.=.*.3.y.i.a.a.a.a.a.a.a.a.a.i.i.a.y.3.&.H j +.H.O.6 ( ) ) ) 3 4 X.9.9.3.o.) C W -.=.*.=.=.1.&...1.v.v.Q W W B N h > % * % > , < < < < < < 4 4 4 4 < , , , , , , , , , , , , , , 4 4 4 4 4 4 4 4 4 4 4 4 4 , 4 4 4 4 4 < < < < , < , , > , , < < , , , < < < < < , 4 4 4 < < < < < < < , , > > > , , , , > * * * * > > > > * > > , , > , , , , , > > , , > , , , , , , > > , , > > > > > , , = , , > > , > > > > * * , , , , , , , , , , , , , 4 4 4 , < < < < < < < < < < , , , , s [ [ Z <.1.D.U.<.) o.u.p.a.i.t.3.| &.=.4 * 6 g T 5.3.6 > 0 ) ..o.| j k k sXsXsXsXsXsXsXsXsXsXsXsXsXsXsXsXsXsXsXsXsXsXsXsXsXsXsXsXsXsXsXsXsXsXsXsXsXsXsXsXsXsXsXsXsXsXsXsXsXsXsXsXsXsXsXsXsXE P T &.| C 6 > 4 ;.y.3.[ C 4 * j =.=.<.e.p.i.t.e.o.c D D.1.:.<.4.N g =.g > > , , , 4 4 4 4 4 4 4 , , , , 4 6 f 6 6 6 0 f f f h j C C C C j C h 6 h j h h h f 6 6 6 6 6 6 6 6 4 4 6 6 6 f f f f 6 6 6 4 4 6 6 4 4 6 f h f 6 6 6 f 6 4 4 4 4 4 4 4 4 < , , > > > > > > > * * * > , , , > , , , , > > > > , , , 4 4 4 , * > * * * > ; > , , > > , , , 4 4 > > , , , > , , 4 , , , > > > , , , > , , 4 , , , , , , > > > * , B =.N H 1.1.C.A.Q B =.R P P W Q Q T 6 9 ) ) o.o.) 7 O 4 h 6 3 , T G.1.Z } ;.e.e.e.e.e.3.3.e.u.p.p.p.t.e.3.*.&.=.T T <.y.C f ",
"G.N j I.G.=.*.*.3.y.a.a.6X6Xa.a.9Xa.i.a.a.a.a.a.3.&.H g +.F.D 6 c ) ) ) 3 5 X.9.e.3.o.) C =.1.=.$.=.:.1.&.| 1.{.{.c.W R B N D f > > , u f f g g g g g j j j j N j j j h h h g j N N C h C C C Z Z Z Z Z D D D D D Z Z Z D D Z Z Z ' ' H H H N N C j j N N H H D D D D D D D D D [ ' ' H H D Z D =.D D N h h N Z N N N j g N Z Z ' Z C j j Z Z H H H D Z ' D D H H N C C Z Z Z Z N N j N N C C j h h g f f h j j N H N N N N j f j j j j N H H D V H N N N C Z N N N j g g N H H H N j f s s t N =.C Z 4.4.D.I.<.) 9.u.t.i.i.y.3.=.=.=.4 * s g O.r.r.6 > 6 C [ ..' j k g sXsXsXsXsXsXsXsXsXsXsXsXsXsXsXsXsXsXsXsXsXsXsXsXsXsXsXsXsXsXsXsXsXsXsXsXsXsXsXsXsXsXsXsXsXsXsXsXsXsXsXsXsXsXsXsXsXI k j [ [ C 6 > 4 3.$Xy.;.[ 4 $ C *.*.r.i.a.p.t.e.o.c D C.1.-.1.*.h s =.T g s s h j N H Z Z Z C Z Z ' ' D D O.=.} } } | | | ' } =.=.} | | | ;.&.} =.=.=.&.=.=.=.D D ' } D ' [ Z [ [ [ Z ' =.=.O.' ' ' D Z ' ' ' [ ' =.=.=.=.=.&.&.=.' Z Z Z ' } =.} D D Z N H D N N N C h C Z O.T D H H D T H N C j N Z Z Z Z N N N Z N H H H N C h j j N j j g g j j j j j j C Z Z Z Z N N N N B h h g h f s f f h h h h N B g f s < < s =.W h g W Q C.Z.Q g T W E E E E E H 6 9 ) { o.o.) 7 @ 4 h 6 3 , T G.4.' } 3.u.u.u.u.t.e.e.e.u.p.p.u.t.t.e.e.3.&.O.T <.y.C f ",
"F.H j I.G.*.*.;.r.y.a.a.6X6X6X9XQ.a.i.a.6Xa.a.a.r.*.H g Q F.D 6 ( c 0 ) 3 6 o.e.e.3.o.) Z :.1.<.*.*.<.1.<.| ~ {.2Xb.W W B s V g < , < u f g g g g g j g g h j N N j g g g j B H V V N B N Z [ [ ' D D D D W =.=.W D } =.=.=.} } } =.&.=.T D V V D D D ' =.=.=.=.-.:.*.*.*.$.=.&.3.3.*.=.=.*.*.:.<.<.<.:.=.D D =.=.=.=.W +.-.=.*.<.*.=.D =.&.=.=.=.=.*.*.*.*.:.+.=.=.| | ;.&.=.D D T D D T O.D H j j j g g j H D O.W W W =.O.H j H V V R R R W W W W W T D Z D } O.T H B H T W W T T H f u u s H =.h Z <.4.D.U.4.) e.i.y.i.y.y.3.&.=.=.4 * s j =.y.r.4 > 6 ) ..| } j k k sXsXsXsXsXsXsXsXsXsXsXsXsXsXsXsXsXsXsXsXsXsXsXsXsXsXsXsXsXsXsXsXsXsXsXsXsXsXsXsXsXsXsXsXsXsXsXsXsXsXsXsXsXsXsXsXsXE P H } [ j 6 * > 3.$Xi.>.[ 4 * Z 4.4.y.a.p.t.t.e.9.c V C.1.=.=.=.h 4 H :.T f f g j R O.' Z C Z } =.O.O.=.=.*.*.*.&.&.&.=.| =.=.=.=.&.3.3.3.3.3.*.=.W =.=.=.=.=.W =.=.*.*.*.&.} ' | | } D D D T O.O.O.=.&.=.=.=.=.=.=.=.=.*.<.<.*.*.&.=.D O.=.;.*.*.=.=.*.*.:.:.:.:.=.=.T T W W W W T T W W T D D Z D D ' ' H N j H T V R R R H H g j H H H B P k R k j N N j Z ' ' H H H H R R R R H j g d g f f d g j H R R H g f t t B =.N s H =.W ~ Z.Q h W Q c.C.Q I P R f 9 ) o.o.o.) 7 @ 4 h 6 3 , T U.D.' } 3.e.u.u.p.p.e.e.u.t.p.t.t.p.p.u.i.e.*.=.O.<.y.C f ",
"F.N j I.I.*.*.4.r.y.i.a.a.a.6X9X6Xi.p.a.a.a.a.a.r.*.H g +.F.D 0 ) C C ) 3 6 o.e.u.e.o.) Z 1.1.1.<.3.<.<.3.| ~ ~.~.c.W V h 4 N H t < s f g g g j j B H H g g N H H H g j B P R E W W H N H =.=.=.=.=.T T T T W W W W =.&.*.;.=.} } &.*.*.W T T T W O.=.&.=.=.=.-.-.:.:.:.:.*.*.<.r.r.<.=.=.*.<.<.4.D.D.4.=.=.=.:.:.:.-.Q Q Q :.1.<.<.&.=.*.<.*.=.=.=.<.6.<.<.1.:.=.=.=.3.3.<.=.T T T T D T =.O.R j g j j g j V =.&.W W W W W H j T T T R R E Q E E W +.*.=.O.=.=.*.=.R B R W =.T T T H g u u g =.=.h Z *.<.D.U.6.[ e.i.a.i.e.3.<.=.*.=.4 * s j &.y.e.4 > 0 ) ..o.| j P k sXsXsXsXsXsXsXsXsXsXsXsXsXsXsXsXsXsXsXsXsXsXsXsXsXsXsXsXsXsXsXsXsXsXsXsXsXsXsXsXsXsXsXsXsXsXsXsXsXsXsXsXsXsXsXsXsXY E =.3.| C f > > 3.$Xt.>.) 4 * H 4.<.r.e.u.t.t.t.9.c D 1.-.W =.} C f H 4.+.g d g j R O.O.D N ' =.=.H T =.+.:.1.<.6.3.<.;.&.*.*.=.=.*.6.y.r.e.6.<.=.R +.-.:.:.=.=.=.:.1.:.<.*.&.=.;.<.;.} H H T =.=.=.*.:.*.&.&.*.*.=.O.=.1.5.5.:.:.:.&.O.=.:.<.<.*.=.&.:.1.:.:.4.4.1.=.=.W W W E E E W W E T T D H N D =.O.H j j H T W E P P R R H H H R R k P P l k k H N N Z ' O.H j j R R P P P R j d f g g d d j R R P P P g f t f D =.h t D W W Q Z.Q h W ~ C.F.C.I P R h 9 { >.o.o.o.6 @ 4 h 0 4 , T G.4.Z ' o.e.u.u.p.p.e.e.e.t.u.u.t.p.u.i.u.e.*.#.O.<.y.C f ",
"4.N C I.I.<.3.3.e.t.p.p.a.a.6X9X6Xa.i.a.a.Q.a.y.4.*.V g -.F.D 6 C C ) C 3 6 o.e.9.o.o.) N -.C.2.<.<.4.4.3...W v.v.Q V D h 4 h H f t t f g i i g j j R R g f g T H g d g j k P P E E R B R =.&.=.=.T R V V R E Q W R T &.:.*.=.D T =.*.W R B R W =.=.:.=.W T W -.-.-.W =.:.:.:.*.<.<.:.=.=.=.:.1.1.D.4.:.W =.*.<.:.+.W Q Q E W -.:.*.=.=.*.<.:.*.=.=.1.4.4.-.-.:.=.O.&.4.5.<.*.T R E R R T =.W R d d d g g j R W -.W W W W R R R W R R P P I I P P E W =.=.T O.&.=.T H H R R W R H H j g f f N *.' 6 Z &.:.4.I.6.[ e.i.a.y.3.*.*.=.*.=.4 > f j =.r.;.4 3 0 ) o.9.o.N j sXsXsXsXsXsXsXsXsXsXsXsXsXsXsXsXsXsXsXsXsXsXsXsXsXsXsXsXsXsXsXsXsXsXsXsXsXsXsXsXsXsXsXsXsXsXsXsXsXsXsXsXsXsXsXsXsXsXI P &.3.&.Z 6 * > ;.$Xi.9.) 3 * ' :.:.<.<.<.e.t.t.>.C D 1.-.W D W C 6 j *.:.l g g j R W =.O.H T =.=.T T W Q W =.*.<.6.<.&.&.*.*.W T *.6.r.r.r.6.:.=.-.-.-.Q W W W -.-.-.-.*.*.=.=.*.<.*.=.R R R W +.-.&.&.:.:.-.:.:.&.O.=.1.D.4.1.-.1.:.=.=.1.4.4.*.W =.1.-.+.-.-.1.-.-.=.W W W E E E E E E E E R H H T =.T H H j R R E P P P P E R R R P P I I I p z P P R H H D T H j k k z z k k P g y d j j g g g g j P g g g u u g T T s u V =.W W ~ R C D W ~ 1.Q I E T h 9 ) o.o.o.{ 6 @ 4 C 0 6 , H D.:.Z ' o.3.e.t.t.u.e.e.e.y.3.3.r.u.u.e.<.&.=.=.=.1.I.N s ",
"4.j C I.I.<.3.3.e.u.t.p.a.6X6X6X9X6Xa.a.a.a.i.r.<.*.D H -.H.D 0 ) ) ) ) 7 9 o.e.9.9.o.) N Q 1.2.6.6.2.1.<.{ V j.k.W R D C 4 h V B f u u i i g g P P P P g j P E P k d k P P P P P E E E E Q Q Q W E E P I E E Q Q E W =.+.W R R W Q W W P P R W -.1.1.-.W W Q Q Q Q W =.-.:.:.:.1.1.1.-.-.-.-.-.:.:.:.+.W -.:.:.:.-.-.-.-.Q W W =.=.=.=.:.<.:.:.-.1.1.1.1.-.:.:.:.+.:.4.4.:.-.+.Q E E E Q -.Q P i p k k k P I E Q E E E E E E P E E E I I I I z P I W W W W W W W E E E E E W R R B j g d g T :.Z < N *.*.4.I.6.[ 8.y.y.y.r.<.*.&.:.&.4 > f j =.4.;.4 > 9 ) o.e.o.N j sXsXsXsXsXsXsXsXsXsXsXsXsXsXsXsXsXsXsXsXsXsXsXsXsXsXsXsXsXsXsXsXsXsXsXsXsXsXsXsXsXsXsXsXsXsXsXsXsXsXsXsXsXsXsXsXsXsXp k &.3.;.[ 0 > 3 3.$Xi.o.) 7 > D :.:.:.:.<.3.y.t.>.C D 1.1.*.=.=.C 4 s D :.=.B j H T =.=.=.=.T W =.+.-.+.+.=.=.*.<.6.<.:.*.*.-.=.W *.<.<.<.<.4.1.4.1.:.-.+.W W -.-.:.-.+.=.=.*.*.<.:.-.=.E E E E -.-.Q =.-.1.1.1.:.-.Q Q 1.C.C.1.1.1.1.-.-.C.C.-.+.Q Q -.Q Q -.1.C.C.1.-.Q E Q Q Q Q E I I E Q Q Q W W +.W R P P E E I I I Y k.Q Q E E E Q k.h.h.I I I E E E W W E P k k z z z z z P k i d k k k k k k k k k k g d g R W T s t V W W W Q P N J W W -.=.W W O.h 5 C ....o.{ 9 @ 6 C 0 6 4 H D.:.Z D ;.3.9.e.u.u.u.e.t.e.3.3.e.u.u.3.;.;.*.=.O.*.5.C s ",
"4.j j I.I.*.*.;.<.r.y.a.6X6X5X6X6X9X9X9X9Xa.i.e.3.<.} H :.H.D 0 ) ) ) ) 3 7 X.e.u.9.7.) C W -.4.I.I.2.1.<.) W c.c.-.W D D h N W R g u t u d j j P P P P j B R P P j j k k k g g g P R R R R R R R P B B P P E E E R R T W R P R R E P P B B B R W =.W R H V R W E W T O.=.&.*.&.=.=.=.-.-.=.W =.=.=.&.=.=.*.*.=.=.=.=.=.=.W T T W J D ' =.W O.O.=.=.=.=.W =.=.=.=.W =.=.O.=.=.W T V B R T =.R g d d g g g P R E W E E R R R P P B B R R I I P k P R R H B H H R P B P E R R H j j g g g d h H ' h < V *.<.G.+Xr.) o.u.e.r.r.<.*.=.:.*.6 > f g =.4.;.6 > 6 ) o.3.o.g j sXsXsXsXsXsXsXsXsXsXsXsXsXsXsXsXsXsXsXsXsXsXsXsXsXsXsXsXsXsXsXsXsXsXsXsXsXsXsXsXsXsXsXsXsXsXsXsXsXsXsXsXsXsXsXsXsXsXP P *.<.&.[ 0 > > ;.Y.e...C 3 > D :.:.B.:.<.6.r.e.o.C } 5.5.6.3.| C 4 6 D <.*.H H R T =.=.=.=.O.D T =.=.W W =.=.=.*.*.*.=.=.=.W W =.=.&.&.*.*.*.:.:.:.=.=.=.=.=.&.*.*.=.=.O.=.*.*.*.&.=.T R R R W W W W W =.=.=.W W W E W Q Q Q Q Q -.-.-.-.-.-.-.=.=.=.W Q -.-.-.1.1.1.-.W W W Q Q Q W E E E W W W W W W W R R E E E E E E Q -.+.W W W W Q Q E I P P E E R R T R H B B B k k k P P P P g g j j j j j j g g j j j g g H R f < s H R E W Q B C } $.=.<.<.*.=.' 0 7 0 ) ..o.X.9 @ 6 C 0 6 < V D.:.Z T *.;.>.e.u.u.p.p.p.t.e.3.e.u.e.3.3.3.*.=.D =.4.j s ",
"4.j j I.D.=.&.=.*.r.y.a.6X5X5X5X5X9X9X9X9X9Xa.y.i.e.} H :.H.' 0 ) ) C ( 3 7 X.u.p.e.o.C j W -.4.I.I.4.1.*.) =.n.v.~ W =.=.h < < > * $ $ $ % * * % & & % % * % $ * * * = = % % $ & * * & & * * * * * * * * & & = * * * * * * * * > > * = > * * * * * * * * * > > > > > * > > > > > > , , , , , , > , , , , > > > > > , , , , > > > > * * * * * * > , > > > > > * * * * * * = > ; * * % % * > * $ $ $ $ $ % & > > > > > > * * & * * * * * > * * * * * * * * * * % % $ & = * * * * * * * * % % * , > 6 } &.5.I.*Xy.) o.u.e.r.4.<.*.=.:.&.4 > f j =.6.<.6 > 6 ) ..o.| g g sXsXsXsXsXsXsXsXsXsXsXsXsXsXsXsXsXsXsXsXsXsXsXsXsXsXsXsXsXsXsXsXsXsXsXsXsXsXsXsXsXsXsXsXsXsXsXsXsXsXsXsXsXsXsXsXsXsXY E =.3.| C 6 > > ;.y.;.) C 3 > ' :.+.-.:.4.y.y.3.o.0 } I.I.y.e.3.Z 4 4 h j f , * * , , > > > > > > > > > > , , 3 4 3 > > > * > > > > > > > , , , , , > > > > > 4 4 4 > * = > > > , , , > * * > , > > > , , > > > > > > , , , , , , , , , , , , , , 4 , , , , , , , , > > > > > , , > > > > > > > > > > , , > > > > > * > > > , > > > > > > > > & & * * * * * * * * * * * * * * * & * & $ $ $ $ % % % % % $ * * % % * * * * < f H W Q Q ~ P j | &.<.4.3.*.&.' 6 7 0 ) o.o.X.9 @ 6 C 0 4 < T G.4.D T O.| ;.e.p.p.p.p.p.p.y.u.y.u.e.e.e.3.*.=.D =.4.j s ",
"4.C j I.4.=.=.*.*.3.3.e.p.p.5X5X5X9X9X9X9X9X9Xa.y.r.| N :.H.D 0 ) c c ) 3 7 X.e.u.e.o.C h Q -.<.4.<.<.<.*.[ 1.|.M.c.-.1.*.6 $ . . . . . . . . . X X X X X X           X o X   X X X X X X X X X X X o O o X X X X X X X X X X X o o o . X X X # X X # X # # # # # o o O O @ O o @ @ @ @ @ @ * * @ * @ @ @ @ @ @ @ @ @ @ @ @ @ @ @ @ O O o O @ @ @ @ @ @ @ @ @ @ @ @ @ @ O O O O O @ @ O O O + O O o X X o O O O o o o o o O O O O O O O @ @ @ @ @ @ @ @ @ @ @ @ @ @ @ > > * * * * * * * o X . o = C &.$.4.@X*Xy.) o.u.e.r.r.6.:.=.=.=., > f N =.6.;.6 , 6 C [ | | g g i sXsXsXsXsXsXsXsXsXsXsXsXsXsXsXsXsXsXsXsXsXsXsXsXsXsXsXsXsXsXsXsXsXsXsXsXsXsXsXsXsXsXsXsXsXsXsXsXsXsXsXsXsXsXsXsXsXc.Y W &.| C 6 > > &.r.;.[ ) 4 > O.:.W W :.5.y.y.3.o.h | I.a.a.y.e.[ > * * X X X o @ @ o @ @ @ @ @ @ @ @ @ > > * @ @ @ @ @ o O o o o X o o o o o X o o o O O O O O O O o o # O X X X X X o o o o o O @ @ @ @ O @ @ O @ @ @ @ @ @ O O O O O O o O O O O O + O O O O O O O O O O O O O O @ O O o O O O o X o o o X X o o @ O o o O O O O @ O O O O @ @ O O O o X X X X X X X X X X o X X X X X X X X X X X o O . . o X X X X * s B R 1.Z.c.c.P j | &.<.r.r.3.*.' 6 3 0 ) o.o.o.9 @ 6 c 6 3 4 =.U.4.D D H ' ;.e.u.p.p.p.u.p.p.p.t.u.e.u.e.3.&.=.O.=.5.j f ",
"5.C j D.4.W =.*.<.4.3.3.u.p.5X5X9X9X9X9X9X9X9Xa.i.e.| H :.H.N 4 ( 0 C ) 3 7 { e.9.o.) C g Q -.&.<.<.4.1.*.| 2.|.{.c.Q 1.W > . o o * * > > , 4 , > > > > > > * > > > ; > > 4 4 3 3 3 3 3 > 3 3 3 3 3 3 7 4 4 4 3 3 3 3 > 3 3 3 3 3 7 4 4 4 3 3 3 3 3 7 3 3 7 7 7 4 4 6 8 4 4 6 6 6 6 6 6 6 6 6 6 6 0 6 0 0 0 0 9 9 0 9 6 6 0 6 6 6 4 7 4 4 3 3 3 4 3 3 3 7 3 7 4 4 4 4 4 3 3 3 3 4 6 6 4 3 3 7 3 3 3 > > > 3 3 3 3 3 3 3 3 3 3 7 7 7 3 3 3 4 4 4 4 3 3 3 3 3 3 4 4 4 4 6 6 6 4 4 4 4 4 4 , > = * , Z =.$.1.G.@X6.[ o.u.e.y.Y.I.<.=.W O.4 > h H =.5.*.6 > 6 C ..o.| g g g sXsXsXsXsXsXsXsXsXsXsXsXsXsXsXsXsXsXsXsXsXsXsXsXsXsXsXsXsXsXsXsXsXsXsXsXsXsXsXsXsXsXsXsXsXsXsXsXsXsXsXsXsXsXsXsXsXc.Y =.<.} C 6 > > ;.I.3.| ) 4 > D :.=.*.<.6.y.y.3.| h | y.a.a.y.3.C * o * * 3 4 6 4 4 6 6 0 0 6 6 6 9 0 0 0 0 9 9 6 6 6 6 6 6 6 7 3 3 3 3 3 3 3 3 3 3 3 4 7 3 3 7 3 3 3 3 3 7 3 3 > > 3 3 3 3 3 3 3 4 7 7 7 7 6 6 6 6 6 6 7 4 6 6 6 6 9 6 4 7 3 6 9 4 7 7 6 6 6 6 6 4 7 7 7 3 3 3 > 3 3 3 3 3 3 7 3 3 > 3 3 3 3 3 3 3 4 4 4 4 4 6 9 6 6 7 7 3 3 4 3 3 3 3 > > > > > > > > 3 3 3 3 3 > > 3 3 3 3 3 3 3 3 3 3 > > > * * * * * f g P c.c.c.~ P j | } &.4.r.<.*.} 6 7 0 ) o.o.X.9 @ 6 c 6 3 4 T G.4.D D O.=.;.3.e.p.p.p.p.p.p.p.u.u.u.u.e.,.| ' O.*.5.C f ",
"5.C h 5.4.T =.*.<.5.4.e.u.a.p.5X9X9X9X9X9X9Xa.a.i.e.o.D 1.H.N 6 ) C C C 3 6 ..>.o...[ C g Q 1.4.4.3.6.2.<.L U M.J.Z.C.1.W 4 * @ @ * % % & > > > , > > > : & & & & & : > , > < > > > > > > > > > > , , , , , , , , , > > , , , , 4 4 4 , 4 6 4 , > > 4 > > 4 6 6 6 4 6 6 4 4 6 6 6 < 6 6 6 4 4 4 4 6 4 4 6 6 6 6 6 6 4 4 4 6 6 4 4 4 4 4 4 3 4 4 4 4 6 6 4 4 4 4 4 4 4 , , , < 4 4 4 < < < 4 , , , , , , , , , , , 4 4 4 , , , , < , , , > , , , , < < < < < , , < < < 6 f 6 6 4 4 4 4 , , > * * = B W =.1.D.I.6.[ ;.e.e.Y.wX$X5.=.W ' 4 > f H *.I.4.6 > 6 ) | ,.| g k g sXsXsXsXsXsXsXsXsXsXsXsXsXsXsXsXsXsXsXsXsXsXsXsXsXsXsXsXsXsXsXsXsXsXsXsXsXsXsXsXsXsXsXsXsXsXsXsXsXsXsXsXsXsXsXsXsXz.Y :.3.| C 6 > 4 <.T.r.| C 4 > H :.1.5.y.r.e.e.o.X.h | a.a.a.y.<.Z > > 3 3 6 7 6 6 6 6 h h h h h h 6 6 h h h 0 6 6 6 6 6 6 6 0 6 6 6 6 6 0 6 6 6 6 0 6 6 6 6 6 6 6 6 6 , 4 4 4 4 3 3 , , , , 4 4 6 6 6 6 6 6 6 6 6 4 6 6 4 4 6 4 4 4 6 4 4 4 , 6 4 4 4 4 4 4 4 4 4 4 4 4 , , , > , , , , , 4 4 , , , , > > > > > , , , , < < 6 6 6 h f 6 4 4 4 , 4 < , , , , , , , , , , , 4 4 4 4 < < < < < 6 4 4 4 , , , , , , * & & % * 6 u i I Y k.c.I j } } =.*.*.*.*.=.0 7 ) o.) o.X.5 @ 6 C 0 6 4 V D.:.D ' *.4.3.3.u.t.p.p.p.p.p.u.u.u.u.u.u.3.| D T *.5.C f ",
"D.Z f 4.1.=.&.*.<.6.u.p.p.p.p.5X5X9X6X6Xa.a.a.y.e.3.=.R 1.H.N 6 ) C C C > 4 | 3.3.o...C H W -.<.r.5.5.4.3.[ W c.v.S.C.Q R , $ . o o o $ o $ $ * * $ % * $ $ & % % $ * * * * % % * * * * $ o * $ % % * % * * $ $ * $ $ $ $ $ * * $ * * * * * * * * * * * * ; ; * * * = = = * * * * * = * * * * * * * * = = * * > > > > > * = * = * * * * * * > > * * = = * * * * * * * * * * * * * * * % * * * * * * * * * * * * * * * * * * * * % * * & % * > = = = > > > > > > > > , , , > = * * * $ $ $ o . $ & f B -.1.C.G.1.Z | u.y.a.Y.I.5.*.=.T 4 * s H +.D.<.6 > 4 L o.3.} g P P sXsXsXsXsXsXsXsXsXsXsXsXsXsXsXsXsXsXsXsXsXsXsXsXsXsXsXsXsXsXsXsXsXsXsXsXsXsXsXsXsXsXsXsXsXsXsXsXsXsXsXsXsXsXsXsXsXz.j.1.5.&.C 6 > 4 <.U.5.' j > > D :.1.5.r.e.e.e.e.{ 0 | y.r.e.r.4.H f > & * = 1 > > > > > 3 4 > > > 3 3 3 , , > > > 3 > , > > > > > * > > > > > > > * * * * * * * * * * * * * * * * * * * * * * * = > > > > > > , > > > > > 3 > > > = = , , = > > > > > = = , * * * * * % * * o o $ $ $ $ $ * * * * o $ * % * * * * * $ * * * * * > > > * * * * * * * * * * * * * * * * * % * & * * % * * * * * * * * * @ * * @ o o o o o > h h f B E Q c.I h | =.D ' } =.&.| 0 9 o.o.o.{ ) 7 @ 0 C 0 4 4 R D.:.H T :.4.*.e.i.i.p.p.p.p.p.u.u.e.e.u.t.e.o.' T *.5.N f ",
"H.] h D.1.O.=.=.*.<.e.p.p.p.p.p.5X5X6X6Xa.a.a.i.e.3.=.V 1.H.Z 6 ) C C C > 6 ..e.e.3.o._ H W -.<.y.I.G.3.,.[ W c.v.Z.C.Q V f < * * * > > , , < 4 4 4 < , , , 4 , , < < < < < < < , 4 4 , , , , , < < > > > , > > , , , , > > , , , , < , , , , , , , , , > > , , 4 , , , , , , > > , , , , , > > > > > > > > > > > > > * * > > * * * > > > > > > > , , , , > > > > , , , , , , , > > > > , > > , , , , > > , , , , , , > > > > , > > > > > > > = * * > > > > > > > > > , , , > > > > > * & $ % > h H B =.1.C.H.4.Z o.u.i.y.y.r.5.*.=.T 4 * f B W 4.*.4 > 6 Z &.&.W P E I sXsXsXsXsXsXsXsXsXsXsXsXsXsXsXsXsXsXsXsXsXsXsXsXsXsXsXsXsXsXsXsXsXsXsXsXsXsXsXsXsXsXsXsXsXsXsXsXsXsXsXsXsXsXsXsXsXsXz.C.5.&.C 6 4 4 <.I.5.' j > > D -.-.4.6.r.i.u.u.o.h | r.6.3.3.3.H R H t & * > > > > , > > , , , , 4 4 , , , , > > > > * > > > > > > > > > > > > > > > * * * * * > > * = > > > > > > , > > > > > , , > 3 4 4 , , , , , , , 4 4 , , , , , , = > > , , , , , > > > > > > > > * * * * * * * * * = = * * > * * * * * * * * * * * * > > > > > > > > > > > * * * * * * * * * & & & & & * * * * * * > * * * * * * * % * * * * * s D j g R E Q k.I j | =.J ' ' ' } | h 0 o.>.o.X.) 7 @ h [ 0 4 4 T F.:.H T =.*.3.u.p.i.p.p.p.p.p.p.u.u.e.u.t.e.;.=.=.:.5.C f ",
"U.' h D.C.W T W =.:.r.p.p.p.p.p.5X5X6X6Xa.a.a.i.e.*.O.H :.H.D 6 C C C c > 6 ..e.u.u.3._ H W -.<.3.6.4.<.o.[ =.C.c.Z.C.W H V N 4 < < u f f f h N H N N j h j C j N j g d f h g g g g g h g N g g B g f f h g B B B B B N g g g B g g g g N N N j B N N g g g g g j N N N Z Z Z N C j C N N h h g N Z C C C C C Z Z N N h h j N j j j C N N N C j j N N N N N C C Z Z Z N N N N g g g g h h h j h j j h h f h g h h h j j h h h j h h h g g h h h h h h h h h h h h h h h f f h j j j j f s t t g =.=.N *.1.C.G.<.Z o.u.i.y.e.3.<.*.=.T 4 * f g R <.*.4 > 6 N D W W P Y I sXsXsXsXsXsXsXsXsXsXsXsXsXsXsXsXsXsXsXsXsXsXsXsXsXsXsXsXsXsXsXsXsXsXsXsXsXsXsXsXsXsXsXsXsXsXsXsXsXsXsXsXsXsXsXsXsXsXv.F.4.| C 6 4 4 *.I.4.=.Z 4 > D -.W :.6.y.y.i.t.>.C &.5.4.<.3.4.Z T :.E u s h h h h h j C C N N N N j g h h h C C C h h h h h h h h h h h h j j h h j h h h h f f f h j j h h h j j h f f h h h h h f j C Z C C j h h g g N N B N j j j j j h h h h h h f s h h h h C C C j h h h f h h h j j j j j g h h h h h h f f h h j j C C g g g g g h h j j j h h h f f f f s s s t t u f f s s s s s s s s s t t t < < < , < < V =.g g W W U Q R C | &.} | | ' } | h 0 o.>.o.o.X.5 @ 6 _ 0 4 4 W F.D.H T H =.e.t.p.p.p.p.p.p.p.p.p.u.e.e.e.e.<.&.=.*.y.j f ",
"@X} h D.B.W T T W -.4.p.p.p.p.p.5X5X5X6Xa.a.a.i.e.;.D H :.F.Z 6 ) ) C c > 3 { e.t.t.e.[ D W 1.3.3.<.<.&.o.[ =.Z.c.c.Q R f V D s < t f d d d g B R H H N N j j H H H j g g g g B B H H H H H H R P P g j B H R T D V D D ' D D D H H H V T =.=.D D T T T R E E E W O.=.*.*.*.*.=.=.=.=.=.W T D T =.&.=.| &.| &.=.&.=.W T R R =.=.T T O.=.=.=.=.T T T W W =.=.=.=.*.*.=.W W =.W W R R R T R D D V D H H j j B B B H H V D D D D D V D T R H H V D D D D D D D H H D V B B g g N H D D H g f u f D &.D N *.1.4.H.4.Z ;.y.i.y.e.3.&.=.=.=.4 * f g R 4.4.f , s g j E E I Y I sXsXsXsXsXsXsXsXsXsXsXsXsXsXsXsXsXsXsXsXsXsXsXsXsXsXsXsXsXsXsXsXsXsXsXsXsXsXsXsXsXsXsXsXsXsXsXsXsXsXsXsXsXsXsXsXsXsXv.C.:.[ h 6 4 4 *.I.<.&.| 6 , D *.=.:.5.y.y.y.t.>.0 &.G.4.<.3.4.Z g -.-.k g B R H H V T =.=.W W W T T R R H D } ;.3.&.=.=.=.O.=.=.W W T D =.=.=.=.=.=.=.=.=.=.D D D D D } } ' ' } T D H B P R R R H H ' &.*.*.=.=.W R R R T T W W T } =.=.=.=.=.=.=.W W W T W $.&.&.&.;.&.=.T T R R R T =.=.=.=.=.T T H H H R R B B R T O.=.W W W T R P P P B H H T R H H H H H H H H H B g g B H H H N N N h f d g d f f d f f f s f f W W d g T R P Q R C | ;.} ;.;.} =.} h 0 o.o.o.o.o.9 @ 4 h 0 4 4 W H.D.D H H } 3.e.t.p.p.p.p.p.p.p.p.e.e.e.3.;.&.=.=.*.r.C f ",
"@X#.j D.B.R R R T =.3.u.p.p.p.p.6X5X5X6Xa.p.a.i.e.&.H j :.F.N 6 ) C 0 9 > 7 o.t.t.e.9.[ D W 1.<.3.<.*.&.o.[ =.C.c.Q W H s h D h t t u i i i g B P R R T T H g B B P g i g P P P R R R R R R R P P P k P R R T W O.D ' =.=.=.O.D D T T T =.=.=.=.=.=.W W E E E E Q &.*.:.:.*.*.*.*.=.=.=.W R R W =.=.=.=.;.;.&.=.*.+.Q W E W W =.=.=.=.=.=.=.=.=.=.W W +.-.=.*.*.:.:.=.W Q Q Q E E E E W W W O.T T R R P P P P R R R R T T T T T R W W E R P R R D D D D D T T T T E R B H H R T T T H g f f g W =.j C *.:.D.@XG.[ ;.a.i.i.u.3.&.=.=.O.4 * s g T 5.4.6 > < d g E E I Y I sXsXsXsXsXsXsXsXsXsXsXsXsXsXsXsXsXsXsXsXsXsXsXsXsXsXsXsXsXsXsXsXsXsXsXsXsXsXsXsXsXsXsXsXsXsXsXsXsXsXsXsXsXsXsXsXsXsXj.W =.[ h 6 4 , =.I.<.*.;.f > H *.+.4.y.y.y.r.t.o.0 =.I.5.<.4.4.L h =.B.E g B R R R W =.=.W W W W E E E E W T *.4.r.<.=.=.=.=.*.-.-.+.W W =.=.=.=.*.*.*.*.-.=.W W W W =.=.=.=.=.=.=.W T P P P P E W T O.*.:.:.=.-.+.Q E I E E Q Q W =.=.:.-.W W W +.Q Q Q Q -.1.<.*.<.<.*.=.+.Q Q E W Q +.=.=.=.=.W E R R E P P P P W W W T T T W W P P P P P P R R R R R R R R R R R R P P P P R R H H B B g g g k k g d d d d d f g g =.H u g V R W Q R C o.3.} ;.;.' D D h 9 o.o.o.o.o.6 O 3 h 6 4 4 R F.4.D j H =.3.e.t.t.p.p.p.p.p.p.e.e.e.e.3.| } ' T &.6.j h ",
"H.' h D.1.R D T T =.3.u.p.p.p.p.6X5X5X6Xp.p.p.i.3.=.N g -.F.N 4 0 6 3 3 > 7 o.p.e.9.X.) D =.*.3.e.3.*.&.| Z =.C.c.Q W V u s H g f s f g i g j j g B B R R P d P P P p p k P P P R R R P P P E E P P P P P P R W T D D =.*.&.=.T R W W =.=.&.*.=.=.W W W E E I E Q :.:.:.*.=.=.=.=.=.=.+.R P E W W =.=.=.*.*.*.=.W Q E E W W W W W =.=.=.=.=.-.-.+.W Q -.-.:.1.<.<.:.=.Q Q Q E I E E E E W W =.W R P P P k p k P E W R R R W W W W W Q E I I I E W R R R R R R R E E I P P R R R R R H g f d H =.T f j =.=.4.U.5.} 3.a.i.a.y.e.;.=.=.D 4 * 4 h D <.;.4 > < h g E E P E P sXsXsXsXsXsXsXsXsXsXsXsXsXsXsXsXsXsXsXsXsXsXsXsXsXsXsXsXsXsXsXsXsXsXsXsXsXsXsXsXsXsXsXsXsXsXsXsXsXsXsXsXsXsXsXsXsXsXP H | ..h 6 4 , =.I.<.&.=.6 > H :.:.5.I.y.y.r.e...0 &.G.5.<.4.<.C f V -.E g j P R E W W R H R E W I P P P E W =.:.<.=.=.W =.=.W W E Q Q W W =.-.-.+.=.-.-.-.+.Q Q Q Q Q =.=.*.=.=.=.T W P k k P E E E W W W W W Q Q E I P I E Y E E W -.-.+.+.Q Q Q Q Q Y Q -.-.:.:.1.1.-.Q Q E E E E Q Q E W Q Q E P P P P P k k k E E E R R T W P k k z k k P P P P P P P P P E E E P P P P k k P P B B B g d k k k p i d d d d f g H D f t g V P W Q R C o.<.$.*.=.V B N 6 4 { o.>.o.{ 7 O 4 h 6 4 4 R C.:.D Z ' *.3.e.u.u.p.p.p.p.p.e.e.e.u.u.3.| ' D H =.4.j h ",
"H.' j G.C.O.D =.=.&.3.u.p.p.p.p.p.5X5X6Xp.p.p.t.3.=.N h -.D.j 4 0 3 3 7 3 6 o.p.t.9.o.C D -.1.3.e.;.&.&...Z =.F.C.Q W V u < H H f t u i y y u u i g g g P k i i p i r r i i i i d g g g g g P P i i p i i i i P P B B R =.=.R g g P P P P E R R B B B R P P P P I Q W R R R R R R R R P g i P E R R H T &.&.=.W R P P k P I E P P W W W R R W W E P P E E W =.*.&.W R R E E P k P P P k k R T R j d k k p p p k P R B g B B P P B B P P k g i P P B g g g g g P I P b i g g g g g g d u t f R =.D s Z &.&.W 1.*.} 3.t.i.a.i.i.3.=.=.D < * 4 f H =.} 4 > s N R E E P E P sXsXsXsXsXsXsXsXsXsXsXsXsXsXsXsXsXsXsXsXsXsXsXsXsXsXsXsXsXsXsXsXsXsXsXsXsXsXsXsXsXsXsXsXsXsXsXsXsXsXsXsXsXsXsXsXsXsXP D o.| h 6 4 , =.I.<.} [ 6 > Z :.:.5.I.+XY.y.e...0 =.D.4.*.;.*.[ h N =.=.P g g P E E P B B B P I k i i k k R T T D H R T D D V P k P P P R R E W R R R R R P P P I P P B R T T H H H P k y y g P P P P k k P R E E I k p P I I P P P W W E E I P P P b P I E E E W W W W R I I I P I E E P P E E P k k P k i i i d k P P k j j B k d p p p i i k g i k P k k k P P P i i i i i y i d g g d d i i p p r y y y u u f B T C , t R R W Q ~ W C ..3.<.4.*.T B H f 6 o.3.e.>.o.6 @ 4 0 6 4 4 B -.+.N Z ' =.;.;.3.u.p.p.p.p.p.e.e.e.u.e.3.;.=.D H =.<.j j ",
"I.T j P.4.O.} ;.;.3.3.e.y.u.e.e.i.a.a.a.p.p.a.y.4.=.H g +.F.N 4 6 3 4 4 > 6 o.e.e.9.o.C H -.1.4.3.=.&.| o.C W Z.Z.C.W B t , H T H d d d d d g g p P P P P P I P P p p p p p b P I I I I P P I I P P P I P P I I I W W -.:.=.=.=.W W E +.-.+.+.+.W R P P E I P P I -.Q W W =.+.+.Q W W E R R W W R R W :.:.:.-.E E I I I E E W W W W -.+.+.+.=.+.Q Q Q Q -.-.1.1.1.:.-.Q Q Q E Y Q Q Q Q Q E W W W E E P P P P E Q W W R W W E E E I P P P P P E E I I I E E I I I P P P P P P g g g j g d g T :.T h Z } =.=.1.<.[ o.u.i.a.a.i.e.=.=.' > * 4 s j O.} 4 * h Z T W W P W H sXsXsXsXsXsXsXsXsXsXsXsXsXsXsXsXsXsXsXsXsXsXsXsXsXsXsXsXsXsXsXsXsXsXsXsXsXsXsXsXsXsXsXsXsXsXsXsXsXsXsXsXsXsXsXsXsXsXB Z o.o.C 9 3 4 Z r.*.[ h > ; Z :.:.4.I.@XU.D.<.| h =.G.4.4.<.&.| 0 h ' =.H g g H E W W W R E E E P g g g P Q W W W W =.-.:.:.=.E E E E E E W W Q Q W W W W W Q Q Q Q W W =.+.+.=.=.W R H j j R =.+.=.W W W W W W =.W R R R E E W W W W W Q W W T T T W W -.-.1.1.1.1.-.W W Q E E Q Q -.-.+.+.+.Q E E I I P P P P I E Q Q -.Q E E P k P P P E E E E E E I I P I E E E E P P k k k k k P P k i i k k P P p j f s j T W E s , t R R P W 1.V C | ;.1.4.-.R R V 6 4 o.e.u.e.X.5 o 4 f 6 4 , g :.=.j N D | ..| 3.e.p.p.p.t.t.u.e.u.p.e.3.;.=.H H =.<.j j ",
"I.O.j P.4.O.#.;.;.3.e.u.y.u.u.p.a.a.p.p.p.p.i.i.<.=.H j -.F.N 4 6 4 6 4 > 6 o.e.e.e.o.) D +.-.<.<.&.$.| ..L W A.Z.C.W H u < h B s < , , < < < < t u u t t t f f u t , , , , t t t u < < < t t t t , , , < < < < < s f f f s s 4 4 < < t s s s f s s 6 6 s f f s s f s s s f f f s s s s < t s s 6 6 s h j h h h h h f f f f s s 6 s s s s 6 4 4 s t t t s s s s s s s 4 4 4 < < < t t 4 4 s < < < < > > < < , , < 4 4 4 6 s s s s s s t < < t s s < 4 4 s s s s s s s s f f s s s s s s s f h j h f [ | *.4.G.5...o.u.t.i.p.t.e.&.=.' > * 4 f Z &.=.4 * 6 C D W O.R E H sXsXsXsXsXsXsXsXsXsXsXsXsXsXsXsXsXsXsXsXsXsXsXsXsXsXsXsXsXsXsXsXsXsXsXsXsXsXsXsXsXsXsXsXsXsXsXsXsXsXsXsXsXsXsXsXsXsXg N ..o.C 9 3 4 Z 4.*._ h > * Z :.<.5.G.4.<.4.r.o.h =.I.I.I.y.r.) 6 h } =.N s < s s s s s s s s s t , , , < t s 4 , 6 6 6 6 6 6 < 4 t t s s s s s s 6 4 6 6 6 s s s t 4 4 6 f f s 6 < < , , , , < 4 4 < 4 4 4 4 4 4 < < < < < < 4 4 4 4 4 s < 6 < < < < < < < s s h h s < t u u t s s f s s s s s t t t t , , , , , > , < < 4 4 4 , , t t t t s s s s s s u u f h h f f t t s s s s s s 4 4 , < < < < < < , , = 4 f s < * = f R R P W 1.V C o.<.*.=.W R V H 6 6 o.3.e.>.o.5 o 4 f 4 > , H 4.:.Z Z ' o.;.3.e.u.p.p.p.t.t.u.e.e.e.e.e.;.=.O.T =.<.j j ",
"I.=.H P.4.=.;.;.;.3.e.t.i.p.p.a.p.5Xp.p.p.p.u.e.*.=.H j :.F.N 4 6 6 6 6 > 6 o.e.e.9.o.) H Q Q <.<.<.<.&.o.L W c.c.E P H f > * $ . X . . o o o o @ o X X X X X . . . . . . . . . . . X X X . . . . . . . X X . X X X . o o o X X X X o o o o o o o o O o o @ @ . o . . X o o @ @ X . X o o . . o o o o o o o X o o @ @ o X X o o o o o o o o o o o o . o o o o o o o o o O O O o X X X X . . . o o o . . o o . . X X o o o o o o o o o o o o o o o X X X @ O X X X o X X X X . . X X X . o . . o * 6 [ | *.4.I.5...o.u.u.p.t.t.e.;.&.' 4 * 4 h =.<.*.4 * 4 h Z O.T B E B & sXsXsXsXsXsXsXsXsXsXsXsXsXsXsXsXsXsXsXsXsXsXsXsXsXsXsXsXsXsXsXsXsXsXsXsXsXsXsXsXsXsXsXsXsXsXsXsXsXsXsXsXsXsXsXsXsXB V ;.| h 6 > > Z <.=.C 6 > * Z <.<.5.5.6.6.y.y.o.h =.I.I.Y.y.y.| h 4 4 > * o X o o o o @ @ o o o o @ o o o o o o o o o o . o o o o o o o o o o o o X O O O O O . . o o o O O @ @ o X . o o o o o o o o o o o o . . X X o o o o o o o o o o o o o o o o o X X X X o o     X X X X o o o o o o o o o o . X X X X X X               . . . . . X o o o o o o . . . . . . X . . X X X X X X   X X X X X X X X . .   X X . . . * f R W W Q 1.V h ..3.*.=.W D V Z 6 4 [ o.o.o.X.5 o 4 6 3 > , D D.1.Z C | 3.e.u.t.t.p.p.p.t.u.e.e.e.e.e.e.3.;.| D =.5.N j ",
"I.=.Z P.<.} | ;.;.3.e.p.a.a.6X6Xp.p.p.p.p.p.u.e.*.=.R H :.F.N 4 0 6 6 6 > 4 X.9.9.9.o.C N W W <.<.<.1.<.o.L W ~ Q W W W B , o . X o * * * * * * * * @ @ @ * * @ @ @ @ @ @ o @ * * * * * * * * > > > * > > > > > > > 3 > * = > > > > > * > > > > > 3 > > > > > * > > 3 3 > > 3 3 3 3 3 3 3 3 > 3 > 3 3 > > 3 3 3 3 3 3 3 3 3 3 3 3 3 3 3 3 > > > 3 3 > 3 3 3 3 3 3 3 3 3 3 3 3 > > > > = > > > > > > > ; > > > ; ; > > > 3 3 3 3 > > > > > > > > * > 3 3 3 3 3 3 3 3 3 3 3 > > > > > > > = * * * > h | &.<.D.I.6...o.t.p.i.p.t.e.;.*.' 4 * 4 Z :.4.*.4 * 4 h Z =.W B E B & sXsXsXsXsXsXsXsXsXsXsXsXsXsXsXsXsXsXsXsXsXsXsXsXsXsXsXsXsXsXsXsXsXsXsXsXsXsXsXsXsXsXsXsXsXsXsXsXsXsXsXsXsXsXsXsXsXI -.r.| h 6 > > N 1.=.C h > * Z <.<.6.6.r.y.y.i.o.0 | I.I.a.y.3.| 6 * o o @ * > 3 3 3 3 4 3 3 3 3 3 4 4 3 3 3 3 3 3 3 3 3 > > > 3 3 3 3 3 3 3 3 3 3 3 3 3 3 3 3 3 3 > 4 3 3 3 3 4 > > > > , > > > > > , 4 3 3 > > > > 3 3 3 3 3 3 3 3 3 3 3 > 3 3 3 3 > > 3 3 3 3 3 3 3 > 3 3 3 3 3 3 3 3 3 3 > > > > > > > > > > > > > * * @ @ @ @ * * * * @ @ > > * * @ @ @ @ @ @ @ @ @ * * * * @ @ @ * @ @ @ * * * * * @ @ @ @ o o o * , s H -.-.1.1.H h ..;.&.<.&.} J D 6 4 ) o.o.o.{ 7 O 3 6 3 > , T G.4.Z C ..e.e.u.u.p.p.p.p.u.u.e.e.e.u.u.e.3.;.| D =.4.N j ",
"5.' j P.<.' | | ;.e.t.i.a.a.6Xp.p.p.p.p.p.a.y.r.*.=.R B -.F.j 4 6 6 6 7 > 7 { 9.9.9.o.h N W =.<.<.<.1.<.o.L W C.~ ~ 1.-.N < * @ * * * , , , , , , < , , , , 4 4 , , , , , > , , , , , , , , , , < , , , , , < , 4 , , , 4 4 4 4 4 , 4 4 4 4 4 4 6 6 6 6 6 6 4 4 6 6 6 6 4 6 6 6 6 6 4 4 4 4 4 4 4 6 6 6 6 6 6 4 6 6 6 6 6 4 6 6 6 6 6 4 4 4 , 4 4 4 4 4 4 4 6 6 6 4 4 4 6 6 6 4 < , , 4 4 4 4 4 4 4 4 , , 4 4 4 4 4 4 4 4 4 4 > < < < < , , , 4 6 6 6 6 6 6 6 4 4 4 4 4 4 4 4 4 4 4 6 4 4 , , , 4 j D *.5.G.I.6...9.i.i.a.p.i.e.;.&.' , * 4 H 4.4.=.4 * 4 h Z } ' B P B & sXsXsXsXsXsXsXsXsXsXsXsXsXsXsXsXsXsXsXsXsXsXsXsXsXsXsXsXsXsXsXsXsXsXsXsXsXsXsXsXsXsXsXsXsXsXsXsXsXsXsXsXsXsXsXsXE Q 1.5.' h 6 > 3 D 5.:.' j > * Z 4.5.r.e.e.i.u.e.o.0 } y.y.y.e.<.D 6 > > > 4 6 6 6 h h h C C h h h h j h h h h 0 h h h h h h 6 6 6 f 6 6 6 6 6 6 6 6 6 6 6 6 6 6 6 6 4 6 6 6 6 6 6 4 , , 4 4 , , 4 4 4 4 4 6 4 4 4 4 4 6 4 4 4 4 4 4 4 4 4 6 4 4 6 6 6 4 4 6 6 f 6 6 6 6 6 6 f f 6 6 6 6 6 6 6 6 4 4 4 4 4 4 , , , , 4 4 4 4 < 4 4 , 4 4 4 4 , 4 6 6 6 4 4 , 4 4 4 4 4 4 4 , , , , , > > > > > , , , , , > , , , > * & * , s f H -.-.-.-.N h ..| &.<.3.3.<.J 4 3 ) o.o.o.) 7 o 3 6 3 > , D D.:.Z C | e.e.e.u.u.p.p.p.t.u.e.e.u.t.u.e.3.;.=.D =.<.j j ",
"5.D j 5.:.' ' | &.3.y.a.a.p.a.p.p.p.p.i.a.i.u.3.&.T H g =.C.h 3 6 6 6 6 > 7 X.e.e.9.o.0 C =.$.| o.&.<.3.o.L W A.c.1.1.1.B < $ o * & > , > < < , < , , , , < 4 < , , , , , < < < < < < < < > , < < < t t < < 6 6 6 4 , , 4 4 4 4 4 4 4 6 6 4 4 4 4 4 6 6 6 6 4 < 6 s s 6 6 6 6 f 6 6 4 4 6 4 4 4 4 4 6 6 6 6 6 4 6 6 f 6 6 6 6 f f f 6 4 4 4 4 4 6 6 6 6 6 6 6 f 6 4 4 6 6 < < 4 < < < 4 4 4 4 4 4 4 4 4 4 4 4 4 4 s 4 4 4 4 4 , < < 4 4 < < < < 4 < < < 6 6 6 6 6 s s s s s s 4 4 s s s 4 < , , 4 h D <.<.4.G.6.{ 9.a.a.a.a.i.r.;.=.' 4 * 4 N *.<.} > * 4 h Z } ' g P P % sXsXsXsXsXsXsXsXsXsXsXsXsXsXsXsXsXsXsXsXsXsXsXsXsXsXsXsXsXsXsXsXsXsXsXsXsXsXsXsXsXsXsXsXsXsXsXsXsXsXsXsXsXsXsXsXQ Q Q :.D h 6 > 4 =.U.G.*.C 4 * Z 4.5.y.t.p.p.u.9.X.0 ' r.y.y.3.;.D 6 , > > 4 4 6 f f h h C C h h h h h h h h h f f h h h h h 6 f h h f f f f f f f 6 6 6 6 f f f f s s f f f f 6 f 6 4 6 s 6 4 6 6 6 6 f f f f 6 4 4 6 f s 4 4 6 s s 6 6 s s 4 6 6 6 6 s 4 s f f s 6 6 4 6 s s s s s 6 s h f f s 6 6 6 s s s 4 < < , < 4 4 s 4 t < , < 4 < < < , < t < 4 4 4 4 4 4 4 4 4 4 4 4 4 < < < < < < , < < < < , , , , , > = * > , h f g R V W =.N h ..o.&.3.t.y.4.J 4 7 X.9.e.7. .7 o 3 0 6 3 , H 1.=.N Z | ;.e.e.u.u.p.p.p.t.u.u.u.u.u.e.3.&.=.D V =.<.N j ",
"G.O.j 5.1.D ' } &.3.e.t.p.a.6X6Xp.e.u.i.i.p.e.3.=.T j g =.D.h 3 6 6 0 0 > 6 o.t.e.e.o.0 C =.&.,.,.3.<.3.o.L W C.c.~ C.1.g , $ o $ % * = > > > > > > > > > * * > * * * * * > * > * = > > > > > > , , , , , , 4 4 4 , > > > > > > > > > , > > > , , > , , , , , , 4 , , , , 4 4 , 4 > > , 4 , , , , > > , , , > > > > , , , , > , , , , > > > > > , , > > > > > , > > > > > > > > , > > , , , , > > > > > , , > > > > , , , > > > > > > > > > > , , , , , , , , , > , 4 4 4 4 4 4 4 4 4 4 4 , , , f C Z ;.=.<.I.6.{ 9.a.a.a.a.a.e.*.=.' 4 * 4 f D *.} 3 * 6 h [ =.=.g P P & sXsXsXsXsXsXsXsXsXsXsXsXsXsXsXsXsXsXsXsXsXsXsXsXsXsXsXsXsXsXsXsXsXsXsXsXsXsXsXsXsXsXsXsXsXsXsXsXsXsXsXsXsXsXsXsXQ Y Q :.} C 6 > , *.>XU.<.' 4 * N 4.5.a.p.u.u.e.9.{ 0 } y.y.y.3.<.D 4 > > > > , , 4 4 4 6 6 6 4 4 4 4 4 4 4 4 4 4 4 4 4 4 4 4 3 4 6 4 < , < < , , , , , 3 3 > , , , , > , 4 4 4 > > > > , , , > , , , > > > > > > > , , , , , , , , , , , , , > > > > > > * , , , , , > > > > > > , < , , < < < , > > , , , , , , , , > , , , , > > > > > > > > > > > , , , > > > > * * > > > > > > > = > > > , , , , > > > > = = , = & * < h f f V V W =.V C | o.3.3.t.y.3.} 4 7 X.9.9.9. .7 o 3 0 6 4 , H :.+.H H D | 3.e.p.e.u.p.u.u.e.e.u.p.p.e.&.=.T V R =.4.N j ",
"5.' j r.<.D ' O.&.*.3.u.a.a.a.a.p.e.u.t.y.u.e.3.=.T j g -.F.j 7 9 0 c c 3 5 o.p.u.u.7.0 C } | 3.e.3.,.3.o.) W c.c.1.1.W f s > . $ $ * % & * * * * * * % o o $ * * * * * * * * * * * * * * * * * * > * & * * * * % * * * * * * * * & & * * * * * * = * * * * * * = & & & * * * * * * % * * * * & % $ * * * $ * * * * * * * * * * * * * * * * * * * * * & * % % % @ o * * % * * * * * $ % * * * % * * * % * * % % % $ * * % $ % % @ * * * * % $ $ * * * $ $ $ % * * * * * * * * * * > * * * * & < Z C j <.5.5.I.6.) 9.a.a.a.a.i.e.*.&.' , * 4 s H =.T 4 * 4 C } &.} g P k % sXsXsXsXsXsXsXsXsXsXsXsXsXsXsXsXsXsXsXsXsXsXsXsXsXsXsXsXsXsXsXsXsXsXsXsXsXsXsXsXsXsXsXsXsXsXsXsXsXsXsXsXsXsXsXsXY I Q :.=.Z 0 3 , *.%XI.*.D 4 ; h =.<.y.a.p.p.e.9.X.0 ' 5.6.r.3.*.R j d t & > > > > > > > > > > > * * * * * * * = * * > * * > * = = > = & * * * * * * * * * * * * * & % $ % % * % % * * & & & * * > * * * * % % % * * * * * & & * * & % % * * % % * * * & $ % % % & & * % * $ $ % % % & & % % $ % & $ % % $ $ $ $ % * % $ & & % $ $ $ $ $ $ $ $ $ $ $ % % % % % % * * $ $ % % $ $ * * $ $ * * $ $ $ $ % % & % % % $ % $ $ s h t g R R W -.V C | 3.<.4.<.<.1.=.6 7 ..e.e.>.X.7 O 4 C h 4 , H F.1.H P T =.;.e.p.u.p.u.e.e.e.e.t.p.p.u.3.=.T R R =.5.N j ",
"5.D Z I.4.T ' =.*.3.r.y.a.a.p.p.p.u.e.u.y.y.u.3.&.=.N g -.G.C 3 9 0 0 0 3 6 o.p.u.e.o./ C | &.o.o.| | &.o.) W b.C.1.-.W N N h > * & > , < s s s s s f 6 4 4 s f 6 f f f f f s s f f f h h f f f h h h f h j C C j h f f h j j j j h h f h h f f f f 6 6 s s f f h f h h h h f f h h f f h h h h f h h h h h j h h j C C j j C N N N j C j j h j j N N j h h j h 0 6 f h h h h f f h h j j h h h h h j h h h h h j h h h f f f f f h h f h h h j j h f 6 6 6 6 4 4 4 s s f s 6 6 4 < , , , > , h =.[ C <.P.G.I.r.{ 9.i.a.a.a.i.i.3.:.O.< * 4 s D -.=.4 * 4 C =.*.} g P k % sXsXsXsXsXsXsXsXsXsXsXsXsXsXsXsXsXsXsXsXsXsXsXsXsXsXsXsXsXsXsXsXsXsXsXsXsXsXsXsXsXsXsXsXsXsXsXsXsXsXsXsXsXsXsXsXY I W 1.*.D 0 3 > *.%XD.=.Z 4 * h =.:.y.a.p.p.u.e.X.0 ' <.<.<.3.*.j H W R f t s f h h f f f 6 6 6 6 h h f h j h h f f h h h j h h h f s u s f f s 6 6 6 f 6 s f h h f f f f f f f f h h h f f f s f h j h f f f f f f f j j h j j j h s s s f h h h h j j f s s f f f 6 h h h h f h f h f f f f f s 4 4 < , , 4 4 s s 4 4 4 s 6 6 6 6 6 f h h h h h h s 6 s s s h s s f f s s s s s 4 4 4 4 4 < , , < t t , t t t < < < < h N f j W Q -.1.T Z | 3.<.*.*.=.-.=.f 6 ) o.9.>.X.7 O 4 C 6 3 , R H.D.T R =.=.;.e.t.p.e.e.e.e.e.e.e.t.t.u.3.;.=.T R =.5.N j ",
"4.D N I.4.T T J &.6.y.y.i.p.p.p.p.p.u.e.u.u.e.3.*.O.j h -.H.N 4 9 6 6 6 > 7 o.u.e.e.o.) C $.<.| | 3.3.<.;.) W c.c.-.=.W f Z W h u f g g j B H V V V V N N H T D H H H H H N D =.=.W =.=.W V V R T T V V T =.*.:.*.=.W W =.=.=.=.=.W T =.=.=.=.<.<.*.<.*.*.*.*.*.*.<.<.3.<.;.;.3.;.*.=.=.=.:.=.*.<.3.3.3.3.e.3.;.;.;.*.*.*.*.&.&.=.=.=.=.=.=.O.T O.=.=.=.&.<.:.*.&.3.;.*.*.*.&.T T +.:.*.*.&.=.=.=.=.O.O.=.W W W +.=.T D D D D D J W T H H R W :.:.=.=.=.=.=.=.=.=.=.=.*.*.<.<.*.*.*.=.T H g g T =.C h =.:.4.I.6.{ 9.a.a.a.i.i.r.<.:.=.4 > 4 h =.1.*.4 * 4 C D =.D g P p % sXsXsXsXsXsXsXsXsXsXsXsXsXsXsXsXsXsXsXsXsXsXsXsXsXsXsXsXsXsXsXsXsXsXsXsXsXsXsXsXsXsXsXsXsXsXsXsXsXsXsXsXsXsXsXsXY I W :.*.' h 3 > ;.U.5.=.L 3 * j =.*.r.p.p.a.p.u.7.) =.5.<.<.;.;.h g =.-.R H W =.=.+.=.=.=.&.*.*.<.:.:.*.-.*.*.&.*.:.1.4.4.4.4.4.4.4.4.<.<.<.4.<.<.<.3.4.*.&.*.<.<.*.*.*.*.;.&.=.*.*.*.*.*.*.:.=.*.1.<.<.<.<.<.<.;.*.*.<.3.*.&.<.<.<.<.&.&.&.| | | ;.;.*.*.3.3.e.3.3.3.e.3.*.$.$.*.<.*.*.4.4.4.4.<.*.*.=.=.=.*.*.:.&.<.<.*.*.*.*.*.&.=.=.=.=.=.=.=.W T D D D D T V H T T R R R W W W T O.O.D D D T T W R R B g g g f f h D D f B W -.1.1.W ' ;.3.&.&.=.=.-.=.h 6 ) o.>.o.o.9 O 4 C 6 > , R G.D.T W &.*.3.e.e.e.e.e.u.e.e.e.e.u.t.e.3.3.=.O.T :.5.N j ",
"4.V j D.1.R H T =.4.y.y.y.t.t.p.p.a.p.e.u.u.e.6.*.D g f =.F.N 4 6 6 6 6 > 3 o.e.e.e.o.C C =.*.3.<.4.3.<.;.) W c.z.U W W s h W j u u g g g g B P E R R B j H T W T R B B B R R W Q E E E R R W W W R T E W =.:.1.:.=.=.=.*.<.<.=.=.=.+.Q Q Q =.1.4.1.<.1.:.-.-.:.:.<.<.<.<.<.<.3.4.<.<.:.:.:.1.1.<.3.3.3.t.t.e.3.3.3.3.<.4.4.<.<.*.:.:.:.=.=.=.=.=.=.+.:.*.<.:.*.;.3.3.*.*.:.:.=.E Q :.*.=.=.=.=.O.T W =.=.W R W -.-.W T T W =.=.:.=.E P P E -.-.W E T =.*.*.=.=.=.=.=.*.4.4.<.<.:.:.:.W R R P +.=.h C =.W -.5.<.) 9.i.a.a.i.t.3.*.&.=.4 > 6 Z *.D.:.4 * 4 N D =.D g P p $ sXsXsXsXsXsXsXsXsXsXsXsXsXsXsXsXsXsXsXsXsXsXsXsXsXsXsXsXsXsXsXsXsXsXsXsXsXsXsXsXsXsXsXsXsXsXsXsXsXsXsXsXsXsXsXsXsXE T *.=.' h 3 3 ;.I.4.| [ 6 * C *.*.e.p.p.a.p.p.9.) *.I.5.4.3.;.C s H +.R P E +.+.Q Q -.=.=.=.<.<.:.=.=.:.*.=.=.:.4.:.-.1.1.1.1.4.4.4.4.4.5.5.5.5.5.5.I.5.<.4.5.5.4.<.<.<.<.<.<.<.<.:.:.:.1.1.1.1.1.1.4.<.4.3.3.4.6.6.6.4.6.4.<.<.<.<.4.<.<.<.3.3.r.6.6.5.r.r.r.6.6.r.y.r.<.:.1.1.4.<.<.<.<.<.4.5.<.:.:.<.<.<.5.4.D.<.<.*.*.*.<.*.1.1.*.=.=.=.:.+.W W =.=.=.T T R T W T R P E E E W =.=.=.W T T T T W R R R j g g g g H =.H s H W W -.1.W ' ;.&.| &.=.W -.W 0 5 ) o.9.o.X.7 O 3 h 6 > , H F.1.R O.*.3.3.3.<.<.e.t.t.e.e.e.e.t.p.u.e.;.=.O.T -.5.N j ",
"4.H g 5.1.R R T =.:.5.y.r.r.u.t.t.a.p.u.e.u.e.r.&.D h f =.F.g 4 6 6 6 0 3 7 o.u.e.e.o.C Z W $.<.r.6.6.<.| ) W n.v.Q W W h s V B u u u i i i B P I B g g g g j R P k d i g B P E E E I P B P P P P P P R E W +.+.W R V V =.*.*.W R R E Q Q W W -.1.=.=.-.Q W W +.1.*.*.*.*.:.:.*.=.=.=.W T E W W *.<.3.3.r.y.r.3.<.<.*.&.*.4.4.:.=.:.1.*.W W W W T R W -.<.<.:.=.<.6.6.*.*.:.:.+.E E -.*.=.=.=.*.W R R W W P P E Q Q E P R R W =.-.-.E P k P Q Q E P W +.:.=.T W +.=.=.=.1.<.:.*.:.=.=.T H j R +.D h C | :.1.I.6.{ 9.i.i.a.i.u.3.=.:.=.4 > 6 D :.G.4.6 > 4 C H =.=.g P p % sXsXsXsXsXsXsXsXsXsXsXsXsXsXsXsXsXsXsXsXsXsXsXsXsXsXsXsXsXsXsXsXsXsXsXsXsXsXsXsXsXsXsXsXsXsXsXsXsXsXsXsXsXsXsXsXsXW D =.=.[ 6 > 3 ;.Y.r.;.o.0 * Z :.1.r.a.a.i.t.p.9.) &.I.5.<.;.;.[ 4 h =.W k k E Q Q Q -.-.W T =.1.-.W -.:.-.=.=.4.D.-.Q Q -.Q W =.=.+.-.+.+.-.:.:.:.1.1.*.=.=.=.=.:.=.=.W =.=.=.=.=.=.:.:.-.-.-.1.-.-.:.<.<.<.*.*.<.<.<.<.4.5.<.*.*.1.4.<.:.&.*.<.<.;.*.<.<.*.*.*.<.5.5.1.=.=.W W =.-.:.1.:.*.:.4.1.*.:.:.*.=.*.:.:.=.=.=.=.*.*.=.=.=.=.=.W W -.W R W =.+.W R R R W W T k P E P E E E W T R H H H B B P E g d f f f g T =.j t H R V W 1.W D &.&.| &.&.W W D 6 7 ) e.e.o.) 7 O 3 h 6 > , B C.-.H D *.3.3.*.=.-.3.3.e.e.e.e.e.u.p.y.3.;.=.=.T *.5.N j ",
"5.H h 5.1.T T T W =.:.6.r.e.e.u.t.p.t.u.e.e.e.3.&.D f f W F.j 4 6 6 6 0 3 7 o.t.u.u.e.C C W *.6.y.y.3.<.| C ! [.M.c.Q W h 4 D =.P d f u d g B R E P B H B j j P P P g d g B P P E E P g B P P I P P P P E W W Q W W T W =.*.*.=.T W E E E W W -.-.-.-.-.-.-.-.:.1.-.=.=.:.:.*.O.=.=.-.=.T E W W :.<.<.*.<.4.4.6.6.<.1.*.:.5.4.:.=.:.:.:.=.+.+.+.W E W +.1.:.=.=.&.<.<.*.:.1.:.-.W W Q =.T W =.=.T R T T W E P E Q Q E P R R T W Q Q Q E P P E E E E W +.+.=.W =.+.-.=.=.:.1.:.*.=.=.T H g R +.:.N 6 C ' 1.D.I.6...e.a.a.qXa.u.;.O.=.=.4 * 4 D :.G.D.f > 6 C j D =.P I P sXsXsXsXsXsXsXsXsXsXsXsXsXsXsXsXsXsXsXsXsXsXsXsXsXsXsXsXsXsXsXsXsXsXsXsXsXsXsXsXsXsXsXsXsXsXsXsXsXsXsXsXsXsXsXsXsXsXI H W D Z 6 > > ;.Y.r.3.| 0 = Z 1.4.y.$X$Xa.y.i.e.) &.5.<.*.;.;.} 4 f =.=.R k P E Q -.1.:.W W :.4.4.1.<.<.*.=.:.4.D.4.:.:.1.:.:.:.:.1.-.+.+.+.+.:.:.1.1.1.1.:.-.:.1.:.=.=.=.*.:.*.*.:.<.:.:.-.-.-.-.-.-.:.<.<.<.<.5.5.4.4.5.G.4.:.=.:.<.1.*.1.4.5.4.<.<.4.1.:.=.=.:.:.1.1.:.-.-.+.+.-.:.:.+.=.+.:.+.W +.:.:.=.=.=.W =.=.=.=.=.*.=.=.*.1.:.-.=.=.T T W +.=.W R R W W =.T P P E P P E E R R H H H R B B P E j g d g j R T ' f t H R R W 1.V N =.<.<.6.<.W W D 6 5 o.u.u.o.) 7 O 3 h 6 > , g C.:.R D *.3.3.*.W Q *.;.3.e.e.e.e.u.t.i.r.;.=.T W :.5.N j ",
"5.H h 4.1.W =.=.=.&.*.r.y.r.e.e.y.u.u.e.e.e.e.3.&.D h s W F.N 4 6 6 6 0 3 7 o.p.e.e.7.) j W <.6.6.3.3.<.;.C U ~.~.b.Q W h < N T B f f f d g B R R B H H B B P P P j j j g j g P R I P R R E E E E E P P R R E W W W T T W =.&.&.=.W R P R W =.+.+.+.-.-.-.-.1.-.:.=.W =.=.=.=.T T W =.W T R R W =.*.*.*.*.<.<.4.4.<.1.:.:.:.:.+.=.=.=.=.=.-.+.+.+.W W W =.=.W T ' =.&.*.:.:.=.=.=.W W T T T T T T T R H B P P P I R P R R R R E W E E E E E E E W W W W W W W =.=.=.+.-.=.=.=.=.=.T H h h D :.=.h 6 Z =.4.D.I.6...e.a.Q.9Xa.u.<.=.=.=.4 * 4 Z *.G.4.6 3 0 Z N O.=.I I P sXsXsXsXsXsXsXsXsXsXsXsXsXsXsXsXsXsXsXsXsXsXsXsXsXsXsXsXsXsXsXsXsXsXsXsXsXsXsXsXsXsXsXsXsXsXsXsXsXsXsXsXsXsXsXsXsXsXP H W D Z 6 > > ;.Y.e.o.[ 4 = H 4.4.I.Y.a.y.y.a.e.) =.5.4.*.;.;.' 4 h =.=.R j j R W -.-.-.=.=.:.:.1.1.:.*.*.=.=.=.=.=.=.=.=.=.=.=.+.-.Q W W W W =.=.=.*.:.:.-.-.W W =.T T T W W W =.&.*.-.+.Q Q Q W =.=.=.*.:.<.4.4.4.4.4.<.1.*.=.=.=.=.=.=.-.1.:.:.*.=.-.=.=.=.=.=.=.=.=.-.=.Q W W =.=.+.W W W W R R W -.-.=.=.W R R W =.=.=.=.D T =.=.=.=.W T V H H R R H V T T W W T R R P j B R W E R R R R H H B P P g d d g j H H h s s R E Q 1.1.V h } <.4.y.y.<.W J h 5 X.u.u.9.) 7 o 4 h 6 > , g :.:.T =.*.3.4.*.W Q :.*.;.3.e.e.u.i.u.e.3.&.=.=.W :.5.N j ",
"4.Z f <.<.=.&.*.*.3.e.y.y.y.e.3.6.r.3.3.e.e.e.3.;.' g f W F.N 3 7 3 6 0 3 9 o.e.e.9.X.) j W *.3.3.<.3.3.>.L U n.n.c.Q W N 6 4 , * * * * * > > > > > > > > > > > > > > > > * * > > > > , , , , , , , , > > , , , , , , , , 4 4 4 4 , , , , 4 4 4 4 4 4 < 4 s s s 6 6 6 < , , , 4 4 , 4 , , > , , 4 4 4 4 4 6 6 6 6 0 f 6 6 6 4 4 4 4 4 4 4 4 4 4 4 < < < , , , , > > , 4 4 4 , , , , , , , , > > , , , > > , > , , , , , 4 4 , , 4 4 4 4 4 4 4 4 4 4 4 4 4 4 4 , , 4 4 4 4 4 , 4 , , > > * > 4 , > 6 C } 4.D.I.<...9.a.a.a.i.y.3.&.+.O.4 * 4 Z =.4.:.4 3 h ' ' <.6.W P p sXsXsXsXsXsXsXsXsXsXsXsXsXsXsXsXsXsXsXsXsXsXsXsXsXsXsXsXsXsXsXsXsXsXsXsXsXsXsXsXsXsXsXsXsXsXsXsXsXsXsXsXsXsXsXsXsXsXI H *.D Z 6 > > ;.Y.e.o.) 3 = D 4.4.5.y.y.y.y.p.e.) | 4.<.<.;.&.Z 4 6 h f < > > , , , 4 , , 4 4 4 4 4 4 4 4 4 3 3 > > > > > > > , , , > > > , , , > > 4 4 4 4 , > , , > > > > > > > > > , , , , , > , , , , 4 4 4 4 4 4 4 4 4 > , > > 3 3 3 , , , , 4 4 , , > > > > 4 4 6 6 , 4 4 4 4 4 4 4 4 4 > > > > , 4 , , , * = 4 4 4 4 , > > > , , , , , > > > > > > > > > > > > * * * * = > > > > > > > > * * & * * * * * > > > = 4 h V W -.C.C.T j | &.4.6.6.<.W W 0 7 ) o.9.o.) 7 o > h 4 > > j 1.+.V &.*.3.3.<.=.Q :.<.<.3.e.u.u.u.u.e.e.;.=.T T *.5.C h ",
"6._ j 4.<.=.*.*.;.e.y.i.y.y.3.*.*.<.3.e.u.t.t.e.;.' g f W F.Z 7 7 3 3 6 > 9 o.e.e.9.X.) N Q =.;.3.3.3.3.9.C W ~ Y E W W N 6 * o . o o @ @ @ * * * * * @ @ o o o o o o o $ $ * * * & * * * o @ @ * * * * * * * > > * * * * * > > > > > > > 3 3 > > > > > 3 3 3 > > 3 3 > * * * * @ * * @ @ * > > > @ @ * ; ; > * > > > > > > > > 3 > * @ @ * @ @ * * * * * > > > > * * * * * * * * * * * * * * * * * * @ @ @ @ @ @ @ @ * * * @ @ @ @ @ * * * * * * * * @ @ @ @ @ @ @ * * * * - > > > * * * @ o o > h N W 1.1.D.<...9.p.i.a.a.i.r.*.-.O.4 > 4 j =.1.*.4 3 h ' } 6.y.W k p sXsXsXsXsXsXsXsXsXsXsXsXsXsXsXsXsXsXsXsXsXsXsXsXsXsXsXsXsXsXsXsXsXsXsXsXsXsXsXsXsXsXsXsXsXsXsXsXsXsXsXsXsXsXsXsXsXsXI H =.D h 4 > 3 ;.Y.e.o.) 3 > D 4.4.5.y.y.y.y.t.e.) } 4.<.*.;.&.Z > 3 > * * * > > > > > > > 3 3 > 3 3 3 3 3 3 3 > > @ @ @ @ @ > > > > @ > > > > * @ @ @ @ @ @ @ @ @ @ @ @ @ O O o o o @ @ @ @ @ @ @ @ * @ @ @ @ @ @ * * * * * * * @ * * @ @ @ @ @ @ @ @ @ @ @ @ @ @ @ @ @ @ o @ @ @ @ @ @ @ @ @ o o o @ O O o @ o o @ o @ @ @ @ o @ @ @ * * * * * * * * @ o o o @ @ @ @ @ @ @ @ * * @ o @ @ @ @ @ @ @ @ @ o o o o o o o @ 4 N V W Q 1.D.W N L } } ,.$.W W W h 7 ) o.o.o.) 7 o ; f , > > N 1.+.D =.3.3.e.e.:.+.:.<.3.3.e.u.u.u.t.y.t.e.;.=.T *.y.C f ",
"r.' h 4.<.=.;.*.;.e.y.i.i.y.3.*.;.<.e.t.p.a.p.u.;.' j f W F.Z 7 7 3 3 6 > 9 o.p.u.e.>.) Z -.<.3.e.3.3.3.e.L W Q Y E W W H 4 * * * , , , 4 4 4 4 6 6 4 4 4 , , , , , 4 4 4 6 4 6 s 4 4 4 4 4 6 6 f h h j f h h h f 6 4 4 6 6 6 6 0 0 0 h h h j h h h h h C C C C C C C h h 0 0 0 0 h h 0 h h h h h h h 0 0 0 C C C C C C C C C C ) h 0 9 9 0 0 0 0 0 h h 0 0 0 0 0 9 9 6 6 6 6 6 4 4 4 4 6 6 6 6 4 4 4 , , , , , , f f f f s 6 6 6 6 6 6 6 6 6 f f f f 6 6 4 6 6 6 6 6 6 6 6 6 6 6 6 6 4 4 4 > > < g T W =.-.D.<...>.t.i.a.a.a.i.*.&.O.4 > 4 j =.<.*.6 3 h ' } e.y.W P k % sXsXsXsXsXsXsXsXsXsXsXsXsXsXsXsXsXsXsXsXsXsXsXsXsXsXsXsXsXsXsXsXsXsXsXsXsXsXsXsXsXsXsXsXsXsXsXsXsXsXsXsXsXsXsXsXsXI H =.V h 4 > 3 ;.Y.u.o.) 7 > D 1.1.6.y.a.a.y.t.9.) =.4.<.*.&.&.Z , > > > 3 6 9 0 0 h C C C ) ) ) ) ) C C C C C c 0 9 6 9 0 0 0 0 0 0 0 C C C h 0 0 0 0 0 0 0 6 6 6 6 0 0 9 6 6 4 4 6 6 6 6 6 6 6 0 0 0 0 0 0 0 0 0 0 0 0 h h h h h h 0 0 0 0 0 0 0 0 0 0 0 0 0 0 0 6 6 6 6 6 6 6 0 0 6 6 f 6 6 6 6 6 6 6 6 6 6 6 6 6 6 6 6 6 6 6 4 6 6 6 6 6 6 6 6 6 6 4 4 , 4 4 4 4 4 4 4 4 6 6 6 6 4 4 4 4 4 3 3 3 4 4 4 , , , > * % = 6 N W W Q 1.C.R h | &.$.,.$.W Q W h 4 C o.;.| ) 7 o * 0 , > > N 1.-.D =.3.e.3.e.<.=.*.:.6.3.e.u.t.p.p.p.p.y.3.=.O.:.y.C f ",
"r.=.j 4.<.' | ;.;.u.y.i.y.u.r.6.<.3.e.t.p.p.p.e.| ' j f R C.N 3 7 3 4 0 > 9 o.p.p.p.9.) Z =.<.e.t.e.<.3.e.L W 1.Q Q Q W j , * > > , 4 4 4 4 4 4 f f f 6 6 4 , 4 , , , , , , 4 s s s 4 4 4 4 4 4 6 6 6 f f f f f f 6 6 6 6 6 6 6 6 6 6 f h h j h h h 0 h h h 0 0 h h h h 0 6 0 0 6 6 6 6 0 0 0 h h h h h 0 h h h h h h h h h C C C h 0 0 9 6 6 6 6 6 6 6 6 6 6 6 6 6 6 6 6 6 6 6 4 4 4 4 4 6 6 6 4 4 , , , , , , 4 6 6 6 6 6 6 6 6 6 6 6 6 6 6 6 f h h h h 0 0 h h h h h h h h h h h f 6 6 4 4 , , h D =.=.1.G.4.[ o.t.i.a.a.a.i.*.=.D < > 4 j =.4.*.4 3 h | | t.y.J P P % sXsXsXsXsXsXsXsXsXsXsXsXsXsXsXsXsXsXsXsXsXsXsXsXsXsXsXsXsXsXsXsXsXsXsXsXsXsXsXsXsXsXsXsXsXsXsXsXsXsXsXsXsXsXsXsXsXI R =.=.V 4 * > | a.u.o.) 4 > H :.1.r.a.Q.a.y.u.9.) =.4.4.<.*.*.Z , > 3 3 4 6 6 0 h C C C C ) ) ) ) C C C C ) ) ) 0 0 0 0 0 0 0 0 h 0 0 0 h h h h 0 0 0 6 6 6 6 6 6 6 0 0 0 0 6 6 4 4 6 6 6 6 6 6 6 6 0 6 6 0 0 0 0 0 0 0 0 h f f 6 0 0 6 6 0 0 0 0 0 0 0 0 h h h h 0 6 h 0 0 h h h h h h h h 6 6 6 f 6 6 6 6 6 6 6 6 4 4 4 4 4 4 4 6 6 6 6 6 6 f f f 6 6 6 4 4 6 4 4 4 4 4 4 6 6 0 6 6 6 6 0 6 6 6 6 6 6 6 6 4 4 4 , > > f N W 1.1.C.C.V h } <.4.6.4.1.Q R s 4 C | | | ) 6 @ > h 4 > > H 1.-.D =.3.3.o.3.*.&.*.4.r.e.e.t.p.a.p.p.t.e.;.=.O.:.y.C f ",
"5.' h 4.*.D ' =.3.r.i.p.t.t.y.y.e.e.u.t.p.e.e.3.| } N f E C.N 3 7 3 4 0 > 9 o.p.p.p.9.) C =.<.t.p.e.3.3.o.C V ~ 1.1.1.=.h * o @ * * * * > * > > > > > > > ; * * * * @ % @ * * * * * * * @ > ; ; > > > > > > > > > > > > * * > > > > > > > > 3 3 3 > > > > > > > > 3 3 > > > > > > > > > > > > 3 3 3 3 > > > > 4 4 4 4 4 4 4 > 3 4 3 > > > > > > > > > * > > > > > > > > > > * * * * * * * ; ; ; ; ; * * * * * * ; * * * * > > > = = = > > , , > > > > > > > > 3 3 3 3 3 3 3 3 3 3 3 > * * o * @ * f J <.4.G.U.5...o.e.a.a.a.a.r.*.=.T < > 4 j -.D.*.4 3 0 ..| t.t.J P P & sXsXsXsXsXsXsXsXsXsXsXsXsXsXsXsXsXsXsXsXsXsXsXsXsXsXsXsXsXsXsXsXsXsXsXsXsXsXsXsXsXsXsXsXsXsXsXsXsXsXsXsXsXsXsXsXsXsXR :.*.D 6 = * o.i.e.o.h 3 = N =.:.r.a.6Xa.t.e.>.) =.D.5.4.3.4.Z , * * * * o * > > 4 4 3 3 4 4 4 4 4 4 4 4 4 4 4 > > > > > > > > > > > > > > > > > > * > > > > > > > > > > > > ; * * * * = = = 1 3 3 3 3 > > 3 > > > > > > > , , , , 4 3 > 3 > > > > > > > > > > > > > > > * * = > > > > > > > * * * = * = = = = * > > > > > > > * * > > > > > > > > > * > > > > > > * * * * ; > > * * > > > * * * * * * * * * * * * * $ 4 g W C.C.1.-.B C | <.<.4.6.1.W R s 3 0 ) | | [ 6 @ > h 4 > , H C.+.H =.3.3.3.3.;.*.3.4.r.e.e.t.t.p.p.p.e.3.=.#.O.*.5.j f ",
"1.D j :.*.H T =.*.r.y.t.t.y.y.y.e.e.t.t.e.e.;.;.=.O.H g Q Z.H 3 7 3 4 0 > 9 o.p.p.e.>.) C W <.t.i.e.4.3.o.h B 1.C.C.4.=.h 4 * o % * * > > > > > * * * * * * * * * * * * * * * * * * * > ; * % * * > * * * > * ; > > > > > = = > , = = > > > > > > , > > > > > > > > > > * * > > > * * * * > > * * = = > > > = * * * * * * * ; > > > > > > * * * * * * * % * * * * * * * * * * * $ $ * % * * * * * * * * * * * * * * * * > > > > > > , , , , , > > > > > > > = = * * * * * * ; ; > > * * * * * * 6 C [ <.D.G.U.5.[ o.u.t.p.i.u.3.=.=.O.< > 4 j :.D.:.6 3 0 | o.e.e.J I I & sXsXsXsXsXsXsXsXsXsXsXsXsXsXsXsXsXsXsXsXsXsXsXsXsXsXsXsXsXsXsXsXsXsXsXsXsXsXsXsXsXsXsXsXsXsXsXsXsXsXsXsXsXsXsXsXsXsXE =.J B < > > | a.e.o.h 3 > N +.:.r.i.p.t.t.e.>.C =.D.D.6.6.6.V s > & % * * * , , , > > > > > > > > > > * * * * * * * * > * > > > = * > > > > * * * > * * * * * * % * * * * * * * * * * * * * * = = = = * * = > > > > > > > , , , > > > > > > > > * * * > = > * = > > > > * * > * * * * * * * * * * * * * * * * * * * * * * * * * o * * * * * * * * * ; ; ; ; > ; * * * * * * * * * * * * * * * * * * * * * $ $ $ $ $ > h g H -.Q U W B C | &.&.3.<.=.W R h 4 0 ) ..o...6 o > h 4 * > H C.+.H =.3.e.e.3.3.3.3.e.e.e.e.t.t.u.u.e.;.| ' ' D *.5.C f ",
"1.D j <.*.H R O.&.3.e.u.y.y.y.t.t.u.p.y.e.3.&.=.O.T j g -.H.R 4 4 5 6 0 > 9 o.p.p.e.>.) C =.<.e.t.y.4.3.o.j W F.A.D.2.W B D f > > > , < < s s s s s s s s s s t < < < < t t s t s u f f h h f f h h f s t t s s s s s s f s s f f s s s f h f f f h f s u s s 6 6 6 4 4 < 4 6 6 6 6 6 6 6 4 4 6 6 6 h h h h f h h h j j h h s s s s s f s s t t s s s s 6 6 s s s s 6 s s s s s 4 < < < s s s s s s 6 s s s s 4 4 s s s s s s s s s s s s s s s s f f f f s f f s s s s s s f h f f s s u u f g *.=.N <.1.C.F.<.[ o.u.u.u.e.e.<.&.:.=.< > 6 j :.G.1.6 3 0 ..;.e.e.} E E : sXsXsXsXsXsXsXsXsXsXsXsXsXsXsXsXsXsXsXsXsXsXsXsXsXsXsXsXsXsXsXsXsXsXsXsXsXsXsXsXsXsXsXsXsXsXsXsXsXsXsXsXsXsXsXsXsXsX-.-.V h 4 > > ;.qXy.o.h 4 , N -.:.3.u.e.e.e.e.o.C =.G.5.6.3.6.H N H f t s f h j j j N C C C C C j h h f f s s s f h f s f s f h f f s f f s s s 6 6 f s s 6 4 4 < , , 4 4 , , , 4 , , < < < < , > , < 4 s s s s f s s s s s < < < < < 4 6 s s s f f f s s s s f h h h h f s s f f f s < < 4 s s s s u s s s s s t s f f f h h h h h h h j g h f s s s u s s 6 6 s s t t t t t t t t < < 4 s s s s s s s t t t < , , < N W B j T T W =.N h o.;.| ,.3.$.W W h 4 0 o.o.o.{ 5 o > h 4 * > R F.-.T =.4.4.3.;.3.3.e.e.e.e.e.u.t.u.3.;.&.=.T D R :.y.N h ",
"1.T h :.:.H R T =.*.6.6.6.r.r.r.y.p.i.y.e.<.=.=.T R g g Q H.R 4 7 3 6 0 > 9 >.i.p.e.o.) C =.*.3.t.t.4.3.| C W A.A.H.D.W h } Z s t u f g B B P B R R B B P P P P R B B R R R B j j P P R W W E W T R R P j B R R W W W =.W W W W T R R R W +.W R E Q W W R T =.=.} ' D R R T T =.=.$.=.=.=.=.O.D Z D =.W W W W $.$.*.<.<.<.*.=.=.=.=.=.=.=.=.=.=.=.=.*.*.*.*.*.*.:.=.=.W W W +.-.Q W R H T T T T T T T T T T R H H R R R R R H R T T V V R R R R W W W W T O.W W T W W T W W W W D V H B g g g =.4.D N <.1.Q -.=.[ o.e.e.e.e.3.<.*.:.=.s > 4 f =.D.*.6 3 0 ..3.y.t.$.W E : sXsXsXsXsXsXsXsXsXsXsXsXsXsXsXsXsXsXsXsXsXsXsXsXsXsXsXsXsXsXsXsXsXsXsXsXsXsXsXsXsXsXsXsXsXsXsXsXsXsXsXsXsXsXsXsXsXsXsX1.Z h 6 > > 3.tXi.o.h 4 > N :.:.<.3.3.e.e.e.o.C =.G.5.3.3.<.Z D :.W d f g T T T =.=.*.*.4.3.<.*.=.-.+.=.T T =.*.=.=.=.=.=.=.=.=.=.=.=.=.=.=.&.*.*.*.=.=.=.T R R D ' } ' Z D D T T V H V V V H B B H T W =.=.$.=.=.=.=.=.W V B B H V J W =.=.=.=.&.&.&.T W W =.=.=.=.=.=.=.W =.W W T T T T T T T T W W W T R R R R R T T W W O.=.=.T T W W R R R R R B H R T W T R P P P k d g P P H H B N H H B B B B g g d f u u d W =.g g T T =.-.Z h | ;.| | &.*.-.W h 6 C o.o.X.) 5 o > h 4 * > R F.1.O.*.3.&.=.=.3.e.e.e.e.e.e.u.t.r.3.*.&.=.=.T T :.y.N h ",
"1.T h <.:.H R T =.<.5.<.<.4.r.r.u.t.t.y.r.3.*.W T H g g Y Z.T 4 3 3 5 6 > 6 o.u.u.e.o.) j =.*.3.3.<.<.3.o.C Q H.H.H.1.D f Z T g f f g H R E I I E E P P P I E I E R R R E E P P P P P P E E E E W E E P P E W W W W -.1.C.1.1.1.Q Q E Q -.C.-.Q Q 1.1.1.-.W :.4.<.:.-.-.Q Q W :.<.4.4.<.:.:.-.=.W =.1.-.W W -.1.<.4.6.y.y.5.4.<.<.<.<.<.4.4.1.1.C.4.5.5.r.5.y.I.D.D.B.-.Q -.B.C.C.Q W W +.=.=.=.*.1.:.=.=.W W E E W E E E W E E :.:.+.E E Q E E Q C.-.-.+.+.-.-.-.:.:.:.:.:.=.=.=.W T R j g P -.<.C Z :.Q Q -.=.C | u.r.u.e.e.<.=.=.T 4 > < f B +.=.6 > 0 | 3.y.y.$.I Y :   sXsXsXsXsXsXsXsXsXsXsXsXsXsXsXsXsXsXsXsXsXsXsXsXsXsXsXsXsXsXsXsXsXsXsXsXsXsXsXsXsXsXsXsXsXsXsXsXsXsXsXsXsXsXsXsXsXsX1.V j 6 > > 3.wXy...C 4 > Z :.-.<.<.3.e.e.e.o.C } 4.<.;.3.<.[ N :.+.g d j T T W =.=.*.4.I.y.6.*.:.:.-.W W =.4.D.:.-.:.:.:.:.:.1.4.4.:.*.*.<.<.6.5.r.<.:.-.Q E E Q -.:.=.=.=.-.-.-.+.=.=.+.-.+.W E E Q =.:.<.<.<.:.:.:.:.-.Q W W =.:.<.<.<.<.<.4.D.D.1.=.=.-.:.-.-.-.:.:.-.-.-.-.Q +.+.+.+.=.=.+.+.*.=.=.=.=.W Q H T W W W =.*.*.&.W W W W R P E E E R T =.:.:.:.-.E I I P k P P P P E R R R R R P P k j d d d d d g Q R f j D W Q Q Z 0 ..;.=.=.=.=.Q W h 6 ) ..o.X.) 7 o * 6 4 * > E F.1.W &.=.T D =.3.e.t.e.e.e.e.u.e.3.4.4.*.=.T T R =.r.C h ",
"1.T h <.:.H H R =.4.5.6.6.r.y.i.u.u.u.u.3.*.=.W E H g j Q Z.T 4 3 > 3 6 > 7 ..e.e.3.o.) j W :.<.<.<.<.;...C W A.H.D.1.D s h T B i d g H R E E E E E P g k R W P R H H H R P j E E I g j R E E P R E E P P E Q Q =.W +.1.D.4.4.1.-.Q E +.-.B.-.Q +.-.C.C.1.:.:.1.5.:.-.-.-.W W =.<.4.4.<.*.=.:.=.W :.1.-.W W :.:.:.<.4.r.r.6.<.<.<.1.*.<.<.C.C.C.1.4.5.r.r.r.y.y.4.1.:.C.-.-.B.C.C.Q E =.:.=.T =.1.4.4.:.=.W W W W W E E E E W W Q -.Q E E E E E Q B.-.Q W W Q Q Q -.-.1.1.-.W W W Q R B g j P -.=.h C *.W Q -.*.C o.e.i.y.y.y.<.=.T T 4 , 4 u B T D 4 > 0 [ 4.y.y.W P I :   sXsXsXsXsXsXsXsXsXsXsXsXsXsXsXsXsXsXsXsXsXsXsXsXsXsXsXsXsXsXsXsXsXsXsXsXsXsXsXsXsXsXsXsXsXsXsXsXsXsXsXsXsXsXsXsXsXsX1.J C 0 > > 3.qXu...) 6 > H :.-.*.&.<.r.e.u.o.C } 4.<.o.3.3.C h =.+.P g j E E +.+.=.*.4.I.I.6.*.=.:.+.W W =.1.4.-.W -.-.-.-.-.1.D.G.:.*.*.<.<.<.y.I.<.-.-.Q E E E -.-.=.=.+.+.-.-.-.=.W Q -.Q E E E Q Q 1.4.4.<.=.-.1.1.-.Q Q +.&.*.:.4.*.<.<.5.D.4.-.+.-.1.:.:.=.:.:.:.:.:.-.-.+.=.+.-.-.W T W =.:.&.=.=.=.+.+.j T =.D H } *.<.*.W T T R R P E W R H T =.1.1.-.W I P P z p z P P P P P P B P P P k i i i i i i i P E g f N T W -.Q H 0 ..;.=.' H R E P h 6 ) o.o.o. .6 o * 4 4 * > R F.:.T ' O.O.=.*.4.e.r.3.3.e.u.e.3.*.:.4.<.=.T R R =.r.C j ",
"C.T g 4.:.N H H =.<.6.r.i.y.y.t.t.p.u.3.;.=.=.E E R g g Q H.T 4 3 3 3 5 3 7 ) 3.e.e.>.) C W =.$.$.=.<.3...C W ~ 1.1.W T s t R P i f d g k P P P P P P k g j j j j B B B P k k Q Q E k B P E I P R E E P P E Q W W T W -.-.-.-.-.-.E E Q -.-.Q Q Q -.1.-.-.-.=.=.1.+.W W W W W =.1.1.1.=.T T =.=.W -.-.Q P E +.+.:.*.:.5.5.1.=.<.1.=.=.=.*.-.Q W -.:.<.3.3.4.5.4.1.-.-.Q Q E Q k.k.E P W Q T H T :.4.:.=.T W W E P E P P E E Q E E E E I E E E I E E E E E E I E E W Q -.Q W R W -.-.P B g g E :.Z 6 Z =.W Q :.<.[ o.e.u.y.y.r.*.' T V < , 4 f R :.=.6 > 0 [ <.3.6.J P I &   sXsXsXsXsXsXsXsXsXsXsXsXsXsXsXsXsXsXsXsXsXsXsXsXsXsXsXsXsXsXsXsXsXsXsXsXsXsXsXsXsXsXsXsXsXsXsXsXsXsXsXsXsXsXsXsXsXsX~ W C h 4 > o.a.u...) 6 , H -.W =.=.3.r.r.e.o.C &.I.y.3.3.3.) 6 D -.W g g P E Q W W =.1.4.6.1.=.=.+.W E W =.-.1.-.W W E E W W -.4.D.-.=.=.*.*.<.6.4.-.Q Q Q E I I E W W W W W R R R R R R W E P P P E W -.4.2.=.W =.1.-.Q E Q =.=.=.*.<.*.*.:.<.1.-.Q Q Q +.+.W =.=.-.-.=.W W W W R I E E R H R W =.T H H T W R d P =.T H ' *.*.=.T R R P P k P P R B H T =.=.W R k g p p p p P k k P P g i i P P k i y i i i i k I W i u H V R W Q H h ..;.=.' H k k k f 9 { 9.9.9.X.9 o * 4 4 * > R D.-.R ' O.=.=.;.e.e.3.=.*.3.u.u.3.O.+.:.:.W R R R =.r.C g ",
"D.T j 5.:.B j R =.:.4.r.y.y.y.t.t.i.t.e.*.&.=.Q E R j g Q H.O.4 7 3 3 5 > 7 ..e.e.e.>.L C W =.=.$.=.<.| ..h W 2.1.Q W W h t T W j d i i g k P P P I I P P P j I E E E W Q E P Q Q E P P P I I E E E E P P E W W W W W =.W W W =.W E E E Q Q Q -.-.-.B.Q -.1.1.4.4.-.Q Q Q Q -.1.4.1.1.-.+.-.-.-.-.1.C.Q Q Q -.:.1.4.4.G.G.1.1.1.1.1.1.<.4.=.=.=.*.<.6.6.<.<.1.1.-.-.-.-.-.+.-.-.Q E W Q Q W W -.1.4.:.Q E E E E E E I E E Q Q E W W W W Q Q Q Q Q -.-.-.1.-.-.-.-.-.1.D.1.:.=.1.D.1.W B B =.D.D.Z h [ W =.-.D.5.| o.e.e.r.3.;.| D W D , = , f W 5.<.6 > 6 Z <.4.4.V P P &   sXsXsXsXsXsXsXsXsXsXsXsXsXsXsXsXsXsXsXsXsXsXsXsXsXsXsXsXsXsXsXsXsXsXsXsXsXsXsXsXsXsXsXsXsXsXsXsXsXsXsXsXsXsXsXsXsXsX~ W Z h 4 3 ;.$Xu.| ) 6 , N =.T &.<.3.e.3.3.o.C &.I.I.r.3.3.) 6 h T W R H W Q :.:.=.*.1.<.<.<.<.4.1.:.+.-.:.4.4.1.:.-.Q Q +.-.4.D.D.D.1.1.1.4.5.5.<.:.=.-.+.W E Q Q -.=.=.*.=.W T T =.=.=.=.W W W W -.1.4.4.1.1.:.:.:.-.+.W Q -.*.*.<.<.*.*.=.=.Q Q Q Q Q -.-.:.:.1.:.-.W W W Q Q E E E E Q W W W +.Q W R W E P P E +.+.=.*.*.=.=.W E E E P k P P E T W =.=.=.W R H P R E P I E E E Q E P B P E E P P P P j j P E Q W d f H B B B Q V h ..;.=.| D j k j f 6 ) 9.9.9.X.5 o * 6 4 * > R C.-.R D =.=.o.>.e.e.<.=.=.;.e.u.e.&.-.:.-.W R R R =.5.C g ",
"D.T j r.<.H N T =.:.4.y.a.p.e.3.e.p.u.r.r.6.:.+.R H j g Q H.=.4 7 3 3 7 > 7 o.e.u.e.o.C C =.=.&.*.<.<.| | C U C.2.-.W W B s D =.R j j j B P E E P P P P P B B B j B B R R R W W Q E R R T R W W W W W E R R T D W W W =.W W W W W D R E W W W W Q -.W R T =.:.=.=.H B j B H V T W W T T T D V H V W +.-.=.W W W =.=.$.$.=.V V V V V T =.=.} D D =.*.*.&.*.*.=.=.=.-.-.=.=.=.O.T H H H H H B H T W T H j j j j g g d g g j j j j g B g g g g g f s u s j N j g g g g N N h h h h j h u t s H *.=.f h Z W =.D.U.r.[ o.e.r.e.3.| ' T =.T , * , f =.5.<.6 > 0 L <.4.6.V P I & . sXsXsXsXsXsXsXsXsXsXsXsXsXsXsXsXsXsXsXsXsXsXsXsXsXsXsXsXsXsXsXsXsXsXsXsXsXsXsXsXsXsXsXsXsXsXsXsXsXsXsXsXsXsXsXsXsXsXb.! Z h 6 6 3.wXa.o.[ 6 > N =.=.4.r.t.e.3.3.o.0 ' <.4.3.3.<...6 C &.:.=.T H H D D D D [ [ [ [ } ' D Z H H D D =.=.O.D H H D T O.O.' W =.D D =.=.D } ' D D V H H V V D D D ' Z D D Z ' } =.D D Z Z D =.&.=.=.*.*.*.*.*.*.&.=.=.=.*.*.*.;.*.=.W W W W W R R R R W =.=.W T T T =.W T R R R R R R H H H H H j g g g d d g g N N N B B g g g g g u u d g B B g j j j h h h h h f f h g N N g f f f h f f f s t < < s g B s u g R E I E Q B 0 { o.| | ' B k B f 6 ) o.o.o. .9 @ > 6 4 > > R C.-.R D &.3.e.t.t.t.6.*.=.*.e.u.e.4.:.<.:.=.W T R =.5.C g ",
"F.T j y.<.H H H &.<.4.r.i.i.3.;.3.p.t.u.y.r.<.=.T H j g Q H.=.7 7 3 3 7 > 7 X.e.e.e.o.) C =.*.3.3.3.&.| ..C U C.1.Q W W N < 4 4 > $ $ % % & & & > * * & & & * & & & * > > * * * & & & % * * * > > > > = * * * * ; * * * * * > > > > , > * * * * * > > > > > > = * > > > > , 3 3 > > > > > > * * > > 4 6 6 4 4 4 4 4 4 4 4 > = = = > > 3 3 3 3 3 4 4 4 4 > > > > , > > , , 4 , > > > * % % * * > > > > > > > * * * * * > * * * * * * * * * * * * * * * > , 4 , > > > > > > > * * * * * * o o $ * > h C *.:.4.G.<.[ o.e.e.e.3.*.*.=.-.D , * , f =.r.3.6 3 h J <.6.2.V B P & sXsXsXsXsXsXsXsXsXsXsXsXsXsXsXsXsXsXsXsXsXsXsXsXsXsXsXsXsXsXsXsXsXsXsXsXsXsXsXsXsXsXsXsXsXsXsXsXsXsXsXsXsXsXsXsXsXsXsXsX2.V f 4 4 3.eXY.;.[ 6 > N :.*.e.u.t.e.3.3...0 C =.*.;.3.3.[ 6 4 s s > * > > * * * = = > * > > > > > > > > > 3 3 3 3 > > > > * * @ > > * * * * * > > > > > > > > > > * * * * * * * > > > > * > > > > > > > > > > > 4 4 4 > > > > > 4 3 > > > > > > = * * * > > > > > > > 4 4 , , > = * * * * * * % % % % $ $ $ * $ o o o * * * * * & & * * * * * * * * * * * * * * * * * o o @ @ * * * * * * * o o $ o o X . . . o $ 4 g P E E Q Q B 6 ) | | ;.&.T H H h 6 ) { X.o.) 9 @ > 6 4 > > R C.-.R H =.3.e.e.u.e.3.*.*.3.e.e.e.3.6.r.4.*.=.W R =.5.j g ",
"D.T j I.<.H H H =.4.4.r.y.y.4.<.r.i.i.u.u.e.<.=.T T H g Q F.=.7 7 3 7 7 > 3 { e.e.9.o.) h =.<.e.e.e.3.o...C W c.C.Q W W Z , o . . o @ @ * * * * > > > @ o @ @ @ @ @ @ * * @ * * * * @ @ @ * * * * > > > > 3 3 > 3 * * = > > 3 3 3 3 4 3 3 > > > * > 3 3 3 3 3 3 7 7 5 7 7 8 7 7 3 7 7 7 7 3 7 7 7 7 7 9 9 9 9 4 8 9 4 7 3 4 8 4 7 7 7 7 7 7 7 4 4 3 3 4 3 3 3 7 3 3 3 3 > > 3 > > > 3 3 > 3 3 3 3 3 3 3 7 7 3 3 3 7 3 3 3 3 3 3 3 3 3 3 3 3 3 3 3 3 3 3 7 4 4 4 3 7 7 3 3 7 7 7 3 3 3 > * * * * 4 C C *.*.:.1.*.[ o.e.e.e.3.3.<.*.:.D > $ , f =.r.3.6 > h J <.2.2.V v P : sXsXsXsXsXsXsXsXsXsXsXsXsXsXsXsXsXsXsXsXsXsXsXsXsXsXsXsXsXsXsXsXsXsXsXsXsXsXsXsXsXsXsXsXsXsXsXsXsXsXsXsXsXsXsXsXsXsXsXsXA.V 6 > > 3.wXy.;.) 6 > N :.*.i.t.t.u.e.9.X.0 C =.*.;.3.&.| 6 > * * * > 7 3 7 3 7 7 3 7 7 7 6 6 6 0 0 9 9 9 0 0 0 0 9 9 5 7 7 7 9 9 7 7 7 7 3 7 3 3 3 3 7 4 7 7 7 7 3 3 3 3 > > 3 3 3 3 3 3 3 7 3 3 3 3 3 > 3 3 3 7 6 6 9 9 4 4 4 4 4 4 3 7 7 7 7 7 3 3 3 3 3 3 3 3 3 3 3 3 > 3 3 3 3 > * > * * > * > > > > 3 3 > * @ @ @ * @ * * * > > > 3 3 3 3 > > > > > 3 3 3 3 3 3 3 3 3 > 3 3 3 3 3 3 > > > > 3 3 3 @ @ o o o 4 B P P I E Q B 6 C | o.3.3.*.T H f 4 C X.o.o.) 5 o > 6 4 > > P C.-.H j D &.3.3.e.3.3.3.3.e.e.e.e.e.y.y.6.*.O.R H =.5.j g ",
"D.O.j I.<.V R ' *.4.4.6.r.r.*.*.6.i.y.t.e.e.3.*.=.O.H j Q F.=.4 7 3 3 6 > 3 ) 3.>.o...h h } &.3.e.e.,.o.| B Q C.Q W R W N , o o @ * > 3 3 3 3 4 3 4 3 3 > > > 3 3 3 3 4 4 4 4 4 4 4 4 4 4 4 4 4 4 6 6 6 6 0 0 6 6 4 4 4 4 4 6 6 6 9 0 9 0 6 6 4 4 6 6 7 6 6 6 9 0 0 0 0 0 0 0 0 0 0 9 9 6 6 0 0 0 0 0 0 0 0 0 0 h 0 0 6 6 0 6 0 0 9 6 9 0 0 9 9 9 0 0 h h 0 0 0 0 0 0 0 6 6 6 6 4 6 6 6 6 6 6 9 9 4 4 6 6 6 4 4 4 6 6 6 6 6 6 6 6 6 4 4 4 6 6 6 0 6 7 5 9 6 6 6 6 6 6 4 6 6 6 6 4 4 4 4 4 4 , , 4 c Z &.&.:.5.*._ | e.3.3.e.e.3.=.&.H > * 4 f T :.;.4 > h Z ! 1.2.V B P : sXsXsXsXsXsXsXsXsXsXsXsXsXsXsXsXsXsXsXsXsXsXsXsXsXsXsXsXsXsXsXsXsXsXsXsXsXsXsXsXsXsXsXsXsXsXsXsXsXsXsXsXsXsXsXsXsXsXsXsX~ B 6 3 > ;.Y.e...h 3 > H :.:.e.u.u.u.e.e.o.0 C *.*.&.| &.) 6 > > 3 5 0 0 0 0 0 0 0 9 0 9 0 0 0 h C C C C C ) ) [ _ ) C C C C h C ) ) C C h 0 h 0 0 0 0 h h h C C 0 0 0 0 0 0 9 9 9 0 0 h h 0 0 h 0 0 0 6 0 0 0 0 h C C C C C h h C h 0 0 h h 0 0 0 0 0 0 9 6 6 6 0 6 6 6 6 0 0 h h h 6 6 6 4 4 4 4 4 3 4 6 4 6 4 4 4 4 3 3 3 3 4 4 4 4 6 6 6 6 6 4 4 4 6 6 6 6 6 6 6 6 6 6 6 6 6 6 6 6 6 6 6 6 6 6 6 6 6 4 > > * > < g H B R E Q g 6 ) | o.3.3.&.W T h 3 c { o.o.) 7 o > 6 4 > > H C.Q j H H D =.;.;.e.3.3.e.u.u.e.3.4.r.5.:.=.T R B W 5.j g ",
"D.O.j y.4.T =.*.<.4.4.r.i.r.3.3.e.e.u.u.e.e.3.<.&.=.O.H Q H.=.3 7 7 5 9 > 3 ) >.o.o.) h h } | >.e.e.3.,...B Q ~ W B R W B > o o * * * > > > > > > 3 > > ; ; ; * > > > > > > 4 , , , , , > , , > , 4 4 4 4 6 6 4 4 > 4 4 4 4 4 4 4 4 4 6 6 6 4 4 3 3 3 3 3 4 4 4 6 6 6 6 6 6 6 4 4 4 4 4 3 3 4 4 4 6 6 0 0 0 0 0 0 6 4 4 6 6 6 6 6 4 3 4 4 4 4 4 3 4 6 6 f h 6 4 4 4 4 4 4 4 3 > > 3 4 4 4 4 4 6 7 7 3 3 3 3 3 3 3 4 4 4 4 > > 4 > 4 , > > > 4 4 4 4 3 3 4 4 4 4 4 6 4 4 4 6 4 4 4 4 4 4 4 , , > > 0 Z *.:.<.I.5.[ [ 3.3.e.u.i.;.O.O.H = * , s H *.=.6 = f N U C.2.W P P : sXsXsXsXsXsXsXsXsXsXsXsXsXsXsXsXsXsXsXsXsXsXsXsXsXsXsXsXsXsXsXsXsXsXsXsXsXsXsXsXsXsXsXsXsXsXsXsXsXsXsXsXsXsXsXsXsXsXsXsXY B 6 3 > &.y.3.) 0 3 > H :.:.3.3.u.u.e.e.o.0 C <.<.;.| } L 3 > * 3 3 4 6 9 9 9 9 9 0 9 9 0 0 h 0 0 0 0 0 0 C C C h h 6 h h h h h h h h 0 0 0 0 0 0 0 0 0 0 0 0 0 0 0 6 6 6 4 4 4 4 4 4 6 6 6 6 0 6 6 6 6 6 6 6 6 0 h h h h 6 6 6 0 0 6 6 6 6 4 4 4 6 6 6 4 4 4 4 4 4 4 4 4 4 6 6 f 6 6 > > > > = * * ; > > > > > > > * * * * * > > > > 3 4 4 4 4 3 3 3 3 4 4 4 4 4 4 4 4 4 4 4 4 4 4 4 4 4 4 4 4 4 4 4 , > > * * * < g H V T E Q B 6 ) o.o.o.| } D T h 3 ) { o.{ ) 3 o * 4 3 * > R C.-.j H H D | ;.e.u.3.3.e.i.e.3.*.:.<.:.&.O.W R R =.5.j j ",
"D.O.h y.4.W &.:.:.<.r.y.y.i.y.e.e.e.e.e.r.i.r.4.&.=.O.H Q H.=.4 7 7 5 5 > 3 ) o.o.o.) h h D | 3.p.p.e.>...N Q c.Q U Q Q g * o o o o o @ * * % % * * * % % o o $ $ % % % % * * * % % % $ $ $ % % % % * * * * * * $ $ * * * * * * = > > > > > * * % % * * * * * * * * > * * * * > * = > * * * * * = > > > , , , , , , , > > > > > = * * * > * > * * * > , , , > > * % * * * % % % % % % % % * * * * * * * * * * * * * * * * $ $ * % * * % $ $ * * * * * * * > * > > > * * > > > > * * * * * % * * , 0 Z *.<.4.I.6.) ) e.e.t.y.i.;.' T H = * , u R :.*.6 > s i U b.A.U P P & sXsXsXsXsXsXsXsXsXsXsXsXsXsXsXsXsXsXsXsXsXsXsXsXsXsXsXsXsXsXsXsXsXsXsXsXsXsXsXsXsXsXsXsXsXsXsXsXsXsXsXsXsXsXsXsXsXsXsXm.~ B 6 > > ;.y.3.) 0 4 > H 4.:.*.3.e.u.u.e.o.0 Z <.4.3.| } C > * * * * * > > > > > > > > > > > > 4 3 4 3 > > > 4 4 , , > > > > > > > > > > > > > 3 3 > > > > > > > > > ; * * = * * * * * > > > > > > > ; * * > > > > > , , , , > > > > > > > * * > * > > > > = * * * * * * * * * > > > * % $ $ $ o o o o o o $ * o o o o o o o o o $ $ o * * * * * * * * * * * * * * * * * * * * * * * * * * * * * * * * * $ % % $ $ < u B =.=.-.1.H 6 ) o.o.o.| } D D h 7 ) o.o.{ ) 3 X * 4 3 * > R F.B.R R H } ;.3.e.u.e.3.3.e.3.=.=.:.:.:.-.=.T R R -.5.N j ",
"5.D h y.4.D =.=.:.<.r.y.i.a.a.i.u.e.e.e.r.y.y.4.&.O.D j W H.=.3 7 3 3 5 > 3 ) 3.3.3.o.h h } | 3.t.p.e.3.o.N Q Z.C.C.Z.-.B < & $ * % * , , 4 4 , , , , < , , > , > , , < , , , , < , > > > > > > > > > > > > = > , = * * * > , , , , , , , , > > > > , , , , , , , , , , > < < , , , , , , , 4 4 , , 4 4 4 < s 4 < < < < < , , < , , , 4 4 < , < , < < 4 s s 4 < < < < , > , > > > = = = > > > > , , , , > > , , * > , , , , , , > = > , , , = > > > > , , < , , , , , , , , > > > * * * * * * 4 C C L <.5.G.I.4.) X.e.e.i.i.e.;.' T j = * , f W 4.*.6 , s v U b.S.U b P : sXsXsXsXsXsXsXsXsXsXsXsXsXsXsXsXsXsXsXsXsXsXsXsXsXsXsXsXsXsXsXsXsXsXsXsXsXsXsXsXsXsXsXsXsXsXsXsXsXsXsXsXsXsXsXsXsXsXsX~.c.B 6 > > <.Y.e.[ h 4 > H 4.:.<.3.e.y.y.t.>.h [ 6.y.e.3.;.C , , * > > > > > > > > > > > > , > > , , , , , > > , 4 , , , , , , , , , , , , > > > , , , , , > > , > > * ; * * * * * * * * > > > > > > > > * * * > > , , , > > , , , > > , > > > > > > > > , , , , , , , , , , , , , , > > > , , , > * * * * & * = = * * * * * * * % * % % & & & * > > * * * * * * & * * * = > > , , , , > > > > * * > * * * * * * * 4 h f N *.=.-.-.N 6 ) o.o.>.3.&.D H f 7 ) o.o.o.) 7 X * 4 > * > R F.B.R R O.;.3.e.e.e.e.3.3.e.3.=.*.4.4.*.*.&.T D H =.5.N j ",
"5.H f y.4.D O.W &.<.r.y.p.p.p.p.u.u.e.e.e.y.y.4.&.O.D g W F.T 4 3 > 3 6 3 7 { e.e.e.;.) C } | o.3.3.3.3.o.V Q Z.C.C.F.-.H H s > , < s f h h f f f f f f f f f f f f f h f s s f f f f f f f f f h f f f f f s f f s s 4 4 s h h j h h j j h h j j h h j h h j j j h h N R T H N N N N j j Z Z Z C Z Z Z H D H H H N N N N N N N N N C j C N N j N N N D D H N N N N j j j j g g g g g h h h g h h h h g g f f f s s t f g g f f s < s h g g f s f f f h h h h h h h h h h h h h s s s s 4 4 s Z &.L C *.4.5.I.<.) o.3.e.e.e.e.;.=.T N = * > u W D.*.4 > h B U b.A.U i g sXsXsXsXsXsXsXsXsXsXsXsXsXsXsXsXsXsXsXsXsXsXsXsXsXsXsXsXsXsXsXsXsXsXsXsXsXsXsXsXsXsXsXsXsXsXsXsXsXsXsXsXsXsXsXsXsXsXsXsX~.~ B 6 3 4 3.$X3.[ h 4 > H 4.:.<.6.r.y.y.t.>.h ' r.r.3.;.| h f j s < s j h h h h h h h h h h j h f f h h j C C Z N Z Z N j h s s s f h h h h h h h f f f s f f f f s f h h h 6 6 6 t s s s s s s s f h h 6 s s h h h j h f f f h h j j f s f h h s f h h h j C C C N j h h h g j j g f f f f f h s 4 s s s < t s s s s s s s < 4 < t t t t t t t t s s s f s s f u t s s f f f f j j h h h f s s s f s u t t , , t ' N f B } D T R h 0 ) o.o.3.3.*.D N 6 7 ) o.>.o.o.4 X * 4 > * * R F.B.P R O.<.e.u.t.u.e.e.e.i.3.;.3.e.e.3.;.=.=.D H =.5.N B ",
"5.H f y.4.D O.=.&.:.r.i.i.p.p.u.e.t.e.e.e.r.6.<.=.=.D B Q H.W 4 3 3 4 0 3 5 { e.e.e.o.) C D =.| o.;.3.3.o.Z Q c.k.C.D.=.N =.D f t u d g g g f d g g g g g g g g B H B g g g j j N H V H g B H V H N g g j H D D V H H N N D =.=.=.W D D D O.O.D D H V D D H D T D N V W -.-.=.=.$.=.*.=.=.&.<.;.;.=.=.*.*.*.=.=.=.*.&.=.=.=.=.=.=.=.' D Z D O.O.O.O.=.&.*.*.=.=.*.*.=.T T T T V D T T T V T W T D T T W T R R W R H H H T T R R V N H T =.W T V V B B R H H H D D H B N H H N N N N h f s s f O.&.C 0 &.=.=.<.*.) o.e.3.e.e.e.3.=.T N > * , f =.4.*.4 > j V ! A.A.B i g sXsXsXsXsXsXsXsXsXsXsXsXsXsXsXsXsXsXsXsXsXsXsXsXsXsXsXsXsXsXsXsXsXsXsXsXsXsXsXsXsXsXsXsXsXsXsXsXsXsXsXsXsXsXsXsXsXsXsXsX^.~ B 6 3 4 <.$Xr.[ h 3 * H :.:.4.r.r.u.u.9.X.C } r.3.o...J h h O.g t f Z D H H V D T T D D T =.T V V T O.=.&.*.*.&.=.<.<.*.T H j j H D =.=.} } } ' D Z N H H H H H D } } [ } [ D D H H H H D O.D D =.*.;.=.' ' =.*.*.=.=.T H H T =.=.=.V H W *.=.H D ' O.=.=.=.;.=.=.=.=.=.=.=.+.=.T T T D N H H H g g j g f d g g g B B B B g g H H B j B P P P P R T W D H H R k j g H H j g j V T H H V H H H H B B g d u t t h &.j t g ' D N H f 0 X.o.;.;.3.:.T H f 7 ) o.>.o.) 7 X * 4 > * > R C.Q P R =.<.e.e.u.u.e.e.t.t.e.e.e.e.e.3.&.=.O.T H -.P.Z B ",
"D.H f y.4.D =.&.&.*.3.i.p.u.u.u.e.u.e.e.e.r.<.*.:.&.D g Q K.=.4 3 3 4 6 3 5 ) e.e.e.o.) h D =.} &.<.<.3.o.N W C.C.1.4.=.f ' *.H d g j R R R R R H H B j j j B g P R H g g H =.W W =.=.W B W =.:.=.T V B R =.-.-.=.W =.=.:.4.D.G.D.4.1.*.*.<.<.<.*.=.=.=.=.=.=.=.=.T =.:.1.-.-.4.4.5.4.1.:.6.6.r.r.3.<.<.<.:.=.*.4.5.5.<.*.*.:.1.:.*.*.=.=.*.:.:.:.*.<.6.6.<.;.*.4.4.*.&.$.*.$.=.=.*.:.=.=.-.-.-.=.+.-.-.-.+.-.C.C.=.=.=.-.+.W =.=.=.=.=.=.=.=.=.=.E E W W T T =.:.=.T T =.*.*.*.:.*.O.H g f j =.| 0 6 &.=.T *.*.) ..e.e.y.i.y.3.=.T N > * , f +.5.*.4 > C J <.2.2.B i P sXsXsXsXsXsXsXsXsXsXsXsXsXsXsXsXsXsXsXsXsXsXsXsXsXsXsXsXsXsXsXsXsXsXsXsXsXsXsXsXsXsXsXsXsXsXsXsXsXsXsXsXsXsXsXsXsXsXsXsX^.c.B 6 > 4 6.%Xy.[ h 3 * H :.+.4.y.y.u.e.9.X.C | 6.3.o.o.&.0 h =.T f h H D T T T T T =.=.W W +.=.W =.<.:.*.:.6.6.*.&.6.5.<.=.R R E T W *.<.<.<.;.&.*.*.*.=.W W T =.1.<.*.*.3.<.<.*.=.=.=.+.:.*.=.=.*.6.r.4.*.*.<.4.4.<.<.W T W =.1.:.:.T W <.I.<.=.&.*.*.*.<.4.3.3.&.*.:.1.<.1.:.+.:.:.:.=.H T =.=.T R E R B B D D T T W W W T W W Q Q E E E E E Q Q +.+.=.=.+.+.W R R W E P j B W =.T T =.W R W E E R g d d w u H } t t N =.=.T J N 0 { o.;.;.<.=.T T h 7 ) o.>.o.) 3 o > 6 3 * > R C.Q P R =.<.3.3.e.i.p.u.e.e.e.e.9.e.e.3.;.O.O.R R *.P.Z B ",
"I.D 6 5.4.J =.&.<.3.e.e.e.e.u.u.u.e.e.y.i.e.3.<.*.;.} H Q K.+.4 3 3 4 0 3 7 ) o.o...[ ) j D =.&.3.<.<.3.| Z W C.C.C.4.O.h j =.W g f g H E E E P R R R P d d j j P P P d d j R W W Q W E P W +.:.:.Q E P R W -.-.W T W Q -.-.1.D.G.F.D.4.:.:.5.5.<.*.=.*.:.:.:.*.*.=.=.-.-.Q +.4.G.I.D.=.*.6.y.y.y.6.4.<.<.*.=.*.1.D.G.:.=.&.:.:.1.=.W T =.=.+.1.D.1.<.5.4.4.3.3.r.r.4.*.*.<.*.=.=.:.:.=.-.:.-.-.-.-.Q -.-.+.-.F.H.B.-.-.+.&.*.:.4.:.*.&.*.&.=.=.:.-.I I W =.*.:.1.=.=.W W =.=.=.:.:.=.H f f H =.Z s h =.T R =.=.N ..9.u.i.i.y.e.*.O.D > * < g :.r.*.4 > C Z &.4.4.B B P sXsXsXsXsXsXsXsXsXsXsXsXsXsXsXsXsXsXsXsXsXsXsXsXsXsXsXsXsXsXsXsXsXsXsXsXsXsXsXsXsXsXsXsXsXsXsXsXsXsXsXsXsXsXsXsXsXsXsXsX[.1.Z 4 > 4 5.%XD.' f 4 > g +.Q <.r.t.t.e.e.o.h ' 4.;.;.;.=.0 4 H W g f Z D O.=.T D T =.W W W T T W W =.=.&.*.<.4.*.=.*.5.<.=.W W W R T =.<.<.*.*.<.<.=.=.W W R T =.:.1.:.*.*.<.4.<.=.T W +.-.=.=.=.=.*.<.6.:.*.*.<.4.<.*.W T T +.:.:.=.T T <.r.<.=.W :.*.*.:.5.5.6.*.*.*.&.=.:.:.=.-.4.4.&.H T +.-.W R P k k d P W W R R T W T W =.W P P E E E E Q E W +.=.=.-.+.T R R E E P k P P E E T W W R R P E P k i u u f H B t t j D V T W h 6 ..&.*.=.T R W W h 4 ) o.o.X.) 3 X * 6 4 ; > E H.Z.E T =.=.&.3.u.u.t.t.e.t.t.e.e.u.u.e.3.&.D H H =.r.Z g ",
"I.D s 5.5.J =.;.3.e.u.t.e.e.e.e.u.e.e.u.i.u.e.4.*.;.} H Q K.-.4 3 3 3 6 3 6 ..o.o...) ) h D =.&.3.3.<.3.| C =.F.C.C.4.O.f f ' =.R g g g P E P k g k k i i i i k k P P d i g P P P I I P P P I E E E I P k P E W E E E Q E Q -.C.C.C.-.+.W +.:.:.-.+.=.W W W W =.=.W W E E E Q :.1.1.1.-.=.<.5.5.5.<.1.:.:.-.-.:.:.4.4.:.=.-.W +.-.Q W W Q R E -.1.1.:.:.:.<.*.*.<.<.:.&.&.=.=.W W +.Q W Q Q Q Q Q E I E E E Q B.C.-.Q Q W W -.1.4.1.=.W W W T W Q E P P I R W -.+.=.W W W W W W W W W P d g V =.N s j =.R W :.=.C | e.u.u.t.t.r.3.&.D , > 4 f =.5.*.6 > C Z } <.<.B g P sXsXsXsXsXsXsXsXsXsXsXsXsXsXsXsXsXsXsXsXsXsXsXsXsXsXsXsXsXsXsXsXsXsXsXsXsXsXsXsXsXsXsXsXsXsXsXsXsXsXsXsXsXsXsXsXsXsXsXC.S.1.Z 6 3 4 4.%X4.' h 4 > g +.W *.e.t.t.e.u.9.C [ <.<.3.;.=.0 4 j W H g j H V T R B B R R R R P P R R E W W +.-.-.+.W =.1.:.-.Q E P P R W =.$.=.=.=.W T E E E P R W W =.=.=.=.*.-.=.W W E E E W W W =.=.*.:.:.=.=.=.:.-.=.R R E Q Q Q W E R =.<.<.-.Q =.W =.=.1.1.:.:.:.:.-.-.C.C.-.-.-.:.=.R R E W P P P P k d k P P P P R R E R R P P P P I I I I I E E T T T W R B P P P k g k P P P R R R P E E P P k i y y d P g t t g N N D W h 6 ..} =.=.T P E =.j 6 ) o.o.o.) 7 . * 6 4 > > W K.H.Q T *.*.3.e.u.u.t.t.u.u.e.e.e.u.u.t.e.;.=.H H *.y.Z g ",
"I.' f 5.4.W &.;.e.u.p.p.u.u.e.e.u.e.e.u.t.p.u.r.*.=.' B Q K.=.4 3 3 3 9 3 4 [ o.o.o.{ ) h D } | 3.3.<.3.| C -.G.F.-.:.O.f 6 Z =.W P g g P E P z k k k k g k k P P P P P g B P P I I I I I I E E E E I P k P E E W W Q Q Q -.:.C.C.:.-.Q W +.-.-.+.+.=.W W W =.=.=.=.W E E Q Q -.-.1.1.:.*.:.<.<.<.<.1.:.:.-.-.-.-.1.1.:.-.+.Q Q Q W E E E W W Q -.1.:.:.:.<.:.*.*.*.=.=.=.=.W Q +.+.Q Q Q -.-.Q Q Q E Q -.-.:.C.C.-.-.Q W W +.:.:.=.=.W =.=.=.W W E P P P R W W W W W =.W W W W W =.Q R j H T T h < j =.T :.4.&.C | e.u.u.u.u.e.;.*.O.4 , 4 f D 6.3.6 > C [ ' } } B g P % sXsXsXsXsXsXsXsXsXsXsXsXsXsXsXsXsXsXsXsXsXsXsXsXsXsXsXsXsXsXsXsXsXsXsXsXsXsXsXsXsXsXsXsXsXsXsXsXsXsXsXsXsXsXsXsXsXsX=.2.*.[ 0 3 4 4.%X6.=.) 6 > j +.W &.e.t.t.e.u.9.C [ <.<.3.3.&.0 4 j =.O.H h H H T R R R W W W W E W W W W W Q Q Q W W W +.-.-.-.-.W R E W W W W W =.=.W E W E E I R W =.W =.=.=.:.-.-.+.+.Q W E W W +.=.=.=.-.*.=.=.=.-.-.W W W Q Q Q Q W E W =.:.1.-.-.+.+.+.-.-.:.-.:.-.-.-.B.D.C.-.-.+.=.W R R R R E E E R P g j P R P P R R W R R E E E P E E E E E R R T T T T R R P P P P k P P P P E E P W Q Q E k k d g g k P g t t g V V T Q g 6 | } } } O.B B W C 5 ) o.o.o.{ 7 . * 6 4 > , W H.F.E =.<.e.e.u.u.u.u.u.u.u.e.e.t.p.p.t.e.;.O.R R :.I.Z g ",
"I.} f 5.4.T =.;.e.p.p.p.p.p.p.t.u.e.8.e.t.p.u.e.;.=.D g Q H.W , 3 7 4 9 3 4 ) o.>.o.o.) h D } | 3.3.<.3.| N -.H.C.-.+.=.j h Z D H j d f d g d d d d d d d d d d d d g d f f f d g g g g g g g g g g d u f f g g g g g g g j H H H j g g g H H H H H N N H H D D N N N B H H H D D D D D Z Z Z Z Z D D D D N H H H V D T H g g g g g f f f g h g g N N N Z Z Z C C C j j j h g B N N g g g B B B B B f h h N H H j N N j g g g j h h j N N N j g g g g g g g g g N N N C g h C N N N N g f g H D C f N =.*.<.5.*.C | e.u.u.u.e.3.;.&.O., = 4 f =.r.3.0 > h [ ' } } g g P & sXsXsXsXsXsXsXsXsXsXsXsXsXsXsXsXsXsXsXsXsXsXsXsXsXsXsXsXsXsXsXsXsXsXsXsXsXsXsXsXsXsXsXsXsXsXsXsXsXsXsXsXsXsXsXsXsXsXJ <.;.[ 9 3 4 6.%Xy.e.| 0 > N -.W *.e.t.t.e.e.o.h [ <.;.;.| | 0 4 j =.' N h h j N N g g j g g g g g g g g j H H B B B B j N H N N B h h j C h h h h h h h g d d f f g B h h j j j g g g j g h h j N H H N H Z N N H H H H B B B B j g g g g f h h N N g h g g g g g g j g g B B H H B B g g h h f s s f f f s t t s s s s s s f f s s f g f u f d d f f f h h f f f h f f s s s s s s f f f f s f f f u u t t u f u i s t u g N V W -.j 6 ..} } =.=.H B V 0 5 ) o.o.o.{ 7 . > 0 6 > , R F.C.R | 3.u.t.p.p.p.u.e.e.u.u.u.e.p.p.e.3.=.O.T R :.I.D h ",
"I.} f 5.4.D O.;.e.i.i.i.u.e.t.p.t.u.e.e.t.t.e.3.&.} Z g Q H.W , 3 6 6 0 3 3 ) o.o.o.o./ h D =.| ;.3.<.3.| N -.F.C.-.-.=.Z f , > & $ $ $ $ $ % % $ $ $ $ $ $ $ $ $ % $ $ o o o o $ $ $ $ $ $ $ % $ $ $ o $ % % % * * * * * * * * > * * * * * , , , , , , , , , , > > > , > > > , , , > > > > > > > > > > , > > * > > > , > * * > > > > > > > * > * * * * * = > > * * * * * * * * * * * % % * * % @ % % o @ @ * * $ $ $ * * * * * * * * * * * $ * $ * * * * * * * > > * * * * @ * * * * * * & * , 4 h D W :.:.5.<.) o.u.u.u.u.3.o.' =.O., * 4 j *.y.3.6 > h L ' =.} g g P % sXsXsXsXsXsXsXsXsXsXsXsXsXsXsXsXsXsXsXsXsXsXsXsXsXsXsXsXsXsXsXsXsXsXsXsXsXsXsXsXsXsXsXsXsXsXsXsXsXsXsXsXsXsXsXsXsXW } 3.;.[ 6 > 4 r.wXy.e...0 > N :.=.<.u.y.t.e.e.X.0 [ <.*.3.&.} C 4 4 4 , * * * ; = > * * * * * * * * > > * > > > > > > ; = > > > > ; ; > > > > ; > > * * = * * * * * > , = * = = = * * * * * % * * > > * = > > = , = * * * * * * > * * * * * > > > > > * * > > > > * > * * * > & * * % % * * * * % % * * * * % % % $ o $ $ o $ * * $ $ * $ $ $ $ $ $ $ % * * * * $ * * * $ $ $ $ $ $ $ $ * $ $ $ $ $ o . . . . o $ $ $ $ & d B V R W -.B 4 ..| $.*.=.R B B 6 5 ) ..o.o.{ 3 . > 0 6 3 , H C.-.R } 3.u.u.p.p.i.i.u.e.e.u.e.u.p.u.3.;.' D R T *.y.Z h ",
"I.D s 4.4.T O.;.r.r.i.r.e.3.i.i.p.p.e.u.t.u.3.;.=.' Z g W H.W , 3 6 9 ( 3 6 { o.7.o.) h f D $.o.;.;.3.3.| C -.F.C.-.:.=.' f * o o o o % * * * * * ; * * > > * * * * * * * * * * * * * * > > > 3 > > > > > > > , , 4 4 4 4 4 4 4 4 4 4 6 6 6 6 6 6 4 6 6 6 4 4 4 4 4 4 4 4 4 4 6 6 6 6 6 6 6 4 6 6 4 4 4 6 4 4 6 6 6 4 4 6 6 4 4 4 6 6 6 6 6 6 6 6 4 4 4 4 4 6 6 4 4 4 4 4 4 4 4 4 4 4 4 4 4 4 3 6 4 4 3 3 3 3 4 4 3 3 3 3 3 3 4 4 4 4 , 4 , > > > 3 3 4 4 4 4 4 3 4 4 4 4 4 4 7 3 3 4 4 > > * o * 6 Z T =.:.4.;.) o.e.e.e.e.3.=.' =.=., * 4 j <.y.<.4 * h ) ' =.=.g k P % sXsXsXsXsXsXsXsXsXsXsXsXsXsXsXsXsXsXsXsXsXsXsXsXsXsXsXsXsXsXsXsXsXsXsXsXsXsXsXsXsXsXsXsXsXsXsXsXsXsXsXsXsXsXsXsXsXsX=.<.&.Z 6 > 4 r.eXy.;.) 6 , H :.+.<.r.i.e.3.3.o.h Z <.<.r.<.*.C > @ @ @ > > 3 3 4 4 6 6 4 4 4 6 6 6 6 6 6 6 6 0 0 0 0 6 4 6 6 6 6 6 6 6 6 6 6 6 6 6 4 4 4 6 4 4 4 , 4 4 4 4 4 4 4 4 4 4 4 4 3 3 4 4 6 4 4 4 6 6 6 4 4 4 4 4 4 4 4 4 4 4 4 4 6 6 6 6 6 6 6 0 0 0 6 6 6 6 4 6 6 4 4 4 3 3 4 4 4 4 4 , 4 4 4 4 4 4 > > > > > > > > > > > > = * * > > > > > > , , , > , , , > > > > > > > 3 > > 3 > > > > * * * * * * * * $ > d R W W W Q B 6 | | *.1.1.E P N 6 9 ) o.o.o.) 3 . > h 6 > > B C.-.R [ 3.u.p.p.p.t.a.p.t.u.u.u.u.u.e.3.&.O.D H H *.r.C f ",
"I.D s 4.4.T O.*.3.6.3.3.3.r.y.i.p.p.t.p.i.u.3.&.=.O.D j W F.W , 3 6 9 ( 5 6 o.e.7.o.) 0 h =.*.;.;.;.&.3.| C -.H.C.1.:.&.O.f $ o * * > > > > > > > 4 4 4 4 4 4 > > 3 4 , 3 > , 4 4 4 4 , , < 4 4 4 4 4 4 4 4 4 4 6 6 6 6 6 6 6 6 6 f 6 6 0 0 6 6 6 0 6 0 h h 0 0 0 6 6 6 6 6 0 0 0 h 0 6 h h 0 6 6 h h h h 6 6 6 6 6 6 6 6 6 6 6 6 6 6 0 0 0 0 6 f f h h 6 6 0 6 6 6 f 6 6 6 6 6 6 6 6 6 6 6 6 6 6 6 6 6 6 6 6 6 6 6 6 6 6 6 6 4 6 6 6 6 6 6 6 4 6 6 6 6 6 6 6 6 6 0 h h 6 6 0 0 0 6 6 6 6 4 4 4 > 4 Z O.O.*.4.| C o.e.e.e.3.3.&.=.=.=., ; , h <.y.;.4 * h [ } =.=.B P P % sXsXsXsXsXsXsXsXsXsXsXsXsXsXsXsXsXsXsXsXsXsXsXsXsXsXsXsXsXsXsXsXsXsXsXsXsXsXsXsXsXsXsXsXsXsXsXsXsXsXsXsXsXsXsXsXsXsX-.<.=.C , * , r.wXy.| C 6 4 H :.=.<.r.e.3.<.3.>.h ' <.<.3.<.*.Z > @ > 3 6 6 0 0 h h h h h h 0 h h h h h 0 0 C C C C h h 6 6 6 h h 0 0 0 0 0 0 0 0 0 0 6 6 6 6 6 6 6 6 6 6 6 6 6 6 4 4 6 6 6 6 6 6 0 0 0 6 0 0 6 6 0 6 6 6 6 6 6 6 6 6 6 6 0 0 6 6 0 6 9 0 0 0 0 6 6 6 6 6 6 f 6 6 6 6 6 6 6 6 6 6 6 6 4 4 4 4 4 4 4 , , 4 , , 4 , , , , , , > 4 4 4 4 , 4 4 6 < , 6 4 4 4 4 4 , , 4 4 4 4 4 4 4 4 4 4 , , , , > > > > > s j R R E Q Q B 6 [ } *.4.4.W P T h 9 ) e.o.o.) 3 . > C 6 3 > B 1.-.D | e.t.p.p.p.u.u.p.i.y.u.e.e.y.i.r.6.:.=.D D =.r.j f ",
"G.H s 5.D.T =.:.4.:.r.i.i.i.p.p.p.p.p.p.t.u.e.3.;.=.D g R F.=.3 3 6 9 ( 6 0 o.9.9.o.) 0 f =.1.<.;.;.;.o.| C =.C.-.-.1.=.D 4 $ * * * * = = = , , > > 3 4 4 3 4 > > > > > > > > > > > > > > > > > > > > > 4 > > 4 6 6 6 6 4 4 4 6 4 6 6 4 6 6 6 6 6 4 6 6 6 6 6 6 4 4 4 4 4 6 6 0 6 6 6 6 6 6 4 4 3 3 4 6 4 4 4 4 4 3 3 4 4 3 4 4 4 4 6 6 6 6 6 6 6 6 4 , 4 4 4 7 4 4 4 4 3 3 3 4 4 4 3 > 3 3 3 3 3 4 > > > > 4 4 4 4 4 6 4 4 4 4 4 6 6 6 6 4 4 4 7 7 4 6 0 0 6 6 6 6 6 4 3 4 8 8 8 7 7 7 7 3 > > 4 f H T =.=.&.| C [ ;.;.;.;.*.*.&.<.&.4 % 4 f R :.=., > C Z J =.=.B I k $   sXsXsXsXsXsXsXsXsXsXsXsXsXsXsXsXsXsXsXsXsXsXsXsXsXsXsXsXsXsXsXsXsXsXsXsXsXsXsXsXsXsXsXsXsXsXsXsXsXsXsXsXsXsXsXsXsX=.$.Z C 6 * , 4.T.4.} C 4 > D 1.+.:.-.-.:.<.e.o.h [ 4.*.;.=.&.[ * * 3 3 3 6 6 6 6 0 h h 6 6 6 6 6 6 4 4 6 6 9 0 0 0 6 4 4 6 4 4 6 6 6 6 4 4 6 6 6 6 4 4 4 4 4 4 4 4 4 4 4 6 6 6 6 4 4 6 4 4 4 6 4 4 6 6 6 6 6 6 6 6 6 4 4 4 4 6 6 4 4 4 4 4 6 6 6 4 4 4 6 9 6 6 6 6 6 6 4 4 4 4 4 3 3 4 4 4 4 4 4 4 , 4 3 3 3 > > > > > > > > > > > > > > * > > > > 3 4 4 6 4 4 4 4 4 4 4 > > > 3 > > > > > > > > > 3 > > > > * * * * * h H H j j R E B 6 ) =.=.:.:.E E T h 9 ..e.e.>.) 3 . > c 4 > > B 1.-.H ..e.p.p.p.u.e.u.u.i.e.3.o.3.u.p.y.e.3.&.=.D &.6.h f ",
"I.D h I.G.=.&.;.4.r.r.y.i.p.p.p.p.p.p.u.e.i.u.i.3.=.D g W H.=.3 7 6 9 ^ 6 0 o.9.9.o.) 0 h Q 1.<.3.;.<.;.o.C =.1.-.1.4.:.O.s . . o o o o o o o @ o @ * * * * * @ * * * * * $ o $ % % * % % $ $ * * * o $ o o o % * % % % * * * * * * * > * * * ; > , , , , > > > > * * * * ; > = > > > > * * * * > * * * * * * * * * * ; ; * * * * > > , , > > > > > > > > > > * * * * * % o * * * * o o o o o o @ @ @ * * * * * * * * * * * * > > > > > * * * * * * * * > > > > > 3 3 > > > * * * * * * * * * , f j ' &.&.*.<.;.) | &.=.=.*.:.:.=.:.:.f * 6 f H :.=.4 > C Z D =.=.B b b : * sXsXsXsXsXsXsXsXsXsXsXsXsXsXsXsXsXsXsXsXsXsXsXsXsXsXsXsXsXsXsXsXsXsXsXsXsXsXsXsXsXsXsXsXsXsXsXsXsXsXsXsXsXsXsXsXsX=.=.} C 4 * > *.I.3.| C 4 > T 1.+.+.=.=.-.<.e.o.h [ 6.3.3.3.3.C * o O @ * * > > > > > > > 3 4 3 3 > > 3 > > 3 3 3 > > > > > > > > > > > * * * * * ; ; * * * * * * @ * * * > > > > > ; > > * > > * > > > * > > > > = = * * * * * * * * * * * * * * * * * * * * * * * * * * * * * o o o o o % o o $ % $ o @ @ o o o o o o o o $ $ % o o o o o o o o o o o * * * * * * * * * o @ @ @ @ o * * * * @ @ * * o o o o * o o o > j g V &.&.Q Q B h | &.=.O.=.R W W C 9 ) o.e.o.) 3 o > 0 6 > > B 1.-.H [ 3.u.p.u.p.y.t.t.u.e.3.e.e.e.t.u.3.;.=.=.' *.6.h f ",
"I.D h I.G.=.=.*.4.r.y.i.p.p.p.p.p.p.u.e.e.e.y.y.3.=.D j W H.=.3 7 6 9 0 3 9 o.9.9.o.) h j Q -.$.<.;.<.3.o.Z =.1.1.<.r.<.O.f $ . o o o o o o @ * * * * * * * * * * * * * * $ $ $ * % % % * * * * * * * * * = > > > , > > > > > > > * * * * * * * > > > > > , > > > > > > > * * * > * > > = * * * * ; * * = > > > * ; * * * > * * > > , , , , , > > > > > > > > > > > 4 , , > > , > > > > > > > > , , > > > > > > * * * * * * = = * * * * * * * * * * * * * > > > , > > > > > > > > > > > > > > s N j [ ;.;.*.6.*._ | &.W =.+.-.+.=.-.&.4 * 6 j =.4.*., > h Z $.<.<.P b n t < sXsXsXsXsXsXsXsXsXsXsXsXsXsXsXsXsXsXsXsXsXsXsXsXsXsXsXsXsXsXsXsXsXsXsXsXsXsXsXsXsXsXsXsXsXsXsXsXsXsXsXsXsXsXsXsXsX=.1.$.Z 4 @ > ;.y.<.[ C 4 4 O.1.Q +.+.=.:.<.e.o.h [ 6.r.r.u.t.C * @ o o * * * * * > > > > , , > , > , 4 4 4 3 3 3 4 > , , > > > > > > > > > > * * > > > * * * * * * * > > > , , > > > > > > > > * > > > > > 4 , , > > > > > * * * * * > > , , , > = * * * * * = > > ; > > > , > * * > > > > > > > > > > > > > * & % * * * > > > , > * & * * * * % * * * * * * * * * * * * % % * * * * * * * * * * * * o @ o * * * @ @ 4 N g R 4.D.C.C.B h ..3.$.=.=.R W W C 6 ) | o.o.) 3 X 3 0 6 3 > N 1.:.H | | 3.e.p.p.i.i.t.e.e.e.y.e.e.e.e.3.;.=.=.O.*.6.j f ",
"I.Z f 5.5.W #.*.:.r.i.a.p.u.t.u.p.p.p.e.e.e.t.y.;.' H j W F.=.3 7 6 6 0 3 5 X.9.e.e.o.h f W 1.<.4.3.<.&.| Z =.D.4.6.y.3.' j s = * > , , , 4 6 f f f f s f f f s f f f f s f h j j j h h C N N j h h j j j j N C C N N C C C C j h h h N N Z Z N N N H N H H N C Z [ Z Z N j N Z ' D Z Z Z C C C C Z L ) [ [ [ [ Z Z N C C Z Z Z Z Z Z Z D D D H D Z Z Z Z [ [ C C [ ' ' D H N N Z Z C C C C N N g h g h h h j h h C ) [ Z C C C Z j j h h j C C C C N h N N N N N N j j j j C j j h h h s s s N ' h C ;.*.<.5.*.Z } *.=.Q W E R E +.=.4 % s H :.I.1.< > h [ 3.y.5.B b I w $ sXsXsXsXsXsXsXsXsXsXsXsXsXsXsXsXsXsXsXsXsXsXsXsXsXsXsXsXsXsXsXsXsXsXsXsXsXsXsXsXsXsXsXsXsXsXsXsXsXsXsXsXsXsXsXsXsXsX4.*.N 4 * > 3.I.3.[ C 4 4 =.4.Q Q =.&.:.4.e.o.h | r.i.i.u.u.C 6 6 4 , 4 f h j N N N N D D Z Z Z Z Z Z [ | ....o.| | [ C h s f f j C Z [ [ Z Z Z Z Z Z Z Z C C C C Z Z Z Z D D Z Z Z Z Z Z Z Z D Z Z Z Z N H Z Z C Z L L C Z C N N N H H [ [ [ Z C h j Z Z Z Z Z C C Z Z Z Z Z Z C C C C Z N N g N N N C Z C j h j N N j h j C N N g h f f f h h j j j j h h h j h f f 6 s f f f h h h f f f f f f f 4 6 4 s s < , 4 h H g V :.4.C.C.V h ..3.&.&.*.=.W =.C 9 ) o.| ..C > X 3 c 0 3 > H C.:.H ' [ | e.p.p.p.i.u.e.u.y.y.u.e.e.e.3.;.=.=.O.*.y.C h ",
"I.Z 6 5.5.D #.=.*.e.u.p.p.u.p.e.u.p.p.u.e.e.e.3.=.' H g W F.T 3 3 6 9 0 4 7 ) 9.e.e...h f E 1.2.6.5.<.&.| C =.G.5.5.y.*.j Z D f t s f f f g g j H H H H N H H H H H g g N H T T O.T D D =.=.T D H H H H T T O.W D =.=.*.*.*.*.W T T =.*.*.*.*.*.=.:.=.=.-.-.=.&.<.3.<.<.&.&.*.6.r.5.5.<.<.<.<.<.<.<.3.r.r.r.6.4.<.:.*.*.*.<.:.:.:.*.<.<.<.*.:.:.<.<.4.6.r.r.3.3.3.3.4.<.1.:.-.*.*.*.;.=.=.=.=.=.T R T =.=.=.=.=.=.3.4.4.*.*.*.<.:.:.*.=.=.*.*.&.*.*.=.=.=.-.:.=.*.*.*.*.*.*.*.&.=.D T H g h g O.} f C | *.<.5.<.Z ' $.W W R R R R W O.4 * s N :.G.1.4 4 C [ 3.r.6.N P Y w . sXsXsXsXsXsXsXsXsXsXsXsXsXsXsXsXsXsXsXsXsXsXsXsXsXsXsXsXsXsXsXsXsXsXsXsXsXsXsXsXsXsXsXsXsXsXsXsXsXsXsXsXsXsXsXsXsXsX1.=.h > * 4 r.$Xy.| C 4 , O.:.Q +.=.=.*.*.e.o.h | y.y.i.u.e.[ C } D h C ' O.=.*.*.*.<.<.<.<.:.*.*.*.<.<.3.6.r.y.y.r.3.&.T H H D =.<.<.<.<.<.<.*.*.<.5.5.<.*.*.*.*.*.*.*.:.<.<.<.<.<.*.*.<.<.<.<.4.<.<.<.*.*.*.*.*.<.3.3.3.3.&.*.:.:.=.*.<.3.4.<.*.*.*.*.*.*.*.*.&.*.*.*.*.*.*.*.&.&.&.*.*.*.=.=.=.*.&.&.*.*.=.T =.=.=.=.D D D =.=.=.T T H D D D D O.W T T T O.=.=.T H H H H H H H H H H H D D V H H N H g g d t t f H H f H =.*.:.-.N h | | } | &.=.=.=.C 9 ) ......C > . > c 6 3 , H D.1.H Z ' ;.e.t.p.p.u.e.e.t.p.t.u.e.u.y.3.3.&.=.' *.y.C j ",
"I.Z 4 5.D.O.#.=.&.3.u.p.p.t.e.e.u.p.p.p.e.e.4.;.| D N g E Z.W 3 3 6 9 0 4 3 ) o.o.o.) C h E ~ 1.6.6.4.3.| Z *.G.5.5.6.| 6 h T g u f d g g g j j H H R R j j R E R B j j j R R R T T V V W =.=.W R R E E E W =.=.=.T =.<.<.1.:.=.W =.-.:.=.=.*.:.:.:.:.:.:.:.*.3.e.r.3.<.<.4.6.r.r.5.5.:.1.D.G.D.4.<.r.Y.Y.y.y.r.D.4.1.D.D.5.<.<.<.1.1.4.4.:.:.:.1.4.5.y.r.r.3.3.6.r.r.4.1.1.-.-.:.<.4.<.*.=.:.-.Q Q Q -.1.-.+.-.1.<.<.<.:.:.<.4.4.4.:.:.1.5.6.<.<.*.*.:.:.:.:.:.:.<.<.<.4.4.4.*.=.T T R B g H =.D 6 j ' O.=.<.*.Z D J D =.=.=.=.W W H , * s j =.D.*.4 4 ) ..3.e.3.B P Y t . sXsXsXsXsXsXsXsXsXsXsXsXsXsXsXsXsXsXsXsXsXsXsXsXsXsXsXsXsXsXsXsXsXsXsXsXsXsXsXsXsXsXsXsXsXsXsXsXsXsXsXsXsXsXsXsXsXsX<.} h > @ 4 r.wXI.;.C 4 > D :.+.:.*.;.;.=.o.X.h | r.r.e.e.;.[ C =.=.g j ' =.*.*.:.<.4.<.4.4.5.<.<.4.5.<.4.r.y.y.y.6.<.:.=.W T =.<.4.<.*.<.5.5.4.:.<.I.I.4.:.<.<.<.<.:.<.4.4.4.4.4.4.4.4.4.5.<.<.4.6.r.y.4.1.1.<.4.6.r.y.y.e.3.<.4.4.:.:.6.y.y.5.4.4.<.4.4.<.<.<.<.<.<.4.4.<.:.<.<.*.*.*.<.:.=.=.:.:.:.*.*.*.=.=.=.=.=.=.W D V W =.-.Q W T O.=.=.=.=.O.W W W W +.+.W R R E E R R R R E R H R W W E R R P j g d u f g =.g u N } } =.W C h ..| } ;.<.*.=.=.C 6 ) ....{ C * . > 0 5 > , R F.D.H Z | *.3.e.i.i.u.e.e.p.p.t.u.u.p.p.e.3.=.O.D *.y.C h ",
"I.[ f 5.D.O.O.O.*.3.u.u.u.e.e.e.p.p.p.u.e.3.*.=.' D B g W H.=.> 3 6 9 0 3 3 ) o.o.o.) C j Q 1.1.5.I.5.4.o.Z 1.I.G.5.<.} 6 6 D B f u u g g g B B R P R R j g R Q P g d g k P R P R T R H V W =.W P P I I E W W =.W V W 1.1.:.=.=.Q Q Q =.=.=.=.:.-.Q =.:.:.:.*.3.e.i.e.;.*.4.4.4.4.5.4.=.+.C.F.C.-.*.y.$Xy.r.6.4.4.1.1.G.I.5.<.1.*.:.:.1.1.4.4.:.:.1.5.y.r.6.3.<.6.r.5.:.-.-.Q Q :.4.6.<.=.W W Q E E E E Q -.-.-.-.:.*.*.:.:.:.:.-.:.-.-.4.I.r.<.*.=.=.-.:.:.-.-.:.1.<.<.<.3.6.<.=.V T R B N T *.H s N =.T R T ] j ' } } &.*.<.:.=.=.H , * s g O.4.*.4 4 ) | 3.e.3.B P j.w . sXsXsXsXsXsXsXsXsXsXsXsXsXsXsXsXsXsXsXsXsXsXsXsXsXsXsXsXsXsXsXsXsXsXsXsXsXsXsXsXsXsXsXsXsXsXsXsXsXsXsXsXsXsXsXsXsXsX5.&.C 4 * 4 4.%XI.;.C 4 > T :.-.<.r.e.;.| o.) 0 [ 6.3.3.;.o...j O.=.B g Z =.*.*.*.<.<.*.*.4.D.4.4.4.:.*.<.r.y.y.r.3.<.-.+.W E +.:.:.*.&.*.5.I.5.:.*.4.5.<.:.1.<.*.*.=.:.<.1.:.1.1.1.1.<.4.4.<.<.3.6.y.I.4.-.=.1.4.5.y.y.y.e.3.4.D.4.:.:.6.y.5.5.6.<.<.5.4.:.<.4.4.<.1.4.D.4.:.:.<.<.*.*.1.:.=.-.1.:.:.:.:.:.:.:.=.W W =.=.W V D =.-.Q W T =.=.=.T T T W W T T W W W R R E I P P P P I I B E E E E E R B g d f f g ' =.f u D [ | } =.Z c | | &.3.y.6.<.=.h 9 ) o.o.) c * . * 0 3 * , T H.D.T [ | =.;.e.i.t.e.i.p.p.u.p.p.u.p.p.u.;.| O.D *.y.C j ",
"I.Z 6 5.D.O.O.O.;.3.e.u.u.u.t.t.u.e.u.u.e.3.&.O.H H H g Q H.=.> 3 4 6 0 3 4 ) o.o.o.) C C Q c.S.[.[.H.<.| L 1.H.H.D.:.} 6 4 N B j i t y i k k p k P P P p p b I P p r r i p P P P P P P P I E E P z z I I E Q Q W E W Q Q E I I I Y Y E E E Q Q Q Q Q W W =.:.<.4.4.*.*.*.=.:.+.:.:.=.W +.-.-.-.-.1.5.r.5.1.:.1.:.-.1.C.C.1.:.:.-.Q Q Q -.-.-.-.-.-.-.1.<.<.:.*.:.<.1.-.Q Q E E -.4.D.:.+.E I E E I Y I Y Y Y Y Y Q Q -.-.-.Q Q Y E E Q 1.1.4.1.-.-.Q E E Y Q Q Q -.1.<.<.<.<.<.:.W R P B H T =.h s H =.P W W T j Z } ;.3.>.3.*.&.=.D 4 * f j T :.&.4 4 ) o.,.e.3.N P Y w . sXsXsXsXsXsXsXsXsXsXsXsXsXsXsXsXsXsXsXsXsXsXsXsXsXsXsXsXsXsXsXsXsXsXsXsXsXsXsXsXsXsXsXsXsXsXsXsXsXsXsXsXsXsXsXsXsXsXG.1.N 4 * > 3.T.6.} h , > T 1.-.<.r.u.e.;.o.) 0 C *.*.3.;.;.[ h H W R g H T =.=.*.:.:.*.:.1.1.:.:.=.W =.<.6.r.6.3.<.*.=.W W E =.+.:.*.:.:.<.4.:.:.=.*.:.:.:.:.=.=.=.=.W W +.+.-.-.-.-.Q Q -.:.:.1.<.<.:.-.+.Q =.1.5.y.y.5.4.4.<.:.-.-.-.<.<.<.1.1.1.:.1.1.:.:.:.-.W W Q -.-.-.-.-.=.=.=.W T R W Q Q E E E E Q Q -.E W W W W R P E Q Y E E Q Q Q E R R Q Q Q E E E E E E I I P z p p P P P P P P P P P B g f u f B W R , f ' } } $.*.N h ..| | &.3.5.1.=.C 9 o.o.o.X.c > . * 0 3 ; > W H.F.T D T T T <.r.u.u.p.t.u.p.p.p.u.p.u.e.o.} D H =.5.C j ",
"I.Z s 5.5.T T O.=.<.3.e.u.u.t.t.e.3.e.e.u.e.;.=.T H H j +.K.=., 3 4 6 0 > 4 ) e.o.| ) C B Q b.[.}.[.A.<.| } 1.H.H.1.=.D 6 6 H T T H g g P T P R R P E P P P E E E P P P P R W W W W E E R W W W E P P P E E W W W W W =.W W W E E E E E W W +.+.+.+.=.W =.=.*.*.*.&.&.&.=.=.*.:.:.*.*.=.-.-.-.-.1.1.<.4.<.*.*.*.*.-.-.1.1.:.1.1.1.=.=.-.:.:.:.*.=.=.=.=.&.*.*.&.=.*.*.=.=.T V T W &.&.=.T D R R E W E E W Q -.-.-.Q -.-.-.-.-.-.Q Q W Q -.:.*.*.*.*.=.=.+.-.-.-.=.=.*.*.*.*.<.:.*.W T V H T &.*.j s H W E -.-.=.Z ' ;.;.3.3.3.*.&.=.T 4 * f j T :.&.4 4 ) ..o.e.;.N P Y w . sXsXsXsXsXsXsXsXsXsXsXsXsXsXsXsXsXsXsXsXsXsXsXsXsXsXsXsXsXsXsXsXsXsXsXsXsXsXsXsXsXsXsXsXsXsXsXsXsXsXsXsXsXsXsXsXsXsXG.1.Z 4 * > *.I.<.Z h , > T 1.-.<.u.u.u.e.;.) 0 C :.*.<.;.;.Z j D :.=.D D O.=.&.*.*.*.*.*.*.&.&.=.=.=.=.| =.;.;.;.3.<.*.=.=.W =.=.&.=.=.&.&.&.=.=.=.=.=.=.=.=.=.=.W W W W W =.=.-.:.-.+.W =.-.:.*.*.&.*.=.=.=.=.=.<.<.<.<.;.*.*.=.=.=.:.} =.=.=.=.=.*.*.=.=.=.W T T T =.+.+.+.:.=.=.} =.D V H T W T R T R T W +.W R R H R H j B H P P P H R T R V H H R T R R R R R R P P k k g g g g j B H B j R R R g g h h g N T f , g D $.*.:.:.N 0 [ | | | 3.<.4.<.C 9 o.e.>.o.( * . * h 3 - > W H.D.T N H R T *.3.3.u.u.t.u.u.u.u.u.p.e.3.;.=.D H =.5.j h ",
"T.N s 5.D.T T T W =.<.3.u.p.t.e.3.3.3.e.e.e.3.3.=.D N j -.H.*.4 3 6 6 0 > 4 [ 3.o.o.[ ) N Q b.[. XS.1.<.;.} 1.H.F.-.W H s 6 h h s > * * * > > * = , , , , , , = = , , = = = > , , > > > > > > > > > = = & & & > > > , , , , , , > = = > > , , < 4 4 , , , , < , , , 4 6 6 6 6 6 4 4 < < < < t t u s 6 6 4 4 < 4 4 < < < 4 4 4 4 4 , , , < 4 4 , , 4 > > > > > , , , , , , > > , > > * * * * * * * > * * * > > > > > , < < , , , , > > > , 4 4 > > > > > > , < , , , 4 4 4 4 , 4 , , , , , 6 j C 6 4 g T -.-.-.=.Z | 3.3.u.u.e.*.=.=.D 4 * f j T :.*.4 7 ) ..| 3.;.B P Y t sXsXsXsXsXsXsXsXsXsXsXsXsXsXsXsXsXsXsXsXsXsXsXsXsXsXsXsXsXsXsXsXsXsXsXsXsXsXsXsXsXsXsXsXsXsXsXsXsXsXsXsXsXsXsXsXsXsXsXG.1.Z 6 * > ;.I.*.Z h , > T :.+.<.u.i.i.u.e. .0 [ 4.<.3.*.&.[ h h N h 4 4 4 4 4 4 4 4 4 , > > , , , , , 4 4 > > 4 6 6 , , > > , , > , , , , , > > > * * * > > , , > > > , , > > > , , , , , < < 4 4 4 , < < , , > , 4 4 4 > > > , , , , > > , , , < < , , , , , > > & & % % * * % * = = * * * = * * * > > > > , > > > > > > ; & & & & * > * % $ $ $ & & $ $ o o $ % % & & & $ $ $ % & & % % $ % * > * * * * = = 4 4 t t g H =.1.-.-.N h ) ;.;.3.3.&.<.<.L 9 X.o.o.o.) * . * h 6 * > W H.C.V N D T =.=.&.<.e.u.t.e.e.u.u.u.e.3.3.*.*.O.R =.5.j h ",
"I.N s 5.D.T T P P W *.3.e.t.u.e.3.e.e.e.e.e.e.e.3.} N g Q H.=.4 7 4 6 0 > > ) o.o.o...) N ~ Z.S.S.C.1.3.o.Z Q F.C.1.Q W h 4 > $ .   . .   . . .     .           . . . . . . . . . . . . o o o . o o o o o o o o o o o @ @ o o o o o o o o @ @ @ @ * @ @ o $ $ o o o % % @ o o o o o o o o o o o o o o o o o o o o o @ o O O @ @ @ @ @ @ @ @ @ @ * * @ @ @ @ @ * @ @ * @ @ o $ * * o o * * * * @ @ @ @ o o o o o o o o o o o o o o o o o o o @ O o o o o o @ @ * o o @ * * @ o o o o o o o o @ @ , h V +.B.1.-.=.Z o.3.e.y.t.3.&.O.T D 4 * f N O.4.*.6 7 ) ..| 3.o.N b I w sXsXsXsXsXsXsXsXsXsXsXsXsXsXsXsXsXsXsXsXsXsXsXsXsXsXsXsXsXsXsXsXsXsXsXsXsXsXsXsXsXsXsXsXsXsXsXsXsXsXsXsXsXsXsXsXsXsX4.5.*.C 6 * > ;.I.*.Z C , > T :.=.<.i.i.i.e.e.X.0 } 5.<.4.*.&.| 6 * * * @ @ * * * * * * * * * @ @ * * * * * * * * @ @ @ o o o @ @ @ @ o o o o o o o o o o o o @ @ * * * * * * * * * @ * * * * * * * * * * * * * @ * * * * * ; * * * > ; * @ o * * * * * * * * @ @ o o o o o $ * * o o o o o o o o o o o o @ o o @ % o o o o o o o o . . o o X o @ * * * * $ * @ @ @ * * * @ o o o o o o o o X . X o o . . . . . . $ * , f H H T Q Q Q N C ..3.6.r.3.<.$.*.) 9 ) o.o.X.) 3 . * 0 4 * > R F.B.N Z ' &.&.&.=.*.e.u.p.e.e.e.u.u.e.;.=.=.W T R =.5.C h ",
"I.N f D.D.T H E E W *.3.e.t.u.3.3.u.u.e.9.e.u.e.3.| N f W F.=.3 7 6 6 0 > > C o.o.o.o.) Z 1.A.A.G.C.1.3.| C W 1.1.1.-.=.h , * o o * * > > > > ; > > > > > > > > > > > > > = = > > > > 3 3 4 4 4 , 4 4 4 4 4 4 4 6 6 4 3 6 6 6 6 6 6 6 4 6 6 5 3 3 3 3 3 4 4 4 3 > > , 6 4 3 3 3 4 6 6 6 4 4 4 4 4 4 6 6 7 7 3 4 4 6 6 6 4 5 9 9 9 0 0 0 0 0 6 6 6 6 6 6 6 6 6 6 6 4 4 4 4 4 , , 4 4 4 , , 4 4 4 4 4 3 3 , , 3 3 3 3 4 4 4 4 6 6 6 6 6 6 6 6 6 6 6 6 6 6 6 f f 6 6 6 6 6 6 6 6 6 6 6 4 3 3 > @ @ , N T 1.C.1.:.=.) o.e.i.i.t.3.=.D T D 4 * s j =.4.*.6 7 / ..| 3.;.N P P & sXsXsXsXsXsXsXsXsXsXsXsXsXsXsXsXsXsXsXsXsXsXsXsXsXsXsXsXsXsXsXsXsXsXsXsXsXsXsXsXsXsXsXsXsXsXsXsXsXsXsXsXsXsXsXsXsXsX*.<.} h 4 * * ;.y.3.| C 4 , D +.=.3.i.a.y.e.e.X.0 ' 5.<.4.<.&.| 4 * > 3 6 6 6 6 9 9 0 0 0 0 0 0 0 0 0 0 6 6 6 0 0 0 0 6 6 6 6 6 0 0 0 6 4 4 4 4 6 6 6 4 4 6 6 6 6 6 6 6 6 6 6 6 6 6 6 6 6 6 4 4 6 6 6 6 6 6 6 6 6 6 4 6 6 6 6 4 4 4 4 4 3 4 4 4 6 6 6 4 6 6 4 4 4 3 3 > > 4 4 4 3 3 3 4 4 4 4 , , , , 4 4 4 4 4 4 4 4 , > > , 4 4 4 , , , , , > 4 4 4 4 3 3 4 4 4 4 4 4 4 , > , 4 4 4 4 4 3 3 4 4 4 4 , , , , > * $ $ * s g R R W E Q B C o.6.y.y.3.&.=.=.C 0 X.o.o.o.) 3 . ; C 6 > > R C.-.N Z =.*.*.&.=.&.e.u.p.e.e.e.e.e.3.=.T T T T R :.G.C h ",
"I.N f D.D.T D T =.=.*.3.e.t.e.3.;.e.e.u.e.e.e.3.;.} N h W F.=.3 3 4 6 9 > > ) e.e.e.o.) Z 4.G.H.G.G.4.3.o.C R ~ Q W W W h , * @ * * > , , , , > ; ; > > > > > > > > > > > > = > > > > > 3 , , , > , , , 4 4 4 4 4 4 4 4 4 6 6 6 6 4 , 4 4 3 3 > > > > > > 3 3 > > > 4 4 4 4 3 3 4 4 6 4 4 4 4 4 4 4 4 3 3 3 3 3 4 4 4 3 3 3 4 6 6 6 4 6 4 6 6 6 6 6 4 4 4 6 6 4 3 3 3 > > , > , > > > > > > , , , 4 4 4 , , > > > 3 3 3 > > 3 3 3 4 4 4 4 4 4 , , 4 4 4 4 4 4 4 6 6 6 6 6 6 6 6 6 0 0 6 6 3 3 > , s H -.:.:.:.=.C o.e.y.i.u.3.&.T T D 4 * 4 j =.D.<.6 3 h ..| 3.;.N B P & sXsXsXsXsXsXsXsXsXsXsXsXsXsXsXsXsXsXsXsXsXsXsXsXsXsXsXsXsXsXsXsXsXsXsXsXsXsXsXsXsXsXsXsXsXsXsXsXsXsXsXsXsXsXsXsXsXsX' } Z h 4 * * ;.y.r.;.[ 6 > ' :.&.r.i.i.y.e.e.X.0 [ <.:.<.*.*.[ 4 * 3 4 6 4 6 6 6 6 6 6 6 6 6 6 6 6 6 6 6 6 6 6 6 6 6 6 6 4 4 3 6 6 6 4 4 4 4 4 4 3 4 4 4 4 6 6 4 4 4 4 4 4 4 3 4 4 4 4 4 4 4 4 4 4 4 4 4 4 4 4 4 4 4 > > > > , 4 4 4 4 > > > > > 3 3 3 3 4 3 3 3 > > > > 3 4 4 3 > > , > > > > > > > , , > , , , , , , > > > , , , > > = > , , , 4 > > > > , , , > , , , > * > > > > > > > > 4 4 4 < , , , , , > * % $ , f R W E E Q B j ;.6.6.3.o.} =.=.h 9 o.e.7.o.) 3 . > C 0 > > B B.+.N Z &.3.<.;.&.;.e.u.e.e.e.e.9.e.3.=.T T T T T :.G.C h ",
"y.N s 5.4.D ' =.=.&.3.e.e.u.e.3.3.e.e.e.t.e.*.&.| ' H g W F.=.3 3 7 7 6 > 3 ..e.e.e.e.C Z <.D.G.y.5.<.;.| C R Q W R W W h > o . o o @ * * * * * % % % * * * * o * * * * * * $ $ $ $ $ $ * % $ $ $ $ % % % % * * * * * * * * * * * % $ * * * o o o o o o o o o o o o o % % % o o @ * * @ o o * * * * * @ @ @ @ @ * * $ $ $ % * * * * * * * * * * * * * * * * * * % o @ o o o o $ @ @ @ @ @ o o * $ o o @ o o o o $ % % % % % % o o @ o $ $ o o o @ o o o * * * * * * > > > > 3 > > > > > ; ; * = , s H =.-.:.:.=.) | 3.u.u.e.;.:.=.W D , * 4 j =.D.<.6 3 0 ..| 3.;.h B P & sXsXsXsXsXsXsXsXsXsXsXsXsXsXsXsXsXsXsXsXsXsXsXsXsXsXsXsXsXsXsXsXsXsXsXsXsXsXsXsXsXsXsXsXsXsXsXsXsXsXsXsXsXsXsXsXsXsX' =.[ h 6 ; * ;.Y.i.e.o.0 > ] <.:.e.u.t.u.e.e.X.0 [ <.*.*.&.*.C * o * * * * * * > ; * * * * * * * * * ; ; > * ; > > * * * * * @ @ * * % @ @ @ @ @ @ * $ o * * * * * * * % % % % % % * * * * & * * * * % % * * * * * $ $ @ @ @ * * $ $ % $ @ @ @ % * * * * * * * * % o @ o o $ % $ $ o o * % $ $ $ $ $ $ $ $ $ $ $ $ $ $ $ o $ $ $ $ $ $ $ $ $ % % & $ $ $ $ $ $ $ o % $ $ o o o o o $ * * @ * * * * % & * * * * * % % , h d E W W W Q B h | 3.<.;.o.| =.=.h 0 o.e.o.o.) 3 . > C h > > j -.Q B Z =.3.3.3.3.3.e.e.e.e.e.e.e.e.;.=.=.T D D T :.G.C h ",
"5.N f 5.4.D O.=.&.&.&.;.3.e.3.e.u.e.u.p.t.e.3.;.=.| D g W G.=.4 7 3 6 9 > 4 { e.e.e.3.) Z *.5.6.<.*.&.;.o.C R -.-.Q W W N 4 % . . . o o $ $ $ * * * o o o o o @ @ o o $ $ * * o $ o * * $ % $ $ $ $ * * * * * & & & * * * * * * & & & * * * * * $ $ % % % % % % % * * % * * $ $ * * * * * * $ * * * @ @ @ o o o o $ $ $ $ $ % * * * * & & * * > > * * > * * * * % % o o o o $ $ % % * * * * * o o $ o o * * $ * * $ % % % % % % * $ % & & & & * * * * * * * * * * * > > * > > * * * * * @ * % * f Z T :.*.*.:.=.) | ;.;.e.3.;.*.&.*.H 4 * 4 j =.D.<.6 3 0 ..| ;.| h B I & sXsXsXsXsXsXsXsXsXsXsXsXsXsXsXsXsXsXsXsXsXsXsXsXsXsXsXsXsXsXsXsXsXsXsXsXsXsXsXsXsXsXsXsXsXsXsXsXsXsXsXsXsXsXsXsXsXsX*.<.| C 6 * = ;.Y.e.o.o.9 > ' 4.:.*.;.3.e.e.e.o.0 Z <.*.=.&.&.j , * $ % & * * > > * * * * * % $ * * * * > > > * ; > * % & & * * * * * & % % % % % % % % % * * * * > , > > > > * & * > > > > > > > > > > * * * > * * * & * > * > > * * * * * * * * > > > , , , > > > > > * & % * * > > = = * * * * * * * * * * * * % & & % % % % $ $ $ % * * * * * & & & * % $ % * * * * & * * * * % $ $ $ o @ $ $ $ % % * * $ * * & > Z ' f H -.Q Q E g h ..| } | 3.&.W =.C 9 X.>.o.o.) 3 . > C 6 > * g Q T h N ' } | ;.;.;.3.e.e.e.u.u.e.e.3.;.=.W T H H *.I.C h ",
"4.j f 5.4.O.O.=.&.=.&.;.;.;.e.u.u.e.e.u.p.u.e.3.;.=.' j O.H.=.4 3 3 6 9 > 7 ) e.e.e.o.) [ 1.5.<.&.=.=.;.| Z W C.F.C.1.W h j f & & & > > > > > , , , , , , , , > , , , , , , , 4 4 4 4 6 6 < < < < 4 4 4 4 4 4 s s 4 4 6 6 4 6 s s s f s h f f 6 f s 6 6 6 s s 6 6 6 6 6 f f f 6 6 6 6 6 6 f 6 6 6 6 6 6 6 4 4 4 4 4 < , , , 4 6 6 6 s s s f s h j j j j C C j h h 6 6 6 6 4 s t < < 4 s s s 4 4 4 4 4 4 4 4 4 4 4 < < 4 4 6 4 4 4 4 4 t t s u s 6 6 6 6 s s 4 6 6 6 f f f j h h f f 6 4 , , , < D ' D <.=.*.<.;._ | ;.o.3.3.;.&.=.+.' 4 * 4 j T 4.*.4 3 0 [ [ o.| h P I & X sXsXsXsXsXsXsXsXsXsXsXsXsXsXsXsXsXsXsXsXsXsXsXsXsXsXsXsXsXsXsXsXsXsXsXsXsXsXsXsXsXsXsXsXsXsXsXsXsXsXsXsXsXsXsXsXsX*.<.| C 4 * = ;.Y.e.o.) 7 > ' 4.:.&.| ;.3.e.e.o.0 Z :.=.&.3.;.Z j j < < < s s h f 6 6 f s s 6 4 6 6 s s f h h h h h f s s s 6 s f h h h f f f 6 6 6 6 6 6 f h h h j j C C C j h h h h h h j C C C C C C j j j h h h f s f f s h f s f f 6 0 6 6 f h j j C Z C C C C j j j C C j j j j j h h f h 6 6 6 6 6 f j f f s s s s f f f s 6 s s 6 6 6 4 s s s s 4 6 6 < 4 4 6 s s s s 4 < < < < < < < < 4 < < t < 4 < , , , h =.D s B W R E I g h ) Z Z | 3.<.=.=.C ^ o.>.o.o.) 3 X > C 6 ; > g Q T h N D ' } &.;.;.o.e.e.u.u.u.e.e.e.;.=.T R R R *.y.C j ",
"5.N h 5.4.} ' } =.;.;.;.o.o.e.e.u.u.e.u.t.u.u.e.3.;.' j =.H.=.4 3 3 6 0 > 3 ) e.e.e.o.C ' 4.4.<.=.T =.| | N W B.B.1.Q V f Z Z s , , t u u s f f s f f g g d f f f f f f f f f j g g g B g B N N N C C N N N N N N Z Z Z N N Z D D V V T T D D Z D D Z Z ' ' ' [ [ [ [ [ ' | | [ [ | | | ' ' =.} } } | | } ' [ } } } [ Z [ } [ | | [ ' ' O.O.O.=.=.&.&.&.;.;.;.;.| ' ' ' D ' R H H Z H D D D D N N N N N N j h h h N N Z Z Z [ [ [ D D D D D H N N C C Z N N N H H D D D T =.=.D D H N h s f s N &.Z Z <.=.*.4.;.) | 3.;.3.3.*.=.W E ] 4 o 4 j D =.T , 3 9 ) [ o.| j P I &   sXsXsXsXsXsXsXsXsXsXsXsXsXsXsXsXsXsXsXsXsXsXsXsXsXsXsXsXsXsXsXsXsXsXsXsXsXsXsXsXsXsXsXsXsXsXsXsXsXsXsXsXsXsXsXsXR :.<.} h 4 * > | y.;.) 0 3 > D <.&.=.=.;.;.;.3.o.9 C *.&.;.3.<.N Z =.j f j N N D ' [ [ ' Z N D ' D Z D D D [ [ [ [ [ D Z D Z Z Z D ' } [ } | | | ..| | | | | | =.=.=.=.&.*.*.&.=.} ' } =.| } =.=.;.;.;.| | | =.' =.W T D } ' } } ' } =.| ' [ [ [ Z ' } =.=.;.;.| | | | | =.&.| } ' } | &.| ' [ } [ Z C Z [ ' D R R j g N D D Z N D O.=.' Z Z Z Z H D H H N N N C C j j j g j j h h h h h h f f g g f f g f g h f < s D =.h < B H g g P g h ) | J &.<.<.1.=.h 9 o.o.o.o.) 3 o > C 4 > > H -.W j C D ' | ;.o.o.3.e.e.u.u.e.e.e.e.3.=.O.T T T *.I.C j ",
"5.N h 5.4.=.=.| ;.3.3.e.>.>.9.0.u.u.u.e.u.p.e.u.;.| H g =.G.&.6 6 3 4 9 > 3 ) e.e.3.o.C D 4.4.:.&.T D } } H E E I I E H s h H f t t t s f f d g g g g j g g j g j j g g g j T T T T T T V V D W O.D D D =.=.' D D } =.=.' } =.=.D D D =.=.=.=.=.O.=.&.*.<.*.;.;.3.3.3.;.*.3.3.3.*.3.3.<.*.*.*.<.6.3.3.;.;.3.3.3.3.3.;.;.3.3.3.3.3.;.;.*.*.*.:.4.4.3.3.3.r.r.r.3.;.;.4.4.:.*.&.O.O.=.*.*.:.:.*.O.D =.*.*.*.=.W T D W =.=.&.;.=.=.=.&.*.:.*.*.=.=.*.*.*.*.*.*.=.=.*.:.*.&.&.:.:.*.=.T R P B g g W &.h C *.*.<.r.;.C ..3.e.e.3.*.T k P H 4 * 4 h D =.T 4 3 9 ) [ 3.;.B P P &   sXsXsXsXsXsXsXsXsXsXsXsXsXsXsXsXsXsXsXsXsXsXsXsXsXsXsXsXsXsXsXsXsXsXsXsXsXsXsXsXsXsXsXsXsXsXsXsXsXsXsXsXsXsXsXsXE 4.5.} h 4 * > | y.;.) h 3 > Z :.=.-.*.*.*.*.| ) 9 C <.;.;.3.<.j h O.H g N N H O.=.;.3.*.=.O.&.:.*.&.*.*.*.3.3.3.3.3.*.=.} =.*.*.&.=.} ;.*.3.3.3.r.r.3.3.e.e.3.<.*.4.<.*.*.<.4.4.<.*.3.r.r.<.<.4.4.4.r.r.3.;.=.=.:.=.=.*.<.<.3.<.*.*.*.*.;.;.3.&.=.=.*.<.<.4.*.;.;.3.3.3.3.*.*.&.;.*.<.*.;.;.;.;.;.| [ | &.=.T R R R R W +.=.T H =.:.1.*.=.=.*.&.=.=.=.=.=.T N D =.=.Z j N H H H H H j g H H H T T j j H H g g f f g W O.s < N g f g P f 6 ) } $.*.<.*.=.W h 9 ) ..o.) ( 3   > C 4 ; , H :.=.j C [ | o.3.3.e.e.9.u.0.w.e.e.e.e.e.3.&.=.=.T *.I.C j ",
"4.N f r.5.=.=.| ;.e.e.e.e.3.9.9.u.u.u.e.u.p.p.u.;.} j g =.U.=.6 6 4 6 9 > 3 ) 3.3.o.o.Z D :.-.*.*.=.T ' ' D E E E Q W H 4 4 j g t t u f f g h g j H H g g g R H V V N g g N H D O.D H H N D =.*.*.=.O.&.*.&.=.T T =.&.&.;.*.&.O.T =.&.:.*.*.4.<.&.=.<.6.5.4.*.<.r.y.r.3.*.3.r.e.r.r.r.<.*.&.:.4.y.y.u.3.3.e.r.i.r.3.;.;.3.3.6.6.r.r.3.*.=.*.4.I.r.6.4.r.y.a.y.e.;.3.r.I.y.4.*.=.=.=.*.4.4.<.*.=.=.*.<.<.:.*.&.&.-.R T =.*.;.&.} O.=.=.:.:.*.=.O.=.*.*.&.=.&.*.<.5.I.5.4.4.4.D.4.:.=.=.T B j H =.=.h Z =.*.<.5.;.C | e.i.e.3.&.H j k j , * 4 h O.1.=.4 3 0 [ | 3.o.h v P &   sXsXsXsXsXsXsXsXsXsXsXsXsXsXsXsXsXsXsXsXsXsXsXsXsXsXsXsXsXsXsXsXsXsXsXsXsXsXsXsXsXsXsXsXsXsXsXsXsXsXsXsXsXsXsXsXQ 4.<.Z h 4 * > | y.;.[ 0 > > Z :.-.:.*.*.=.;.| ) 0 [ 3.3.3.3.*.j s =.&.H H H D =.=.3.r.4.=.=.:.4.1.:.<.4.<.3.3.r.r.4.*.D D =.<.<.:.=.=.*.<.<.3.4.r.r.<.r.y.y.r.3.<.5.4.*.*.<.4.r.<.*.4.r.r.6.6.5.5.6.r.y.r.<.&.+.-.W T *.4.6.4.<.*.*.=.&.*.y.y.r.*.=.=.<.5.5.r.i.i.r.y.r.3.*.*.4.4.4.3.3.4.4.r.y.r.3.&.*.<.&.T R P E W +.-.=.T T +.+.+.=.=.=.=.=.=.W W =.+.W V T *.*.T N H R =.+.=.T H R R R T =.=.R H R R j g d d B W Z < s N B B H P f 6 ) &.*.<.4.*.W W h 7 ) ....) ( 3 o > C 6 > > H :.=.N C | o.3.e.e.e.e.9.q.9.9.e.e.e.e.e.3.3.&.J D *.I.C j ",
"<.C f 5.5.=.#.| o.e.e.9.>.3.9.q.u.u.u.e.u.p.p.u.;.=.H g =.U.=.4 7 3 9 0 4 4 ) 3.o.o...[ D =.-.*.<.*.=.} [ N W -.1.-.W N 4 , j g f t s f g g h h H R H g f g R R T V H g g H H =.*.=.H H D T W :.-.O.O.=.=.=.W W =.=.=.&.3.*.=.' T &.:.*.&.*.<.<.*.=.*.<.<.<.*.<.6.r.4.*.;.;.;.3.r.y.6.*.=.=.:.4.r.y.u.e.3.3.r.4.4.4.4.4.3.*.3.3.r.r.4.*.=.=.<.5.5.<.<.5.y.y.y.3.;.;.<.<.<.<.*.=.=.=.&.*.*.*.*.=.=.*.:.*.=.O.O.=.+.R T W =.*.=.D T W =.-.:.:.=.O.&.:.:.*.&.-.=.=.<.5.5.<.<.:.*.:.:.:.+.T j j T =.Z f Z =.W =.:.=.j [ 3.3.3.3.&.T R R j , * 4 h O.4.*.4 3 0 ) | o.o.h i P %   sXsXsXsXsXsXsXsXsXsXsXsXsXsXsXsXsXsXsXsXsXsXsXsXsXsXsXsXsXsXsXsXsXsXsXsXsXsXsXsXsXsXsXsXsXsXsXsXsXsXsXsXsXsXsXsXQ :.=.Z 6 4 * > ;.y.3._ 6 > * Z :.-.&.=.' ' =.| ) 0 } 6.e.e.3.*.C s T :.R H D O.=.=.*.4.<.*.&.*.1.:.:.<.<.*.*.3.r.I.r.*.T T W =.:.:.=.=.&.:.<.*.*.*.*.*.4.r.r.5.<.<.*.*.*.:.:.<.<.*.*.<.5.4.<.:.<.<.*.*.4.4.*.&.:.-.W T =.<.6.<.*.=.=.T =.&.5.5.6.*.=.=.*.*.*.4.y.i.r.4.3.*.&.*.4.5.<.*.*.<.4.5.r.4.<.=.*.:.=.T E E P R R W R T =.+.W W T T W W W W W E R W W W W W W T R H R W W W H B B R P R R R R H H B j j g g V T f , s h B R R R f 4 ) =.$.*.:.&.W W C 7 ) o.o.{ ( 3 O > C 6 > > B -.=.N [ | ;.3.e.e.e.9.9.9.9.u.e.e.e.e.e.3.&.} D D 1.I.N j ",
"4.j f D.4.O.' | ;.e.9.9.>.3.e.u.u.u.u.u.u.u.e.3.*.=.R g =.U.=.4 7 3 0 C 4 6 ) 3.;.;.| ) Z =.:.4.3.<.&.} L j =.C.1.1.W Z 4 > f g g i d d k B B B R R R P g k E E E R P B B R R W W W R R R E W Q Q W W W W W +.Q =.=.=.*.<.*.=.W W +.+.Q -.-.:.:.:.W =.:.:.<.<.<.<.<.<.<.:.*.*.<.6.6.3.*.=.=.=.*.<.r.6.6.4.4.<.:.:.:.1.<.<.*.*.4.r.y.5.<.1.1.4.4.4.4.4.5.P.r.5.5.4.<.*.*.:.:.:.:.=.=.=.&.:.:.:.&.:.4.4.<.:.-.+.+.-.W W -.:.:.:.=.-.-.Q -.-.:.:.=.=.:.:.:.+.+.+.+.:.4.4.1.:.:.*.*.*.:.:.T H R =.*.Z 6 N =.W W *.=.h Z &.*.*.<.*.&.=.T j , * 4 h O.4.=.4 3 0 [ o.>.o.h i b & sXsXsXsXsXsXsXsXsXsXsXsXsXsXsXsXsXsXsXsXsXsXsXsXsXsXsXsXsXsXsXsXsXsXsXsXsXsXsXsXsXsXsXsXsXsXsXsXsXsXsXsXsXsXsXsXY Y 4.<.} C 4 * > ;.Y.3.[ 6 > * N :.&.*.=.| | | ..) 0 | r.r.e.3.*.Z s j -.=.T D W &.*.<.4.<.<.<.<.1.:.:.1.<.*.*.<.6.r.5.:.=.W Q -.-.-.=.=.:.D.D.D.5.4.<.1.4.4.5.4.4.:.=.=.1.1.:.:.:.:.1.4.4.<.<.4.4.<.:.<.<.<.<.:.-.-.=.=.=.*.*.*.=.=.=.=.=.=.<.<.*.*.*.=.=.=.=.<.r.r.3.<.<.*.*.:.D.4.1.*.*.*.<.<.<.:.*.=.=.=.=.=.W E E E E E W =.=.+.Q W W W W W W W W E E W W W W R T R R R R T W W R P R R E E E E W W T R B j j T =.N < , f g R W E E f 6 [ =.=.&.*.:.W W 0 7 { o.o.o.) 3 O > C 0 > > B -.W j Z ' | ;.e.e.e.9.e.u.u.u.e.e.9.e.e.3.| D D T 1.I.C j ",
"4.j f P.4.D ] } ;.3.e.9.>.e.e.u.u.u.u.e.u.u.3.;.=.=.R j Q H.=.4 4 6 0 C 3 4 ) e.e.e.o.C Z =.<.r.r.3.&.| [ C =.D.4.:.W D 6 > s g g u u d g g g g j j j g d g j j g g d g g g j H B B B B B B B B B B B g g j H H B N H D D D V H H B B R T T T W W R V D T =.=.=.=.' ' ' ' ' ' ' | | | } D D D D ' =.=.=.=.=.D J W T W T D D D =.*.*.&.=.=.*.=.=.=.&.&.=.=.O.=.=.=.O.H H R R T T H H H H T T T T W =.=.=.=.T H B B H R T D T T W +.W R R T T T T T =.=.=.W T W W =.=.=.=.O.O.=.} =.=.O.H j H &.&.C 4 N -.Q =.:.=.h N } =.*.3.3.*.*.=.C > * 4 j T 1.=.4 3 0 ..o.e.o.h v P & sXsXsXsXsXsXsXsXsXsXsXsXsXsXsXsXsXsXsXsXsXsXsXsXsXsXsXsXsXsXsXsXsXsXsXsXsXsXsXsXsXsXsXsXsXsXsXsXsXsXsXsXsXsXsXsXY Y 4.5.<.Z 4 * > *.T.4.[ h > * N :.&.*.3.3.3.;...) 0 | r.r.e.3.;.J f j *.*.' N Z } &.&.&.&.&.*.*.=.=.=.=.=.=.=.&.&.*.*.*.=.W W W T T V V T =.-.:.*.=.=.=.=.=.=.=.W R H D D T T D D T =.=.=.D D D D D D ' =.=.D D T T V D D Z Z Z N H H H H D D D D D D H N N Z ' =.&.| } ' D D T T T D Z D ' ' D D D D D D D H H H g j H H H H H H H H H H H N j N B g g B N H N g B N B g g g g g h g g g g g g g g g g g g f s f H H f , 4 h g E Q E E f 6 [ &.=.=.&.+.-.=.h 9 ) >.>.o.) 3 o > C 0 > > B 1.=.g N ' | ;.e.e.e.9.e.e.u.u.e.e.9.e.u.3.=.D T T 1.I.N j ",
"4.h f r.4.H Z ' | ;.3.3.9.9.9.9.9.9.u.e.u.i.e.*.=.=.R j Q H.=.4 7 6 6 0 > 3 ) e.e.e.o.C Z =.<.3.3.&.&.| ..C =.4.4.1.=.' 0 > 6 s , & $ $ % % % % * $ $ $ $ $ $ $ $ $ % % $ $ $ % % & & % % % % % % % % % % % % % & & * * > > * * * * * * > , , > , , > > > , , > > > = > ; > > > > > > > > > > > > > > > > > > > , , , , > > > > , , , , , , , , 4 4 4 4 > > > , > > > * * > > > * * * * > > > > > > > > > * * & % % * * * * > , < > > > > > > , , , , , , , , , , 4 4 , > > > > > > > > = > s f 4 s H W :.1.1.W f Z } | 3.3.e.;.*.=.C > * 4 Z O.1.=.4 > 9 X.o.9.o.h P b & sXsXsXsXsXsXsXsXsXsXsXsXsXsXsXsXsXsXsXsXsXsXsXsXsXsXsXsXsXsXsXsXsXsXsXsXsXsXsXsXsXsXsXsXsXsXsXsXsXsXsXsXsXsXsXsXI E 4.I.<.| 6 * ; *.T.4.' h > * Z :.=.*.e.e.e.3.| ) 0 [ e.4.e.r.;.} h C ) C 6 4 > > > , , , , 4 4 , > , , > > > , , 4 4 , , , , , , > > > > > > > , , > , > > > > > & * * * > > > > , , > > > > > * * ; > > > > > > > > > > * * * * * * * = > > > > > = * * * * > > > , > > > > * * * * * * * * * * * * * > > > * * & * * * * * * * * * * * * o o o $ $ $ $ * * * * * * * $ $ $ $ $ o o $ $ $ $ $ % % & & & * o o o * = * = 4 N H E W E R f h [ =.&.=.T T W T h 6 ) o.o...) 3 X * C 6 > , H F.:.H Z =.;.e.e.e.9.e.e.9.9.u.e.e.e.e.e.;.=.T T T 1.I.H h ",
"4.h f 5.<.H Z ' | ;.3.9.9.9.e.9.9.u.e.e.t.t.u.3.&.=.H j +.U.&.6 6 6 6 0 > 4 ) o.o...) j Z =.*.;.=.=.&.o...C D -.1.:.=.} h > , * . X X o o X o o o o o o o o o o o o o o @ o o o o o o o o @ @ @ @ @ @ @ @ @ @ @ * * * * * * * * ; ; * * * * * * * > > > > > > > * @ * > ; ; > > * * * ; * * * * * * > > > > > > > > > > ; > > > > > > > > > > > > > > > * * * > > * * * * * * * * @ * * ; ; * * * * * * * * * @ @ @ @ * @ * * > > > * * * * > * * * * * * * * ; * * * * * * * * * @ o * $ $ $ * > 6 H =.D.4.4.=.f [ | ;.3.e.e.e.;.=.C > $ 4 D =.4.&.4 3 9 o.o.>.| h p p & sXsXsXsXsXsXsXsXsXsXsXsXsXsXsXsXsXsXsXsXsXsXsXsXsXsXsXsXsXsXsXsXsXsXsXsXsXsXsXsXsXsXsXsXsXsXsXsXsXsXsXsXsXsXsXsXsXI <.I.<.[ 6 ; > *.T.4.' h > % N &.=.;.e.e.e.3.o.) 0 [ 3.3.3.r.3.} h 6 4 > * * * * ; ; ; > > > > * * = * * * ; > > > > > > > > > > > > > > > > > > > > > > > > > > * * ; ; > > ; ; ; ; * * * * * * * * * * * * * * * * * * @ @ @ @ * * * * ; ; > > > > ; * * * * = = > > > > > > ; * ; * * * * * * * * % * * * * * * * * * * * * * * * * * * @ @ * * @ @ * * * * * * * * * o o $ @ @ @ % % * * * * * * * * * o o o o o . * 4 N V E E R E f h | *.*.=.T H H H h 9 C ) ) ) ) 3 X * C 6 > , H G.D.H ' ;.3.e.e.e.e.e.e.9.9.9.e.u.u.u.e.;.} T T T 1.I.N h ",
"D.j f r.4.D ' ' } | ;.e.e.9.9.o.9.u.9.e.p.t.u.e.;.} j g +.U.&.6 6 6 6 0 > 4 ) o.....C j H =.=.} =.=.&.| ..C N T W W =.D 6 * o o X @ * 3 3 > > 3 3 3 3 3 3 3 3 3 > > 3 3 3 3 3 3 3 3 4 4 3 3 3 3 7 7 7 7 7 7 7 7 9 9 9 9 6 6 6 6 6 6 6 6 6 6 4 4 6 6 0 9 6 6 6 9 9 6 6 6 6 6 6 9 9 9 6 6 6 6 6 6 6 6 0 6 6 6 6 6 6 6 6 6 6 6 6 6 6 6 6 6 9 0 6 6 6 6 9 9 6 6 6 6 6 6 4 4 4 4 4 4 4 3 3 6 6 6 6 6 6 6 6 6 6 6 7 3 3 7 6 6 6 4 4 6 9 6 6 6 5 6 6 6 6 6 6 6 6 6 6 6 6 6 4 6 6 6 6 6 4 4 4 4 4 , > > > 6 Z :.:.4.5.=.j [ 3.3.>.e.u.e.;.=.Z > * 4 Z O.<.=.4 3 9 ) o.o.| g b a % sXsXsXsXsXsXsXsXsXsXsXsXsXsXsXsXsXsXsXsXsXsXsXsXsXsXsXsXsXsXsXsXsXsXsXsXsXsXsXsXsXsXsXsXsXsXsXsXsXsXsXsXsXsXsXsXsXI <.r.&.C 4 * > *.I.*.N j , * j =.O.&.e.e.3.3.o.) 0 ) 3.3.3.r.3.Z 4 > > > 3 4 6 0 h 0 0 0 h h h 0 0 0 0 0 0 0 0 0 0 0 0 0 0 0 0 9 9 9 9 9 9 6 6 0 0 0 0 0 0 0 9 9 9 9 9 0 0 0 0 0 6 6 6 6 6 6 6 6 6 6 6 6 4 4 4 6 6 6 4 4 3 3 5 6 6 6 9 6 6 6 6 6 6 6 6 6 6 6 6 6 6 6 0 6 6 6 6 6 6 6 6 6 6 6 6 6 6 6 6 4 4 4 4 4 4 6 6 6 6 6 6 4 6 6 4 4 4 3 3 4 4 3 3 4 4 6 4 7 7 7 3 3 3 3 3 3 3 4 4 4 4 4 4 4 4 4 4 4 4 4 4 > > > = * , s g R R P E g h | &.=.$.=.D H N 0 9 0 C ) ) 0 3 X * h 6 > , H F.1.H [ ;.3.e.e.e.e.o.o.e.e.u.u.u.u.u.e.3.| ' D T 1.I.N h ",
"D.N h I.D.=.=.} =.;.e.e.e.e.>.o.o.p.e.e.p.e.e.e.;.' j f +.H.=.4 6 6 6 0 > 4 C o.o.o.[ j H W T ' } =.&.;...h B T R R W D 6 o . . o o $ * * * * * * = > > > > > * * * * > > * * * * > > > > > > > > > ; > > > > 4 3 4 4 4 4 4 3 3 3 3 > 4 4 4 4 > 4 4 > > > > > 3 3 3 3 3 > > > 3 3 3 3 3 3 3 3 4 4 4 4 4 3 3 3 4 4 > > 4 4 4 6 6 6 6 6 6 6 4 4 4 4 4 4 6 7 4 4 4 4 3 4 3 > > > > 3 3 3 > > 3 4 4 4 4 4 4 4 3 3 > > 3 3 3 3 > > > > > > > > > > > > > > , 4 4 4 4 4 > 3 4 4 4 3 > 3 > > 3 3 3 3 > > 6 N =.:.4.5.*.h | 9.e.e.u.p.u.*.&.Z > * 4 h D 1.=.4 > 6 ) ) o.| B b n sXsXsXsXsXsXsXsXsXsXsXsXsXsXsXsXsXsXsXsXsXsXsXsXsXsXsXsXsXsXsXsXsXsXsXsXsXsXsXsXsXsXsXsXsXsXsXsXsXsXsXsXsXsXsXsXsXsXI &.*.[ j , * > ;.I.=.j h , * j =.' =.e.e.3.o.o.) 0 [ 3.4.6.r.3.Z , * * > 4 3 4 6 6 6 6 6 6 6 6 4 4 4 4 4 7 7 4 6 6 4 4 4 4 4 4 3 3 3 3 4 4 4 4 4 4 4 4 4 4 4 3 3 3 4 4 4 4 4 4 4 4 4 4 3 3 3 4 4 4 4 4 3 3 > > 3 > > > > > > 3 3 3 4 4 3 3 3 3 3 3 3 3 3 3 3 4 4 4 4 4 4 4 6 4 > > 3 > > > 3 > > 3 4 4 > > > > > > > > > > > > > > > > > > ; ; > > > > > > > > > > > > > > 3 3 3 3 > > > > > > > > > 3 3 3 4 > > > > > = , t g W E P R g j | =.| &.3.*.=.Z 6 7 0 ) ..) 0 3 X * 0 6 > , g C.-.j [ ;.3.e.e.e.e.....o.e.t.u.u.u.u.e.3.;.=.D D 1.I.j f ",
"4.N j I.D.&.=.&.*.3.u.u.e.e.>...o.u.e.u.p.u.e.e.;.' j f +.H.' 3 7 6 6 0 > > ) o.3.o.) h H T O.=.;.*.*.3...6 B +.W E E H s * . . . . . o o o o o o o $ $ o o o o o o o o o o . . . . $ $ $ o o o o o o o o $ $ $ % & % % $ % * * * * * * * * * $ * * % $ $ $ $ % % * * * % % * * > ; * * * * * * * * * * > > = = * * * * * * * * * * * * > = = = = = = > * * * * * * * * $ $ o o o o o * * * * * * * * * * * * * * % * * * * % % % % $ $ o o $ o o o $ * $ * * * * $ $ $ * * @ o $ $ o o o o o o > h N W 4.G.I.*.j ..>.u.u.u.y.3.=.&.D > * 4 h D 4.=.4 > 6 ) ..o.;.B I I sXsXsXsXsXsXsXsXsXsXsXsXsXsXsXsXsXsXsXsXsXsXsXsXsXsXsXsXsXsXsXsXsXsXsXsXsXsXsXsXsXsXsXsXsXsXsXsXsXsXsXsXsXsXsXsXsXsXI D } Z j 6 = * ;.%X6.[ j , $ h =.O.*.u.u.3.o...) 0 [ 3.r.r.r.3.Z f < & % * * * * * ; * * > > > > > > > > > > > > ; ; * * * * * & % * * * * = = > > * > * * * * * * * * * * * * * = * * * * * * * > > > * * * * * * * @ @ * * * * * * * = = * * * * * * * * * * * * * * * = , * * * * * * * * * * & * * * * * * * * * * * * * * * % * % * @ @ @ @ @ @ @ % * % * * * * * @ @ @ @ @ * * * @ @ * * * * * @ @ * o $ * @ o o * s g R -.W R R g j | | o.>.e.3.&.D 6 3 0 ..o.) 0 2 X * h 6 > , g C.-.j Z =.3.e.3.e.e.3.3.3.e.e.p.u.u.t.t.e.3.*.=.=.1.I.j f ",
"4.N j I.5.=.| &.<.e.u.u.e.e.e.;.o.e.u.e.e.e.u.e.;.=.Z g +.H.D 3 7 6 6 0 > 3 ) >.>.o.) 6 N T =.;.3.;.;.| ) 6 N W W W R j f s > $ $ % * * * > > * * * * & & % % * * * * * * * & & * * * > > > ; ; ; % % % * * * = > > > > > > > > > > > > , , , , , , > > > * * * * * > > , , > > , , > > > > > > > > , 4 4 4 , , , > > * * * > , , , , , , > > , > > > > > > > > > > > > > > * * * * * * * * * > > > > * * * * > > > > * > > > > * > > * * * * ; > > > > , , > > > > > > > > > > * * * * @ @ @ * f N g W D.I.I.&.j } 3.e.p.i.u.;.=.&.' , * 4 j } D.&.4 > 0 ..o.e.3.B b n sXsXsXsXsXsXsXsXsXsXsXsXsXsXsXsXsXsXsXsXsXsXsXsXsXsXsXsXsXsXsXsXsXsXsXsXsXsXsXsXsXsXsXsXsXsXsXsXsXsXsXsXsXsXsXsXsXsXI } &.J C 4 * * <.%Xy.| C > $ h =.O.;.e.e.e.3.o.) 0 ) 3.4.3.r.3.Z Z g , & * ; * * > > > > , , , , , , , 4 4 , > , , , , , > > > * & > > > > > , > , < , , , , , , , , , < < < 4 4 , , , , , , , , , , , , , , , , > > > > > > > , , , , , , , , > > * * * > > > > > > > , , , > > * * > > > > > * & > > * * % * * * % * * * = * * > > > > * * * * * * * * * * * > * * * * * * * * * * > > > > > > > * * * * * * * $ o @ 4 N V H W R R T g h ..o.e.u.e.o.} D h 3 C o.o.) 9 q X * h 6 > , B C.:.H j =.;.3.o.e.e.u.e.e.e.u.p.p.p.t.e.3.<.*.=.=.1.I.j h ",
"D.H N I.D.=.| =.&.3.u.u.e.e.e.3.3.e.e.e.e.e.e.e.;.=.H g -.H.T 3 7 6 6 0 3 6 { e.>.o.C f N W =.;.;.| | | L h B R R R R g f B f > * , 4 6 6 6 6 6 f f f f f s s 4 4 6 6 6 4 6 6 6 6 6 s s s s f s 6 6 6 6 6 s s f h f h h f f h h f f u s h h f h h N N C j h h f f f h h g g g h N N N h h h j C C L C Z Z Z N N N N N h f h h h j j j h h h h h N C C C C C C C C h h h h h h h h f s 6 f s h h h h g h h f s s s f f f h h h h h h h h 6 6 6 h h h h h h h h h h h h h f 6 f f f f 4 4 4 > > 6 Z Z h =.5.5.5.=.j | 3.u.i.i.e.;.=.+.O.4 * 6 C =.D.=.3 > 0 o.3.e.3.B b b sXsXsXsXsXsXsXsXsXsXsXsXsXsXsXsXsXsXsXsXsXsXsXsXsXsXsXsXsXsXsXsXsXsXsXsXsXsXsXsXsXsXsXsXsXsXsXsXsXsXsXsXsXsXsXsXsXsXI =.<.} C 4 * , *.I.3.) 0 3 * j =.=.=.;.e.e.3.o.) 0 C <.3.3.r.3.Z D T f , < 4 f h h h j j j C j j C j h h C C Z Z N N N N N j h h h h h h j h h C C Z C C C C Z Z j j C C N C C C N N N C C C N j h h g j N N N g h h j j j j C C j h j C C C C C j h h h h h h h h N N N N C h h h h h h h f f f f f h f f s s s < 6 s s s f f f f f f f f s s f h h f s s s s s s s 6 s s 6 s s s s f f h s s s s f f s s 4 4 4 , > , j D j f R R T W j h ..e.p.p.9.o.} [ h 7 ) o...) 0 @ X > j 6 > > H D.:.H B O.=.| o.3.e.u.e.3.3.t.p.p.p.u.e.;.=.=.O.O.1.I.j h ",
"D.' j I.D.=.&.=.=.;.3.e.e.3.3.3.3.3.e.e.e.e.e.3.;.=.H g -.H.T 4 3 6 6 0 4 6 ..3.o...h h C =.=.| ..| | ..C f g E R R R g t f j t , < s s s s f h g g g g g g d g g g g f f f h h j j j j g g g g g h g j h h h H H H B H H D D D N N B H D V V V T =.J =.=.=.D H D V V V T T T R =.&.&.D H T =.*.;.;.3.;.&.=.=.*.*.=.=.D V D } | =.} D D R R V V D D ' } | | ;.=.=.=.D H H H H D D H N Z N H H H T T R D D Z N H H D D D D D H D D T T V H N N D D ' ' D T R R R H N N Z Z Z C Z N N g f f s u N ' Z f =.&.=.=.' j ' 3.r.y.y.r.*.O.+.O.4 > 6 h W D.&.3 > 0 o.e.e.3.g g P sXsXsXsXsXsXsXsXsXsXsXsXsXsXsXsXsXsXsXsXsXsXsXsXsXsXsXsXsXsXsXsXsXsXsXsXsXsXsXsXsXsXsXsXsXsXsXsXsXsXsXsXsXsXsXsXsXsXP =.&.[ h , * > &.I.<.[ h 3 * j =.=.=.=.;.3.3.3.) 0 L <.3.3.i.y.| h =.T u f f N ' ' ' ' T T T D O.=.' Z D } =.;.;.&.| &.&.=.} D Z Z Z Z [ ' ' =.=.&.&.=.| | | | =.} } =.=.&.&.&.&.=.$.=.| =.=.W W T T T =.=.=.=.=.O.' } } } | | =.W H H ' ' =.=.&.| } D D ' } } | } | ;.;.&.&.=.} D J } ' D D R H H R T H N N N N g j g N H H N Z R R R H j j H H V V H H B j B B B H H B g g N N B j j j j g d g j j j d g f f s , , s R N 6 j T W W W N h X.e.t.u.9...[ [ h 4 h [ ) ) 0 @ X > j 6 > , H D.-.H N D } | ;.3.3.3.3.| 3.t.p.p.p.t.3.*.&.=.O.T <.I.j h ",
"G.' j I.I.=.=.&.*.3.e.t.u.e.3.e.e.e.e.e.e.e.e.e.;.' H j -.U.O.3 3 4 6 0 4 4 ) o.o.o.) h C =.| o.o.| o...) f B W W T N h < t g f t < s f h h f f f g g g d d g j j j g d f g h j N Z Z N N B H V H N N N N N H W T H H H W =.=.T D D T =.=.=.=.*.&.&.1.<.<.*.&.=.&.=.=.=.=.*.&.=.*.1.:.&.=.&.*.<.4.6.r.r.6.:.*.<.5.<.*.} =.=.=.;.&.&.=.=.=.=.=.=.=.=.| ;.3.3.3.4.4.*.=.T =.=.=.=.=.=.} D D =.=.=.=.=.:.*.=.' ' T W *.=.=.=.=.=.T T =.*.=.D D =.=.=.=.=.=.=.=.W W T T D D ' } } ' D V H g g f f V ' h f *.:.*.*.O.Z ' ;.3.r.y.y.3.=.+.O.4 > 6 h =.I.*.4 3 0 o.o.e.;.g P P & sXsXsXsXsXsXsXsXsXsXsXsXsXsXsXsXsXsXsXsXsXsXsXsXsXsXsXsXsXsXsXsXsXsXsXsXsXsXsXsXsXsXsXsXsXsXsXsXsXsXsXsXsXsXsXsXsXR =.;.[ h 4 * > =.I.3.[ c 3 * j =.=.&.;.e.e.3.3.{ 0 C <.r.r.y.y.| h =.=.j f g H =.*.*.*.=.T T =.1.*.=.=.=.&.3.4.4.4.4.3.<.<.<.&.&.&.&.;.&.=.&.<.3.<.;.<.3.3.3.3.3.<.*.*.*.4.r.r.3.*.<.<.<.*.=.=.-.-.=.*.:.*.*.$.*.<.*.&.o.;.3.3.*.=.+.=.T =.*.<.3.3.| } =.&.;.;.*.&.;.;.;.<.<.<.*.=.} &.*.=.=.W W T T W =.=.D D D T T T T =.=.T D W +.=.H H D =.=.D V T R B B R W W T H B N H H D T T R j g g g H H g g g h f f s 4 s j T h 4 C *.=.=.=.N h X.9.t.e.9.o.| } 0 7 0 [ ..) 0 @   > h 6 > , H D.-.N N ' &.;.3.3.3.;.;.3.e.t.p.p.a.i.e.3.<.*.=.O.<.I.j h ",
"5.Z j I.I.$.=.*.*.r.y.p.t.e.e.e.e.e.e.e.e.e.e.3.| D j g :.U.' 3 3 4 6 0 3 3 ) o.o.o.X.h C } o.o.7.7.o...) f N =.D N h h , < h g t , s f g g g d g g j g g g g k k k i i f g N N D D H g g B R R P B H H g g H T W H H R T W =.T V T W +.T R W =.:.:.4.4.<.*.*.<.4.=.=.=.=.*.:.*.:.=.=.=.=.=.*.<.4.6.y.y.6.:.*.4.4.<.*.*.*.&.*.*.<.*.=.=.T +.Q =.*.&.;.3.3.3.<.<.<.*.T W Q +.=.=.=.=.=.V R =.-.=.W W -.=.=.T T W W =.T R W =.=.T W -.-.T R T =.W T T =.:.-.W E E E W T D ' =.=.T D H B g d d g W D 6 h &.4.6.<.=.N D } &.3.y.y.3.=.=.D 4 > 6 j *.I.3.4 3 0 ) o.3.;.B P I & sXsXsXsXsXsXsXsXsXsXsXsXsXsXsXsXsXsXsXsXsXsXsXsXsXsXsXsXsXsXsXsXsXsXsXsXsXsXsXsXsXsXsXsXsXsXsXsXsXsXsXsXsXsXsXsXsXE =.3.| h 4 * > | y.3.{ C 3 * j =.=.*.e.u.i.e.e.X.0 C 3.r.y.y.y...6 D :.T f g H O.*.*.*.=.=.W -.1.=.=.=.*.<.<.<.<.6.6.<.<.<.<.*.&.;.;.<.=.=.=.<.6.3.3.3.3.e.3.3.3.3.<.*.*.6.y.y.r.*.*.<.:.=.W W Q Q Q -.1.<.<.*.1.<.<.&.;.3.e.:.W W +.W T T *.<.<.*.} ' =.=.$.=.*.*.*.*.&.*.<.<.*.W W =.=.T E E E R P E W W T H T =.W E E W W T T E Q Q B B T O.T H B R R j j P E E R j g g H H B B H B j d i j R B g g g g g f s s f H H 6 4 C =.:.<.:.Z h ) >.9.9.9.o.| [ 0 7 0 ....) 0 @   > 0 6 > , H D.-.N N | 3.e.e.e.e.o.o.3.t.t.p.p.p.p.u.e.3.&.=.' <.I.C h ",
"5.Z h I.y.$.=.&.<.r.t.p.e.e.e.e.u.u.e.e.e.e.e.;.| ' g g :.U.D 3 3 4 6 0 3 3 ) o.>.9.o.h C } o.o.7.7.o...) f N =.} Z C h , > f h t < t u i g P k i i i i i i r p p p i y i g P R T R R B g k P P k P P k g g P I E P P P P E E P P P E E E I W -.-.=.Q +.W W =.1.1.+.=.W W =.-.:.+.W E Q +.W W *.3.6.r.r.6.<.:.-.-.W =.*.=.D T =.-.-.W W R P E W =.=.&.3.<.*.*.*.:.-.W E E E E E W W W P R Q -.Q E E E W W W R E E W E R E Q W E E Q E P P E E E E R W -.+.E P P P E W H V T W R R P B g d d H =.j 4 h } <.6.4.=.N D =.&.3.y.y.e.=.O.H , = h C *.y.3.3 3 0 ) o.3.;.H I I & sXsXsXsXsXsXsXsXsXsXsXsXsXsXsXsXsXsXsXsXsXsXsXsXsXsXsXsXsXsXsXsXsXsXsXsXsXsXsXsXsXsXsXsXsXsXsXsXsXsXsXsXsXsXsXsXsXR =.3...C 4 * > ;.a.e...C 3 * h T T *.e.i.i.e.e.X.0 L 3.r.y.i.r.[ 6 N &.T h h H T =.=.=.=.=.W W Q E T =.*.*.*.*.<.4.5.<.<.-.-.=.=.=.*.*.T R T =.<.<.3.<.<.3.<.<.<.<.<.=.=.4.y.y.r.<.=.=.W E E I I I I W Q -.=.=.-.-.=.W *.<.<.=.T T W W T T =.*.*.=.W T T W W =.=.=.=.=.=.=.-.-.W R R W W E E E E P P P E E P j R E E P P I E E W I E I P P R W R B g P P P g k P P P g g j R P k g g k g d i d k g g g j j g u t s j R g , 4 j D W *.*.N h ) ..o.3.e.e.3.| 0 7 ) | | ) 0 @   > h 6 > , H D.+.j C | 3.e.e.e.e.3.3.e.t.t.u.u.p.u.p.e.3.&.=.} <.I.j h ",
"y.Z h y.5.$.=.=.;.e.u.t.t.t.t.t.t.u.e.e.e.u.3.;.=.=.N h :.U.' 3 3 6 6 0 > > C o.>.9.o.C Z } o.o.o.o.| [ ) 6 N *.<.<.| Z 4 , h g g f u u g B P P I P P I P P P p p p p p P E E W W T T R R P P P P P P P j g P E E E W E E E E E E E E E E Q -.-.:.+.E Q -.-.-.1.:.:.:.-.-.-.:.1.1.-.-.-.:.-.-.<.4.6.6.6.3.<.<.:.:.:.:.1.:.=.=.:.1.1.:.-.Q P E Q -.*.*.<.<.:.*.:.1.4.:.-.Q Q W W W W W W W -.B.-.Q W E W +.+.W E E E E E W Q Q W Q Q Q E E W W Q Q W +.:.:.+.Q Q Q Q Q W =.=.W W E E R j g g W =.f > h } &.<.3.=.j R =.&.<.e.e.3.=.=.N > = h N =.y.3.3 3 0 o.o.e.;.N E E & sXsXsXsXsXsXsXsXsXsXsXsXsXsXsXsXsXsXsXsXsXsXsXsXsXsXsXsXsXsXsXsXsXsXsXsXsXsXsXsXsXsXsXsXsXsXsXsXsXsXsXsXsXsXsXsXsXB ' o...C 6 = 3 ;.Y.3...C 3 * h T O.3.u.u.u.3.e.o.h Z 3.r.r.3.;.[ 6 C =.=.N h V =.&.=.=.=.=.=.W W =.=.=.*.:.=.=.1.5.5.6.1.Q -.:.1.:.:.:.:.-.:.1.4.5.5.4.4.5.5.5.5.4.<.*.*.4.y.y.y.5.1.-.-.Q Q Q E E E Q -.1.4.1.-.=.=.:.1.:.*.=.=.=.W =.=.=.:.:.:.*.=.=.=.=.-.:.:.:.1.<.:.=.=.=.=.W W W W Q Q Q Q Q Q E Q W W R R W Q E E Q Q -.-.E I I I R R R R R R R E E R P P P P P B B R E E I E E R P k k k k k P R B g u u d P E g , > j H V H D j h Z ' } ;.3.3.*.| 0 7 C ....) 0 @ o 3 C 4 = , H D.:.N C | 3.e.e.e.e.e.3.e.t.t.e.u.p.p.p.e.3.&.=.=.5.I.j j ",
"y.Z f y.5.=.*.*.<.e.u.e.e.e.u.t.t.u.e.e.u.t.e.*.*.=.H g :.H.Z 3 3 6 6 0 > > C o.o.o...C Z =.;.o.o.} [ [ C 6 N 1.6.6.*.} 4 < f f f f f f f f g g g f f f g h f f f f u u f g j B N N j j j g g g g g j g d f d g B H T R B j g g g g g H H H R T W =.H H D T D H R R H H V D D ' ' D D D D H D ' | | ' ' [ [ [ Z Z Z N N N N N H H H H N g g g N D Z Z Z [ Z Z Z D D ' D N B N N j g j N N H H D H N h j N N j h h f f h h g N N h f f f h h h g g g j N N N H H N g h j N Z Z N H N j j j Z =.' 6 4 h } *.3.3.=.h j W =.*.*.3.;.=.=.Z > * f g =.I.3.4 3 0 o.7.e.;.N E E : sXsXsXsXsXsXsXsXsXsXsXsXsXsXsXsXsXsXsXsXsXsXsXsXsXsXsXsXsXsXsXsXsXsXsXsXsXsXsXsXsXsXsXsXsXsXsXsXsXsXsXsXsXsXsXsXsXB ' 3.| C 6 * , *.I.*.[ h > * j T =.4.e.e.3.| o.o.h [ 3.3.3.3.;.C 6 Z =.=.' Z N D ' ' [ Z Z Z N N Z Z N N N N N D } | } Z N N Z D H Z N C C j j C C C C C C C C Z C N j C C Z Z C Z h h f d f f f u s s h C N C h f h N N j j N N C j j Z Z h j j h h h h f f s f j j j j h h f f f h h h h h g g g g h h f f f s s s s u f f f f f s s s s s s s s s u s f f s s s s f s s s s f f g g g g g f f f g g g f f s s h H R f , 4 C D T D Z h f j V T =.=.| =.' 0 7 C ....) 0 @ o 3 C 4 * , H D.:.N Z } ;.3.e.e.u.3.3.e.p.p.t.u.p.p.p.e.3.*.*.*.r.I.j j ",
"G.Z h y.5.=.*.4.6.r.e.e.3.3.e.e.t.u.e.e.u.y.e.3.*.=.H j :.G.Z > 3 6 6 0 3 > h ......[ h Z =.;.o.| D Z Z C f N 1.6.<.&.D < > , & % $ $ $ $ $ . . o o o o o o o o o $ $ $ $ $ $ $ o o o o o o o o o $ $ $ $ $ $ $ $ $ $ $ $ $ o o o $ $ $ o $ % % % $ * $ $ % $ $ * * * * * * @ @ @ @ * * * * * * o $ $ $ $ o o @ o o o $ o $ o $ $ $ $ * * @ @ @ * * * * @ @ @ * * * * * @ @ * * $ $ $ * * * * * * @ o o @ * o @ @ @ * @ * * * * * o o o o o * o o @ @ * * * * * * * * * * * * * * * @ * * * * * = 6 [ <.4.3.<.=.g j T T =.*.4.4.*.=.Z > * f g =.G.<.4 3 0 o.o.e.o.B I I : sXsXsXsXsXsXsXsXsXsXsXsXsXsXsXsXsXsXsXsXsXsXsXsXsXsXsXsXsXsXsXsXsXsXsXsXsXsXsXsXsXsXsXsXsXsXsXsXsXsXsXsXsXsXsXsXsXR =.3.3.| 6 * , ;.r.=.Z 6 * * j O.O.<.e.e...[ [ ) h [ 3.r.e.e.3.C 4 h j f , > > > > * * > > * @ * * % % % & * * = > > * * * * * * * * * * * * * @ @ @ $ @ * @ @ * * * * * * * * * @ @ o $ % * $ * * * @ @ o o o o . o * $ $ * * $ * * * * * @ * * o o o o @ @ o o O @ @ O o o @ o o o o o o o o o @ o o o o o o @ o @ $ o o @ @ @ o o o o X X o o o X X o X X X X . . . . . . o o o $ $ * * $ $ o $ $ $ $ o o o o % > > < * 4 Z =.*.*.} j f j R R R =.=.=.D 6 7 ) | o.) 0 @ X 3 h 4 * = H G.:.N D =.;.o.;.e.e.;.;.e.p.p.p.t.p.p.i.r.<.*.*.<.I.I.j j ",
"D.Z h G.D.O.&.3.6.6.4.3.3.3.3.3.e.u.e.e.4.4.<.:.=.=.H B :.F.N > 3 6 4 0 > * 0 [ Z C ) j N =.*.&.=.T V N C 6 B =.=.=.O.D s & . X   . . o o o * * @ @ @ @ @ @ @ * o o o @ o $ o @ @ @ @ o $ @ @ @ @ * * * @ @ @ @ @ @ * * @ @ @ @ O @ @ o o @ @ @ * > @ @ * * * * > > > > > 3 3 3 > > * * * * * * * * = > > > > > = = 3 4 4 4 > > > > > > = ; > > * * * * > > > > > > > > > > > * * * * > > > > 3 > > @ @ * * * * * * * * * * > * * * * * * @ @ @ @ * * * * * @ @ @ @ * * * * * * * * * * @ o . o * f } *.5.<.<.=.g j P P +.*.4.3.*.=.' > * 4 j O.G.<.4 > 0 o.o.;.| B I I sXsXsXsXsXsXsXsXsXsXsXsXsXsXsXsXsXsXsXsXsXsXsXsXsXsXsXsXsXsXsXsXsXsXsXsXsXsXsXsXsXsXsXsXsXsXsXsXsXsXsXsXsXsXsXsXsXsXR &.e.3.} 0 * > *.D.=.N h 3 * j W R =.=.| } | ) ) h Z <.3.r.e.;.C 4 > @ @ * * * * 3 3 3 3 3 > > > > > > > > > > 4 > > > > > > > = = > 3 3 3 3 > > > > 3 3 3 3 3 3 3 3 3 3 3 3 3 3 > > * * * > > > > > > > * = * ; ; > > > > > > > 3 3 3 3 > > > > > > > > > > > * * > > * @ @ @ @ * * * * @ * * > > * @ @ @ * * * * * * * * > > > * * * * * * * * * * * * * * @ o @ * * * * * * * * * * * * * * * * * * $ o o o o o . . o * s H T =.:.=.j f j k d j =.*.=.D 6 7 C | | ) 0 @ X * h 4 * * T G.1.H D D =.=.} &.<.<.&.&.e.y.t.e.t.y.r.<.=.=.*.*.I.I.h h ",
"D.Z h G.D.O.O.*.:.1.4.e.u.t.3.3.e.p.u.e.<.*.=.=.=.W H j :.D.N > 3 6 4 6 > * 6 [ [ [ Z j N W =.=.=.=.W D C f g W W D D H s & o o o * * > > > > 4 4 , 4 4 4 4 4 , , > , , , < , , , 4 4 4 , , 4 , 4 4 4 4 4 4 4 4 6 6 6 6 6 6 6 6 6 6 6 4 4 4 6 6 6 0 6 6 6 6 6 6 6 6 0 0 0 6 h h f f 6 6 6 6 6 6 6 6 6 0 h h h 0 0 6 f h h h 0 0 h h 0 0 0 6 0 6 6 6 6 h h h 0 0 h h h f 6 4 4 4 4 4 4 4 4 6 6 6 6 6 6 6 6 6 6 6 6 4 4 6 6 6 6 6 4 4 4 4 4 4 4 4 4 4 6 6 6 4 4 6 6 6 6 6 6 6 4 4 4 4 4 4 4 > > > , h } *.<.<.4.=.g j P E :.4.5.6.*.*.' > ; 4 j O.F.1.4 > 0 o.o.;.=.B I I sXsXsXsXsXsXsXsXsXsXsXsXsXsXsXsXsXsXsXsXsXsXsXsXsXsXsXsXsXsXsXsXsXsXsXsXsXsXsXsXsXsXsXsXsXsXsXsXsXsXsXsXsXsXsXsXsXsXR =.e.<.' 0 * , *.I.:.D j = * j W R T O.=.=.=...) h Z <.3.3.e.<.| 4 > > > 4 6 6 6 0 0 0 0 0 6 6 6 6 6 6 6 h h h 0 h 0 h h h h 6 6 6 6 h f f f h h h h h h 0 0 6 6 6 6 0 0 0 0 0 0 0 6 6 4 4 6 6 6 6 6 6 4 4 4 4 6 6 6 6 6 6 6 6 6 6 6 f f f 6 6 6 6 6 6 6 6 6 6 4 4 6 6 6 6 4 4 4 4 4 4 4 4 4 6 6 6 6 4 4 4 4 4 4 4 4 4 6 6 6 6 6 4 4 4 4 4 4 4 4 4 4 4 4 4 4 4 4 4 4 4 4 4 4 , , , 4 4 4 4 4 4 , , , , , , , , = * * * * 4 N O.=.=.*.=.N f j d d j =.:.=.D 0 9 ) | o.[ 0 @ X * h 6 * , T G.1.N j D =.| | ;.3.3.3.3.3.e.u.e.u.e.3.<.=.=.=.=.5.I.h h ",
"G.D j G.D.=.O.O.+.-.<.t.p.u.e.e.e.t.t.e.3.&.&.&.O.W R j :.D.N > 3 6 4 3 > @ 6 [ | | [ h B T T T =.W =.D C f g R V V R H f & o o * ; ; > > > , 4 , , 4 4 4 4 4 4 < < < < 4 s t < , , , , > > > > > , , , , , , , , , 4 4 4 4 4 4 4 4 4 4 4 6 6 6 6 6 4 6 6 4 4 6 6 f h h f 6 6 6 6 6 6 6 6 6 4 4 4 6 6 6 6 6 6 6 6 6 6 6 6 6 f h h h 0 6 6 6 6 6 4 4 6 6 0 0 6 6 6 6 6 6 6 4 , , 4 4 4 4 4 4 6 6 6 4 4 4 4 4 4 , 4 4 4 6 6 6 4 4 4 4 4 4 4 4 4 4 6 0 h 0 0 6 6 6 6 6 6 f h h s 6 6 6 6 4 , > > > > 4 Z *.*.:.4.&.g j P E :.4.4.<.*.*.' > > 4 g W D.:.4 > 0 [ | ;.&.R I P sXsXsXsXsXsXsXsXsXsXsXsXsXsXsXsXsXsXsXsXsXsXsXsXsXsXsXsXsXsXsXsXsXsXsXsXsXsXsXsXsXsXsXsXsXsXsXsXsXsXsXsXsXsXsXsXsXsXR =.;.=.Z 6 > , *.I.4.T j * * H W R R T =.:.=.} [ h Z <.;.;.3.3.} , * > 4 4 6 6 h h h C h h h h h h h h h h h h h h h h h h h 6 6 4 6 6 f f 6 6 6 6 6 6 6 6 4 4 4 6 6 6 6 6 6 6 6 6 6 4 4 4 4 4 4 6 6 4 4 4 4 3 3 3 4 4 4 4 4 4 4 4 4 6 6 6 s 6 6 6 6 6 6 6 6 6 4 4 6 6 4 4 4 4 4 4 6 6 6 4 4 4 4 6 6 4 4 4 , , 4 4 4 4 4 6 6 4 4 , , , , , , , , 4 , , , , , , , , , , , , , , , , , < 4 4 , , , , , , , 4 , , > * * * * 4 N D =.=.:.=.g f j g k j O.=.W D h 9 ) | ..) 0 > X * h 6 > , T G.:.B C | 3.e.e.e.u.e.e.e.e.e.u.u.u.e.4.4.<.=.O.O.6.I.j h ",
"D.] j D.4.=.=.=.+.:.<.u.p.t.e.3.e.u.u.e.3.3.*.*.&.=.H B -.D.C , 4 h 6 3 > @ 6 | ;.| [ h B R T D T W =.T N s g R R R R B u : o . o o % * * > > > > > > > > > > > * * > > > > > > * * * * @ @ * * * * * * * * * * * * * * * * * * * * * * * > > > > > > > > > > > > 3 3 3 > > > > > > > > > > > > 3 3 3 4 4 4 4 4 4 > > > 4 4 4 4 4 4 3 > > 3 3 > > > > 3 > > > > > > > > > * * * * * > > > > > > > * * * * * * * > > > > > > > > > > > > * * ; > > 3 3 3 > > > > > > > > > , , > > > * * % o % % * 4 C *.*.*.<.&.g j W E Q +.=.*.&.&.' > > 4 g W C.:.4 > 6 ) | 3.*.E P k sXsXsXsXsXsXsXsXsXsXsXsXsXsXsXsXsXsXsXsXsXsXsXsXsXsXsXsXsXsXsXsXsXsXsXsXsXsXsXsXsXsXsXsXsXsXsXsXsXsXsXsXsXsXsXsXsXsXP T | Z h 4 * , *.I.:.T j * * H -.E R R =.:.-.=.' 6 C &.&.;.;.&.C > % % * > > > > 4 4 4 4 4 4 4 4 > > > , 4 4 4 4 4 4 4 4 4 > > * * > > > > > > > > > > > > * * = = = > > > > > > > = * * * * * = , > > = * * * ; > > > > > > > = > = = > = > > > > > > > > > > > > > > > > > = * * > > > > = = > > > > * * * * * * = * * = > = = > > > * * * > > > = * * * * * * * * * * * * * * % % * * * * * * * * * * * * * * * o o o 4 f N W +.-.W g s j P k R H H T D h 0 ) | ..) 0 > X @ 0 6 > , T F.:.B L | 3.e.e.e.e.e.u.e.e.e.e.u.i.r.4.5.5.:.=.=.6.I.h f ",
"-.Z j 5.4.#.=.*.:.:.<.e.u.u.e.3.e.e.e.e.e.e.3.3.&.=.H B -.1.h 3 4 C h 4 * o 6 | | | [ h B R R D =.=.=.T N s f B B H H g u , * . o $ & > > > > > , > > > * = > * * = > > > > , > > > > > > > > > > > > > > > > > > > > = * * * * * * * * * * * ; ; > , > > > > > 3 3 3 3 > > > > > > > > > > > > > > > > > > > 4 4 3 > > > > , , > > > > > > > > * > > 3 > > > > > > > > > > > > * > > > > > > > > > > > > > > > > > > > > > > > > > > > * * > > > > > > > > > 3 3 3 > > > > > > ; * * * % $ $ * f C N =.*.*.4.&.g H +.Q W W O.=.=.=.' > > , f R C.-.< > 6 ) ..3.*.R P g % sXsXsXsXsXsXsXsXsXsXsXsXsXsXsXsXsXsXsXsXsXsXsXsXsXsXsXsXsXsXsXsXsXsXsXsXsXsXsXsXsXsXsXsXsXsXsXsXsXsXsXsXsXsXsXsXsXP V ' j s 4 * , *.I.:.R j , * D =.T R R W +.+.O.[ 6 C &.&.;.3.;.C 6 , % % * * > > * * * * > * > > * * * * > > > > > > > > , , , , , , > > > > > , , , , , , , , , , , , , , , , , , , , , , , > , , , , , > > > > 4 , , > > > 4 4 3 > > > > > > > > > > > > > > > > > > > > > > = * > > , > > > > , , > > > > > > > , > > > > > > > , , > > > > > > > > > > > > > > > 3 > > > > > > > > > > > > > > > > > , > > > ; * * > f h H =.=.W R f s g R R H Z N H H h 6 C | | ..0 > X @ 6 6 > , T F.:.H Z | 3.e.e.e.e.e.e.e.t.u.e.r.r.r.3.6.4.*.&.=.5.I.h f ",
"W h j 5.<.O.=.*.:.-.*.3.e.e.e.e.e.e.e.e.e.u.e.3.=.T H B -.:.h 3 4 h h 3 @ @ 6 | | | [ j N R T =.*.+.W V Z s f j j H H f t f s * $ & = > , , , , < < < , , , 4 4 4 , , , , , < < , , , , , 4 4 < 4 < < 4 6 6 6 < 4 4 4 4 4 4 4 4 4 4 4 < < < < < < 4 s s s 6 6 6 6 6 6 6 4 , 4 4 6 6 6 6 4 4 6 6 4 4 4 4 4 4 4 6 6 6 4 4 4 4 6 6 6 4 4 4 4 4 4 4 < , , 4 4 4 4 4 , , < < < 4 4 4 4 4 4 6 6 4 4 , 4 4 , , , , , , , 4 4 , 4 4 , , < 4 4 4 , , 4 4 4 4 4 4 4 4 4 4 4 4 4 , , , , , , , , , , > > s D D j D *.<.<.*.j D *.&.*.=.=.=.=.=.' > * , f R -.=.< > 6 ) o.3.;.R P g % sXsXsXsXsXsXsXsXsXsXsXsXsXsXsXsXsXsXsXsXsXsXsXsXsXsXsXsXsXsXsXsXsXsXsXsXsXsXsXsXsXsXsXsXsXsXsXsXsXsXsXsXsXsXsXsXsXP V } N f 4 * 4 ;.P.*.N f > > ' *.=.T T T W W D j 4 j &.&.*.3.;.C Z Z 6 , , , < < < < , , , < < < < < < 4 < , < < < < < < < t s s s < < 4 s s f f f f h f f f f f s s f f f f s s s s s s s s 6 6 6 6 6 6 s s f h h f s 6 6 6 h f f 6 6 6 f s f f 6 4 4 s s < < < 4 4 6 s s s s 4 4 4 s s s s < < < < < t t s s s s s 4 < 4 s < < s s f s s s s s s s 6 4 4 4 4 4 6 f f f f s s s s s 4 < < < s s f f f f s s s s < , , C ' N H =.T R B f 4 h g H D ' D H H f 4 C | | ..0 3 X @ 6 6 > , T D.:.H Z | o.>.e.3.o.o.3.u.t.u.e.e.e.e.r.6.4.*.&.=.5.I.h f ",
"=.C h 6.<.O.=.*.:.+.&.3.e.e.e.u.e.e.e.u.e.p.t.r.=.T H j -.-.j 4 3 6 4 - > @ 0 o.;.;.[ j N T =.=.*.=.H B C h g B R T D f < N j , * , , t t u u u f f f f f f h j h h f f s s g g g f s f g g g g g h g g B B g g g h h g N H H N j H H H H N j N H H B H H H H N N N V V N N N N D D D Z Z D D =.=.| | ' [ ' D T W =.J D D Z D D D H H H H H H H H H H H D D D Z N N N H B B H H H H D T D V N g j N N N N B B g g B g g h h g g B H H B g g B N j Z H H j j N H N N B g f f f f h g g h s s s j =.N s O.| &.<.&.h D *.<.6.:.:.+.=.=.' > * , j W C.=.4 , 0 o.>.3.| j P P & sXsXsXsXsXsXsXsXsXsXsXsXsXsXsXsXsXsXsXsXsXsXsXsXsXsXsXsXsXsXsXsXsXsXsXsXsXsXsXsXsXsXsXsXsXsXsXsXsXsXsXsXsXsXsXsXsXP R &.D h 4 * > =.r.=.j 4 * > ' :.=.=.=.O.T T Z h 4 j &.;.*.3.&.6 L &.Z s u g j N H D D H N H V D D D D H D D D D D D N N H H H N N B g H R T =.&.&.&.*.&.=.=.=.' D ' O.O.D D D Z H V D D N H N Z Z Z Z D D D ' =.=.O.D N Z Z T T T D D T W =.=.=.T V V D H H H R R T T T T T R H H H B j j j g g g g j j j j j j j j j B B H j g j B R B B B j g g g g h h h h N V T B g j B R R H j d f f f g H R j d u g g j g t < s [ } h f B g g j f 6 h g N =.;.&.D H h 4 h [ | [ 0 @ X @ 6 6 > , H D.:.H Z =.3.3.3.3.;.;.e.y.u.u.e.3.3.y.y.r.3.3.;.=.<.5.f f ",
"<.j j 4.<.=.O.&.=.W &.e.u.t.e.e.<.&.*.e.t.u.e.3.' H H j +.:.j 3 3 3 > > @ @ 0 o.3.;.[ s Z ;.*.*.=.H N ' D s i I E T V h < s N f > , s f f f g f d j j g f f j D T H d d d g H T H H g g j j H T T H H H ' } =.+.W P R W =.*.*.| } =.&.*.:.:.:.:.*.*.=.W T W T ' | ;.<.<.<.=.W -.:.1.1.:.W =.&.3.r.r.y.y.<.:.1.1.4.4.<.4.<.&.*.*.<.<.*.=.:.+.-.:.-.=.$.<.3.3.3.4.<.*.=.+.W =.-.=.&.<.<.<.<.<.<.1.=.W W Q Y E W =.*.=.*.<.<.*.*.*.*.=.W T T =.&.=.=.&.=.=.&.=.=.=.&.&.&.=.W T T =.=.W T B j g h D D s s ' O.' ' H j D $.<.3.r.4.*.=.-.D = * , Z <.D.*.4 3 ) >.3.3.| h P B $ sXsXsXsXsXsXsXsXsXsXsXsXsXsXsXsXsXsXsXsXsXsXsXsXsXsXsXsXsXsXsXsXsXsXsXsXsXsXsXsXsXsXsXsXsXsXsXsXsXsXsXsXsXsXsXsXsXP T &.Z C 6 * > | 5.&.h 4 @ * ' :.*.:.:.*.' ] ] Z 6 h ;.;.o.o...0 6 &.=.h f B ' =.;.;.*.;.&.&.<.<.:.1.:.=.=.3.y.y.y.y.6.3.&.=.*.*.*.&.&.&.*.<.4.5.5.5.5.6.r.y.y.3.&.*.4.r.r.4.*.*.&.&.&.*.*.| &.=.| &.3.<.*.3.r.4.4.*.&.&.<.<.o.&.=.-.1.4.4.5.r.r.3.<.<.5.4.5.4.4.5.5.5.<.<.:.=.W W =.=.:.<.:.:.:.+.R B H T =.O.H N =.*.4.4.-.=.W W T W T H B R R H T O.W T R W *.<.<.=.H j k E -.-.W j d d j R =.W j f f h g H g t s j T N 4 6 j H R R f 6 C C C | 3.3.*.D 6 7 h _ C h 4 * X @ 3 > * > H -.W h Z O.=.| 3.3.;.o.3.t.u.e.3.*.*.6.y.y.3.*.=.W *.4.g f ",
"<.j j 4.*.D O.O.T W &.3.e.e.3.;.=.=.&.3.e.t.y.e.=.T H j +.1.j 3 3 > > 3 > @ 0 o.;.;.[ h ' *.;.*.=.D D ' ' s g E W R H h , < g g t < f g g B d y j R H g f f j D T H j g g H W =.=.W H j g R W +.W V D =.*.<.1.-.W R T =.:.<.<.&.=.*.<.<.<.<.<.4.<.*.:.:.-.-.=.&.<.e.e.r.4.*.=.=.1.1.1.1.=.=.*.3.r.y.y.y.4.<.4.I.I.I.r.r.r.3.3.r.y.y.4.*.:.:.<.D.4.:.*.3.t.r.r.r.r.5.<.:.:.:.1.:.*.6.y.y.y.y.y.5.<.<.1.1.-.Q +.*.;.r.r.y.r.3.<.<.<.4.:.=.=.<.4.<.<.<.4.<.:.*.*.:.:.:.+.+.+.W T =.*.=.V j j j j D N 4 6 Z &.=.O.H h Z &.<.e.i.y.3.&.=.Z = * 4 D 4.I.<.4 3 0 ..o.3.o.j R R & sXsXsXsXsXsXsXsXsXsXsXsXsXsXsXsXsXsXsXsXsXsXsXsXsXsXsXsXsXsXsXsXsXsXsXsXsXsXsXsXsXsXsXsXsXsXsXsXsXsXsXsXsXsXsXsXsXj H | Z C 6 * > } 4.*.[ h * * ' :.*.4.4.*.} ] ' Z 6 j *.4.3.3.3.6 4 | *.V B B =.*.<.*.*.:.*.*.<.D.<.=.=.*.<.3.y.y.I.I.y.y.5.<.<.<.<.<.<.4.6.r.y.y.y.y.y.r.i.i.i.4.*.&.<.6.r.r.r.3.3.r.r.4.3.;.3.3.4.r.y.y.6.3.r.y.r.3.;.&.<.6.y.6.4.5.D.I.I.Y.Y.y.y.r.6.5.5.r.I.I.I.y.y.y.6.:.:.:.<.4.<.4.5.5.5.D.:.W R W :.:.=.V H =.:.4.1.:.:.:.+.+.:.-.P R W W +.+.-.-.W W +.:.4.4.:.W P P P E E P j j j P W Q W P k g g g j d u f H D f , f ' =.+.T f 6 C N N } &.<.*.D 6 3 h _ Z h 4 * X @ 6 > * = H :.+.g j D ' } &.3.3.*.3.e.e.e.3.*.&.&.3.3.;.&.*.=.*.5.h f ",
"*.j j 4.*.D O.T T W =.;.3.3.*.=.=.=.=.;.3.r.r.4.:.=.H j +.:.j 4 4 4 > 3 > @ 0 o.;.| [ h ' *.;.;.*.=.=.O.[ s g E E R H C 4 < h B f t d j H H j d B R H g f f N T R k j g j R W W W W R P P I E Q E B V =.:.:.Q Q W W W -.1.<.<.$.=.*.<.<.<.<.4.D.4.1.=.+.-.=.W } 3.e.e.3.<.=.=.=.:.-.:.:.=.=.&.3.r.y.r.3.<.<.4.I.I.y.r.3.3.3.3.3.r.y.3.*.*.:.:.4.<.*.;.3.e.3.3.3.5.6.4.:.-.:.:.*.*.4.y.y.y.y.r.r.r.4.<.4.-.W T =.;.3.3.3.<.<.*.*.4.D.4.=.O.*.:.*.=.=.<.4.:.*.:.:.:.-.W W W W R W =.T H H H j R T j < f ' =.T O.D j Z &.3.e.i.i.4.*.&.H * * 4 H 4.U.<.4 1 9 ) ..3.o.B E R * sXsXsXsXsXsXsXsXsXsXsXsXsXsXsXsXsXsXsXsXsXsXsXsXsXsXsXsXsXsXsXsXsXsXsXsXsXsXsXsXsXsXsXsXsXsXsXsXsXsXsXsXsXsXsXsXsXP T &.L C 6 > > ' <.&.' C * * } <.*.<.<.*.| ' ' D 4 j *.4.4.3.;.0 > ' <.W H j R =.*.*.*.=.=.=.<.5.1.W =.<.4.4.6.6.y.y.y.5.<.*.*.*.*.*.<.<.<.3.r.r.y.y.I.y.i.r.r.4.<.<.<.4.6.6.3.3.3.r.r.3.*.3.r.r.3.<.3.r.y.r.r.y.y.r.*.&.<.4.<.*.*.4.4.4.r.y.y.y.e.e.3.<.<.:.<.4.r.y.y.r.4.&.=.&.:.:.*.*.*.*.:.1.-.W E Q :.-.W R T W W W W W +.+.-.-.1.-.E P Q E E W Q W E E W Q :.-.-.Q P P P P P P P P P P E E P k k k j j d u u g H H s > f D H T R s 6 Z H H D O.=.W H 6 3 6 [ [ h 4 *   o 3 > * > H 1.-.N [ } | } | ;.;.=.=.;.3.3.3.<.;.3.3.3.;.;.&.=.*.5.h s ",
"=.h j 4.*.D O.O.W W =.;.;.*.*.*.+.+.=.*.<.3.*.*.=.=.H j :.B.j 4 4 4 3 3 @ @ 0 | | | [ h Z =.;.;.;.*.&.=.Z s g E W T D N s < f g f t u u d g j g k R P j j j R P k k i i i B P P B g g g i k P P P B B V R R P P P R W W =.=.=.D D =.=.W W W =.-.-.=.W W W W T } &.*.;.=.} D =.=.=.W =.=.=.O.| ;.3.e.3.o.;.;.<.4.4.<.<.;.&.&.&.;.<.<.;.*.*.:.&.=.=.=.=.*.<.<.*.*.:.:.:.=.W +.+.=.=.*.*.*.*.*.*.*.*.*.=.W T R H D | ' } } } =.=.=.+.-.W E R T T T R R W +.-.-.W W W R R R R R R W W W T H H H =.&.N < f D H H =.O.j Z | ;.e.y.I.4.*.*.H * * , N :.G.:.4 > 9 ) { o.| g E R * sXsXsXsXsXsXsXsXsXsXsXsXsXsXsXsXsXsXsXsXsXsXsXsXsXsXsXsXsXsXsXsXsXsXsXsXsXsXsXsXsXsXsXsXsXsXsXsXsXsXsXsXsXsXsXsXsXsX:.<.} C 6 > > | 4.=.Z f * * } <.&.*.*.*.&.=.O.D s j &.:.*.*.} 0 > C *.=.H B H T T W =.=.W =.-.-.W W =.*.*.*.=.*.<.5.5.4.=.W T T W =.=.=.=.=.=.*.3.r.3.3.;.;.&.=.W W W W &.<.4.6.*.*.=.O.' =.<.*.=.D } *.<.4.4.*.&.=.=.T O.=.R R T W *.*.;.<.<.;.3.*.*.&.=.=.=.&.*.6.y.r.:.=.W W W T =.W T V T =.W W P P P k d g R R P B B R W =.W W W R j P E E R R W W W W W =.-.:.:.+.W P E E E E E W E E E P P P P k R R j d g H T H 4 < h Z H V H s 6 Z V H H H E E H 6 3 6 Z C h 4 * X o 3 4 * , D D.:.H ' ;.*.&.&.&.=.H H ' ;.3.3.3.3.r.y.r.3.<.&.} *.r.g f ",
"=.f h 3.=.D ' O.O.=.*.3.;.&.=.=.&.=.=.*.<.<.*.*.=.T B H :.F.N 4 4 4 > @ O o 6 ' ' ' Z h Z | o.o.| =.=.} Z s g +.-.=.=.N s , h N f f u u t f f i g g g j j j j d i i i i t d g g d d d i i i i i d d d f g j j j j j j j g g h h j j g H H V R T W W W T T H H H ' =.=.D D D W =.=.T T T D ' [ | | ;.| ....| | =.=.=.=.' Z Z D D } } ' O.=.O.T H T T T =.=.=.=.=.O.O.=.T R R T T T T T T T T =.=.=.' H H H B N N Z N N N N D D T T H B H B g g B H R B R T T T D N H H V V R R R R D D H g H =.*.N < h D N V =.=.h N } &.4.y.y.4.&.&.Z * * 4 H :.D.=., > 0 ) ..o.| g R R & sXsXsXsXsXsXsXsXsXsXsXsXsXsXsXsXsXsXsXsXsXsXsXsXsXsXsXsXsXsXsXsXsXsXsXsXsXsXsXsXsXsXsXsXsXsXsXsXsXsXsXsXsXsXsXsXsXsX=.3.L h 6 > > =.r.*.h 4 $ * } <.&.&.&.&.&.=.O.R s g =.=.*.*.' 6 > C &.=.H H H H H D =.=.=.W W T R T T T T T D T =.:.:.*.W T T T T T T R V D ' =.*.*.| | } } J D H H N N V D =.} D Z N N H H H D V N H D =.=.=.D D H D T R H B H H V =.=.| D Z Z ' ' O.D H N N N D } =.=.T T H j g g g B g f f g g g f t t t t f g g f s u s s s f t t t < t t t t s s s s s 4 s f f f f s t t t f f f f d g f f d f s f f f s t f N D N , , N =.=.=.V s 6 C H g g g P P H f 3 6 [ Z h 3 @ X @ 4 4 > , T D.:.D [ =.3.<.*.&.=.R H T *.<.<.&.&.3.r.e.3.*.=.} *.5.j f ",
"=.h h 4.*.D H R T &.3.3.;.O.H O.=.=.=.=.:.<.4.4.=.T H H 4.D.N 4 4 4 > @ o o 6 ' ' Z N j Z | o.o.| | ' Z j s g +.:.:.=.N s , s f < , > > > > & & & * & & = * & & & & & & % = > , > > > > > > = > , , , , > , < , , , , , , , , , 4 4 , < 4 4 4 6 s h f f f s 6 6 6 4 6 6 6 s s s f 6 6 6 4 4 4 6 6 6 6 4 4 6 6 6 4 4 4 , > > , , 4 4 4 4 4 , , < 4 4 4 4 4 4 4 4 < , , < , > , , , , , , , , < < , , , , < < , , , , , > > , , , , > > , , > > , < < , , , , , > * > , , > , , , , , , , > 4 f h 4 < h D T =.*.O.f N =.*.*.4.<.*.=.=.Z * * 4 H :.D.=., > 0 { ..o.| B R R $ sXsXsXsXsXsXsXsXsXsXsXsXsXsXsXsXsXsXsXsXsXsXsXsXsXsXsXsXsXsXsXsXsXsXsXsXsXsXsXsXsXsXsXsXsXsXsXsXsXsXsXsXsXsXsXsXsXsX-.<.} h 6 > > ;.I.*.j 4 * * } *.=.&.*.&.O.O.R j s j =.*.&.*.' 6 > 4 h f 4 4 4 4 4 4 6 f f 6 6 6 < < < < 4 4 4 6 f f 6 6 6 6 6 4 4 4 < < 4 4 f f h 6 6 6 6 6 6 6 , , , , , 4 , > > > , < 4 , < < 4 4 6 6 6 6 6 6 4 4 4 4 < , < < < , 4 6 4 > > > > , , > , > , , , , , , , , , > * * > > * * * & % % $ $ $ $ $ % * * % % * * * * * $ $ $ $ $ o $ $ $ * * o o o o o @ o o o o o o o $ $ $ $ $ $ $ $ $ $ $ $ $ $ $ * , 4 4 * , Z &.<.:.T s 6 C H B g g R R R f 3 h | | C 4 @ X o 4 4 > , T D.:.D ' =.*.<.*.=.D W R T :.*.=.Z ' ;.3.;.;.=.=.D *.D.j f ",
"=.f h 4.*.H H H T &.*.;.| D D ' } &.=.T =.<.5.4.*.T H H :.4.N 4 4 4 * @ o o 6 ' D Z j j Z | 3.e.;.| D Z j 4 g W :.=.W H s * * $ . . . o o . o o o o o . o . . X X . . X X X . . o o o o o o o o o o o o @ @ @ @ @ @ o o o @ @ @ @ * @ * > > > > > > 3 > ; * * * * * * * * * > * * * * * * * * * % % * * @ @ * @ @ @ @ o @ @ * * @ @ @ @ @ @ @ * @ @ @ * * @ @ @ @ @ O O o @ @ o o o o @ o o @ @ o o @ o o @ @ @ @ @ @ @ O o @ @ O @ @ @ @ @ @ @ @ @ @ @ O @ @ @ @ @ @ @ @ @ O O @ @ @ @ @ @ o * * , j =.*.<.<.=.h N T =.*.<.5.<.=.=.Z * * , h O.4.=.> > 0 ) o.3.| N R B $ sXsXsXsXsXsXsXsXsXsXsXsXsXsXsXsXsXsXsXsXsXsXsXsXsXsXsXsXsXsXsXsXsXsXsXsXsXsXsXsXsXsXsXsXsXsXsXsXsXsXsXsXsXsXsXsXsXsX-.3.&.C 6 > > ;.I.=.h f * * =.*.=.<.4.4.*.' Z j 4 j *.:.*.*.' h > * o * * * = * * * * * * > @ @ @ * @ @ @ * 3 3 @ @ @ @ - > * @ * @ @ > > > * 3 * * @ @ @ * * @ @ @ @ @ @ @ @ @ O @ @ @ @ @ @ @ * * * * @ * * * * * @ @ @ * @ @ @ @ @ @ o o o X X O O o O @ @ @ @ @ @ @ @ @ @ o o o O O @ @ O O o o X o o X o o   o o o @ O @ @ @ o o o o o o o o o o @ @ @ @ @ * @ @ @ * * @ @ @ @ @ @ @ @ * @ @ o @ @ @ @ @ o o o o * * s D &.<.<.=.h 6 C D T D H T W H f 3 h | | h 4 @ X o 3 3 * , H D.:.T ' | ;.;.&.=.D T B H =.T N g N ' &.&.=.=.T D :.G.j d ",
"*.h h :.&.N j j j D =.D N N N Z =.&.T T W -.:.:.=.W H j +.-.h 4 6 4 * @ o o 6 | =.' j j Z | 3.e.3.;.} Z h 4 h W W T D N s % . . . o @ * * % * * ; > > ; ; > > * * * * % % * * * % * * * * > > > > > > > > > > > > > > * > > > > , , 4 6 6 6 6 6 6 6 6 6 6 6 4 4 > 4 4 4 3 3 3 4 4 4 4 4 4 4 4 4 4 4 4 4 4 4 4 3 3 3 > > > 4 4 4 7 7 3 3 , 3 3 3 3 3 4 4 4 4 4 4 3 3 3 3 3 3 3 > > > 3 3 > > 3 3 3 3 > > > > > 3 4 , > > > > > > > > > > > > > > > > > > > > > , 3 3 > > > 4 3 3 3 3 3 3 3 > * o * < N *.<.:.4.=.h N T =.*.:.4.D.4.-.Z * $ , f H :.=., > 0 o.o.;.;.H P B $ sXsXsXsXsXsXsXsXsXsXsXsXsXsXsXsXsXsXsXsXsXsXsXsXsXsXsXsXsXsXsXsXsXsXsXsXsXsXsXsXsXsXsXsXsXsXsXsXsXsXsXsXsXsXsXsXsXsX=.4.&.[ 6 = > *.I.*._ h * * ' <.&.3.r.r.3.| [ h 4 j :.<.*.*.O.C , * @ * 3 3 3 3 3 3 3 4 4 3 3 4 4 4 3 3 4 4 4 4 4 3 3 3 7 7 4 4 4 4 4 4 4 6 4 4 4 4 3 4 4 6 4 4 4 7 7 7 3 3 3 > > 3 4 3 3 4 > > 3 4 4 4 4 4 8 4 4 4 4 4 3 4 4 4 3 3 3 > > 3 3 > > > > 3 4 4 4 3 3 3 3 3 4 4 3 > > > > 3 3 > * > > * * * * * * * % * * * * * > > * * * % % * * * * * * > = * > > = * * * * * * * * * > * * > > > * * * * > * * * o o o $ * f ' &.4.<.=.h 6 C ' } ;.;.' T T f 4 f Z Z h 4 @   o 3 > * > R C.:.D Z } =.=.=.T T H j g B g f s f j ' =.W T R T :.G.H g ",
"1.h h :.=.j j j j H H N N N N Z ' ' D V T =.*.*.=.T H H :.:.f 4 4 4 * @ O O 0 ;.*.;.' j Z | 3.e.3.;.=.Z j s h T T H D N f = % > * > 3 4 4 4 , , 4 6 6 6 6 4 4 4 4 4 4 4 4 4 4 4 4 4 4 4 4 4 6 6 4 6 6 6 6 s s s 6 6 4 4 4 6 6 6 f f f j h C j j C C C C C j h h f f h h 6 6 6 6 h h h h h 0 h 0 6 6 6 6 6 6 6 6 6 6 4 4 4 4 6 0 0 6 6 6 6 6 6 6 6 6 6 6 6 0 0 6 6 6 6 6 0 6 6 4 4 6 6 4 4 4 4 6 6 6 6 4 4 6 4 6 6 6 6 4 4 4 4 4 6 6 6 6 4 4 4 4 6 6 6 6 6 6 6 f 6 0 6 h h h 0 6 6 6 6 6 4 7 4 4 , 6 H =.*.=.*.T g H W =.*.<.4.D.4.:.' * $ , f H :.=., > 0 o.o.o.;.B P B $ sXsXsXsXsXsXsXsXsXsXsXsXsXsXsXsXsXsXsXsXsXsXsXsXsXsXsXsXsXsXsXsXsXsXsXsXsXsXsXsXsXsXsXsXsXsXsXsXsXsXsXsXsXsXsXsXsXsX=.4.&.[ 0 > > *.I.r.;.h * * ' <.*.3.r.r.3.;.[ h 4 j &.&.&.;.&.D 6 > > 4 6 6 0 0 6 0 0 6 6 6 6 h h h 6 6 0 h h h h 0 6 6 0 0 6 6 6 6 6 0 h h h h h h h h h h h h h h h 0 0 6 6 4 4 6 6 6 6 4 4 4 6 6 6 0 0 0 h h h h 0 0 0 h h h 0 6 6 6 6 6 6 6 6 6 6 6 6 6 6 6 6 6 6 6 6 6 6 6 4 4 4 4 4 4 > 3 3 > > > 3 4 > > > , , , 4 4 4 4 4 4 , , , , , 4 4 4 4 6 6 6 4 6 4 4 4 4 4 4 4 4 4 4 6 4 6 f f f s 4 4 4 4 4 4 4 > > > > > h O.:.<.*.=.h 6 C [ } ;.;.=.=.W f , f Z Z j 4 *   o 4 4 * , T F.1.D ' =.*.*.=.H j g g h h f 4 4 s f h H H H R H :.I.H g ",
"1.j f *.=.j j N H Z s 4 , > , 4 4 6 j D T O.=.*.&.=.H H 4.D.j 4 4 4 * @ @ o 6 | 3.3.=.Z _ | o.;.;.=.=.[ C f C D H H D j f , % * * * > > > > > > > > , , , > > > > > > > > > > > > > > * * * * = > > > > > > , , > = > , > > , , , , , 4 6 6 4 4 4 4 6 6 6 4 4 4 4 , , 4 , > > > > > > > > > > > , > > > > , , , > > > > > > , 4 4 4 3 3 > , > > > > > , > 3 3 > > > > > > > > * * * = = * * * * > > > * * * * = > > = * * * > > * * > > > > > > > , 4 4 4 4 4 4 4 4 4 4 4 4 4 4 4 4 6 4 4 4 4 6 4 6 H T T R W T j D =.=.*.<.<.:.&.:.' = * 4 j H -.=., > 0 o.o.o.| g P P $ sXsXsXsXsXsXsXsXsXsXsXsXsXsXsXsXsXsXsXsXsXsXsXsXsXsXsXsXsXsXsXsXsXsXsXsXsXsXsXsXsXsXsXsXsXsXsXsXsXsXsXsXsXsXsXsXsXsX=.<.=.Z h > > *.I.y.3.C * * =.<.*.4.y.r.e.;.[ C 6 j =.} | ;.:.' , > > 4 4 6 6 6 6 6 6 4 > 4 4 4 4 4 3 > 3 4 4 4 4 4 4 4 3 4 > > > > > 4 4 4 4 4 4 4 4 4 4 4 4 4 4 4 4 4 , > > > ; ; > > > > > > > > , 4 4 4 4 4 4 , 4 3 4 4 4 , > > > > > > > > > > > > > 3 > > > > > > > > > > * * * * * * * * * * $ $ * * * $ @ * * * > > > > = = * > > > > * * > > , , < , , < < , 4 4 4 6 6 6 6 6 6 6 s s s 4 4 4 4 4 4 4 4 4 4 , * , f H :.:.*.=.h 6 C Z } o.3.;.=.T f 4 h ' ' h 6 *   o 6 4 > , T F.1.D } *.*.*.&.D h B g s 4 4 > > , 4 6 f N H H H *.G.H g ",
"1.j h *.=.H H H ' h $ . . . . . X @ 4 D D T =.<.*.=.H H 4.D.j 4 0 6 * @ @ @ 6 ..o.3.;.H D | | | | ;.=.Z C s C D H H R g h s % o . . o o o o $ $ * $ $ $ $ $ $ o o o $ o o o o o o o o o o $ $ $ $ $ $ $ $ $ $ $ $ $ $ $ o $ % $ $ % % & * * * * * * * * = * * * * $ % % % $ $ $ * & % % $ $ $ % % $ $ $ $ $ * * $ $ o o o o $ % * * @ o o $ $ o o $ % $ $ $ $ $ o o o o o o . o . . o o o o o o o o o o . o o o o o . . o o o o o o o o o o o $ * * * * % @ $ $ o o $ $ o o o o o o $ $ $ * $ * > 4 h H W W +.R j O.&.&.3.4.*.=.O.:.' = * 4 N D 1.=., > 9 ) { o.| j P P &   sXsXsXsXsXsXsXsXsXsXsXsXsXsXsXsXsXsXsXsXsXsXsXsXsXsXsXsXsXsXsXsXsXsXsXsXsXsXsXsXsXsXsXsXsXsXsXsXsXsXsXsXsXsXsXsXsXT *.} Z 0 > > ;.y.*.[ h * = =.<.*.3.r.e.3.o...C 6 j $.| o.3.*.j , * $ $ * * * * * * * $ o $ * $ $ $ o o $ $ $ * * * % % % % % $ $ $ o % % & & & & & % $ $ $ $ o o o $ $ o o o o o o o $ $ o o o $ $ $ $ $ $ $ % % $ $ o * * $ $ $ o . o o o o o o o o . . $ $ $ $ $ $ $ $ % & $ o o $ $ $ * $ o o o o o o . . . o o $ $ $ $ $ o $ . . . . . . . o $ $ $ $ % & % % % % % * * % * * * * * * > = * * * * * * * * * * = * * f f N *.&.=.W f 6 C L [ o.3.&.T H f 4 C &.=.Z 6 *   o 3 4 = , T D.:.H ' &.*.*.*.=.Z N 4 o . .   . . X * 4 N D Z Z *.D.N f ",
"1.j h *.=.H H H H 6 .   o & $ o X X > C ' =.<.<.*.=.Z H 4.D.j 4 0 6 * @ @ @ 9 o.;.3.;.H H } | | &.;.=.Z C 4 h D H V T g g g , * % * * > > > , , , , > > > = > > , , > > > > , , , , , < < < 4 4 , 4 4 4 < , , , , , , 4 , , 4 , , 4 4 4 6 6 s s 6 6 f f h f f 6 6 4 s 6 4 4 4 4 6 4 < < < < < < < , , , < 4 4 4 4 4 4 , , , < 4 4 4 4 , , 4 4 4 4 4 4 4 4 4 4 4 4 4 4 4 4 4 < < 4 4 4 4 < < < < 4 , 4 , < < , , 4 , > > , , , 4 4 4 4 4 < 4 4 4 4 4 < , 4 4 , < < , , , , , , > > > > > > > > = h Z N =.-.:.:.T h } 3.4.6.4.*.=.O.:.O.= * 4 N =.<.=.4 > 9 ) ) | | B I I &   sXsXsXsXsXsXsXsXsXsXsXsXsXsXsXsXsXsXsXsXsXsXsXsXsXsXsXsXsXsXsXsXsXsXsXsXsXsXsXsXsXsXsXsXsXsXsXsXsXsXsXsXsXsXsXsXg H =.} Z 0 > > &.6.} h h = = } <.&.*.3.3.3.o...) 6 C &.| ;.3.;.j h 4 & $ * > > , , , , > > > > , , > , > , , , 4 4 4 4 , < < < < , , , , < < < < < s < < < < , , , > > , , > > > > > , > > > > , > , , , , , , 6 6 4 4 , 4 4 < < < < < < 4 < < , 4 4 4 , , , 4 4 4 , 4 4 4 4 < < , 4 4 < < 4 < , > , , , , , = = > , , , , , , , , = * * * * = , , , , > > , , , , , , , , , < < , , , , , < < , , , , , , , , > , , , 6 =.H j =.T H R f 4 C C Z | ;.=.D N s 4 h | =.j 4 *   o 3 4 * , R C.:.H ' =.*.*.*.} Z C , .   o o o .     4 Z N N D :.D.N f ",
"1.j f &.O.j j N j 4 . . , < < > @ X > j =.*.<.<.=.D N H :.:.f 4 6 6 * @ X O 0 o.e.3.| N D =.;.;.3.;.=.Z C 4 f H H T T f g H f < , s f f f f h g g f f t t t f f f f f u u s f f f f f h h j j j j h h h h f h h C h h C C N Z N N Z Z Z D D ' ' ' Z [ ' } [ [ [ [ D D D H Z Z Z Z Z N N Z D D Z Z Z Z Z Z Z _ Z Z Z Z Z Z Z D ' ' [ Z Z N H H D Z Z Z Z ' ' D D ' D Z D ' ' ' D D T O.' D H Z Z Z Z Z H H N j C Z N j j j j C C C C C j N N N N N j j N N N N N H H B g g N N g h h f s s s s f ' ' h &.4.4.4.H f ' 3.3.3.<.*.=.O.&.' = * , C =.4.*.4 > 9 ) ..o.&.B P I &   sXsXsXsXsXsXsXsXsXsXsXsXsXsXsXsXsXsXsXsXsXsXsXsXsXsXsXsXsXsXsXsXsXsXsXsXsXsXsXsXsXsXsXsXsXsXsXsXsXsXsXsXsXsXsXsXu H =.=.Z 0 > > =.6.=._ h * * ' <.$.*.3.3.e.3.| ) 0 C =.| 3.3.;.j D N < , < s h h h h h h h j j j g g h j C Z N N N N N N N g h h h h h j j g N N N H [ Z Z Z N C C h N N N C h j C C C f f h j j j j j C N N Z ' ' ' Z Z Z Z D D H N g g B H Z [ [ [ Z N N Z D Z Z N N C Z Z N N j N N j N j h f f f f f g g f f f h h j j C C C Z j j h h h j j j j j h h h h N N N j h g g g g h f f f f f f h g g g h g f s s < < 4 C *.N f R H H R s 4 C L Z ' =.O.T H f 3 h ' ' j 4 @   o 4 4 * , R C.:.H } *.*.&.=.Z j h >   . > , > &     > j N N D =.4.g f ",
"1.j h =.H h j g h , . o , t u , o X > j ' O.=.=.O.O.H H :.:.f 4 6 6 @ o o O 0 o.e.e.;.Z =.*.*.*.3.;.} Z j 4 h H T T T f f T H s t f g j g g g g j j j d u u d g j j g d f f g g g g j j B H H H H H H V H B H H H N N D ' ' ' ' ' ' =.=.=.&.*.*.*.=.;.;.;.;.&.&.;.&.&.*.&.=.=.=.=.&.=.&.*.*.*.*.*.<.3.*.;.;.;.;.;.;.&.&.&.*.<.<.3.*.&.=.=.&.*.*.*.&.=.;.*.*.*.*.*.*.*.*.:.:.:.*.&.:.:.:.:.*.=.=.=.*.&.&.=.T D } ;.=.D D D D D ' | [ ' ' D D T T T T T T T T T =.=.W T H H D T H H H g f f u s Z =.Z h &.=.:.:.H h [ | =.&.&.*.*.=.+.D > * , C =.4.*.4 > 9 ) ..o.&.g P P &   sXsXsXsXsXsXsXsXsXsXsXsXsXsXsXsXsXsXsXsXsXsXsXsXsXsXsXsXsXsXsXsXsXsXsXsXsXsXsXsXsXsXsXsXsXsXsXsXsXsXsXsXsXsXsXsXi H =.=.Z h > > ;.r.*.[ h * * ' <.=.*.3.3.e.e.o.) 0 C =.&.3.3.;.f D =.g t f j V T T W =.=.=.&.=.W R V D } =.=.=.=.=.O.T T T V H H H D D T D D T =.=.=.;.;.=.| } } } } =.=.=.} } } | =.O.B g D ' ' ' ' ' =.=.=.=.*.*.;.;.&.&.&.&.*.=.T R R R =.=.;.3.3.;.=.=.&.*.*.=.=.=.| | =.=.T T T T T O.R j H N N H B j j g j Z Z Z ' ' } } } =.=.D D H H H H H D D D N N N D =.=.T H H R T R H B g g g d j j R P R R k j g g s 4 f ' =.f s H H W W f 4 C } } ' D R T T f 4 h } ' Z 4 @   o 6 4 * , H C.-.H } *.&.D H j h 6 *   . > < , > .   * h B g N T <.h f ",
"*.N h =.H s s f f > . . > u u , o . > j Z D =.&.=.=.H H -.:.f 4 6 6 * @ @ O 0 o.e.;.| D =.<.*.&.&.| ' Z j 4 h D =.=.D s s T D s t s g g g g j j j j P j u u g j R B g d d g B H H H B j j H T T T T W R P P R =.T j H =.=.=.=.=.=.=.=.=.*.<.:.*.*.*.<.4.4.4.4.<.<.=.*.:.:.*.&.*.<.6.4.:.<.5.<.<.6.y.I.r.3.3.3.r.4.<.<.*.*.=.*.4.r.4.*.=.W =.:.<.<.<.<.4.3.3.3.6.6.3.3.*.*.4.5.4.:.&.:.4.4.<.*.*.*.*.:.*.=.D ' *.3.=.=.O.O.O.D D *.;.=.D T T E W W =.=.&.=.O.=.=.+.W T W W T T W W T H g d f h =.| j Z =.T *.*.D j [ | | &.*.*.:.&.:.H , * 4 f ' <.&.4 * 9 ) ..o.=.g k k &   sXsXsXsXsXsXsXsXsXsXsXsXsXsXsXsXsXsXsXsXsXsXsXsXsXsXsXsXsXsXsXsXsXsXsXsXsXsXsXsXsXsXsXsXsXsXsXsXsXsXsXsXsXsXsXsXd H *.=.D f > > ;.I.4.| C * * ' <.&.<.3.3.o.o...C 0 C &.;.;.;.| f C =.D g f N D O.=.*.*.*.&.3.3.*.T T =.*.*.*.3.3.3.*.=.W T V H H D =.&.O.=.=.=.=.;.3.i.e.;.| =.*.*.&.;.<.3.;.;.;.3.3.=.j j =.&.&.=.=.=.*.*.*.*.3.3.4.4.3.3.3.&.*.<.:.W R E =.*.r.y.e.3.*.*.<.3.*.&.| &.3.3.;.=.=.*.*.T T O.O.H H H H R k k j g Z | =.;.;.=.=.&.*.*.=.D H H D R H H H ' O.D H Z D =.=.T R R W W R R R H j j d g R R P k k j j j g s s N &.D 4 f H R +.W f 4 L | } =.H R W T h 4 h | [ C 6 @   o 3 > * * H -.=.N | =.| [ C h f 6 *   . : , : ; .   * s h j N D *.h f ",
"*.Z f O.N s f f f = X . > u u , o   * j Z ' =.*.&.=.H R :.4.h 4 6 6 * * @ O 0 o.;.;.o.' =.*.;.| | | ' Z j 4 h =.=.=.Z f 4 H T f f f g g g g j j g g P k i u g k k g d i i g g j R E P g g H T T T R E P P P E Q R g N T =.T T =.=.W T R =.-.-.=.=.:.:.<.<.<.<.1.*.W -.1.:.=.W :.<.5.4.*.:.4.<.:.4.I.I.6.*.&.<.4.4.<.:.:.=.=.=.<.5.<.*.=.W +.-.:.:.<.5.<.*.<.4.6.<.<.<.<.:.<.D.4.+.=.=.:.:.=.=.-.:.*.*.=.T H D =.*.=.W W =.T H H *.*.=.T R E I P W +.*.=.=.=.=.=.W R E +.W V V R R R R j d g H ;.| h O.=.=.:.<.' C [ | &.<.<.<.*.&.:.O., * 4 h O.<.*.4 * 9 ..| ;.' d g j $   sXsXsXsXsXsXsXsXsXsXsXsXsXsXsXsXsXsXsXsXsXsXsXsXsXsXsXsXsXsXsXsXsXsXsXsXsXsXsXsXsXsXsXsXsXsXsXsXsXsXsXsXsXsXsXsXsXH =.T N s = > ;.I.:.| C * * O.:.*.3.3.3.o.o.[ C 0 C &.&.| | Z 6 f Z =.B f j D O.&.*.&.&.*.r.3.=.T =.:.*.=.&.3.r.r.<.=.T R R H H T =.=.D T =.=.=.<.e.i.e.;.=.&.*.:.=.=.&.*.*.*.<.3.<.=.g g T =.=.=.*.*.*.*.*.<.4.<.<.4.6.4.3.&.*.<.1.W E Q =.*.4.3.3.&.*.*.<.<.*.&.&.;.<.<.&.' =.:.=.T R T T R R R R P k d d j H ;.=.=.=.=.=.=.*.*.=.W T T T R j j H T T R H H H D T T R R P H B R R T R j g j k P g i k g g j g u g T =.h , h R W -.W f 4 [ } } =.O.T W T j 6 C | [ C 4 @   X 3 > @ > N +.T h | ;.| | Z j s 4 *   . & , , > .   * 6 h Z Z } <.j f ",
"1.H h =.N f j h s * . o , u u > o   * j Z ' ;.;.;.=.N R :.4.j 4 6 6 * * o @ 0 o.o.o.;.O.&.*.;.&.| [ ' Z C 6 h } =.D C f , h O.H j g d i i d g g g g k k i y g k d i i i i i t i P E P k i k R E P j P k k P I E R B H T R R R R E E P P E W Q Q +.-.:.-.+.+.:.-.=.Q -.1.-.E E -.D.D.:.W T -.:.4.4.D.D.<.*.=.=.*.:.:.+.W W W W -.*.=.=.Q E Q W R T =.:.=.W =.:.1.:.:.4.1.:.-.-.+.Q Q +.+.+.W W Q -.-.=.W W T T W =.=.=.W W T R H W =.T R P P P k E -.=.W T W Q Q E I E E E P E E E E P P g H &.r.| 6 D =.*.<.4.[ C [ | &.3.3.*.*.&.:.O., * 4 j &.5.*.4 * 6 ) o.| [ d g j % sXsXsXsXsXsXsXsXsXsXsXsXsXsXsXsXsXsXsXsXsXsXsXsXsXsXsXsXsXsXsXsXsXsXsXsXsXsXsXsXsXsXsXsXsXsXsXsXsXsXsXsXsXsXsXsXsXsXj R N f 4 > 3 ;.r.*.[ C * , =.<.*.3.3.3.;.o...C 0 j =.| ..| Z h 6 C =.D j h H O.=.=.=.=.*.6.<.=.T W =.=.=.=.&.<.6.1.=.W E R R R R R R B V T =.*.<.<.<.&.=.=.=.=.=.T T T =.=.=.=.*.*.W B g B H H V =.=.=.=.*.<.4.1.*.<.<.<.*.=.:.1.:.-.+.-.:.:.:.*.*.*.*.=.=.*.=.=.=.$.=.=.W T W W W R R P E W +.W E P g p i j T &.=.=.W W =.=.=.+.Q Q W E P B P P P R R R R R H P R P g g g j k R P E P P g g k k i i k i i i i i j W &.f > N T W +.R f 4 C | | &.=.&.=.H f 4 C | ' C 4 @   X > > @ > H -.T h [ | ;.| [ j 4 , o     & , < > .   $ 6 h j Z } <.j j ",
":.H j &.N s s t t * . o < u t & o   * j Z | ;.;.;.| N H :.4.j 4 6 6 * * o o 6 [ | ;.;.' =.&.o.o.| ..D Z j 4 h [ [ Z C h 4 f =.=.W R j g j R R R P P P k P P k k j g j j k g d g B P P B B P R E H B B B B P E E T T W W T R R R R R R E W W W +.:.:.:.+.=.=.=.=.W Q +.+.+.=.+.:.:.:.:.=.T W =.:.<.<.4.<.:.:.:.:.<.4.:.=.=.+.:.:.:.:.1.:.:.-.+.W T W =.=.=.:.4.4.4.4.D.D.:.-.+.+.-.:.1.:.:.=.W W =.=.=.=.=.=.W T =.W T V H N N H D W T T R R R W +.-.*.*.=.=.W W W E R R R W +.+.+.+.=.W T O.:.r.[ h D $.:.<.4.[ h ) [ | 3.3.3.&.=.&.D > * 4 C *.5.&.3 > 6 C C [ Z d g j % sXsXsXsXsXsXsXsXsXsXsXsXsXsXsXsXsXsXsXsXsXsXsXsXsXsXsXsXsXsXsXsXsXsXsXsXsXsXsXsXsXsXsXsXsXsXsXsXsXsXsXsXsXsXsXsXsXsXR R B f 4 , 4 ;.r.=.C 0 * , =.<.*.3.3.3.3.3...C 6 j =.;.;.o.} 6 4 C *.*.' N H O.=.&.&.*.<.<.<.<.=.W T =.&.&.=.&.;.*.=.=.T R R T T V H V D W =.=.&.| &.&.=.=.W W W W W W W W =.=.=.=.W R B H H V W =.*.:.<.<.4.<.<.1.*.=.*.*.1.1.1.1.:.:.:.:.*.=.=.=.=.=.:.:.:.*.=.=.=.=.W T T T T R R T T T =.:.4.+.B g d d g H =.=.D D T W W T W W W R P P R W W W T T T T T R R R H j g j R R W W W W T H R R P j P P P k k P R W -.*.f , j D H H H s 4 C | | ;.;.&.O.N 6 4 h _ Z h 4 @   X > > * > D :.=.h L | | [ C h 4 , o     % > , %     $ 4 h j j D $.h g ",
"=.H j =.B < < , , * . o , w : % . X * f C | *.;.;.| N H :.4.j 4 6 6 @ @ o X 4 [ | ;.;.N } | o.o.o.| Z C f , f } =.' C h 4 4 h h f 6 , , , < , > > > = = , , > = = = = = = > > > > > > > > > > > * > > > > > , > , , , , , > > , > , , < < < < < < s 4 4 , , , , , < , , , 4 s 4 4 4 4 4 , , 4 4 4 6 6 6 6 6 6 4 4 4 , , , , , , 4 4 4 4 , , , , * * > > , , , , , , , , , * * > > > , , > * & & & * * % * * % % * > > * * * * > % * * * * & * > , > > > , > * * * & % $ & = = = = > , , , , 4 6 4 4 C =.<.4.6.} h C C Z | 3.3.*.=.=.H > * 4 j *.5.&.4 > 6 C C ' D d d j $ sXsXsXsXsXsXsXsXsXsXsXsXsXsXsXsXsXsXsXsXsXsXsXsXsXsXsXsXsXsXsXsXsXsXsXsXsXsXsXsXsXsXsXsXsXsXsXsXsXsXsXsXsXsXsXsXsXsXR W H h 6 > 4 ;.r.=.C 6 * = ' *.&.3.3.e.e.3...C 6 j *.3.3.3.| h 3 4 h h 4 , , < 4 6 s 6 6 6 6 f 4 , , 4 4 4 4 4 4 4 4 4 4 , , , , , > > , , < 4 4 4 4 6 4 4 < , , < < , , < 4 4 4 4 , > > > , > , > < 4 f s s s f 6 4 , 4 4 , < , , > , > 4 4 > > > > > , > > > > > > , , , , , > & & & $ $ * , , , > = = = = , 4 > > > > > , , , > > * & = > < < , , , , , , , , , > * * * > > , , , < < < < , = & = > , , , < < s f f < < g T R R H s 4 C Z } | | } D H f 4 4 h j h 4 @   o 3 > * > H 1.=.N [ | | Z h f s < $   . & : % o     * 4 f f f g } h N ",
"T j f ' g t s t t , X o , e e : o . = f C ' ;.;.;.=.H R :.<.h 4 6 6 @ @ O X 4 Z ' } ' B D | o.o.o.| [ C f , j *.<.*.Z C 6 * o . . .     . . . . . . . . . . .   . . . . . . . . . . . .   . .             . . . . X X o o . . . . o o o o o o o o o o o o o . . o . o o o o @ o @ @ o o o o @ * * * @ @ @ @ @ * * * @ o o o @ @ @ @ @ @ @ @ @ o o @ o o o o o o @ @ @ @ @ o o o o o o o o o @ @ @ @ o o o o o o o o o o o o o o o o @ @ @ o @ o o @ o o o o @ @ o o @ @ @ @ o o o o @ * * * * * * 6 Z =.4.D.4.' h h h Z =.3.4.4.*.=.Z > * , j &.5.3.4 * 6 [ | &.=.g d g $ sXsXsXsXsXsXsXsXsXsXsXsXsXsXsXsXsXsXsXsXsXsXsXsXsXsXsXsXsXsXsXsXsXsXsXsXsXsXsXsXsXsXsXsXsXsXsXsXsXsXsXsXsXsXsXsXsXsXB W D g 6 > 4 *.I.*._ 0 * * H &.&.3.3.e.e.o...h 4 h *.4.r.3.&.C > o . . X o o o o o o o o @ o o o o o @ @ @ @ @ @ @ @ * * @ o o o o o o o o o o @ * @ @ o o o o o o o o o o o o X X X X . . X o o o * * * * * * @ o o o o o @ @ @ @ @ @ @ O @ O @ @ @ @ @ o o o @ o o o o o o o X o X X X X . o o . . . . . . . . . . . . . . . . . . . . . . . . . . . . . . . . . . . . . . . . . . . o o o . . . . . . . . o o o o $ * f N W +.=.V s 4 C Z Z [ [ ' D H f > 4 6 h j 4 @   X 3 > * > H :.+.H ' =.} j f s f < *   . ; : : % . . * < u f f g =.N D ",
"D j f D B f f f s = . $ : v U i %   * f j Z =.=.=.=.H H :.1.f 4 6 6 * @ O X 6 _ Z Z Z g D | o.o.o.o.| L h < h =.=.=.D D h * o . . o o * * * * * > * * * * * * ; * * * * = > * > ; * * > * * * * * * * * * @ * > > > > 4 3 > > > > > , 3 3 4 4 3 3 > 3 > 3 3 3 > 3 3 3 3 3 3 4 3 3 4 4 4 3 4 4 4 4 6 4 4 6 6 4 4 4 4 4 3 4 4 3 3 3 4 4 4 4 3 3 3 3 4 4 4 4 4 4 4 3 3 3 3 3 7 3 3 3 3 3 3 3 3 3 3 3 3 > > > > 3 3 3 3 3 3 3 3 3 > > > 3 3 3 > > 3 3 3 3 3 3 3 3 3 3 3 > 3 3 3 3 3 3 3 3 3 4 3 > > > f N =.4.4.:.Z 6 h h Z =.*.4.4.*.&.D , * , h *.5.3.4 * 6 Z ' &.=.j g g $ sXsXsXsXsXsXsXsXsXsXsXsXsXsXsXsXsXsXsXsXsXsXsXsXsXsXsXsXsXsXsXsXsXsXsXsXsXsXsXsXsXsXsXsXsXsXsXsXsXsXsXsXsXsXsXsXsXsXB *.=.N f > 4 *.I.;.[ 0 * * H *.*.3.r.e.3.o.) h 4 h &.4.r.3.=.C > @ @ * > 3 > 3 4 3 3 3 3 4 3 3 3 3 3 4 6 5 4 4 6 6 6 6 6 6 6 4 3 3 3 4 4 4 4 4 7 7 7 3 3 4 3 3 4 4 4 3 3 3 3 3 3 3 3 3 > > > > > 3 3 3 3 3 3 4 4 4 3 3 3 3 3 3 3 3 3 3 4 3 3 3 > > 3 3 4 4 3 3 3 3 3 3 4 4 > > > 3 > > > * * * * @ * * * * * * * * * * * * * * * * * * * * @ * * * * * > > > > * = * * * * > > > = = = = > > > > > * * @ * ; > > * * * > j N W =.=.T s 4 N N N N ' =.T H f > 4 f f s , @   X > > * * H :.=.N ' ' H j f s s u *   . : e i , o . & t t u u g =.N D ",
"T j h O.H f g g s > o $ t U Q v &   * f j N H ' =.O.H H -.:.f 4 f 6 * @ # X 6 ' ' ' D g H =.;.o.o.;.} Z h < f R R R B B s * * > * * > > > > > > 3 > > > > > > > > ; > > > > > , > > > > > > > > > > > > > > > > > > 3 4 4 4 > > > , 4 3 3 4 4 4 4 4 4 3 3 6 4 3 3 4 4 3 4 6 6 6 6 6 6 6 6 4 4 4 4 6 6 6 6 6 6 6 6 6 6 4 4 4 4 4 4 4 4 4 6 6 6 6 4 4 4 4 4 6 6 6 4 3 3 3 3 4 3 3 3 3 4 4 3 3 3 7 3 3 3 3 3 3 4 4 4 4 4 3 3 4 4 4 4 4 4 4 4 3 4 4 4 4 3 3 4 4 3 4 6 4 3 3 4 6 6 4 4 6 6 6 6 0 6 6 6 j Z =.W =.O.j 4 h j H =.=.*.*.=.=.D , % < f =.1.$.4 = 6 C ' =.=.g k g % sXsXsXsXsXsXsXsXsXsXsXsXsXsXsXsXsXsXsXsXsXsXsXsXsXsXsXsXsXsXsXsXsXsXsXsXsXsXsXsXsXsXsXsXsXsXsXsXsXsXsXsXsXsXsXsXsXsXT 1.=.D h > , *.P.:._ 6 * * H =.*.3.i.u.3.| ) h 4 f =.&.;.&.' C 4 > 3 3 3 3 3 6 6 6 6 6 6 6 6 0 6 6 3 6 0 0 6 6 6 0 0 6 6 h 6 6 4 4 6 4 4 4 6 6 4 4 6 6 6 6 4 4 6 4 4 4 4 4 4 4 4 4 4 4 4 3 4 4 4 4 4 6 6 6 4 6 6 6 6 3 3 4 6 4 4 4 4 4 4 4 4 4 4 3 > , 4 4 4 3 3 4 4 4 4 4 3 > > > > > > > > > > > > > > > = = > * * * > > > > > > > > > > > > > > * = > > > > > > > * * * > > > > , 4 , > > > > > > * > > > > > > > * > j N T =.=.T f 4 Z H g j O.+.W H s = 4 f f 4 > .   X > > @ * H -.W g Z D H j g f f u *   o : i b u o . % t u u t d T B D ",
"=.N j O.H f f g f > o o t U Y i & . * f g g H D T T R B -.:.f 4 f 4 * @ X X 4 | =.| [ N Z =.;.o.o.| T V h < h H B P B g s > * * * * * * * * * * > > ; ; ; ; * ; * * * * * ; > > * ; * * * * * * * * * * * * * * * = > > > > > > > > > > > > > > > > > > > > > > > > > > 3 3 3 3 3 3 3 4 3 > > 3 > > 4 4 3 3 3 4 4 4 3 3 > > 4 4 4 4 4 4 3 3 3 4 4 4 > > > 4 4 > > > > > > > > > * * * ; * * > > > > > > = = > > > > > > > > > > > > > 3 3 > > > > 3 > > > > > > 3 3 3 > > > > > > > > 3 3 3 3 3 4 j H T P B H h s j Z H W =.W W W =.T , & < s R Q T 4 = 4 C } =.T g p k &   sXsXsXsXsXsXsXsXsXsXsXsXsXsXsXsXsXsXsXsXsXsXsXsXsXsXsXsXsXsXsXsXsXsXsXsXsXsXsXsXsXsXsXsXsXsXsXsXsXsXsXsXsXsXsXsXsX=.:.=.V h , , *.P.:.H 0 * > D =.=.r.i.e.;.| [ 0 4 s T T =.*.=.h > * > > 3 > > 3 4 4 4 4 4 4 4 4 4 3 3 4 4 4 4 4 4 4 4 4 4 4 4 4 > > , > , 4 4 4 > > 3 3 4 4 4 > > > > > > > > > > > > > > > * > > > > > 4 4 4 3 4 4 3 4 3 > 3 3 > > > 3 3 3 3 3 3 > > > > > > > > > > > > > > > > > * * ; * * * * * * * * * * * * * * * * * * * * * * * * * * * * * % * * * * * = > ; * % % * * * * * > ; > ; * * * * * @ @ @ * * * $ o * h V W :.-.W f 4 j j j j j P E H s 4 f h f 6 > o   X > > @ = H -.E j j H D H g f d f %   o : i n t . . & t y y w i H h H ",
"+.H j O.g u f f f , o $ t b b e : . * f f g H T T T R H :.4.j 6 h 4 * @ X X 4 | ;.| [ h N =.*.| | ' D N s , f H P P B g u > o . o o o @ o o o % * * * * * * > > * * * * * > * * * * * * * * * * * * % % $ % * * * * * * > * > * * * * * * > > > > > > > > > > * * > > = > > > > > > > > > > > > > > > , , , > > > > > > > > > > * * * * * * * * > > * * > > > * * * * * * * * * % * % % * * * * * * * * * * * * * * * * * * * * > * * * * * * * * * * * * % % % % * * * % % * * * * * * * o @ * , N H T P R R g s h Z H T R R W T =.T , & < u j E T 4 = 6 C D D T g k k &   sXsXsXsXsXsXsXsXsXsXsXsXsXsXsXsXsXsXsXsXsXsXsXsXsXsXsXsXsXsXsXsXsXsXsXsXsXsXsXsXsXsXsXsXsXsXsXsXsXsXsXsXsXsXsXsXz +.1.W B s > 4 *.D.=.Z h ; = T :.=.3.3.3.;.=...C 4 s T O.=.*.=.f * $ o o @ * % % % * * * * * * * * * * > > > , > * > > , , > * * > > * > > > = = * * > > > > > > > * * * * * * * * * * * * * * $ % * * * % * * * * * * * * * % * * % * * * & * * * * $ % * * % % % % % * * * * & % % % % % o o o $ $ o o o o $ o o $ $ $ $ $ % % % $ $ % % % $ $ % $ $ $ o o $ o o % o o $ $ o o o $ * * * % * % % % $ $ o o o o $ $ $ * 4 H W 1.C.+.W f s j H j g d g P H f 6 h ) C h , o   X > > * > H C.Q j j H D H h s s t *   o : v v : . X , t d d t i H f H ",
"=.N f D g t t u s , o * t i r y > . * h f H W W R R H R :.:.j 6 h 4 * @ . X 4 | ;.;.} f B =.*.} D H H C s > s H B B H f f s & o $ o * > > > , , < < t < s 4 s 4 t s < < < < 4 4 s < 4 < < < < 4 , , , , , , < t 4 < < 4 6 s s s < < < s s s s s s s s s s u u < s s s f f s s s u s s s s s s s s s s f h f s s s s s s s s s s s s < 4 4 4 4 s s s s s s h h f f f 6 4 6 4 4 < < < < 4 4 6 4 < < < < < s s s s s s s s s 4 < < < < , < < < t < < 4 4 4 4 , , , , < < < , , , , 4 4 , , , > , , h D H T W W =.N s f N R R H H R T O.] , * , s P Q W 4 * 6 j H R W g k k $   sXsXsXsXsXsXsXsXsXsXsXsXsXsXsXsXsXsXsXsXsXsXsXsXsXsXsXsXsXsXsXsXsXsXsXsXsXsXsXsXsXsXsXsXsXsXsXsXsXsXsXsXsXsXsXsXsXQ Q R h 4 > 4 *.5.=.N h ; = O.:.=.;.3.3.3.;.| C 4 f =.=.=.*.=.f f t > * & & * = > , , , , , , , , , , > , < s s 6 f 4 4 4 < < t t t t s s s s 4 4 < 4 4 4 4 4 4 < 4 4 4 6 4 4 , , 4 , , , , , , , < 4 4 < < < , , , , > > , > , < , < < < > > < < , , > , , , , , , , , , , , , , < < , , , > , * * * > * * = = * = , , , , , < , , , < < < > , , < < , , , , 4 > 4 , , , < , , , , , , 4 < < < < < < < , > > > > , , f H D R +.Q E R f s j B g g g g j H j 6 h [ C h > o   X 3 > * > T D.Q j j R O.H h s t < >   o : i r : $ . , u d d e d T f g ",
"W j f H g t t t s > o $ t y b v , . = h g R Q +.W R H j :.:.h 6 h < * 3 o o 6 [ | | [ d B T =.Z D D D N h , s H B P H d f N s = > , < s s f f f f f f d g f f g g j g f f f h h g g g h f h h h h f s s f f g g N j j N N H H H N N N N H D V N N N j N H B H g N H D D D V H H R T W =.=.=.} D D } D D D V H D V V D D D V D T D D D D D D D =.=.D V W D =.=.=.=.} Z Z ' ' H H H H H N N H N g g g g g B H H H N N H H H H N j h h h N N g g j H D D D D Z Z Z Z H N N N N N N N N N h h h h j =.D B W W +.=.H s h H H R j j R T =.' , * , s R -.W < * 6 h g R Q k i i $   sXsXsXsXsXsXsXsXsXsXsXsXsXsXsXsXsXsXsXsXsXsXsXsXsXsXsXsXsXsXsXsXsXsXsXsXsXsXsXsXsXsXsXsXsXsXsXsXsXsXsXsXsXsXsXsXsXI E B f 4 > 3 ;.I.&.Z h * , O.:.=.;.3.e.r.<.| C 4 f =.=.=.&.T s H T g f s f f f g N N j f j j j j j h f g H D ' =.' Z j C N N N g B H H H H D Z Z N C Z Z Z Z D Z Z ' ' ' D Z C j j j h h f h g B N D ' D Z Z Z Z Z H N g g j H H H D H N B V D D N j h N N N N C C C C Z N C h h g g N C N N j s 4 s f f s f f f f f f h h h h h h h g h h f g j N N N C C j h h h f s s h g j j j h j j g g g g g g h h f f f f f f D *.H j W P R H s s j j d g j j B N f 4 0 L C h > o   X 3 3 * > D C.E g j T =.D N h f s *   o : r v e $ . : u d f u B =.h g ",
"W j s D j f s t t > . $ t i m P > . * h g j R W W W R j +.=.f 6 h , * 3 * * 0 _ ) ) ) g N O.} [ ' O.T D h , f N j H R d f D H s < t f g B B j j B j j j B g d g H R j g g g g j H H H g g N Z Z N j g g d g H V O.D D D =.=.=.O.D D =.=.=.=.=.D D O.' T T T T D D ' =.=.=.=.T W =.=.*.<.<.<.;.&.;.<.*.&.&.=.=.&.=.&.*.*.*.=.*.:.*.*.&.&.&.=.*.*.*.=.=.*.&.&.<.<.*.;.| ;.*.<.*.*.*.&.=.' D T =.T H H H H V D D D } O.=.=.=.O.D H D ' ' D O.T R N H O.} =.=.} ' =.=.D H H H D T T T T D H j d g D *.D N =.+.+.=.H s f N H T H H R O.&.' , $ * < j =.=.4 = 4 h B R +.k i i $   sXsXsXsXsXsXsXsXsXsXsXsXsXsXsXsXsXsXsXsXsXsXsXsXsXsXsXsXsXsXsXsXsXsXsXsXsXsXsXsXsXsXsXsXsXsXsXsXsXsXsXsXsXsXsXsXsXP E j f 6 > > *.T.:._ h * , O.:.=.;.3.e.r.3.;.) 6 f O.O.| &.=.< j =.H d j H H T O.&.=.=.D ' | | | ' D T T O.=.*.3.;.' Z ' =.=.O.D T =.=.=.=.=.=.} [ [ | ;.;.;.;.;.=.;.*.;.;.o.| [ [ ' H H j H T T =.=.;.;.=.=.| | =.=.&.=.R T T =.=.=.=.D J $.*.} Z N H D D ' ' [ | | ) [ [ Z N N N D D D ' } Z h f j Z H N N N H H N H H D H N N H H H H N N g j H D D D D [ ' ' [ D N H H H H H H N N N j j N N H B B g f f h f s f =.*.f g W T T H s 4 j g g H O.D N h 4 3 6 C C 6 ; X   o 4 4 * * H C.E d g H D D Z j j s *   o : v Y i $ . : u s f f H =.j h ",
"T g 6 Z g f f s t > o o t b Y v % . * h g g N R T T R B -.+.h 6 h , o @ @ @ 6 ) ) ) C h N =.| ....' H N h , f H B R T g t g T g t s f g R R R j j j B j g d d j R T R B B B j H R R R H g D ' ' D Z N B g j R W =.O.D D =.=.=.O.D =.=.*.&.&.=.' ' =.;.&.O.=.=.=.| *.&.&.*.=.T =.=.&.*.*.6.4.<.;.3.4.3.*.;.*.&.*.&.*.<.4.<.*.*.<.<.*.&.&.*.;.3.4.<.<.<.<.3.r.r.r.e.e.3.3.e.r.3.<.3.3.*.=.' } =.O.H j H H H D =.=.=.=.=.&.*.=.} ' | | | } =.O.H H ' =.=.=.=.O.=.*.*.=.D =.W T =.O.O.O.T N f f g T *.j C *.+.=.T H s j D D =.=.T H D =.] * o * , h T D , * 6 C W =.=.g i d $ sXsXsXsXsXsXsXsXsXsXsXsXsXsXsXsXsXsXsXsXsXsXsXsXsXsXsXsXsXsXsXsXsXsXsXsXsXsXsXsXsXsXsXsXsXsXsXsXsXsXsXsXsXsXsXsXsXsXP Q R h 4 > > *.%Xr.' h * , O.:.=.;.e.e.r.6.3.) 4 f &.&.;.;.=.6 f =.T g j R D O.=.*.&.=.| | ;.3.3.| =.=.O.=.;.3.3.| [ } o.;.;.=.O.=.:.*.*.;.3.3.o...| ;.3.3.3.;.| | ;.3.3.o.o.;.o.o.=.H j B R T T =.;.;.;.;.&.;.;.| =.*.&.H H W =.=.=.' D o.3.;.| D D T =.=.=.| | | ..[ [ | | | =.W =.' | | | Z C j H H T D N B H H H H D O.' Z ' } O.D H H H H H T O.O.=.=.' ' | ' V H j g j H H H N j j H H H H V H B j g f f s s N &.=.< h O.T T D f 4 j g N } | =.D j 4 3 0 ) C 6 ; X   o 4 4 * = H C.E d d j H N j j j s *   o : P Y e $ . , u f f f N =.f f ",
"W j s Z g f f f s > o o t n n r %   * f g H =.=.O.O.H j -.:.j f f , o @ o @ 9 ) [ ) C h Z =.;.| ..[ N h f 4 h T W W T g , f T j t 4 s h B B j d k P R k d d j j R W R R R R j R R W R B g D ' D D Z N B g j R W O.R H D =.W O.D D =.*.<.*.;.| ' } ;.<.*.T T =.=.&.*.*.<.3.=.T =.:.&.&.*.4.r.3.3.3.e.3.;.;.*.*.&.*.*.4.6.<.;.*.<.<.*.*.*.3.3.4.3.<.4.6.4.3.e.e.e.3.e.e.e.e.e.3.3.6.3.<.=.' ' =.O.H j j H H ' =.;.<.=.=.&.&.=.| ' ;.;.=.=.=.O.D D =.=.=.=.=.T =.*.*.=.=.=.=.W O.=.=.O.H g f i B =.=.h C =.W T V N f N O.} *.*.=.D H O.Z * o > , h D Z > * 0 [ <.<.=.g i g & sXsXsXsXsXsXsXsXsXsXsXsXsXsXsXsXsXsXsXsXsXsXsXsXsXsXsXsXsXsXsXsXsXsXsXsXsXsXsXsXsXsXsXsXsXsXsXsXsXsXsXsXsXsXsXsXsXsXE -.T h 4 * > ;.%Xr.[ 6 * , O.:.*.e.u.u.i.6.o.C 4 j :.:.*.&.D 6 4 =.=.H j R H T T =.=.=.=.;.e.e.3.| ' O.O.=.*.3.;...| | 3.;.=.=.O.=.&.=.=.;.;.;.| | o.e.e.3.3.;.| | 3.e.3.o.o.3.e.3.=.H j j R T O.=.;.;.o.;.;.e.e.;.=.*.*.R V =.*.=.} ' ' 3.3.;.| ' =.=.O.=.O.=.| | o.....o.;.&.} W T =.=.=.' Z N Z D T O.T H j H R H H T ' D Z } =.=.T H H T R R T T T T D ' =.;.&.T T R j d j R H B g g D D H H V H B B j g f f f D &.C , f ' D T D h 4 j g H | &.=.} j 4 4 h ) ) 6 > X   o 4 , * > H -.E g j H D Z j j h s @   o , b b w . . < f f j h N | f f ",
"=.h f j s t s f s * X o t b a i ,   o f N ' ;.=.#.' H j :.*.j f h > O * o @ 9  .) ) C h _ =.| | | [ j h f 4 h T W W H h , , g j f s t f g g d i k P k g i d k g B P k k g j k k P P k g g R T H H B j j j g j R R j j B T T H H T T =.:.<.$.D Z } *.1.=.T T T W =.*.<.<.*.=.T W =.=.=.$.<.r.3.3.;.;.<.*.&.=.=.=.*.<.<.<.*.*.*.*.*.=.*.*.*.*.*.*.*.:.:.:.*.*.*.<.3.3.3.3.3.;.*.3.4.4.<.=.D D T R j d g j H T =.*.*.T T T T T T T $.*.=.T O.O.R T T T T T V H T =.=.=.T T T R R E W W B d f g H *.Z 6 N =.T H D H f j D D *.<.&.' Z ' Z = o * , f Z C > > 6 ..3.3.&.g i k & sXsXsXsXsXsXsXsXsXsXsXsXsXsXsXsXsXsXsXsXsXsXsXsXsXsXsXsXsXsXsXsXsXsXsXsXsXsXsXsXsXsXsXsXsXsXsXsXsXsXsXsXsXsXsXsXsXsXE +.V f 4 > 3 | Y.e.) 6 * > D :.4.u.t.t.u.3...0 4 j +.&.=.| Z 6 , N &.T d k j B H H D ' | 3.3.3.&.=.T T W =.=.*.=.} D ' =.=.T T W W W R T O.O.O.' ' =.&.*.*.;.&.=.| &.;.;.o.o.3.3.o.' H j j j R T =.=.} | =.;.3.3.;.=.=.=.R W =.=.=.T H O.&.<.&.W T T W H R T =.| | ....| } =.D H R T O.=.T H H H j R R W R k g k P P R R B g N T W W H j j R P P P P R R H N D =.=.W R P g d k P R B g j R R B B j g g g g g d f f D =.< > h Z D T T h 6 C B H } =.O.H N 6 7 h C C 6 > X   o 4 > * > H 1.E f Z ' | [ Z f s < o   . : i i e o . , f j g f N ' 4 f ",
"=.h f j s t t u s * . . & r b b >   $ h N ' =.;.#.' j j :.:.j j h * o * * @ 0 o.) ) h f Z =.;.;.| ' N h j 6 h D R B g h , , h g f f f f g g j g B P P i i i B i k k z k k k P P P P j j j H H H N B B j k P j P P g g j R R R R E W W =.=.T D T =.=.=.W W W W T W =.=.*.=.T T E W W =.=.*.<.*.&.&.&.*.&.=.=.W =.=.=.*.*.=.=.&.*.&.=.=.=.=.=.=.=.=.=.:.=.=.=.=.*.*.*.<.<.*.&.*.*.*.*.=.W T T T H g d g j B R T T D R R R R R T T W =.T D T T H R T T D D V H T =.=.W W T T R W W W T H g g H =.*.j 4 Z =.=.=.=.D f h j N T &.&.=.' ' D > o * < f Z C > * 6 [ o.3.&.g g P & sXsXsXsXsXsXsXsXsXsXsXsXsXsXsXsXsXsXsXsXsXsXsXsXsXsXsXsXsXsXsXsXsXsXsXsXsXsXsXsXsXsXsXsXsXsXsXsXsXsXsXsXsXsXsXsXsXsXI R B s 4 > > [ r.;.) 6 * * ' :.4.i.i.t.e.;.) c 6 f H D ' | Z 6 > h &.&.H g j H R T D D ' =.&.&.=.=.=.T W =.=.=.=.D Z D D D T T =.W R B H D T O.D D D ' } =.=.=.=.=.=.| =.| | | | ' H H B j j B H V D J =.&.;.;.*.&.=.=.=.T W =.=.=.=.T D =.$.=.W W W T H R T W } ' ' } ' D D D V R H D T H N H H g g g B B i i P P j B H g g N T T D H g g j g g B B P H B B V T T H R B j P R R R B j j P P P k k k k j j g d f g T H , , j Z H T T h 6 N H H H N H H N 6 4 0 j h 6 > X   X 3 > * > H :.T g Z ' =.[ j j f < o   . & i n e . . > u f f f j J 6 f ",
"W f 4 j f t s t s > o . & i m i %   * h C ' =.=.=.' j j :.:.j j h * o @ o * h o.[ C h s Z | | | =.' Z h h 4 s N H g g h 4 , h j f s s t s u s u f f f t t t t t t u u u u u u u u u t t f f f f s f f f f f f f f t s f s f f d d d g g g f f h g g h g g g g h h h h h h h f g d g h h h C j h j j j C h h h h h j N N C j j j j j h h h h h f f h h h h f h j j j C C h h h h h h h f f f f t t t t t s f f s s f f f f f f f h h f s h h s s s s s s s s s s s s s s s t f f f f f s s f Z [ 6 4 Z } *.*.*.' f h j H T W =.O.' =.' > . = s g D Z > * 6 ) ..o.| g g P = sXsXsXsXsXsXsXsXsXsXsXsXsXsXsXsXsXsXsXsXsXsXsXsXsXsXsXsXsXsXsXsXsXsXsXsXsXsXsXsXsXsXsXsXsXsXsXsXsXsXsXsXsXsXsXsXsXsXI E H s 4 > > _ 4.| C 6 * * ' :.<.i.y.y.e.;...C 0 f H D | | Z 6 > 6 Z Z f , s f f h h h h h h h f h h h f h h h h f 6 f s s f h g f t t s s s f f f s 6 f f f f f h h f h j h h h h s f f f s t t s s f h h h h h h h h h s g h h h h h f f h h h h h s s f h h h h h h h f f h h h f h f f f f f s , < t t , t f s u t s s 4 6 s 6 s s s u t t t f f s s t u s s s t t t t u f f f t t t f s s s f f s s u t t t g R h > > j D D H H f 6 Z R R H N H R N 6 7 0 h 6 4 * X   o 3 > * = H :.T j Z ' } [ Z j f 4 $   . % i Y e .   ; < s f f g } 6 f ",
"R s 6 j f s s f t % . . , U Y e .   * h C [ =.=.#.O.H j :.:.j f f = o * o @ h [ [ C h s Z } | | | } O.Z C < s N B g g h 6 , 4 , $ . . . . o . . . . . . X X .     . . . . . . . . . . . . . . . o o o . . . . . . . . . . . o o $ $ . $ o o o o o . o o $ $ $ o o o o o o o $ $ $ $ $ $ $ $ @ o @ @ * * $ $ $ * * * * * * * @ @ @ @ o o O @ @ o o $ $ o o o o o o o o o o o o o o o $ o . o o o . o o o o o o o o . o o . . . . . . . . o o o o o o o o o o o o o o o $ o o o o o $ o o o $ * > > 6 Z =.4.5.4.} f h j R T T O.=.O.&.O., . = s H =.' > * 6 ) ) o.| h g P & sXsXsXsXsXsXsXsXsXsXsXsXsXsXsXsXsXsXsXsXsXsXsXsXsXsXsXsXsXsXsXsXsXsXsXsXsXsXsXsXsXsXsXsXsXsXsXsXsXsXsXsXsXsXsXsXsXsXI Q T h 4 * > [ r.;.) h * * O.:.*.;.3.3.r.3.| ) 6 f W &.;.;.[ h 3 > > * o o . . o o o o o o o o o o @ @ o o o o o o o o o o o o $ o . o o o o o o o o . . o o . X . . X . o o o o o o o o $ $ o o o o @ @ o o o o o o @ @ o o o o o o o o o . . o o o . . . o o o o o o o o o o o o o o o X o o o X X X X . . . @ . . . . . . . . . . . . . . . . . . . . . . . . . . . . . . . . . . . . X X X X X X o X . . o o % > , > , j D D V N 4 6 Z R R H D T W H 6 3 0 C C 6 > X   o 3 > * = N :.T j Z ' ' _ Z j h 4 *   . & b n w . . > < s s u g =.6 f ",
"R s 6 j f s s f u % . . > B v : .   * f j [ | =.=.=.H j :.:.f s 6 > o @ o o 6 [ _ Z j < j } | | | | ' Z C s f H H g g g 6 % . . . X X o o o o o o o o o X . . . X o o $ $ o o @ * o o o o o o o o o o o @ @ @ @ o o o @ @ @ @ @ @ @ @ @ * @ @ @ @ @ @ @ * * * * * > * * @ * * * @ @ * * * > > > 3 3 3 3 3 > > > > > > 3 3 > 3 3 3 3 > > 3 > > > > > > > > > * * * @ @ @ * * * * > * * * @ @ @ @ @ @ @ @ @ @ @ @ @ * * * * @ @ @ @ @ @ @ * > * * @ @ @ @ @ @ @ @ @ @ @ > > * @ @ * * * @ * * o o * f D *.:.4.<.' f j N H D T T =.O.:.O.> . * s D *.} , * 6 ) { o.| h i k &   sXsXsXsXsXsXsXsXsXsXsXsXsXsXsXsXsXsXsXsXsXsXsXsXsXsXsXsXsXsXsXsXsXsXsXsXsXsXsXsXsXsXsXsXsXsXsXsXsXsXsXsXsXsXsXsXsXE :.=.j 4 * > | T.4.[ h * * ' :.=.=.;.3.4.4.| C 4 f =.&.| | [ 6 * o o o o * * > > * * @ > > @ @ > 3 3 3 > > > > > @ @ @ * > > * > 3 > 3 3 > > 3 3 3 * * @ * > * @ @ @ @ @ @ @ @ @ @ @ o @ * > > * > > > @ @ @ * * @ @ > > * * 3 3 @ @ @ 3 > @ @ @ > > @ @ @ @ @ @ @ @ @ @ @ * @ @ @ @ O o o O O o o o o o o o o @ * o @ @ O o o o o O @ o o @ @ * @ @ @ @ @ @ @ @ @ @ @ o o @ @ @ o o o o X X X X . X . X . X . . . . o * 4 N =.T V N < 4 j H H H D =.+.V 6 7 6 h C 6 * .   X 3 > o * j :.T j Z ' ' _ j j h s *   . : P b : . X > u f s u g =.s f ",
"T s s N f t s f u ; . . & : w : o   * h j Z | ;.*.&.H B :.*.f 4 6 > o > @ o 4 C _ Z j 4 j | | o.o.| [ C j s g T T H g h , .   o @ * * * > > > > , , , , > > > = * = , , , , 4 4 4 , > , , > > > > , 4 4 4 4 4 4 , , 4 , 4 4 3 4 4 4 6 4 6 6 3 4 6 4 4 4 4 4 4 6 6 6 6 4 4 4 4 4 4 4 4 4 4 4 6 4 4 4 4 4 4 4 4 4 4 4 6 6 4 4 4 4 4 4 4 4 4 4 4 4 6 6 6 6 6 4 4 4 4 4 4 4 4 4 4 4 4 4 4 4 3 3 3 > > > 3 > > , , 4 4 > 4 4 3 > > 3 > > > 3 4 4 4 4 4 4 3 3 4 4 4 4 4 > 4 6 4 4 4 4 6 6 6 6 6 4 > * , f D =.=.=.=.' f j Z N D O.=.=.O.O.Z = o * s D *.} , > 0 ..o.o.| h y r %   sXsXsXsXsXsXsXsXsXsXsXsXsXsXsXsXsXsXsXsXsXsXsXsXsXsXsXsXsXsXsXsXsXsXsXsXsXsXsXsXsXsXsXsXsXsXsXsXsXsXsXsXsXsXsXsXI -.P.*.N 4 * 3 ;.%X5.Z f * > ' =.O.=.*.<.4.*.' C 6 f W O.[ [ [ , o $ > 4 4 4 3 4 4 4 4 4 4 6 6 6 6 6 0 6 6 0 0 6 6 6 6 6 6 6 6 6 0 0 0 6 6 6 4 4 3 3 4 3 3 4 6 6 6 6 6 6 6 6 3 3 4 4 3 > 3 4 6 6 6 6 4 4 4 3 3 3 4 4 4 4 4 4 7 4 7 3 3 3 3 5 3 3 3 3 4 4 4 4 4 4 4 3 4 3 3 4 4 4 > > > > > > > > > > % % % % ; > > > > > > > > * * * * > > > , > > > > > > > > > > > , , > > , , > > * * * & & & & & & & > > > ; * * * o * , h =.=.R H 4 4 j N H D D W +.R 6 3 0 h f , * .   X 3 > o * N 1.W h Z D ' [ _ j f s % . o , i r : . X > t s s t j =.s f ",
"W f s Z f s 4 s s ; . . $ % & ; o   * h j N } ;.*.=.H j :.:.h s 6 > @ > @ o 4 C C Z j f Z | o.o.3.3.o.| C s f T W H g h s * o o o $ $ $ $ & & & * * * * $ $ $ @ @ o % ; ; ; * * & $ % & % % % % & & > > > * * & & & & & & & & & & & > = > ; > > > * * > > > > > > > > > > * * * > > > > > > > > > > * & % & & & & * > , > > > > > > * * > > > > > > > > > * * * * * * * * > * > > > * * * * * * * * * & & > ; ; > > > > * % * * * % * * * * * * * * * * * & * * * * > > > & * * * > * & % * * * * s j R =.W =.' h j Z ' *.4.:.*.T R g * o * < H $.D , > 0 o.>.e.o.h e y %   sXsXsXsXsXsXsXsXsXsXsXsXsXsXsXsXsXsXsXsXsXsXsXsXsXsXsXsXsXsXsXsXsXsXsXsXsXsXsXsXsXsXsXsXsXsXsXsXsXsXsXsXsXsXsXsXI 1.I.*.Z 4 * 3 ;.%X5.Z 4 o > ' =.=.*.<.<.*.&.[ C 6 f T O.[ [ ' j , * > * * > > > > > > , , , > > , , , , , 4 , , > > > > > > > > , , = 4 , > > > > * > * * * > , , > > > > > > > > > > * * > > > > > , > * * * * > > > , > , > > > > > > > > > > > > > , = , , > > > > > > > > , , > & & & & % $ $ $ o o o . $ $ $ $ $ % & % $ $ $ $ $ $ $ $ $ & & & & & $ $ % & $ $ % % % % % % % $ $ $ $ @ * * * * * * % % % % * * * @ 4 6 h H W W H s , j H D } ' T W R s 6 0 C 6 , * o   o 3 > o * N 4.=.N j Z ' } ] j f t $ . . : w w : . . > , s s t j =.s f ",
"W h 6 N h t , , < * . . % r v t X   * s g g B H T T H H :.:.h 6 f = $ > * $ 6 C h h j f ' | o.o.o.| o.| L 4 h T R R H f < 4 % . . X o o * * * * * * * * * * % * % % % % % > * * * * % % & $ * * * * * * * & & $ % * * & & % % * & & & & & * * * * * * * * * * * > > * * * * % % * * * * * * * * > = * * ; * * * * * * > > & & & & & & % & * = * & = = & & & * * * * * * & % * * * * * * & & * * * % & % $ * $ $ % % $ $ $ $ $ $ $ $ o $ * * & % % * @ % $ % % $ $ $ % $ % * * * * * @ o o o o o , j g =.+.=.=.H f C L } ;.;.;.=.T R j = o * t H &.| 4 > 0 o.o.o.o.N y r %   sXsXsXsXsXsXsXsXsXsXsXsXsXsXsXsXsXsXsXsXsXsXsXsXsXsXsXsXsXsXsXsXsXsXsXsXsXsXsXsXsXsXsXsXsXsXsXsXsXsXsXsXsXsXsXsXP -.I.*.Z 6 > 3 ;.$X:.N 6 o * O.:.=.:.<.*.&.O.| L 6 f O.#.[ | =.j 4 > $ % * * * * * * * * * > > * * > > * * = * * * * * * * * * * * , > * * * * * * % * * * * * * & * * * * * $ & * % % * * * * > ; ; ; * * * * * * * * * * * * * * * * $ * * % % $ & * & * $ * * * $ * % $ * * * * * $ @ o o o o o o o . . o o $ $ % % % $ $ $ $ $ o o o $ * * * % % % % % % % * * * * * $ $ $ $ o o o o o o o o o o o $ o o o o o o o $ f f h R E P H s 4 C ' =.&.=.H j j h 6 h N s , * X   X 4 > @ * D G.:.j h Z [ Z Z j f f &   . : i b w . . ; , t t t g =.s s ",
"W h 6 C f < < < s * . . : i b t o   @ s g g H T T T H H :.:.h 6 6 * o ; * * 6 _ C Z j f D } | ..| o...[ C 4 f T W +.O.s < j 6 * $ * * , , < 4 4 4 4 4 4 4 6 4 < < , < < < t s 6 6 4 , < < < < < , , < < 4 4 s 4 4 6 s 6 < 4 , 4 4 < t < < 4 < < < 4 4 , , , , , 4 s 6 4 4 4 4 < , , , 4 < 4 6 6 6 4 4 , , 4 4 4 , , < < < 4 6 6 4 4 4 , , < < < < < < < 4 6 4 4 4 4 4 4 4 4 4 6 4 4 4 4 s s 4 4 , < , , , 4 , < < 4 4 , , , , = , , , , , , , < < , , , , , , , > , , , , , 4 4 4 4 , , > * > < Z D j O.-.-.-.O.h Z [ | o.3.;.;.O.R H , o * s D <.&.4 > 0 o.o.o.o.j i r &   sXsXsXsXsXsXsXsXsXsXsXsXsXsXsXsXsXsXsXsXsXsXsXsXsXsXsXsXsXsXsXsXsXsXsXsXsXsXsXsXsXsXsXsXsXsXsXsXsXsXsXsXsXsXsXsXP E <.*.' s > 3 ;.I.:.N 6 % * O.:.*.<.<.&.=.=.| C 6 j O.#.[ | =.j h j < * * , , , , , 4 4 4 4 4 , 4 , , , 4 4 4 , , 4 4 4 , , , , , , , 4 4 , > > > , , , > > , , , , , 4 4 , , , < < , < , , < , , , , > , , , , > , , > > > > , > > , > , , , , , , , , , , > > > > , , , > > , , , , , , , , , , > > = = * > > > > > > * * * = * * > > > > , < , < , > > > > , , , , , > > > > > > > > > , > > > > > > , > > * = * * , C j H +.-.E R s 6 [ &.*.;.=.H H H h 6 j Z h 4 * X   o 4 > @ * D G.:.j N D Z Z Z j f f & . . : i b e . . > t s t t g =.f s ",
"W f 6 N f t s f s * X . : i b t o   $ f H T =.=.T T H H :.:.h 6 6 * o * o @ 6 ) [ [ C f H =.| | o.o...[ C 4 f H R T H < , C C < , < t s f f f f g f f f f g g g g f g f f f h N N h h h h g h h B g f f f g j j j j C C N C C N N h g C N N h f h j j h h B B h h N N N C N N N N C C N N N D Z Z D Z C L C Z C C C Z C C Z [ | [ [ ' [ [ Z N Z Z N N Z | | | [ [ Z D D D Z [ [ Z N Z N H H N C N B C N N Z N N N Z Z Z Z N j j j h j N j h h j N N N N N N N j h g j g g g g g g j h f f t s j &.' h =.=.-.:.O.h _ | | 3.3.;.;.' T H , o > s T <.;.4 3 0 o.o.o.| g r r %   sXsXsXsXsXsXsXsXsXsXsXsXsXsXsXsXsXsXsXsXsXsXsXsXsXsXsXsXsXsXsXsXsXsXsXsXsXsXsXsXsXsXsXsXsXsXsXsXsXsXsXsXsXsXsXsXk R :.&.' f > 3 o.I.=.j 6 o = O.:.*.3.3.;.*.;.o.) 6 j =.=.[ | =.f h T j < s f h h h j j N N N N N N C j C C Z Z Z C Z Z H j j j j f h C C Z Z j h h C j j j j j h g N Z Z Z C Z N N j g g g h g g H H B h j N N j h j N f s h j N j j N N C N h g j h h h j Z C j C Z Z N j h j h f f f f s s f f f f f f f f f f f j f s s s s f f f h h f s s g B j h f f h h h f f f f f h h h f f h h f s t < s t u u u t t s s t < j } j H :.-.E R f 6 Z =.&.=.} H H H h 6 j N h 4 * o   o 4 > @ * H G.:.j Z | | ' [ N h f * . . : i b e . . > u s t t g =.f s ",
"=.f 6 Z g f h h s * . . : b b t o   % f D O.&.&.=.O.H H :.4.h 6 6 * o @ o o 6 [ | | Z f N =.&.;.o.o...L j f j D H H j s , j N s < s f d d d d j P j j j j B P j j j j j g d B R R g g H H H B B R H g g j R R R D H D D D ' ' ' D H H T =.O.D H D =.T T T W T T R =.*.=.=.=.=.=.=.=.=.=.=.=.=.$.&.*.*.&.;.;.&.&.=.&.*.=.' =.;.;.| &.<.*.*.&.=.&.&.=.} =.3.3.;.;.&.=.=.=.*.&.&.=.} D D T R R T } T T T T T =.=.=.=.=.=.=.=.=.O.O.T T T T T H H W T T T =.=.=.W T T T W R R R R R R R H B j j B D *.C f =.O.&.:.O.h [ o.o.e.e.3.;.' D N = o > h =.<.;.4 3 0 o.o.o.o.g i r %   sXsXsXsXsXsXsXsXsXsXsXsXsXsXsXsXsXsXsXsXsXsXsXsXsXsXsXsXsXsXsXsXsXsXsXsXsXsXsXsXsXsXsXsXsXsXsXsXsXsXsXsXsXsXsXsXp R 1.| Z f 4 3 | 5.O.h 4 o * O.:.=.3.e.e.3.;.o.) 6 j =.=.[ } =.f f O.T g g B D H V D T =.=.=.W W =.D Z ' =.=.' D D =.=.O.T T T T j H } | &.=.} } } } D =.=.' D D V T =.=.=.=.=.T O.T R R R j B R Q +.T V =.&.=.=.O.=.=.D H H T =.D T =.=.=.T D T T R H D =.=.=.} =.=.&.=.D D ' D j j H H j j H H H H B H H j g g j O.R j g g g B H H H V H g g B P H j H H ' D N H H H g B H H g h g N N g g f f g d i i i d d d d f f Z } s g O.W R H f 6 C D D ' ' H R H f 6 j Z j 6 = o   o 3 > @ * R G.:.j C | ;.;.| Z j s * . . : v b e . X > t s s t g =.s f ",
"=.s 6 H j g g s t = . . : b b t o   o s H O.&.&.=.O.H H :.1.g 6 4 = o @ * @ 0 o.o.o.Z f N =.&.;.o.| [ L C f j D T T H f , h Z f t u i i i i g j P k k g j B P P k P P j g g R E W P j B P P P R W R j j P R R T T H H D T =.=.=.T R T =.=.=.T O.O.=.=.=.+.Q E E W :.1.:.:.=.-.:.-.=.:.:.=.=.=.1.<.:.:.<.<.<.*.:.*.:.<.*.=.=.<.=.} *.<.:.:.&.*.:.:.*.*.*.4.4.<.*.*.=.=.=.*.*.:.=.T T W W R R W *.=.W W W Q +.=.=.=.&.&.&.=.=.=.=.W =.=.=.W R R E E E W =.=.=.W W Q Q W E P P E P R R P R P P H *.*.h h =.T =.:.O.j ) ..o.3.e.3.*.O.D j * o , h =.6.;.4 3 0 o.o.3.o.g p i %   sXsXsXsXsXsXsXsXsXsXsXsXsXsXsXsXsXsXsXsXsXsXsXsXsXsXsXsXsXsXsXsXsXsXsXsXsXsXsXsXsXsXsXsXsXsXsXsXsXsXsXsXsXsXsXsXk R *.&.Z s , 3 | 5.=.j 4 o * O.*.&.e.e.e.e.;.o.) 4 h =.=.' ' O.f s O.=.H j P T R T T T W W W W =.=.W D ' =.=.T T T =.=.T W W W T j H =.*.*.=.=.=.=.=.T =.*.=.T R R =.=.=.&.*.&.=.O.W W P P k P W Q Q E R =.:.:.-.+.=.W =.W T W W T W -.+.W W W Q Q W R W =.=.=.=.=.*.=.=.=.=.=.T R P R R R P P R R R P R R P i g k W R P j j j j R R R R R B g P P j j H T T D H R R H j B R j g f g R R B B j g g i p i i i d d d d N } Z 4 f H H j j s 6 h N D } =.=.T j 6 6 C ' D f = X   o 3 ; @ * T H.:.g C =.;.;.} C f t & . . , b b : . X > t s s u g =.s f ",
"=.f 6 Z g u s t , = . . w b a : X   o s g H O.=.O.O.H H :.:.g 6 4 > o @ * @ 0 o.| ..C f Z =.&.=.| ' | [ Z s f D T T H f > 6 D g t u i i i i d g P k k k g g g k P P P k g g P P P k g g g P P E E P g k P P P P E P R R T =.=.=.W R E +.+.Q W =.=.=.-.-.Q Q E E Q -.-.-.-.:.-.-.-.-.:.:.=.W =.4.4.:.-.1.<.:.+.-.-.-.-.=.=.=.1.T R -.1.:.:.=.-.:.:.:.:.:.<.:.:.<.4.:.Q Q -.:.:.=.T W Q E P P W :.+.Q Q E Q Q Q =.=.-.=.=.=.=.=.=.E +.-.+.W E P P P P W +.+.W E E Q Q E P P I E P k k k k k k T <.;.6 C D W O.&.' h ) ..;.3.3.*.*.O.T N = o > f =.4.;.4 > 0 o.o.3.o.g i i $   sXsXsXsXsXsXsXsXsXsXsXsXsXsXsXsXsXsXsXsXsXsXsXsXsXsXsXsXsXsXsXsXsXsXsXsXsXsXsXsXsXsXsXsXsXsXsXsXsXsXsXsXsXsXsXsXsXW <.;.Z 4 , 3 | y.*.Z 6 o * ' *.&.e.e.e.e.3.| C 6 j =.&.| O.R s s T =.R j P R R R R R R R W Q -.=.T D W =.=.T R E E R P P W W W R R W :.=.=.=.=.=.=.W =.-.=.T R R +.W T &.*.&.=.T W W P k g P E Q E P R Q :.+.+.W W W W W W E E R E +.Q W E E E Q E E W W =.=.=.+.-.=.=.+.:.+.W E P P P P P P P P E I P P P i g l P R P P P k j P E E P P B i g P g g P T T R R R E R j P P k g d g R R R R P P z k p k i i d d d g D } j 4 h N H H B s 6 h Z D =.*.*.T j 6 4 C ' ' f * X   o 3 ; o * R H.:.h C =.;.| Z f f < % . o , b v : . X > < s s f g =.f f ",
"=.f f H f t t t , = . . t M r & X   * s g g H ' O.O.D H :.:.g 6 4 > @ @ @ @ 0 o...[ C j Z ' D Z Z } } ' C s j =.W T H h > 4 N j s u u i y t t i i i i i i y t i k z k d i g i g k k i i y i k P P i g k k i i p P P k j R W W W R P P P P P P R P R R P I P p k P E R H R W W P E Q -.+.W R =.:.+.W W =.:.=.W E Q Q R P E Q W g g Q -.Q E I E E E W Q Q W R T +.-.-.E I E -.+.P P P E P z p P W W E P P I I E E W O.T R T W W W P E Q W P P k k k k P W W P P P I I P k P P I k d d g d g R =.5.=.4 N V W W =.H h [ | 3.3.=.O.O.T W H = * > f V &.} > > 0 o.o.o.o.B p p % sXsXsXsXsXsXsXsXsXsXsXsXsXsXsXsXsXsXsXsXsXsXsXsXsXsXsXsXsXsXsXsXsXsXsXsXsXsXsXsXsXsXsXsXsXsXsXsXsXsXsXsXsXsXsXsXsXsXW 6.;.C 4 , 3 } y.<.[ 6 o * ' <.&.3.e.3.>.| ..C 0 j &.*.=.=.T h s H +.W d g P P P P P j g k P W T B H V T T B B k P k g k R R R j j H R R T T =.T H R T T T R P P E g j T =.T H B B P k d d j P E P g k E Q Q E k j P k P P P k d k P P P g k k P P P P P P W W W W R P Q +.T j P k i p p d i i g k P P k i y y k k k k k P j d d k k i i i i y i i i g P R B j P R P i g P k i i i j k g g g g i y y y y w w y d j } ' f 4 j j N N B s 6 h Z } &.;.&.=.H f 4 h C N 6 * X   o > ; $ * R H.:.h h } | [ j f s t %   . , v r : . X ; < s s f B =.f g ",
"=.f f Z s t t t t * X . , r e : .   $ s g g D =.=.=.D H :.B.g 6 6 > o @ o @ 0 { ..[ C j [ | ..[ [ Z D N h 4 h T T W V h > * j Z H j d d d d f d g g B B k k j g P P P g g g g g k P P k k p k P k p i i i i i k P P P P P P R P P R P P P P P P R R E P R P k P P R R R W W W Q +.-.-.=.W T =.=.=.=.+.:.:.+.T B B B P R W W R B R W Q Q Q W W W W W +.+.=.*.:.4.1.-.-.Q -.-.-.+.Q Q E P B R W W W W P g g k P R W R R R E W W E P P P P P P g d g B R E W W E R R R E R R R W W R l j j H &.r.y.Z 4 j D T O.=.Z f [ | ;.;.=.H T W +.T > * , f B =.D > * 0 ..o.o.o.g P P : sXsXsXsXsXsXsXsXsXsXsXsXsXsXsXsXsXsXsXsXsXsXsXsXsXsXsXsXsXsXsXsXsXsXsXsXsXsXsXsXsXsXsXsXsXsXsXsXsXsXsXsXsXsXsXsXsXsXW 3.| C 6 > * | y.<.) 9 @ * D &.;.e.e.3.o.[ ..) f h =.*.*.O.j s < f =.=.g g j R R R R R R E E E R R R B H R R R P E E R P P R R E R R B R =.-.:.+.E R P R P E E E R P E Q W W E R P k g d g k P P R E E Q E E P g d g j k P k j j P P P R g g d g P R R j H T =.+.=.W W E R P k k k k P P P k g g j P P k i i i k P E E E E P k k k k g g g i i g k P P P P P P E P k k k k k k g k k P P P P k k d i i i d u u g T *.Z s s j C C j H f 6 C Z Z | | } T Z 6 4 h h j 4 * .   o > * o % H F.-.f j Z Z Z j f f t *   X : e r : .   * < < , t g W h h ",
"+.f 4 H f t s t = & o . % w i t .   * s g j ' =.=.=.D R :.D.N f 6 = o @ * @ 9 { ..[ C s C | ;.;.| [ Z C h 4 j =.:.=.H h , 4 C j f , , * * * > > > , < < s s s s s f s s s s s u f f f f s u u f u u t t u u u f f f f f f f f h h h f f f f f s s s s t t < < < t s 4 s f f f f j g g h h h h j N N Z Z Z Z j f s f f f f f h f h h h h h h h f h h h f f f h f s f f f f u u s s t t 4 4 s h h h h t , t s f f j N N N N H j j h f h g g g f f f g h h h f f s s s f f f s s s s 4 4 , < s h h > > j D H =.*.} h [ | ;.*.&.O.T T +.T , * , g R :.} > > 0 ..o.>.;.B I I : sXsXsXsXsXsXsXsXsXsXsXsXsXsXsXsXsXsXsXsXsXsXsXsXsXsXsXsXsXsXsXsXsXsXsXsXsXsXsXsXsXsXsXsXsXsXsXsXsXsXsXsXsXsXsXsXsXsXW 3.o.L 6 > > | I.<.[ 9 @ * D *.;.e.e.e.3.| ..C 6 g =.&.&.=.R f < s D ' h t f h h h h h h f s s s s s 4 < t s s s f f s s 4 s s s s s 4 6 h j f f f s s s f f f s s s f h h h f f f f s s s f f f f f h j g f s s s s s f f f f f f h h h f f s f f g h f h j j j j h f s u u f f f f f f f f s s s s f u t t u s s s f f f t t t t t t t , , t u u f f f f f g g g f u u f f f f f f h h f f f f s t t , t < < f h j 6 4 h Z Z Z H V h 6 ) } } &.;.=.W N 6 4 h j j 4 * .   o > * o % B D.+.f j Z Z Z Z j f t *     % y p : .   @ < t t s g =.h h ",
":.f 4 Z f s s s > * o . > B B ,     * f g H O.*.=.=.D R D.G.H f 6 = o @ * @ 6 ) ..[ j f C ..o.3.o.| Z C h 4 h D T W T N 4 * * o .         . . .   . . . . . . . . . . . . . . . . . . . . . . . . . . . . . . . . . . X X . o o o o o o o o o X . . . . X X X . . . X o o o o . o o o o o o X X o o @ o o o @ @ o o @ o o . X X o o X X X . . . . . . . X . o X X . . . . . . . . .       . X . . X . . o o o o o . . . o X . . . . . o o o . . . X X . . . . . . . . X . . . X X X . . . o . . X > C O.O.&.4.=.j [ | | ;.*.&.=.T =.T , * , f R 1.=.> > 0 ..o.>.3.P Y I & sXsXsXsXsXsXsXsXsXsXsXsXsXsXsXsXsXsXsXsXsXsXsXsXsXsXsXsXsXsXsXsXsXsXsXsXsXsXsXsXsXsXsXsXsXsXsXsXsXsXsXsXsXsXsXsXsXsX} 3.>.[ 6 > > | r.*.C 9 @ * D *.;.3.3.e.e.3.o.C 6 h =.&.&.*.=.T s > * % o . . . . . .     . . . . . .   . . . . . X X X . . X X o X X X X o o o . . . . X o o o X X o o . o o o X . . X X . X . . X . X o . . . . . X X X o o o o o o o o . . . . . . o o o X X X . X . . . . . o . . . . . . . . . . . . . . . . . . . . . . . . . . . . .       . . . . . . . . o . . . . . . . . . . . . . . . . . .   . . . . o o * < h Z [ ' =.T h 6 ) | &.;.;.=.T N 6 4 6 j j 4 * .   o > * o % B D.+.s h Z Z Z ' H h t *     ; i b :     @ 4 s f f H =.j j ",
":.f 6 Z f s s t , > . . , B i &     * f j H =.*.=.' H H 4.G.H 6 4 * o @ o @ 6 [ [ [ j f C ..o.o...[ Z Z C 6 f N H B B g t $ . . . o o @ * o o o @ @ @ * * * * @ @ @ @ @ @ @ @ * * * @ @ @ * * * * * * * * * * * @ @ * * * * * > > > > > > > > > > > * * * * * * * * * > * > > > * * > > > > > * > > > > > 3 3 > * > > > * * > > > > > > > > > - > > > > * > > 3 > > * > > ; ; ; * @ @ * > > > * * * @ @ * * @ @ @ @ * * * @ @ @ * * * * * * * * * * * @ @ * @ @ @ @ * * * * @ @ * * * * @ * * * > 4 j =.&.&.*.} h C | | ;.;.;.&.=.=.D , * , f R :.D > * 0 ) o.9.;.P j.j.& sXsXsXsXsXsXsXsXsXsXsXsXsXsXsXsXsXsXsXsXsXsXsXsXsXsXsXsXsXsXsXsXsXsXsXsXsXsXsXsXsXsXsXsXsXsXsXsXsXsXsXsXsXsXsXsXsXsX| e.3.[ 6 > > | r.&.j 4 @ * T *.=.3.>.e.e.e.o.) h j O.&.*.*.=.H 4 * % o @ * > > > * @ * * * @ @ * @ @ @ @ * * * @ @ @ @ * @ @ * * * @ * * * > > = * * * @ @ * > > * 3 3 > > > > * * > > > * * * > > @ * * * @ @ @ * * * @ @ * * * @ @ @ @ * * * * * * * > > * * * > > * * * * * * @ @ * * * * @ @ @ @ @ @ * * * * * * * * * @ @ @ @ @ @ @ @ o @ @ @ @ @ @ @ O o O @ @ @ @ @ @ @ * * * @ @ @ @ * * * * * @ @ @ @ o * * * 4 h N | &.=.V s 6 ) | | ;.| D T H 6 4 6 h h 4 o .   o > > @ * H D.+.s f Z Z Z H H g t *     & e w %     @ 4 h j j H &.j j ",
":.h 6 H f s f s < > o X > t i s @   @ h H H O.*.=.' N N :.D.N 6 4 = o @ * @ 6 C Z C j f C | o.o...[ } Z C 6 h H T E R d t > o o * * * > > * * * > > , , 4 4 < , > > > > > * * * > > > * * * * * * > > > > > > > > > > > > > > > > > > > > > > > > > > > > > > > * * > > > > , , , , , , , , > > , , > , , 4 4 > > > > > > > > 4 4 > > > 4 > > > > > > > > , , , > > > > > > > > > > > > , > > * * * * * * > * ; > > > > > > > > > > > > > , , , , > > > > > > > > > > > > > > , , , , , , , , 4 6 f f O.&.O.=._ f C | | | ;.;.*.=.=.H > * , f R :.D > * 6 ) o.e.3.E j.j.& sXsXsXsXsXsXsXsXsXsXsXsXsXsXsXsXsXsXsXsXsXsXsXsXsXsXsXsXsXsXsXsXsXsXsXsXsXsXsXsXsXsXsXsXsXsXsXsXsXsXsXsXsXsXsXsXsXsX} e.3.[ 6 > > ;.I.*.Z 6 @ * D =.=.3.e.e.e.e.9.X.h j O.&.;.*.=.f = * > > > 3 > 4 4 3 3 3 4 > > > > > > > > > > > > > > > > * * > > > * * > > > , > > > > > > > > > > > > > > > > * * > > > > > > > > > > > > * * > > > > * * > > > > > > > * * * * * = = > > > > > > > * * * > > > > * * * * * * * * % $ $ * * * * * * * * * * * % % % $ * * $ * * * * * * * * * ; * > > > ; * > > > > > > ; > > > > > > > > > > > > , 4 f s C =.*.=.N 6 4 C | } | ..D T H f 4 6 f f , o .   o > * o * H F.-.f h Z Z Z Z j f t *     & t t &     * 6 h j j H *.j j ",
":.h 6 ] h f h j 4 > o o , B W N >   o h H H O.&.} D j j -.B.j 4 4 = o @ * @ 4 C C h h f Z | o.o.o.o.| [ C 6 f H T W W d d f * o $ & & & & & * * = * > > > > > > > > * * % % * & & & % % * % % % % & & * * & * * * * * * > * * * * * * * * * * * * * * * * * * & & & & * * * > > > , , > , > > > > * * > > > > > > > > * * * * > > * * > * > * * > > > * * * * * & * * * % % & * * * & * * & % & & & % % $ % % o o $ % % % % * * % % % * * * > * * * * * * * > * * > > > > * * * > > > > > * * > C Z f T O.O.=._ h C [ } ;.3.3.3.=.W N > * , f H =.D = = 0 ) o.e.3.W j.j.:   sXsXsXsXsXsXsXsXsXsXsXsXsXsXsXsXsXsXsXsXsXsXsXsXsXsXsXsXsXsXsXsXsXsXsXsXsXsXsXsXsXsXsXsXsXsXsXsXsXsXsXsXsXsXsXsXsXZ o.o.) 6 > > ;.I.:.Z 6 @ * D =.=.e.u.t.u.e.9.X.h j =.=.=.&.=.f t > * * * * * * > > * * > * * * * * * % * * & & & & * * & & & & & & % % % * * * * * & & * * * * * * * * * * * * * % % % % * * * * * % % * * * % * & % % % % & * * & & & & * * * * * * * & & * * * % % % & * * * & & & & & % % & % % % $ $ $ % & $ % % % % $ $ $ $ o o o o $ $ $ $ $ $ $ % % % % % % & % % % % % * * * * % % % & * * * * * * * * * * > 6 h s h O.O.H j 6 6 C | } | ;.&.T H s 4 f h h , o .   o > * o % H F.-.f j D ' H Z f f t %   o > f B < .   * 4 f h h N &.j j ",
":.f 4 ' j h j f f , . o h W W B *   * h H R =.&.O.D N j -.B.j 4 4 = o @ @ @ 6 [ ' _ j f Z | o.o.o.| | C 0 6 f N B R R j H N > * * * * * * = * * = = , , > > , , , 4 , > > > , , * * * > = > > > > * * > > > > , , , > > > > > > > > > , , > , , , , , , , , * * * = * * > > > , , 4 , > > > 4 > > > , , 4 4 4 4 , , 4 , > , , , , , , , , > > > , , , , > > , , , > , , > > > > > > * , , * * , , , , > * , , * * * * * > > > > > > > > > * * * > > > > > > > > > > > > > > > > , , , , , > > < ' =.g W &.&.&._ h Z | ' ;.r.r.3.=.W H , * , f H +.D > = 0 ..o.e.3.W Y Y : sXsXsXsXsXsXsXsXsXsXsXsXsXsXsXsXsXsXsXsXsXsXsXsXsXsXsXsXsXsXsXsXsXsXsXsXsXsXsXsXsXsXsXsXsXsXsXsXsXsXsXsXsXsXsXsXsXP } e.e...h > > ;.I.:.Z 0 @ * D =.=.3.t.t.i.u.9.X.h C =.O.=.=.=.N D h > & * * * * > > * * > > > > > > > * * * * * & * * * * * * * * * * > * * > > , , , , , > > > , > > > > > > , > > > > > > > > > > > > , , , , , , , = * , > > , , , , , , , , , , , , , , , , > , > > , , , , > > > > * * > , > > > * * * * > > > > > > * * * > * % $ $ % % $ % % & % * > , , , , > * * * * > > > > > > > > > > > * * > * * % * * , h N g g H H H H f 6 C | | 3.e.3.=.H s 4 f N N 4 * .   o > * o % R F.:.g N D ' O.' j f f %   o 4 N V s .   * 6 s s f g =.h j ",
"*.f 4 ' N g j h h > X o s B P g ;   @ h H V T =.} ' Z H -.B.j 4 4 = o @ o o 6 | ;.#.j f Z | | | ' ' | L C 6 f H R R R g j W s & & * * * * > , , , , , , > , 4 s s s s < < s s s 4 4 4 4 4 s < < 4 < < s s s s s h h f f f f s s s s s s u u s 6 6 h f f s s s t s s f h h h j j j j h h h h h f h C N j h h j j s s h h f h f f f f h h f s s < s s s < s f h f f h h h h f h s , t s s s s s s s s s t t t u s 4 < 4 s s f s s s s f f f f t t f f h h s s s s s s t t < < < < < < t , , , , s =.D j W &.&.&.Z h _ | | *.3.<.*.O.O.H , * , f W :.' > > 6 ..>.e.3.R I Y : sXsXsXsXsXsXsXsXsXsXsXsXsXsXsXsXsXsXsXsXsXsXsXsXsXsXsXsXsXsXsXsXsXsXsXsXsXsXsXsXsXsXsXsXsXsXsXsXsXsXsXsXsXsXsXsXsXR ;.e.3.| h > > &.I.+.N 6 * * D +.=.*.3.e.u.u.e.X.h C } D D } =.N T E u & , 4 h h h h h f f h 6 6 6 f s s f 6 h f s s f f f s s s s 4 4 6 f f f h j j j f h h f f h f j h s f h f h h s s s s s B H H N N N g g N j N N h h j j N N N j j j N h h h f f s f h f f h h f h h h h f f s u u t s 6 f f s u < < < < < < s s u t s < u t < t < > = , > > > , , < < s s s s < , > , , , , < < < t t t < < t < , , > > & & * , h ' g f H H D D h 6 C ..| | ;.;.=.H s t f f f 4 * .   o > * o * R F.-.h j ' &.=.H g h h *   @ 4 h f < .   o < f s s B =.h B ",
"*.h 4 =.N g j f f 4 X o < B B f @   o f B R =.*.=.' Z j +.B.j 4 4 > o @ . * f | =.' j f Z | ;.| } } } [ C 6 h H R R H f g W l t < s s s f f g H B B B g f f h g B B B B g B D D D V H N N H B B N N B g H V T T D D =.=.=.=.O.D D H H V R R D D } W =.=.W W T T W *.<.<.&.;.*.<.3.3.<.<.*.=.=.=.<.6.6.<.| | } } =.=.=.' } =.=.=.} | =.=.=.T T T O.T H D $.<.<.&.&.&.&.*.*.*.*.D g N =.=.O.D D H T =.D D T T V D O.W T D O.=.=.T =.=.=.=.T T R R W =.T O.D D W W T T T D H D O.=.=.=.W R j d u N *.V g P =.=.&.Z j [ o.;.;.3.&.=.=.+.H , * , f R +.D > > 6 [ o.e.;.R P P : sXsXsXsXsXsXsXsXsXsXsXsXsXsXsXsXsXsXsXsXsXsXsXsXsXsXsXsXsXsXsXsXsXsXsXsXsXsXsXsXsXsXsXsXsXsXsXsXsXsXsXsXsXsXsXsXsXR ;.e.3...h > > =.D.=.N h * * T :.*.*.3.,.3.e.9.X.C h ' D Z ' | h T 1.I i g =.&.*.<.3.<.*.<.&.| | | ..| } | o.;.3.;.;.;.;.| } D N D } | &.=.| | o.*.*.:.&.=.*.*.*.=.*.<.:.=.=.:.=.:.:.:.*.W V T -.4.1.:.:.:.<.4.<.<.6.3.3.&.<.3.3.<.*.*.*.<.*.*.=.=.=.W T =.*.=.=.=.=.T T W =.=.=.W =.W D H V V D D D V H H V V H H =.=.R H H V V R V T H g d g B B B j g g N N N Z D N f f f d g H H H g g j g N H H j g h j H j u , 4 Z ' f u R T =.D h h ) ..| [ ) Z ' H f t t s s 4 * .   o > > @ & R D.Q f h ' &.O.N g B h *   @ 4 h f < .   o u f f f H =.f j ",
":.j s =.H h f f s , X . , N N s @   = j R T *.<.*.=.' H +.:.j 4 4 > o @ . o 6 Z ) C h j Z | | ........| ) 0 j H R H j s s W -.T H g g B B B P I I W E E P B B R W W W W W W =.1.1.:.=.=.=.W R W T W W R T *.1.=.=.=.&.&.*.*.<.1.<.*.=.1.1.-.=.<.3.<.<.1.<.1.1.:.1.4.y.y.r.3.3.r.y.y.y.I.I.4.4.5.I.+XI.r.3.;.| *.G.G.<.<.6.4.<.*.&.<.r.r.3.<.:.4.D.4.<.5.y.y.y.i.r.y.y.5.y.I.I.1.W =.:.:.:.*.=.&.*.*.4.6.5.4.:.1.5.D.4.*.:.<.<.<.<.*.<.4.4.:.:.:.:.1.*.&.*.1.4.4.4.4.5.<.:.<.D.I.G.G.D.:.Q E B =.1.H g H D =.&.Z h [ o.>.e.3.3.| &.:.T 4 * 4 s d T Z > > 6 [ o.e.3.V b b & sXsXsXsXsXsXsXsXsXsXsXsXsXsXsXsXsXsXsXsXsXsXsXsXsXsXsXsXsXsXsXsXsXsXsXsXsXsXsXsXsXsXsXsXsXsXsXsXsXsXsXsXsXsXsXsXsXR | >.o.[ h 3 > =.D.W Z h * * W 4.:.3.3.3.3.e.9.7.) C } Z Z ' | f j -.Q E E =.<.r.r.r.r.y.y.y.y.y.e.3.3.3.e.u.u.e.e.e.e.e.e.3.;.| 3.r.i.y.3.3.e.y.y.3.4.3.4.6.6.4.<.r.I.r.4.5.I.5.5.P.I.I.4.-.-.4.5.5.r.r.r.y.y.y.y.a.y.y.y.y.a.a.y.y.y.y.y.r.6.6.6.6.<.<.6.y.y.6.6.5.4.*.=.1.1.1.1.4.4.:.=.:.*.$.*.:.1.*.1.<.1.:.1.G.1.W W 1.4.2.1.-.-.-.W W W W =.-.=.=.=.&.<.<.4.4.6.1.-.W -.:.:.=.=.=.W W T :.1.W W W +.+.-.+.B f g =.D t u R O.&.T C h ..| | ) C C [ H s , s f s 4 * X   o 3 > @ * R C.W u j ' =.' N N N N ,   X > 6 6 , .   > h g h h H =.f j ",
":.j f =.H f f s s , X   o , , % . . * g R V =.*.| ' Z j +.:.j 4 4 > o o o o 4 h h C j j Z } | | o.>.o...) 0 j H H j h 4 , j +.+.W W E R E I I E E E Q Q I P P W Q E R E W E R -.1.1.1.-.=.R E W -.-.Q E E -.4.<.*.<.<.<.*.*.<.5.4.1.1.D.F.1.*.4.y.4.<.<.4.4.1.-.=.<.y.Y.a.r.r.y.Y.a.Y.I.5.<.4.D.I.I.y.3.e.e.3.1.1.1.1.6.6.<.*.$.&.3.y.y.y.3.4.5.4.4.<.4.6.y.y.r.r.y.y.5.5.4.5.4.-.Q +.4.4.4.5.5.4.<.5.D.D.1.1.D.G.:.+.=.*.<.<.<.<.<.4.4.1.1.1.1.<.<.<.*.5.D.4.4.D.G.G.5.<.<.I.G.D.C.-.-.Q Q E :.=.g f g H =.&.L h ) o.9.e.u.e.3.*.:.D 4 * 4 s g W D > > 6 ) o.e.3.V b p & sXsXsXsXsXsXsXsXsXsXsXsXsXsXsXsXsXsXsXsXsXsXsXsXsXsXsXsXsXsXsXsXsXsXsXsXsXsXsXsXsXsXsXsXsXsXsXsXsXsXsXsXsXsXsXsXsXR | >.| ) 0 3 > &.D.=.D C * * O.:.*.e.i.t.u.e.9.7.) ) | ' Z [ | h s W C.C.1.1.<.y.y.y.y.I.I.r.y.y.y.3.3.3.y.y.r.3.3.y.a.y.3.3.&.&.6.y.y.<.&.3.y.E.y.3.<.r.y.r.6.6.6.y.y.5.6.5.I.y.5.5.P.D.1.-.-.:.:.4.y.I.Y.y.y.y.a.i.t.t.y.y.y.y.y.a.a.y.y.r.6.y.y.y.5.5.y.y.I.y.y.I.I.4.:.:.1.-.-.1.1.=.W +.*.*.*.*.*.1.4.1.-.-.1.1.1.W =.4.@XI.1.E Q Q W Q -.-.-.:.-.:.*.<.6.6.4.4.G.G.1.Q -.D.D.5.G.5.4.:.:.G.D.-.Q Q 1.-.Q W W T *.:.g = t j R T D C h ..| | [ ) ) [ Z s 4 f j f 4 @ X   O 4 > * * R C.Q f h ' *.;.' N N N , .   o * % o     4 h g f h R :.h j ",
"1.j f &.H f s f s , * o $ * $ $ $ * , g T =.=.*.| ' H H :.B.j 4 3 > o o o o 4 C [ [ Z h Z | o.>.e.e.o...L 6 h H H j g f = t R E R E R E I I I I E E E E P P P E E I P P P P B W -.Q W -.-.E E Q C.-.E E E W :.:.1.4.5.5.<.:.4.5.1.=.1.G.G.C.-.4.I.4.1.1.1.-.-.-.=.*.6.y.y.3.6.y.Y.$XT.I.<.1.1.4.I.I.6.<.6.y.y.4.1.1.1.4.4.<.=.=.*.6.y.5.<.-.1.1.1.1.D.G.G.D.5.5.D.D.G.D.4.<.4.1.-.Q Q +.:.1.D.D.4.:.1.C.Q E Q C.C.-.-.:.<.<.5.5.5.4.:.W W -.1.4.4.4.<.:.5.D.4.1.D.G.5.4.1.<.5.4.:.+.W +.+.Q -.:.H f f g H =.;.C h [ o.>.e.e.e.3.&.*.D , @ , f H *.' > > 0 [ o.e.e.D P b & sXsXsXsXsXsXsXsXsXsXsXsXsXsXsXsXsXsXsXsXsXsXsXsXsXsXsXsXsXsXsXsXsXsXsXsXsXsXsXsXsXsXsXsXsXsXsXsXsXsXsXsXsXsXsXsXsXT | 9.o.) 0 3 > &.I.:.' C * * D :.*.e.t.p.e.e.9.7.) ) =.' Z ' ;.j s R Q Q Q 1.<.r.y.y.y.y.y.1.1.D.D.<.<.4.4.<.=.T =.G.I.5.-.-.=.=.1.1.1.=.*.4.I.I.y.<.*.<.<.*.*.<.<.5.5.5.4.5.4.<.<.4.4.:.+.W Q +.=.<.r.I.I.y.r.y.a.y.e.e.y.y.4.*.3.r.I.r.r.<.<.6.6.5.5.5.5.5.4.4.4.4.4.1.-.W W W Q -.-.W W W =.=.W H T -.:.Q E W Q W U U W 1.G.D.E P I I I W W W T W =.=.=.$.=.&.:.:.:.:.Q Q -.D.G.G.G.4.*.:.4.G.D.-.1.-.-.Q W W =.<.4.=.s = u j R H H C C { | | | ..) [ Z s 4 h h f 3 @     o 3 > * > R C.Q h C } <.<.=.' Z N < o o @ * $ o X @ 4 g g g j T :.h h ",
"<.N f &.H f f f s s 4 6 6 s s < 6 h s j O.*.<.3.| ' Z N +.:.j , > * o X o o 4 ) ..[ C f Z | o.o.o.o.| | L 6 h H H P g f 4 < g R R R R P P R P P P P R R P j g P I P g g g g g B P B B B R P P I E P g g P P P R R T W =.W T W =.T T W 4.C.-.W O.=.W Q Q E P P E W =.:.1.*.=.*.<.<.<.<.=.T W +.-.:.=.=.W =.=.=.=.E E E W R R R R T =.=.W R P E I I I B.-.-.W W T W W W W W W W E I P P R R W +.:.+.=.-.-.E I E Q Q Q Q -.+.=.=.=.-.-.+.E E Q Q Q W W T T =.=.W W -.1.:.=.=.*.*.=.T H H H H T =.=.f f f d ] ;.;.C h ..| >.e.e.e.o.&.*.D , o > f W <.} > > 0 o.e.u.e.Z P P sXsXsXsXsXsXsXsXsXsXsXsXsXsXsXsXsXsXsXsXsXsXsXsXsXsXsXsXsXsXsXsXsXsXsXsXsXsXsXsXsXsXsXsXsXsXsXsXsXsXsXsXsXsXsXsXsXsXV | 9.o.) 0 > > &.I.1.' C @ * D =.=.e.u.e.e.e.9.>.) ) =.' Z ' | f , d R Q -.=.*.<.3.*.;.=.=.R R W W E R W W W R P E Q -.+.W W E W Q Q W W +.+.:.=.W E W W T W W =.W =.=.W W W R H R R R R B P P W T T =.*.*.=.=.*.*.&.=.&.*.*.&.O.T T O.O.W T T W =.=.=.-.-.-.W W R R R E R B B B P I E R R P H H j d j E E P P P I R P B B R E I I P P I P R R R R T W =.W T T W +.=.W W E E W -.:.=.W T H T =.-.W E E W H B g B T T D j t t d j H H N j C { ..| o.o.| [ j 4 6 j C h > .     o 4 > * > R C.+.g C ' &.&.=.' Z N h 6 6 4 4 < < < 4 f g g g j T :.h h ",
"4.N f &.H f f f s f h j j j g f h N f j =.*.*.*.} [ Z B +.:.j > * * o o o o 4 ) ) ) C f Z } | ..| | } [ L 6 f H R P g f 6 < f H R H H B H H V B B B P P P g g g P P P k g g g j j B B B B P P P k p i i g k k k k g P R R R j j B R j T E E E R R P E E P k k P P R R H H H V T =.W T R R R W W T R H H H H H R P I z k k g g j R R R P P P P l z k R R R H B g j g B P k k l k i g d d g P P R R E T E P P P P R P E E R P P P P P P P P P R P R R R R R R R E W W W T T =.' H H j j h f g H j s s s d ' ;.;.C C ..o.o.>.e.e.;.&.=.H , o > f W <.' > > 0 o.e.e.>.Z P I sXsXsXsXsXsXsXsXsXsXsXsXsXsXsXsXsXsXsXsXsXsXsXsXsXsXsXsXsXsXsXsXsXsXsXsXsXsXsXsXsXsXsXsXsXsXsXsXsXsXsXsXsXsXsXsXsXsXV o.9.>.) 0 > > &.U.4.' h * * H =.=.e.u.e.e.e.9.o.) C ' D H H ' 6 < g T =.=.=.=.=.=.} ' Z Z H R R P k j B H B P k g g j j g k k k k P P P E E R g g k k k k k k k P P P P P P j j B g g d i g k P H R R H R R R R T T R R P R R R R j j P P P P P E E E E Q Q Q E P P P P P P g i i k P P k k g d d d k k k g g g P d g i g P g P P k P k g j j g j B R R R H R R R R H j k P R T T T R R H H H H j j j H g f s s d f f s s u d j H V V C C { { | o.;.o.' N s 6 j C f = . .   o 4 > * > H C.Q g j Z ' =.=.' H Z D ' Z C h f f g N j j g g g T :.f s ",
"<.N f &.N f f f s f j C N j N N N D N Z =.*.*.;.} ' Z H -.C.j > * * o X o @ 7 ) ) ) h f N } | ..o.o.| | ) 6 f N R P f < , > , , < < , , < < < < < < s s u t t t u f f s u s s s f f f f f f f f u u s t t s s f f s g g g f s s f f s s f g j j j j j j g d f d g g g h g g g H H N N N j j j N N j h h h h j j g d g g d f f h h j g g g f h h f f f h h f s f s s f f f f s s s s s f f h j j j j N N N g h h j h j j j g g g j g g g g g g g g g j j g g j g g h B j j j j j j h f 6 4 < s s s s s f ' <.&.C C o.o.o.o.3.3.;.=.W H , @ > s V *.Z > > 9 ) o.9.o.N E W sXsXsXsXsXsXsXsXsXsXsXsXsXsXsXsXsXsXsXsXsXsXsXsXsXsXsXsXsXsXsXsXsXsXsXsXsXsXsXsXsXsXsXsXsXsXsXsXsXsXsXsXsXsXsXsXsXsXH o.9.X.) 9 3 > =.I.4.' 6 @ * H =.&.u.u.e.e.e.>.o.{ C H H R H j s s j N g h h h j h f f f f h h g d f f h g g g g d f f d d d g g d g B g j j g f f g d f f f f f f g h h h h f h g g f f f f g g g j N j g g g g g g g g d d d g f f f f f g g g g g g j g j j g g f g g h f f t t u f f u s s t s s f u s t t t s 4 4 < f h f d g d f f f f f f f h f f h h g g h h h f f g j j j j f f h h f f s s s f f s , , , , t t s s f j D D C C L { { | ......' N 4 4 h h 6 = X X . o , > * * B -.W h j Z } =.=.#.] Z D | | Z j h g H H H j g g g H :.f f ",
"<.Z h *.N f g g j j Z } } D D ' ' | } ' =.*.*.&.| } D H -.C.j , > * o X o @ 7 ) [ [ C f N ' ....o.>.o.o...C 6 s g B f s 4 , , , , = = > > > > , , , , , > > > > > , > > > > * * * > * = > , > > * > > = * * * = * * > , > * * * * @ @ * * > > 4 4 4 4 4 4 4 4 4 4 > > > > > , , , , 4 , , , > 4 , > > > > > , , , > * = * * ; * > > > * = > > * * * * @ * * * * * * , , = > * * * * * * = > > > , > > > > > > * * * = > > > > > , , , , , , , , , , 4 4 , , , , > > , , 4 4 4 4 4 4 4 4 4 t s f f f g H *.=.Z C | ;.o.o.,.>.3.*.&.:.O., @ * s g =.Z > 3 9 ) o.>.o.N W W sXsXsXsXsXsXsXsXsXsXsXsXsXsXsXsXsXsXsXsXsXsXsXsXsXsXsXsXsXsXsXsXsXsXsXsXsXsXsXsXsXsXsXsXsXsXsXsXsXsXsXsXsXsXsXsXsXsXT o.9.o.C 9 3 * ' D.:.C 4 > * H &.*.u.e.e.e.e.9.o.X.[ ] H H R T f s s s s t s 4 6 6 4 4 4 4 4 4 4 t < 6 6 4 4 , , , , , , , , * = , , , < < , > , > > > > > > * * * = * > > ; * > > * * * * * > > > > , 4 , < < 4 , , , , , , > > > > > , , , > > > > * * , = = * * = = , > * * * * * * & & * * * * $ & & * * * * * * * * * * * * = * * * * * * * * * % & * & * * * * * = * * * = > > * > , , , > * * = , < , > > , < < < t s f H ' C h C [ | | ......[ ' Z 4 , f f h , o X X o , > @ * g -.W f C ' =.=.=.=.} D D | ;.| ' Z T O.O.R H g g g H *.f f ",
"1.N f &.H f j j D ' | ;.*.=.D =.*.*.;.=.;.*.<.;.;.=.' H -.C.N 4 > = o X o o 3 ) [ [ j f Z | ....,.e.3.| | ..C 4 < s s h f 6 f j j j j C C C N N N h j h h h h j C C C h h h C h h h h f h h f 6 h h 6 0 0 6 6 6 6 6 6 6 6 4 6 6 3 3 3 3 4 6 0 h h C C C C C C j h C C C C h h C C C C C C C 0 h h h h j C C C C C h h h 0 6 6 6 6 0 6 6 6 f f f s 6 4 6 6 6 6 6 6 6 f f f f 6 6 4 6 4 4 6 6 6 6 h h h h h h h h 6 f f h h h h h h h h h h h h 0 h h h h h h f f 0 h h f j C C C j j j N N j N Z H N H D Z h C | ;.3.3.3.3.3.3.&.-.1.O., o * < g =.N * > 9 ) o.9.o.D Q Q sXsXsXsXsXsXsXsXsXsXsXsXsXsXsXsXsXsXsXsXsXsXsXsXsXsXsXsXsXsXsXsXsXsXsXsXsXsXsXsXsXsXsXsXsXsXsXsXsXsXsXsXsXsXsXsXsXsXE ;.e.o.) 6 > * Z :.T h 4 > * D *.*.e.3.e.y.t.e.o.o.o.| Z h j O.H N N H D H D Z | } | | } } [ Z Z H [ [ [ [ [ C h h C C j j h h h C h h h h h h h h h h h h h f f 6 6 6 6 6 6 4 6 4 4 4 4 , , , , 4 4 6 6 f h j h h 0 0 0 0 0 6 6 6 6 0 h f j j C C C h h j f s 6 s s f f f s s s s s s < , 4 4 4 4 4 6 4 4 4 4 4 4 4 4 4 6 f s s f f f f 6 6 s 4 4 , , , , , , , 4 4 4 4 4 4 4 4 4 4 6 6 f f f f f 6 s f h f s s f h g g f h N H N N C [ | o.| o.o.| | O.H s , 6 f h 4 o X   o > > @ * g -.W f j ' &.=.=.;.*.=.} &.3.;.=.=.&.*.*.=.V B g d R :.f s ",
"1.N f =.H g j j D =.;.;.;.} D =.<.3.3.3.;.;.3.3.o.| ' H -.C.N , = * o X o o > h C j f s H | | o.3.,.&.| | o...h 4 , , < 4 6 s s s s s s s u f B N N h h C N C C C C C C C C C C N C C N C C C C Z C C L Z C C C C C L L L C L L C C C C C ) [ [ [ [ [ [ [ [ ' _ Z [ [ [ [ ) [ | | | | ..| ..| ..[ [ [ | ' D D D Z Z C C C C C C C ) Z C C _ ] ' D D Z Z [ Z C C Z Z N Z Z [ Z Z C N N Z Z D D D D D Z D D D Z Z Z C C C C C C C C C C C C C h h C C C C C C Z h C Z Z j C N h h h s s s s f f f f s s s 6 C | ;.o.o.o.3.3.3.;.O.W +.D > o * t B =.N * > 9 ) o.9.o.N E W sXsXsXsXsXsXsXsXsXsXsXsXsXsXsXsXsXsXsXsXsXsXsXsXsXsXsXsXsXsXsXsXsXsXsXsXsXsXsXsXsXsXsXsXsXsXsXsXsXsXsXsXsXsXsXsXsXsXQ ;.e.o.C 9 > * Z =.H f 3 > * D &.*.*.3.r.y.y.e.o.o.>.,...C f f f f h C N h h j C C h h h h h j C N C h C C ) [ ) ) [ [ Z C Z Z D ' [ [ [ [ [ C Z Z Z N N N N Z Z C C Z [ [ Z C C C Z N h j h j h h C ) [ [ D D [ [ ) ) ) ) C ) L ) [ D Z Z Z } } [ Z [ | ' [ D Z N H H H H H H H N N C j h h C C C C C C j j h h h h h h N N N N h h j j j j j N N j f f h h C C j h j h h j C C C C L C h f f h h f f f f 4 < < < < < < < , < 4 h N } o.o...| | o.| L D N < > 4 4 4 * X X   . > > o % j -.E f f ' =.| } | <.} } ;.3.3.;.| ;.3.3.*.W R B j T 1.h s ",
":.Z f *.V g H j D *.<.3.;.o.} &.3.e.e.e.e.3.;.3.o.| ' H -.D.N > * * o X o o , j h f s s H | o.o.o...| } 3.o...C C h f 6 s h h s s s s s u f g B N N g h h h h N g j h h j j N N N N N N g h N H N N Z N N N Z Z Z Z Z Z Z [ [ [ [ C C j j h Z Z Z C N Z Z N N N N Z Z [ [ [ [ | [ [ [ [ _ C ' | o...| | [ Z D D =.} Z C C Z C C ) [ [ _ C j _ ' ' ' ' C Z Z Z Z [ [ N C Z [ } Z N N N D D D D D D D } =.O.D H N Z [ ' D D Z C C Z [ [ [ [ C h C [ [ C C [ D ' ' | | } C h C Z Z Z Z N j j C C C C Z Z C [ | o.o.o.o.o.3.3.3.;.R l R j * o * f R :.Z * > 9 ) o.o.o.N E E & sXsXsXsXsXsXsXsXsXsXsXsXsXsXsXsXsXsXsXsXsXsXsXsXsXsXsXsXsXsXsXsXsXsXsXsXsXsXsXsXsXsXsXsXsXsXsXsXsXsXsXsXsXsXsXsXsXj.&.e.| C 6 > * N :.T h 4 > * D =.' =.3.r.r.u.e.o.o.o.>.>...C j _ C C C h h j Z Z C C h h f f h N N f s s h j Z | ' N D ' Z H H R B N D ' Z Z N N j h h h j N N j h h C [ [ Z C C Z Z H Z N Z C C C C [ [ ' Z N Z [ [ ) ) L C C C [ ' V N N Z } =.} ' ' ' [ Z ' N g g g g j N N N h h h h f j h h j j C C Z N h h j N C N N N N C j N C C C j j j h h f f j C C Z Z j j j j j C C ) ) C h 6 h j j C h h h j j h h j C C N C h h Z } } | | ..) ) | o.| Z H N < , 4 s 4 * X X   X > * o % j B.Q g g ' &.&.=.| | D } ;.3.3.3.;.o.3.e.3.=.W R j R =.s f ",
":.C f *.D g j j H =.*.<.3.3.o.3.3.e.e.e.u.r.i.e.o.| } H :.D.H , * * o X o o 4 j C j f s Z | ......| } &.;.| ) ) ) | Z h h =.=.N h h j h f h g N D } D H H V V H H H N j j N N D D D H j h g V T D D D H N Z ' ' ' } =.=.=.;.;.;.*.=.' D Z Z ' | | [ D } } D Z Z ' =.=.} } } } } | | | | ' Z ' | ......| [ Z [ } &.=.' C C _ C L C L [ [ C ) ' } } | | [ | | ;.=.} ' } | ..| &.=.D D D =.=.=.=.=.=.=.*.=.W T H N N =.=.=.} ' [ [ } | | | [ Z C [ [ } | | | } ' =.3.3.3.' [ [ ..| | | | [ ) | | ..| ..| [ ..o.o.o.o.o.o.3.3.3.*.T R P j * @ = f T :.Z * > 9 ) X.>.| R E E : sXsXsXsXsXsXsXsXsXsXsXsXsXsXsXsXsXsXsXsXsXsXsXsXsXsXsXsXsXsXsXsXsXsXsXsXsXsXsXsXsXsXsXsXsXsXsXsXsXsXsXsXsXsXsXsXsXj.*.3.| C 6 * * D D.=.j 6 > * D O.D =.3.r.e.u.e.>.o.o.o.o.o...| ..| o...[ L C Z Z [ | ;.| Z N N D D N N Z Z Z } *.=.Z D =.=.T R P j N D [ Z Z C C C j j C Z [ [ C h C [ | } ' [ [ ' ' O.=.=.T D } ;.;.;.=.' D H D =.o.o.o.| [ [ ' } =.D Z D [ ' | &.=.O.H Z } | } N N N Z D ' [ [ Z C j j Z ' ' Z j j C Z ' D N Z D D Z N N N N h Z Z [ [ [ L C C Z N N Z Z ' } } | ' Z Z N C [ [ ..[ [ C h C Z Z Z C C C C C Z L [ [ | | | [ L Z | [ [ ..{ | | | | | } O.H s 6 h f s > X     X > > o % j B.-.j g O.4.r.6.<.| &.*.3.3.e.3.3.>.e.e.;.=.V B g B =.s f ",
"*.j f *.D g j j T O.=.*.3.3.3.3.e.e.e.e.e.y.y.i.3.&.=.R :.C.N , = = o X X o 4 Z Z Z h t j | | | | | } } } } | ..| | Z N h =.} C C C N N g g B N ' } D B g H R T W =.D H D D Z Z =.&.O.N N j N H D D D N Z [ | | | | | o.o.o.;.3.;.;.| } Z Z } ;.| ..| ..| | ..[ | =.=.| | | | | o.o.o.;.| Z C | o.,.| ..| | [ | o.o...[ [ ) [ [ [ [ | [ [ ) ..| | | | [ [ | o.| ..| | | | | o.=.D H D ' =.=.=.=.*.*.*.=.T T T D D ' =.=.=.} } | ;.o.o.| | | | [ ..| 3.3.| } =.&.<.3.3.;.o.o.o.o.o.o.o.....o.o.o.o.o.| ....o.3.3.>.>.e.e.3.3.=.W P E N * @ = f W 1.H * > 9 ) o.9.o.P E E : sXsXsXsXsXsXsXsXsXsXsXsXsXsXsXsXsXsXsXsXsXsXsXsXsXsXsXsXsXsXsXsXsXsXsXsXsXsXsXsXsXsXsXsXsXsXsXsXsXsXsXsXsXsXsXsXm.l.*.3.;.C 6 * * =.G.*.C 6 > * H O.D =.;.e.u.e.e.e.9.>.7.7.o.o.o.o.o.o.o.o...) L L ) ..;.;.| Z Z | } } | | | | o.;.| ' } =.*.&.R j H D ' | ..[ [ ........| ..| | | [ L ' | ' [ [ | | T R R R R H D | =.=.' H H T } ;.o.o.o.o...[ ' } ' Z Z } o.| | ;.&.D H Z } | } Z Z Z [ ..| | | ..[ C C Z [ [ C C C C Z Z Z C N D D D D D D D Z [ | ........[ C C Z Z Z Z Z | | =.D j N Z C C ) [ [ Z C C Z Z Z Z _ [ L C ) ) ) ) [ | o.| ........| | | | o.o...| | | ' j < < s s s * X X   X > > o % B C.B.R H =.4.r.4.*.&.*.<.3.3.e.e.3.3.e.u.;.D B g d B =.f j ",
"*.j f *.D g H H T W } ;.e.e.e.e.u.u.e.3.3.y.i.3.&.=.T R -.:.N , > = o X X o 4 Z } [ C s f ) o.,.,.| | | } | &.| | | } Z B O.' C C Z Z Z j g H T =.} D N H B B T W =.D D D } Z N ' *.=.Z Z N N H D T D Z [ | ;.o.| o.;.o.o.o.3.3.;.| | &.} ' | ;.,.o.o.o.o.3.;.;.=.=.| | | ..| o.o.>.3.3.3.} | ..| o.....o.o...| | | | | ..| [ ) ) [ ..| [ ..| | } | o.| | | | ..o.o.o.o.o.o.;.=.=.O.=.=.&.=.=.=.*.<.*.=.O.=.=.W D D =.=.=.=.} ;.3.;.o.| | o.o.....o.>.o...| } *.3.o.;.;.3.>.o.o.>.>.>.o.o.o.o.;.;.;.3.3.3.3.3.e.e.e.3.e.3.;.=.R P E H = @ * f W C.D * > 9 ) o.9.| B I I : sXsXsXsXsXsXsXsXsXsXsXsXsXsXsXsXsXsXsXsXsXsXsXsXsXsXsXsXsXsXsXsXsXsXsXsXsXsXsXsXsXsXsXsXsXsXsXsXsXsXsXsXsXsXsXsXM.c.<.y.<.[ 6 * * =.U.:.C 6 * * Z =.D &.*.e.u.e.u.u.e.9.9.e.e.o.o.3.>.o.o.o.....| | ) ..o.o.o.| ..| } ..o.o.o.o.o.o.| | &.*.<.*.R j O.=.| o...{ ..o.o.o.o.o...| | | | [ ' | ' Z [ =.&.=.H j k k j H D D D D D O.=.;.;.9.9.9.o.o...| } } Z | | o.o.o.| D D V ' | | } [ Z [ ..o.o.o.| | | [ Z Z Z [ ) [ [ ) [ Z N g N D N N H H D D Z [ ..| o.o.o.o.| [ Z Z Z C N D =.=.D j Z D Z C C [ [ [ C C [ Z Z Z [ [ ) ) ....) ) ..o.3.o.o.o.3.o.o.o.,.,.3.o.| ....' D f , s f s < * o X   o 3 > @ * H C.B.R H =.<.*.=.O.=.=.=.3.e.e.e.e.e.e.u.;.D g j g H &.h j ",
"<.N s *.D g H R T &.;.>.e.e.u.u.u.u.e.3.3.r.4.<.&.=.D H -.C.H , > , . X X . 4 C [ [ C 4 f C ..o.>.>.o.| ..o.o.o.| | | =.T ' ' D } } ' D H j H T D Z Z ' =.T R W +.=.V H D =.} D H O.' Z Z D D H H H D } | o.;.o.| ;.;.o.| | | | | &.&.*.=.=.;.3.>.>.o.o.3.3.;.=.' D D } o.o.o.;.3.3.e.3.*.=.=.| [ [ ..o.o.o.| } Z [ | | | ..[ C Z ......[ o.| | [ | ;.o.o.o.o.o.o.o.o.7.e.3.;.=.=.=.=.$.=.O.D =.<.<.<.=.&.&.=.T =.$.$.=.=.D } ;.3.;.| | o.o.o.o.o.o.;.o.| | &.<.3.o.o.>.9.>.>.>.3.>.3.3.o.o.3.3.;.3.e.e.3.,.3.3.e.3.3.3.o.=.T H R +.H * @ * s R -.H * > 9 ) o.e.| B I I , sXsXsXsXsXsXsXsXsXsXsXsXsXsXsXsXsXsXsXsXsXsXsXsXsXsXsXsXsXsXsXsXsXsXsXsXsXsXsXsXsXsXsXsXsXsXsXsXsXsXsXsXsXsXsXsXsXc.:.3.;.| 6 ; * O.G.=.j 6 * * Z =.T =.*.3.e.u.u.u.e.9.e.e.e.>.o.3.3.o.o.o.o.o.| ....| | o.o.;.o.o.| | o.o.o.o.o.| | =.&.*.*.=.O.O.} | | | ......o.o.o.o.o.| | | | ..O.D ' [ Z [ | ;.&.T j g j j H D H V =.=.=.;.;.;.>.>.>.3.3.o.| =.=.| | o.o.>.o.} D T T ' | | | ' ' ..| o.o.o.| | | ' Z N C Z | ....o...Z j g B H f N H D D D D ' | | o.o.o.o...[ [ | [ [ [ ' =.=.Z N D D _ [ [ Z Z [ [ ) ..[ C N ' ..) [ ....[ ..o.o.3.3.3.3.3.3.o.o.,.3.3.o...) [ Z j 4 , f s s s * o X   @ 4 > @ * H C.-.H N &.<.*.O.D W =.&.3.e.e.e.3.3.e.e.3.=.B g g H =.f j ",
"<.N s *.T g H D =.3.3.e.e.e.e.t.p.u.e.3.e.r.4.<.*.=.T H -.F.T 4 > = . X X o 4 j C j h 6 4 6 C ) | 3.>.o.o.o.o.o...| &.*.=.=.' } } } } } D D D H N C C D =.=.W T T V g N D =.=.D j g H D D ' ' H H H Z ' | o.o.o.| | ;.3.;.;.| | | *.*.=.=.*.3.3.o.o.3.3.;.} =.=.D N D &.3.o.o.3.3.e.;.| W =.&.| ....o.o.o.o...[ [ [ [ [ } | | ' =.;.| ..| o.....| o.;.o.o.o.o.o.o.9.9.e.e.o.} D D D D } } ' } &.<.4.<.<.<.*.&.&.*.*.=.W T T } =.;.;.| | ;.3.e.3.;.3.3.o.o.3.3.3.o.o.o.>.e.9.>.9.e.e.e.e.3.e.e.3.;.3.u.e.e.3.o.e.e.3.>.,.| D R R E +.H > o * s g W N * > 9 ) o.o.| j I I : . sXsXsXsXsXsXsXsXsXsXsXsXsXsXsXsXsXsXsXsXsXsXsXsXsXsXsXsXsXsXsXsXsXsXsXsXsXsXsXsXsXsXsXsXsXsXsXsXsXsXsXsXsXsXsXsXQ *.3.;.[ 0 > = ' D.W h 6 * * H W T =.*.;.;.u.e.9.e.e.e.e.3.3.o.>.o.o.o.>.>.>.o...| 3.3.3.o.o.o.o.o.o.o.>.3.;.o.o.;.;.;.&.*.&.=.;.;.;.3.3.,.3.3.e.e.e.9.>.o.| | =.=.O.H ' } [ | ;.;.&.=.H H R T =.=.D V =.&.=.*.*.&.| o.;.3.;.;.=.=.*.&.o.o.>.3.o.| } =.=.| | | =.=.=.| | o...| | } D N j j j N [ ..o.o.} Z j H B j g B H D =.=.=.=.W D =.&.| ..[ | | | | | | } =.=.' Z D ' } | | [ C Z ..o.o.} N N D | ..| o.....o.>.>.>.o.e.u.u.e.3.o.3.e.o...) [ [ N s < 4 s s s s * o X   @ 4 3 * * B B.+.j N &.<.*.=.} =.*.3.3.e.e.e.o.o.e.e.e.*.T j g H =.h j ",
"<.C s *.D g H ' ;.e.e.e.e.e.e.p.p.e.3.e.t.y.4.*.=.=.T H +.D.T 4 , , o X X o , h j j j h < 4 6 h C | 3.3.3.>.o...| o.&.=.W =.| } } } ' D D =.=.D N Z Z Z =.=.T g N N N V =.*.W H g H D D D ' ' ' ' ' ' | ....o.;.;.| | ;.*.;.=.=.=.=.&.W =.*.6.e.3.3.3.;.} H O.=.} H =.<.3.o.| 3.3.3.3.=.=.=.&.;.;.3.e.e.e.o.o.o.;.;.=.=.| ;.} ' =.| | { | e.o.o.3.3.3.>.o.o.3.e.e.e.e.e.e.;.' D T O.O.&.;.;.;.3.&.*.*.6.6.3.*.&.=.T T T W =.=.=.&.| &.;.3.3.;.o.o.3.;.3.e.e.e.3.o.o.o.>.9.9.>.9.e.e.e.e.3.3.3.;.;.3.e.u.t.3.o.>.e.3.,.| D D W +.-.-.R * o > f g T j > 3 9 ) o.e.| B I I : o sXsXsXsXsXsXsXsXsXsXsXsXsXsXsXsXsXsXsXsXsXsXsXsXsXsXsXsXsXsXsXsXsXsXsXsXsXsXsXsXsXsXsXsXsXsXsXsXsXsXsXsXsXsXsXsXQ *.e.;.| 0 4 * H 1.W C h * * D W R =.&.=.| 3.e.9.e.e.e.e.3.3.,.3.>.o.3.e.e.e.;...| 3.e.3.o.o.o.o.o.,.3.e.e.;.o.o.;.;.=.| =.;.3.3.3.3.3.3.3.3.3.3.3.9.e.o.| D D D D j H O.&.| | o.| } =.=.=.*.*.3.<.&.W W =.=.&.*.=.} } =.=.=.O.O.=.*.;.o.e.e.3.,.o.&.=.=.| ;.;.=.H H =.| ;.;.o.} Z N N H H N Z [ ....[ Z N H R B g j H R R T =.:.=.R H T T D Z [ | | ' [ [ } D D | ;.;.} | | =.=.Z C [ o.3.;.} D H D } ;.o.o.o.o.>.9.9.9.>.e.u.u.e.e.e.>.o...) [ [ Z f < 4 s s s s s * o X   @ 4 4 * * H C.+.N Z =.*.*.*.*.3.3.3.e.9.e.3.o.o.e.u.e.<.=.H g R =.f j ",
"<.C s =.D B H } ;.e.u.e.e.e.e.p.t.e.e.u.t.r.4.*.=.T V B =.D.T 4 4 4 o X . . * f j N Z h s h C C C C | ;.3.;.| | 3.3.3.&.$.;.<.3.&.&.&.*.*.=.D Z N Z C Z =.W B h N V D O.=.O.D H H T D N D N Z D ' ' [ [ [ ..| ;.;.' [ Z Z D ' ' D H D R V =.&.;.| ..;.=.O.O.=.=.*.O.&.*.;.| ' &.&.o.o.;.=.=.=.;.>.3.e.e.e.>.o.o.3.3.;.| | ;.=.=.' [ | ..| o.3.3.3.3.3.o.o.o.3.e.e.o.o.o.o.| } O.O.O.O.=.;.3.3.&.J Z =.*.3.&.} O.R =.=.+.+.:.&.&.} } =.&.;.| Z } ;.;.;.3.u.u.e.o.o.o.e.3.3.3.o.o.3.e.e.e.3.;.o.;.3.;.3.y.y.e.3.e.e.3.o.} H T +.E W W T > $ , f H =.C * > 0 ) o.u.;.H P P : o sXsXsXsXsXsXsXsXsXsXsXsXsXsXsXsXsXsXsXsXsXsXsXsXsXsXsXsXsXsXsXsXsXsXsXsXsXsXsXsXsXsXsXsXsXsXsXsXsXsXsXsXsXsXsXsXW ;.e.;.| 0 > * D D.=.N h * > O.W P O.=.=.| ;.u.u.e.>.>.o.o.o.| ;.o.o.;.3.e.e.3.| 3.e.e.3.3.3.;.o.o.o.o.o...[ [ [ [ [ L C Z | e.e.3.;.;.3.3.3.;.o.o.o.;.| D H R R R g g D =.' [ Z Z D D =.=.*.*.<.4.*.=.D R H T =.=.W W =.T D T D D T ' [ ..e.3.;.;.;.&.&.;.3.3.=.H H } | ;.;.=.Z h g j H H N N C C C j h g B H B g g H R B B R T R P B H H H Z Z ' =.Z j N Z N N } ;.3.} | ' ' Z Z C C o.o.[ Z N B N Z | ;.| | o.e.9.>.o.o.o.o.>.9.9.e.3.o...| [ C f 4 < 4 s f s s 4 * @ o   @ 4 > * * H D.:.H H =.*.*.*.3.e.e.e.e.e.e.>.o.3.u.u.3.&.T H j R &.f j ",
"<.C f &.T B H ' =.3.e.e.e.t.t.t.u.e.e.p.p.u.r.r.:.O.B g =.D.D 4 , > X X X   * f j N Z N N Z ' | [ C C C Z [ ' ' ' | | } J } | =.=.=.=.=.=.D N Z C Z Z Z $.=.N D D } T D D D H T W T D D N H D ' ' =.' ' ' [ ' | ;.} ' ' &.*.*.*.*.*.&.W T =.=.' [ [ ' D D T T D D =.=.=.} ' ' } | | o.;.=.D } o.o.o.>.e.3.3.o.o.3.;.&.| | | } O.D Z | ..[ | ;.3.;.3.3.| | ;.;.o.o.....[ [ } ' ' T H H ' } &.;.*.&.&.&.*.*.&.&.=.=.=.W W W T O.=.J } =.*.*.*.=.=.;.*.;.3.3.e.;.| [ | ;.;.;.;.;.;.;.;.;.o.o.| | ;.*.=.| 3.3.;.;.;.| [ Z g j W W j j T T < * , f B *.Z * > 9 ) o.e.o.h k k & . sXsXsXsXsXsXsXsXsXsXsXsXsXsXsXsXsXsXsXsXsXsXsXsXsXsXsXsXsXsXsXsXsXsXsXsXsXsXsXsXsXsXsXsXsXsXsXsXsXsXsXsXsXsXsXsXsX| >.o.[ 6 > * ' I.:.N f * * Z =.T V T ' ' ' | ;.3.o.o.;.;.;.;.;.;.| | ;.;.| } } ;.;.;.;.| | | [ [ | | ) [ [ [ [ | | | | | | o.o.| | =.| =.=.' [ [ [ } ' H H R R l H H H D N Z Z D D D ' =.=.=.=.*.&.O.T D D T D D D T T H N D D D D D [ | o...| | &.&.&.;.;.=.=.T D Z } | =.| } D T T O.O.O.O.' [ [ Z N H R R T T V T W D V D T W W W W T D D D =.=.} Z Z D D D #.;.&.} | | ' Z Z C C ) ) C C C N N Z } | | | ;.;.;.o.o.3.,.| o.3.3.3.o...[ ) j f 4 4 s s s f s , , * @ @ X @ 4 > * * D D.:.H Z =.:.:.4.e.e.e.e.e.e.e.o.>.3.t.u.o.} H B j R &.f j ",
"<.N f &.T g j j D =.;.e.e.e.e.t.p.u.t.i.i.t.t.r.4.=.H B =.C.D , , > .   X   * f j j C D ' [ [ [ ..[ L C C L L C C C h N h j j j h g f f f h h h Z ' } } =.} D =.=.=.=.=.=.=.} =.=.T D } ' =.W =.=.=.=.=.=.*.*.*.<.<.<.<.<.<.<.<.:.:.:.:.*.&.=.=.=.=.=.*.*.*.&.&.=.=.=.' =.=.=.&.*.3.3.;.=.=.=.&.&.&.;.;.;.*.*.;.;.*.*.&.&.&.&.&.=.=.| | =.} &.&.| &.&.&.&.;.;.=.| | | } =.=.=.=.=.=.=.=.=.*.*.<.<.<.<.*.*.*.:.:.-.:.=.=.=.*.*.:.*.*.*.*.*.*.=.*.&.&.=.=.| | =.| ' D D D Z H D D D C Z Z C j j C C C j C C C j j j f s f g R H g H D h * > 4 f j =.Z * > 9 ) o.o.| h i d $ sXsXsXsXsXsXsXsXsXsXsXsXsXsXsXsXsXsXsXsXsXsXsXsXsXsXsXsXsXsXsXsXsXsXsXsXsXsXsXsXsXsXsXsXsXsXsXsXsXsXsXsXsXsXsXsXsXsX;.e.o.) 6 > * ' U.4.g 4 * o , N W V D H Z h j C h h h h h h h h h 6 6 4 4 4 4 s f f f f 6 h C Z Z Z [ [ [ | | | ;.o.;.3.;.=.' ] H D } =.=.O.T O.=.=.=.=.=.=.=.=.=.O.W T T D =.=.=.O.O.} =.=.=.=.&.&.=.=.*.*.*.*.*.:.:.*.=.=.=.=.=.=.=.=.;.;.3.3.<.<.3.3.3.<.<.*.:.*.3.&.=.| &.*.*.*.:.:.:.*.&.&.&.&.=.=.=.O.=.=.=.D =.=.O.=.=.=.=.=.=.=.T O.=.=.=.=.=.O.' } =.=.| } } =.=.;.;.| ' D [ [ C ) [ Z Z D ' } Z N N Z Z Z Z j C h h h C Z ) C C Z j h f f h f s s s t , , * @ @ X @ 4 > * * H D.:.Z Z =.=.=.*.3.e.e.e.e.t.e.e.e.e.u.e.3.=.N g h H =.f j ",
"<.N f &.T g j j H =.3.e.u.u.e.t.p.p.p.i.i.p.e.3.;.=.H g =.D.D < , , o X # X > h j h j H ' ' [ ....) ) [ ....| ) ....[ C Z } ' Z j j j g j N h 4 6 f h 6 6 f s f 6 s f h h f h f s f 6 4 4 < < 6 f f f s 6 s s s 6 6 s s f h j h h h f f h f s s f s f h h s s f f f 4 4 f f f h h h h f s f f f 6 6 6 6 6 s f f s s f h j j C h j h h h j j h j C C N N Z Z N j h f h h h h f h j j h h h j h h j C h h h g g h f f s s f h h j h h j j j N H j h h f s s f f f f s f N H N h f f f h C C j j j j C j h j C C j j g g g B H j H D h * o , s d j =.j * * 9 ) o.e.;.j i i $ sXsXsXsXsXsXsXsXsXsXsXsXsXsXsXsXsXsXsXsXsXsXsXsXsXsXsXsXsXsXsXsXsXsXsXsXsXsXsXsXsXsXsXsXsXsXsXsXsXsXsXsXsXsXsXsXsXsXi.t.;.) 6 > * ' G.1.h 6 4 @ o , N D D D D Z C C C C h h f f h h f f f 6 6 6 s s 4 4 4 s 6 4 f h h f f f h f 6 0 h C C C h f f f f s f f f s s f f f f f h h h h h g f h f f h j h h j j j h g g g g f g N C C C j j h h h h j h h h f f h 0 h h h h h h h h h f s f C h h h h h h f f h f s s 4 s f 6 < < s s 4 < 4 4 4 4 6 f f 6 6 f f f f h h f s s s f f h f f 6 s h j h j j h h f h 6 0 0 6 f f h h f f f s s f h j j j h j j j C C C Z Z Z Z Z N h f f s t , , * * @ X * 4 > @ * N D.:.H ] } ' D D &.;.e.u.u.t.t.t.e.e.e.e.e.;.D j h H =.f j ",
"3.j u =.H g H T O.*.e.u.u.u.e.e.p.p.p.p.p.p.u.3.;.=.H H =.F.T 4 , > X X X X > f f s f H H ' | | ......o.o.o.o.o.o.o.......o.3.o.| D N H Z h > o o o . X X o . o o o o o @ o o o o o o X o o o X # O X X X X X X X X o o @ @ @ @ o @ o o o o o X X o o X X X X X X o o o o X X . X X X X X o o o X o o X o o o X X . X o o @ * @ o @ @ @ @ @ @ @ * * * * * * * * o o @ @ @ @ o o o o o o o o o o o o @ . . @ @ o o o o o o o o O o o o o * * * * * * * * o @ o $ @ X @ 6 ' =.[ C C ) o.o.o...) o.o.o.{ ) ....o.o.| | ' T H N Z Z j * $ < s s d j W h * * 6 ) o.e.;.j u u $ sXsXsXsXsXsXsXsXsXsXsXsXsXsXsXsXsXsXsXsXsXsXsXsXsXsXsXsXsXsXsXsXsXsXsXsXsXsXsXsXsXsXsXsXsXsXsXsXsXsXsXsXsXsXsXsXsXsXe.p.>.) 6 > * Z 1.=.V N h 6 * * , j [ ' V T | ..........) ) ) ) ) [ [ ) C [ Z Z h f j C 6 * o o o o o o o o o o o $ $ $ o o @ @ o $ * * @ o o o @ @ X X . . O @ @ o o o o X o O o o o o @ o o o o @ o o @ @ @ @ X X O @ @ @ o o o o o o X X o o o o o o O o o o o o @ @ o o o o @ o o $ o o X X o o X X X . . . X X O O X X o o O O @ @ @ @ O @ * * @ o o @ o o o o o @ $ * * * * $ $ $ @ @ o @ * o * s C ) C C C C ) ) [ { ......| ) ....[ [ | [ [ Z N h f s t = , ; @ @ . * > > @ * j V.+.j N D =.&.*.3.3.e.e.t.e.u.t.t.e.e.e.3.;.D j h N =.f j ",
"4.C s =.R j R =.&.;.3.e.e.e.e.u.p.p.p.p.p.p.t.e.;.=.N H -.G.=.4 , , . X o   * 4 4 t u d j ' | | o.o.| o.7.9.3.;.o.o.o.o.| o.;.;.| D Z N f * o @ @ * * @ @ @ = @ @ @ * * * * * > > @ @ @ @ @ @ @ @ @ @ @ * * * * @ @ @ @ @ @ @ @ * * * * * * @ @ @ @ @ @ @ @ @ @ @ * > 3 @ @ @ @ @ @ @ @ @ @ * > > > @ @ @ > 3 3 3 2 > > 3 3 3 3 > 3 3 3 3 > > > 3 3 3 3 3 3 3 3 > 2 3 3 @ * 3 3 3 3 3 3 > > > * > 3 3 * * 1 3 3 > 3 3 3 > * > 3 3 3 > > 3 3 3 3 3 3 3 3 3 3 > * * * o $ 4 [ o.| ..o.e.>.o.| o.o.9.9.o.o.o.>.>.o.;.;.&.D D D Z f * $ = s f d j R -.N * * 6 ) o.e.;.j u u % sXsXsXsXsXsXsXsXsXsXsXsXsXsXsXsXsXsXsXsXsXsXsXsXsXsXsXsXsXsXsXsXsXsXsXsXsXsXsXsXsXsXsXsXsXsXsXsXsXsXsXsXsXsXsXsXsXsX3.p.o.) 6 > * Z 1.-.=.=.Z h 6 > * 4 C =.=.W | o.3.o.o.o.o.o.o.o.[ ) [ [ ..| [ Z h h C h > * * * * * * > > > > > > > 3 > > > > 3 > > > 3 > > * * * 1 - @ * * * > > 3 3 3 * @ @ @ @ * * 1 1 > > 3 3 3 3 3 3 3 3 > > > > > * > > > > * @ @ @ @ @ @ * * * * 1 > > * * * > > > - - 3 3 3 3 3 3 > @ @ @ * @ @ * * * * * * > > * @ * * > * * = = * * > > > = * * * * * @ @ @ * = > 3 > > > * * * * * * * * % % f Z Z C C ) ) ..o.o.o.o.o.............[ [ [ D D j f t t = = * @ O . * 3 > @ * H D.+.j N D *.3.3.3.3.3.e.e.t.p.t.e.9.e.e.e.o.} N h N =.s f ",
"r.C s =.T H W =.*.<.3.u.t.p.u.e.e.p.p.p.p.p.p.u.3.=.N j =.G.=.4 , , o X #   * 4 s u f d j H ' } | | o.o.7.9.3.o.o.o.o.o.| o.o.| ' D Z 4 * o * = 1 * * * @ * * @ @ @ * * @ @ * * * @ @ @ @ @ @ @ O @ @ @ @ * * * * * * * * @ @ @ * * * * * * * @ @ @ @ @ @ @ @ @ @ * * @ * * @ @ @ @ @ @ @ @ @ * * * @ @ @ @ @ @ @ @ @ @ * * > * * @ * @ @ - - @ * * * > > > > * @ @ - - * * * > > > > 3 > * * > > 3 > * * * * = * = > * * * * > @ @ @ * * > > > > > > > * * ; * > 3 > & * 4 C ..| | o.o.o.o.9.9.9.9.9.9.o.>.e.3.3.;.&.} ' Z h * . = s f g j j W C.H * * 6 ) o.;.| h u u % sXsXsXsXsXsXsXsXsXsXsXsXsXsXsXsXsXsXsXsXsXsXsXsXsXsXsXsXsXsXsXsXsXsXsXsXsXsXsXsXsXsXsXsXsXsXsXsXsXsXsXsXsXsXsXsXsXsX<.e.o.L 6 * * ' I.D.<.=.' C h 6 > > 0 | &.=.| e.e.e.o.X.o.o.o.o.o...[ | | [ ' Z j h 6 > o * * * * * * > > > > > > > > > > * > > > * * * * * * * * * @ @ @ @ @ @ @ * * * @ @ @ @ @ @ @ @ @ * @ > > > * * @ - @ @ @ - @ @ @ @ * > * @ @ @ @ * * * * * * * * * * * @ @ @ @ @ @ @ * * * * * @ @ @ @ @ @ * @ @ * * * * * * * * @ * @ @ @ * * * * * * = > * * * * * * * @ * * * * * > > 3 > > * * > > > , , * & 4 C Z C C ) o.o.7.7.o.o.o.o.o.| | | [ [ [ D H g f t = = , * @ O . * 4 > @ * j B.+.g N O.*.*.;.3.3.e.e.e.u.t.u.e.e.u.p.9.o.| H g D &.f j ",
"4.C 6 =.T H T W *.6.t.t.p.p.y.e.>.e.p.p.p.p.p.u.3.=.Z N =.G.=.4 , , o X X   * 4 s s d d j H H D Z [ ..o.9.9.o...o.>.o.o...| | } [ Z f * . * 3 4 , , , , , < t , , , < 4 < , , , , , > , , , , > > , , > > , , , , > , , , , > > > , , 4 4 4 , , , > 4 4 4 4 4 4 4 4 < < 4 4 4 , 4 , , , , , , < < < 4 4 4 4 4 4 4 4 6 s s s 4 4 4 4 4 4 4 , , , 4 4 < < s s 4 4 4 4 6 4 4 , , < 4 4 < < , < , < 4 4 6 4 < 4 4 < < < < < < , 4 6 6 4 4 4 s s s s h h f f 6 6 0 6 4 > > < , * > h ' | [ [ ..9.e.e.u.u.u.u.e.o.3.3.;.| | } } C 4 * = s f f g R H -.C.H * * 6 ) ..o.| h u u $ sXsXsXsXsXsXsXsXsXsXsXsXsXsXsXsXsXsXsXsXsXsXsXsXsXsXsXsXsXsXsXsXsXsXsXsXsXsXsXsXsXsXsXsXsXsXsXsXsXsXsXsXsXsXsXsXsXsX3.e.o.C 6 * * =.*X%X5.&.' [ h f 4 > 3 h | =.;.u.p.e.o.) o.o.o.o.o.o.....| ' Z Z C 6 * o * * * * , 4 4 4 4 4 < 4 6 6 6 4 4 6 6 6 6 4 < s 4 s 4 < < 4 4 4 4 4 4 4 < < < < < , , 4 , < 4 4 4 4 4 4 6 6 6 6 6 6 6 4 4 4 4 4 4 6 4 4 4 , , > , , , , , , , , , , , > > > > > > > > > > = * > > * * * > > > > > > , , > > > > * > > > > > > , , > > , , , > * * > * = = > > > > > = > > , > > ; > > > > , , , * & , j [ C ) o.9.9.9.o.o.o.e.e.o.[ ' | | ' D j d u t , , , > @ @ X * 4 4 @ * j :.+.g H =.3.3.o.o.e.u.e.e.e.e.e.e.u.p.u.u.3.| D N D *.f j ",
"3.j 6 =.T H T O.<.y.a.p.a.a.a.t.e.e.a.a.p.p.p.e.| ' H H =.G.=.4 > , o X X   * 4 s u d d d g g j j j Z o.e.e.| [ ..o.;.;.| [ [ ' _ f * . * > , , g R E H N H R N g H T T T R W W W T T T T T T T O.=.W T =.=.=.=.=.=.=.=.=.=.=.=.=.=.&.=.+.=.=.O.T T T W =.=.T T =.:.:.:.=.=.=.=.&.O.=.=.-.-.:.:.=.=.=.=.=.=.&.=.=.=.-.:.:.-.:.:.=.=.=.=.=.=.=.*.1.:.-.-.-.-.+.+.=.&.*.*.*.&.=.-.:.:.:.:.:.:.:.-.-.:.=.=.-.:.:.:.-.=.=.=.=.=.$.&.=.W W =.=.+.+.+.-.+.=.=.D J *.*.} C 6 4 , * $ * f ' =.| | 3.e.p.p.e.e.u.u.e.3.3.[ C | | | 0 * * s f g d H W R Q C.B * > 6 ) [ | | j u u $   sXsXsXsXsXsXsXsXsXsXsXsXsXsXsXsXsXsXsXsXsXsXsXsXsXsXsXsXsXsXsXsXsXsXsXsXsXsXsXsXsXsXsXsXsXsXsXsXsXsXsXsXsXsXsXsXsX<.e.o.C 6 = * } %X@XI.<.' Z Z j f 4 * 4 [ &.3.e.t.e.o...o.o.o.o.o.o...[ ) Z Z [ h * o * * * * 4 h Z D D D =.=.=.=.=.W T T =.=.*.:.:.+.+.:.:.=.=.=.=.=.=.+.+.+.+.=.=.=.=.=.=.=.=.=.=.=.=.=.=.=.=.=.*.=.&.&.*.*.*.&.*.*.*.*.*.1.*.*.*.=.=.=.=.=.=.=.*.*.=.=.=.+.=.=.=.=.T T W =.=.=.=.=.=.=.=.T D ' O.W T W W =.=.=.W T T T T =.=.D H H T T T T O.O.O.D H Z Z H H N H T W W W W T T T D V Z Z Z Z Z h 4 , 4 > $ , h L Z ..o.e.o.o.o.| ;.e.;.[ ' *.<.=.j d u t t , = , > @ @ X * 6 4 @ * j C.+.g H =.r.u.e.e.u.p.t.e.>.>.e.e.u.u.u.p.e.&.' H T *.f j ",
"3.j 6 =.T H T =.4.y.t.p.p.a.a.a.p.u.p.p.p.p.p.e.| ' H H -.G.=.4 , , @ O X   * 4 s t u d d d f f g g g Z | | D N C Z ' ' Z Z Z Z h * . * 4 4 , s H -.W B N N j N h g H R H H B R R H j j H H B H H R R R H R R R R R R R R R R R T T T R R R R H H H V T T T T T T T T T T H D D D N N D D D T =.W D D =.} } } D D D T T W W =.=.W D V H H H H R W W E P W W =.W T ' } =.O.T T R T W W W =.+.W R R T T O.O.=.=.W T T W W T R V D N H H R T T R R W W W R H W W W =.=.} C 6 4 * . * f ' =.&.e.e.u.e.3.3.3.3.3.3.&.Z Z ' &.L , * , f j g H O.=.H E Q g * * 6 ) ..;.;.N i u %   sXsXsXsXsXsXsXsXsXsXsXsXsXsXsXsXsXsXsXsXsXsXsXsXsXsXsXsXsXsXsXsXsXsXsXsXsXsXsXsXsXsXsXsXsXsXsXsXsXsXsXsXsXsXsXsXE *.u.o.) 6 > * Z I.I.5.<.&.=.O.H h 4 > 3 j =.;.o.3.o.o...| | ;.3.3.3.| [ C Z C 6 * o * = * > 4 h Z D V H D D D W W T R B j H D O.W W R T W W T V D T T W =.=.=.=.W W W T T T R H R H B j R R R R T O.=.=.=.=.=.=.W =.*.*.*.&.=.=.=.O.D D O.D D D =.=.=.=.T T W W T D D H H H D T W W T R R R H H H H H B H R R R R P P P j P P P k g j k R R R T R R R H B j g g g H D T E E E E E R R V V D D =.&.Z j f 6 4 * . * s Z [ | o.o...[ [ | ;.;.Z Z =.=.D f u w w = = = = * @ @ X ; 4 > @ * H D.:.H j O.3.y.t.e.p.p.p.e.3.3.e.e.e.u.u.e.3.=.T H W :.f g ",
"r.C s =.T H T *.4.r.e.t.p.a.p.p.p.p.p.p.6Xp.p.t.3.*.T H Q G.=.4 4 4 @ O O . * 4 s s d g g g d f g H R R H Z H R j j h f j Z Z h > . * 4 6 f h N } =.W Z [ | C C h C Z H B j j H N j g g j N H H H H H j j g k k j j k j j B B B H H H R R R H H H H N H T T H H D D H H H ' ' } } Z Z } L Z } } D D } | ......| | Z Z D } =.&.=.=.O.H H H T H H T W W E =.=.*.*.| | | | =.=.O.D T T T H T T R j H D =.O.#.O.O.D H R T W W R H H H D D O.=.=.O.T W +.+.=.=.<.2.1.$.} &.=._ 0 4 * o % 6 Z | o.>.o.) ) [ [ ) [ } =.&.=.| } 0 > , f g P H =.*.*.R R Q g * * 6 ) o.3.*.N d d &   sXsXsXsXsXsXsXsXsXsXsXsXsXsXsXsXsXsXsXsXsXsXsXsXsXsXsXsXsXsXsXsXsXsXsXsXsXsXsXsXsXsXsXsXsXsXsXsXsXsXsXsXsXsXsXsXk &.i.e.[ 6 > * Z D.D.1.:.5.5.=.D H f , = 6 [ | ..| | | | [ ' | =.| | [ C j Z h * . o , , < 6 h Z D D W =.=.} =.=.=.T H H H O.=.&.&.O.T T T =.T D D =.} | &.*.*.=.=.T T T T T T D H H H H T T R j H O.&.=.' [ [ H H D =.*.&.=.=.=.} ' ' } =.O.' ' =.=.} ' H H T D H N N j j N H D D H H H H H j j g j g g j j j j j k k g i i d d i i i d k B R P j g g g g g j H H D W T T R P P R R R D D =.$.$.} ' Z Z C h > . . & f Z [ [ [ ) C L [ | | D H V T H f u u t , = = = * @ @ X * 3 > @ * H F.:.H H D ;.u.p.p.p.p.p.t.e.e.t.e.u.u.u.o...=.T R W :.h j ",
"4.h s *.T H R T *.<.3.e.t.p.p.p.p.p.p.t.p.p.p.e.3.&.T B Q D.W < 4 4 * o O X * 4 s s f g g f g g g g H N g f f g g d f f f h f * . o , s f j Z ' } V V K ..[ Z C Z | | } ' D ' ' | [ [ [ [ C Z D ' ] H H j g d g k g d j B H H D D D D D V D D D H j D O.' [ [ ;.| ;.| [ ' | | | | ..o.o.o.;.o.| o.o.o.o.o.| | | | | | ;.3.3.3.3.;.;.| | ' R R R T =.=.T ;.3.e.e.o.o.o.3.o.=.*.&.O.' O.=.=.} D } =.=.| | | | =.=.T O.O.O.=.D ' =.#.=.=.=.*.*.=.W *.<.<.3.y.`.'.2.$.;.;.=.=.Z h > $ $ $ , j Z N h h h g N N B N Z D Z Z h > * < f j R T =.*.-.R P Q j * * 3 Z &.3.;.g d g & . sXsXsXsXsXsXsXsXsXsXsXsXsXsXsXsXsXsXsXsXsXsXsXsXsXsXsXsXsXsXsXsXsXsXsXsXsXsXsXsXsXsXsXsXsXsXsXsXsXsXsXsXsXsXsXsXg =.r.3.| h > * Z G.D.1.:.<.4.:.E R H f > > 0 C Z N Z Z Z Z N N N N h h C h 4 O X o , < < s N Z [ [ W H.`.6.;.| ;.| C [ | | | ;.3.;.=.=.=.*.*.=.| o.o.;.;.;.o.3.3.;.;.=.&.*.;.| O.T D D ' =.=.D Z Z | o.;.| H j R T =.&.3.3.o.;.o.>.e.>.o.o.o.......| | | [ [ D D Z C C [ Z N Z ' ' D D D D D Z Z Z N j g g H ] Z _ R H P P d i k z z p g H T =.' Z j j j B B Z | | | | | } =.O.D ' | ..| | 4.1.1.=.| ' N j Z h > o o * < h N Z N j j N N N g g g g g f t s f , = = > * * * o * 4 > o * T G.1.H g D ;.e.e.e.e.e.e.e.e.e.e.e.q.9.3.&.T H H H W 1.f j ",
"4.N s *.R j j R =.4.r.i.p.p.p.p.p.p.p.u.u.p.u.u.3.&.T j W D.W < 4 4 * o X . o * $ $ & * & $ $ $ $ $ $ $ o . o o $ $ $ $ & $ . . o 4 f f h D =.| } W ! <.| ..[ [ } | | o.| ' [ [ [ [ [ [ [ Z Z [ [ ' O.R k j g j R j d g H D D ' } ' [ D ' ' ' ' D j H D } } | ;.;.;.| | | | } [ ....o.o.,.3.3.o.o.3.>.3.3.o...| ;.| | ;.3.3.3.3.;.;.;.| [ R R R O.=.*.*.3.e.e.u.e.3.e.3.;.| } =.&.| =.=.=.| | o.;.| | | | o.;.&.=.=.O.O.O.D ' =.;.| | | <.<.&.J *.<.3.e.y.`.[.S.1.&.<.*.} ' [ j 4 * $ * = , , > = * * $ * * & * * * * * > < f g R W =.=.T O.W Q B.H * * 3 h [ ;.3.H g g & . sXsXsXsXsXsXsXsXsXsXsXsXsXsXsXsXsXsXsXsXsXsXsXsXsXsXsXsXsXsXsXsXsXsXsXsXsXsXsXsXsXsXsXsXsXsXsXsXsXsXsXsXsXsXsXsXk =.e.3.| h > * Z G.G.4.<.*.*.&.W W T H f = * > > > 3 3 > > > > * * > > * o . X * 4 4 6 h Z [ ) [ J ~ A.G.3.3.3.;.| ..| ;.;.;.3.3.;.;.=.=.=.=.| ;.o.o.3.o.o.o.3.e.e.;.=.=.*.;.;.=.' } | | o.=.| } | o.>.3.;.' H D ' } ;.3.3.3.o.3.e.9.9.>.o.e.o.o.....| ....[ D D Z Z [ | } [ [ } | } ' =.' D Z Z D H g g j D ' _ [ T R k k i d P k k k B D =.=.=.' H H j j H ' | | ....| =.} H ' | | | o.3.G.A.~ -.*.} Z j N Z h > o o $ * , , > > > * * * * * & * * * $ $ $ $ . . $ > 3 > * * 4 , * * H F.1.H g H ;.e.e.e.e.e.e.e.e.e.e.e.9.e.e.*.T R H H W 1.h j ",
"4.h s *.R g g R &.4.t.p.p.p.p.p.p.p.p.u.u.p.u.3.;.=.H g W D.W 4 4 , * o @ o * * .   o X X X X X o o X X X X X X X X .   . . . o , f j C N D =.=.} W ! ~ $.| | } | | o.o.o...| | | ..| | [ [ [ ) ) ..' R l k k k R H B N ' =.| | | | ..[ } } | | ' Z H ' | ;.3.e.e.=.| | | | } | ..o.o.o.>.e.e.e.e.e.e.e.e.o.o.o.;.o.;.3.e.e.3.3.3.3.;.;.| R H T =.*.*.<.e.u.u.u.u.e.e.e.3.;.=.=.*.*.&.;.;.o.o.o.8.;.o.o.o.3.e.3.&.&.*.*.=.=.=.=.;.;.;.3.3.3.;.} *.3.3.e.r.H.[.[.H.4.<.<.=.| ' ' C , o * > * * o o o o . . . o . . o $ % , f j T =.:.:.*.&.&.W Q B.H * > 3 h C o.3.D g g & . sXsXsXsXsXsXsXsXsXsXsXsXsXsXsXsXsXsXsXsXsXsXsXsXsXsXsXsXsXsXsXsXsXsXsXsXsXsXsXsXsXsXsXsXsXsXsXsXsXsXsXsXsXsXsXsXsXO.3.o.L 6 > * Z D.D.4.5.4.3.4.*.=.=.=.H 6 * o o o o X X X . .     X       o * 4 f f j [ | | o.| ~ b.A.2.3.e.e.3.o.o.o.o.o.3.3.3.3.*.;.;.;.&.;.3.3.3.3.3.o.3.e.u.u.3.=.=.3.e.3.&.| | o.>.>.o.o.o.o.>.9.9.o.| ' | ;.o.o.3.3.o.o.e.e.9.9.e.9.9.o.o.o.o.o.>.o.} ' ' ' ....o.| | | | o.| | | } ' ' D ' D j g j ' ' } | D H k k d j B g B R D } | | | ' H H j g H } | | ..| o.;.| Z } &.| | o.3.A.A.b.c.=.} } C N j j h , o . o o o o X . X X X X X X o o o o X X X     o 3 3 * o * 4 4 * * g C.:.H N D ;.o.>.e.e.u.e.e.e.e.9.e.e.e.3.*.W R j H =.<.h g ",
"<.h s :.R g j R &.3.t.p.p.p.p.p.p.p.p.p.p.p.e.;.} D H g =.D.T 4 4 , $ o ; * > > o   X X X X X X X X X X X X X X X X X X X   o > h h N Z } | } &.=.~ v.c.=.| o.| | | | o.o.o.;.| | | | | [ [ [ o.o...' H R R R R T W J ' ;.;.o.o.o.>.o.} } | ;.| D D H ' o.3.9.9.9.&.| ;.;.| ..| o.>.>.o.o.9.e.e.e.u.u.u.e.e.>.e.o.3.3.3.3.3.r.r.e.3.3.3.;.O.' O.&.3.3.e.u.t.t.t.u.e.e.e.3.3.*.=.=.O.=.&.;.;.;.3.e.e.e.e.e.u.t.e.;.*.3.<.;.;.;.;.;.;.;.3.3.3.;.o.e.e.3.e.e.2._.}.'.4.<.;.| | D D =.D 4 > > 4 6 6 4 4 4 4 6 6 6 6 6 6 h C B g j W :.<.6.r.r.<.=.Q B.H * > 7 h [ 3.e.D d d & sXsXsXsXsXsXsXsXsXsXsXsXsXsXsXsXsXsXsXsXsXsXsXsXsXsXsXsXsXsXsXsXsXsXsXsXsXsXsXsXsXsXsXsXsXsXsXsXsXsXsXsXsXsXsXsXsXsX' 3...C 6 > > [ G.D.4.5.r.r.r.4.*.=.T T D C f 6 6 6 4 3 3 3 4 > > > > > > , s h h j Z | | o.;.4.A.(.(.2.3.e.e.e.o.>.>.>.3.e.e.e.u.e.;.*.3.3.3.e.e.e.e.e.e.e.u.t.e.e.o.3.e.e.e.;.;.;.3.e.9.>.>.>.9.9.9.9.>.o.o.o.o.o.o.3.3.o.o.e.e.e.e.e.9.9.9.9.e.e.e.9.3.;.| } | | o.o.o.o.o.o.o.o.| | } =.=.=.' D H H Z [ | | ;.N H k k k H V V D } | ;.o.o.| } Z D D H D | o.o.o.;.3.3.o.} | ;.;.;.o.,.2.b.n.b.1.' [ C N g g j h , o o o o o o o @ @ @ o X X o o o O o o O X X o @ O X   * 6 4 * * g :.+.j j D | o.>.e.u.e.e.e.u.e.9.e.e.3.;.=.W R P B =.1.f g ",
"<.j f :.R g j H *.e.t.p.p.p.p.p.p.p.p.p.p.p.e.;.=.O.H g =.D.D , = * o o o o * 4 > * * * * * @ @ @ @ @ @ @ @ @ @ @ @ @ * * % > s f f N Z | | | } ~ Z._.A.=.| ;.o.o.| | o.o.o.;.| ......| [ [ ..o.o.| [ H R R H H D } | | o.o.>.o.o.o.o.| ' | =.D V D D | ;.e.9.9.e.o.| o.;.o.....o.e.e.e.>.9.e.u.u.u.u.u.u.e.e.e.9.e.u.3.;.;.e.r.u.e.e.e.3.<.;.;.3.3.3.e.u.t.y.t.u.u.t.t.e.3.3.&.R R O.&.*.<.3.;.3.e.e.e.p.p.p.u.e.;.3.e.e.e.3.;.;.;.;.*.*.;.;.3.e.e.e.e.e.2._.XX`.4.3.;.o...D V T W T V N D =.=.=.J D D =.=.=.} J J J =.D H R R W *.4.6.3.*.=.=.1.H * @ 7 C o.u.e.D f u % sXsXsXsXsXsXsXsXsXsXsXsXsXsXsXsXsXsXsXsXsXsXsXsXsXsXsXsXsXsXsXsXsXsXsXsXsXsXsXsXsXsXsXsXsXsXsXsXsXsXsXsXsXsXsXsXsXsX' >.| C 6 > * [ I.G.5.y.y.y.r.3.=.T V V T W =.=.=.=.} } D Z D Z Z D ' D H N N N N D ' | o.| o.<.A.[.[.A.6.u.e.e.9.>.3.3.e.e.e.e.e.3.;.;.3.e.e.e.>.;.e.e.e.u.u.u.e.e.e.e.e.q.9.3.o.| 8.e.e.9.9.9.9.9.9.9.9.9.>.7.9.>.>.e.3.o.o.>.e.t.e.9.9.9.9.9.9.e.e.e.e.3.;.| | | o.o.o.o.o.o.o.o.| ' ' ' =.O.D N H ' ' [ | | ' Z D H H H D } | &.;.o.o.o.o.| } } =.=.} ' | | ;.;.;.3.;.o.| ;.;.o.o.| ..<.A.S.S.4.} ) Z D N j g h f 4 , , 4 4 4 4 6 6 4 3 > > > > > > > * > * * * @ X   . * 6 4 * > N :.=.N h H | ;.3.e.e.e.e.e.u.u.e.e.>.;.;.*.=.W R j W 1.s g ",
"6.N h 4.T N H O.*.e.u.p.t.p.p.p.p.p.u.p.p.p.u.e.*.=.H h W D.D > = * . o o . > h h s s f f f f h f f j j j j j j j N N j f g g g u d N Z ) ..| | $.A.A.1.| ..| o.o.| | | o.o.o.o.......| | ..[ | | [ Z D O.H H D | | | o.| o.3.e.>.o.o.| | ..[ Z D D D | 3.e.e.e.3.| | o.e.e.o.o.o.3.e.e.e.e.e.e.u.u.u.u.e.e.u.e.e.u.u.3.;.&.;.3.e.e.e.e.e.e.3.3.e.e.e.e.e.u.p.u.u.e.t.p.t.u.e.*.=.&.*.<.3.e.3.;.;.3.e.u.p.p.p.u.e.e.e.p.p.p.e.e.e.e.;.;.;.3.e.e.e.e.e.u.e.y.].`.6.9.e.e.>.o.[ } T R R H N H V V H H V V D ' D D D D D D D T =.=.D O.*.&.=.=.D W -.B * @ 7 C 3.i.u.Z f u % sXsXsXsXsXsXsXsXsXsXsXsXsXsXsXsXsXsXsXsXsXsXsXsXsXsXsXsXsXsXsXsXsXsXsXsXsXsXsXsXsXsXsXsXsXsXsXsXsXsXsXsXsXsXsXsXsXsX' e.o.) 6 > @ [ G.4.<.r.y.i.3.| D D D V R T T T T W =.=.T H H H H T T T V D Z D } | | o.>.3.o.o.<.A.].'.y.e.e.e.e.e.e.e.3.o.3.e.3.;.| ;.e.u.e.9.o.;.e.e.e.e.u.e.e.e.e.e.u.q.9.e.o.| o.e.e.e.e.9.9.9.9.9.9.9.9.e.9.9.9.e.9.>.>.>.>.>.e.e.9.u.9.9.9.e.u.e.e.e.3.;.| ..| o.o.o.o.o.o.o.| ' Z H R H H H ' | | ..| ' D | &.=.' } | o.o.;.o.o.| o.;.| | o.o.o.o...| | ' ' | ;.o.o.o.;.o.| | ....<.G.`.2.&.| | | [ Z D N g g H j j j j f j j j j h f f h g f f f f f f f 4 > @ o o * 6 4 * > N 1.*.N h Z } ;.e.u.e.9.e.9.q.u.e.3.>.3.3.<.:.W R H W :.s f ",
"6.h h 4.W N ' ;.3.e.e.e.e.t.p.p.p.p.u.p.p.p.u.u.3.=.j f =.D.D , = * o @ @ X = f s < t t u f f f f f f f f g g g g g g g j g i i i g H | o.| o.;.o.&.W } o.o.| | o.;.| | o.o.o.o.o.o.o.o.o...| [ ' _ _ | =.O.D | ;.| o.o.| | o.3.o.o.o.o.e.o.| o.| [ } 3.3.9.e.e.;.;.o.9.e.e.e.3.o.o.o.e.e.e.e.e.u.u.p.u.e.e.p.p.p.p.e.3.3.4.3.e.e.e.e.u.e.e.e.e.e.e.e.e.u.t.u.e.e.e.e.p.p.t.3.3.3.3.e.e.e.u.e.e.e.e.u.u.e.u.u.t.t.u.t.p.a.p.u.e.e.e.e.3.3.u.e.u.u.e.e.u.e.y.G.6.e.9.e.e.e.9.o.| =.T H H T R D T T O.D H D D D D ' =.&.&.=.=.$.*.&.&.=.=.=.=.R W Q g * @ 3 ) 3.i.u.Z u t $ sXsXsXsXsXsXsXsXsXsXsXsXsXsXsXsXsXsXsXsXsXsXsXsXsXsXsXsXsXsXsXsXsXsXsXsXsXsXsXsXsXsXsXsXsXsXsXsXsXsXsXsXsXsXsXsXsXsX' e.o.) 6 3 > L 4.<.<.3.3.3.&.=.=.=.=.T R +.-.W T W *.*.=.H j R T T T H H H ' } =.| ;.3.e.3.9.9.3.2.H.H.6.3.3.e.e.e.e.u.3.;.3.e.r.;.;.3.e.u.e.e.u.e.e.e.9.e.9.e.e.9.e.e.u.q.9.e.>.o.9.e.e.9.9.9.9.9.9.9.9.9.9.>.o.9.e.e.9.e.3.3.| | 9.e.q.u.e.9.e.u.e.9.9.9.u.3.=.[ } o.>.>.o.o.o.o.| D H T R H H D | | o.| [ Z D | ;.3.o.o.3.3.o.o.;.o.| =.;.;.3.3.o.o.>.>.;.| ' _ ' | ;.;.;.o.o.o.o.| ..3.6.2.} ..[ [ [ | | [ N j j j g g d s u s s s f u u d d d f t u s u , < s , % o X * 6 , * * N 1.:.D g Z ' | 3.e.9.9.9.9.9.u.e.3.o.e.3.<.=.T H H T :.s s ",
"4.j j 4.O.H =.:.:.*.3.u.u.u.u.p.p.u.e.u.y.r.r.r.*.O.g f T D.D > > = @ @ @ X @ > * = t t t t s f f f s t t f V V j g j g f f d d j N Z | *.} } | o.;.| | | ..o.;.o.o.o...| o...o.o.o.o.o.o.| [ Z [ | | o.| } } ;.3.o.o.o.o.o.o.>.o.o.7.>.o.o.3.o.o.o.=.| | ;.;.o.e.3.e.e.o.o.>.3.e.e.o.8.>.9.e.u.p.u.u.p.p.u.t.e.e.e.3.;.;.;.6.6.3.e.e.u.u.e.e.e.3.3.e.e.y.u.e.e.e.u.u.u.u.u.e.e.e.e.r.e.e.u.u.e.e.u.e.u.e.e.e.e.u.e.e.u.u.t.u.u.e.e.e.e.e.e.p.p.t.e.9.9.e.e.e.e.9.9.9.9.9.e.9.o.o.o.o.>.>.o...o.o.;.=.D N ' | o.o.9.9.;.o.o.>.3.;.;.o.;.| ' H W E h @ @ 3 C 3.u.e.C f t $ sXsXsXsXsXsXsXsXsXsXsXsXsXsXsXsXsXsXsXsXsXsXsXsXsXsXsXsXsXsXsXsXsXsXsXsXsXsXsXsXsXsXsXsXsXsXsXsXsXsXsXsXsXsXsXsXsXsX} e.9.{ 0 3 @ C 4.<.3.e.e.e.e.e.e.e.;.| &.<.<.;.o.3.e.3.3.o.| | &.&.=.} } =.o.3.3.o.o.9.e.e.9.9.9.e.e.e.e.9.e.e.e.e.e.u.u.u.e.u.p.u.e.u.e.e.e.e.e.u.u.e.9.9.9.e.e.e.e.u.e.q.q.q.q.9.9.u.u.9.9.9.e.e.e.e.9.7.7.o.o.o.9.9.9.9.9.e.e.9.e.q.q.q.u.u.e.e.9.o.o.o.e.e.3.....o.>.>.7.7.o.o...' ' ' ' =.' [ o.;.o.| [ [ Z o.o.3.>.,.,.3.e.;.o.o.| =.=.&.3.3.e.9.>.,.o.o.o.o.| [ | ;.3.o.o...o.o.| o.o.o.o.o...[ L L Z [ Z Z Z Z H j g g g g f f s s s f d d u s s s t , , 6 > o     * 6 > @ * f +.=.j f j H | ;.e.e.e.9.u.w.9.>.o.3.e.;.} D H H B T <.h s ",
"6.C j 4.O.j O.R O.*.r.i.u.p.p.p.p.u.e.u.t.3.=.;.=.H g h =.D.D > > * @ @ @ X @ 3 * = t s s s f j N H d s f N D Z C j N Z Z j j H T D Z Z Z D ' ..| | | | | | ;.;.| | ;.| } } | o.o.o.o.>.>.o.' [ | o.o.o.| Z | ;.o.o.o.>.e.;.o.o.3.9.7.>.o.o.o.o.o...[ ..o.3.;.o.o.o.o.o.o.3.e.9.e.e.e.e.e.e.e.p.p.p.p.p.p.u.e.e.e.u.u.e.3.3.<.;.;.3.e.u.u.e.;.;.&.3.3.e.e.e.u.t.t.t.u.u.t.t.t.e.e.u.e.e.e.e.e.e.u.u.u.p.t.e.e.e.e.3.e.e.e.u.e.e.e.e.e.u.e.e.u.e.e.9.9.e.e.e.e.9.9.e.u.e.u.e.9.9.o.o.9.9.9.>.o.>.e.3.| C } | ;.;.e.9.>.e.3.e.e.e.3.;.3.r.;.=.T W E f @ @ 3 0 o.3.>.C f u $ sXsXsXsXsXsXsXsXsXsXsXsXsXsXsXsXsXsXsXsXsXsXsXsXsXsXsXsXsXsXsXsXsXsXsXsXsXsXsXsXsXsXsXsXsXsXsXsXsXsXsXsXsXsXsXsXsXsX=.e.o.) 6 3 @ C 5.5.3.e.e.u.u.e.u.e.;.;.;.3.3.3.e.e.e.e.e.e.3.3.3.<.;.=.| ;.3.e.e.9.9.e.e.e.e.9.9.9.9.e.e.e.e.u.u.u.u.u.p.u.e.e.e.e.e.e.3.9.e.e.e.9.e.e.9.e.e.e.u.e.9.9.9.q.q.q.u.u.9.9.9.9.9.9.7.7.7.7.7.7.o.| o.o.7.9.9.9.e.e.e.e.e.u.w.p.u.9.9.9.9.e.9.e.e.3.o.o.o.o.>.9.9.7.o.o...[ [ [ ;.*.;.| | ;.;.| | | | 3.3.,.,.,.,.>.3.o.>.>.o.| | } | o.>.>.>.>.>.>.o.o.o.| ..o.o.o.| ..........o.o.o.o.o.o.| [ Z Z Z Z ..} D N j j g g g h j j j h g d f f f s , = , 4 > X     * 4 > @ % f +.O.j g j Z =.3.e.e.u.e.9.9.9.>.3.3.;.| D H H H H W <.h f ",
"6.j j D.W j H H D *.r.e.u.t.p.u.p.p.e.u.e.3.;.;.=.H g g =.I.' > * * o @ @ X @ 4 > > t s s f h Z ' ' j j N D } | ) C ) ) ..| [ [ ' O.' ' H D ' ....| | | | | | ' } %.=.D B H ..o.o.o.o.>.>.....[ [ | o.| | [ | o.o.o.o.o.3.;.| | 3.e.9.9.9.9.9.e.3.;.o.o.3.3.;.| =.;.;.;.3.e.e.e.9.e.e.e.e.9.u.u.p.p.p.p.p.p.e.e.e.e.t.p.t.y.3.3.3.3.e.u.u.e.;.| | 3.3.e.e.u.p.p.p.p.p.p.p.p.t.e.e.e.e.e.e.e.e.u.u.p.p.p.p.t.e.e.e.u.u.u.u.u.u.e.u.e.e.e.e.e.e.e.e.e.e.e.>.3.e.e.u.u.e.e.e.e.9.9.9.9.e.9.9.9.9.9.e.e.o...| o.o.;.e.e.e.e.e.u.u.t.e.o.o.3.| D V W Q f @ O > 0 ..o.o.C f u $ . sXsXsXsXsXsXsXsXsXsXsXsXsXsXsXsXsXsXsXsXsXsXsXsXsXsXsXsXsXsXsXsXsXsXsXsXsXsXsXsXsXsXsXsXsXsXsXsXsXsXsXsXsXsXsXsXsXD e.o.C 4 > @ [ I.G.r.e.e.u.t.p.u.e.3.3.3.3.3.3.u.p.u.u.u.u.e.e.e.e.3.o.o.o.e.e.e.e.e.e.e.p.e.9.9.9.9.9.e.e.u.p.p.p.p.u.u.u.u.e.e.t.t.e.o.9.e.u.9.9.e.9.9.e.e.e.e.e.9.9.9.q.q.q.u.9.9.9.q.9.9.9.9.7.7.9.9.9.o.o.o.o.9.9.e.9.e.9.9.9.e.t.q.u.u.9.9.9.>.e.9.u.e.o.o.3.3.o.>.e.9.o.o.o.o.....o.3.;.| } D } | | | | =.;.;.3.3.3.>.,.>.>.e.>.o.o.| | ..o.o.>.>.>.,.o.| o.o.o...o.o.o.o.o.......o.o.o.o.o.o.o.| ..[ Z Z | ;.;.| [ ' Z j j j j Z [ Z C j N N N h f s , , 4 > X X   * 4 3 @ % f +.=.j f Z ' =.3.e.e.e.e.9.e.9.o.;.;.;.=.=.W R H H =.4.h f ",
"6.j j 4.W H H T =.*.3.e.e.e.e.u.p.p.e.e.e.r.e.;.=.H g h =.U.} > * * o @ o X * 4 , , s s h j j Z ' ' Z Z ' | ....o...{ ) o.3.;.| [ | | | } } } ..o.o.o.| | ' ' Z | ;.| N g j } o.o.o.o.o.o.| ....) ) | o.| | | o.o.o.o.o.o.o.| } ;.3.9.e.e.e.o.o.;.*.*.;.&.=.' D =.=.&.3.e.e.e.u.9.e.e.e.e.e.u.u.u.u.p.p.p.p.p.p.u.u.u.u.p.p.e.e.e.i.y.u.u.y.e.3.3.e.t.t.p.p.p.p.p.a.p.p.p.p.p.u.e.e.e.e.e.e.e.u.u.u.u.e.t.e.e.9.e.u.p.p.p.p.u.e.u.u.u.u.u.e.e.3.e.u.p.e.o.>.9.e.9.e.e.e.e.e.9.e.e.u.u.q.q.9.9.q.u.e.e.e.o.3.;.;.e.e.e.u.u.u.u.u.e.o.o.| } V H W W s @ O > 0 [ o.o.C u u % . sXsXsXsXsXsXsXsXsXsXsXsXsXsXsXsXsXsXsXsXsXsXsXsXsXsXsXsXsXsXsXsXsXsXsXsXsXsXsXsXsXsXsXsXsXsXsXsXsXsXsXsXsXsXsXsXi D 3.| C 4 > @ [ I.D.3.e.9.u.p.p.e.e.e.e.e.3.3.e.u.p.p.p.u.u.u.q.e.e.e.e.9.9.e.u.u.u.u.u.u.p.u.e.9.9.9.e.e.u.u.p.u.u.u.p.t.u.e.u.p.p.e.3.o.e.p.u.u.u.u.u.9.9.9.9.e.e.9.9.9.u.u.u.u.9.9.u.u.q.9.e.e.9.9.e.e.e.9.o.9.9.9.e.e.e.e.9.9.9.e.e.9.9.e.e.9.9.9.9.e.e.e.o.o.e.3.>.>.o.o.o.| o.o.| | | D Z H D D D } &.| | | ' | 3.e.e.e.3.;.;.3.3.,.o.| | o.o.>.9.>.>.o.....o.o.o.o.o.3.o.o.o...o.o.o.o.o.>.o.o.o.| | | | | | ;.| | | | ..) C j j _ | | Z Z Z Z Z N j f < , 4 = X X X * 6 4 * * g -.+.N f Z ' ;.3.e.e.e.o.>.e.3.o.o.;.&.&.:.+.W R H =.4.f s ",
"5.j h 4.T B H W =.<.3.e.e.e.e.u.p.p.e.9.e.y.e.*.O.H g g &.I.' > * * o @ o X * 4 , < f f j j j Z [ ' Z [ | o.o.o.o.o.| [ o.e.;.| | o.o.o.| } } | | o.o.;.| | } | o.;.| Z N D | o.o.o.o.o.o.o.>.o.o...o.| ;.| | o.>.>.o.o.o.o.;.=.| o.3.3.;.3.;.} N H D D J =.D D T } | ;.3.u.p.u.9.9.e.u.e.e.u.u.u.u.p.p.p.p.p.u.p.p.p.p.u.u.e.e.e.u.u.u.p.u.u.u.u.u.u.u.p.p.p.p.p.p.p.u.p.p.p.p.p.p.u.e.e.u.p.u.u.e.e.9.e.e.9.9.e.e.u.u.u.p.u.e.e.e.p.u.u.e.e.e.e.e.e.e.o.>.9.9.9.e.e.e.e.e.e.e.e.u.u.q.q.w.u.u.u.u.u.e.e.e.e.o.o.3.e.u.u.u.q.u.e.9.>.;.&.T R Q Q s @ O 3 0 } | o.C u t % . sXsXsXsXsXsXsXsXsXsXsXsXsXsXsXsXsXsXsXsXsXsXsXsXsXsXsXsXsXsXsXsXsXsXsXsXsXsXsXsXsXsXsXsXsXsXsXsXsXsXsXsXsXsXsXsXd T ;.| C 6 > @ [ G.5.3.e.u.p.t.u.e.e.e.e.u.e.e.e.u.p.p.p.p.u.u.u.u.u.e.u.u.u.u.u.u.u.u.p.p.u.u.u.u.u.u.t.t.u.u.e.e.e.e.u.e.e.e.u.u.e.e.>.9.e.u.u.u.u.q.q.q.9.9.u.q.u.u.e.9.u.u.u.u.u.q.9.q.u.q.9.9.9.9.9.9.9.9.9.9.9.9.9.e.u.u.e.e.u.u.e.9.9.e.e.e.e.e.e.e.e.e.e.e.e.e.9.o.o...| | o.o.| | N f N D O.D Z ' | o.| [ Z | ;.e.e.e.e.*.=.;.3.;.} Z | o.>.9.9.e.>.o.o.o.e.9.>.>.>.o.| o.o.o.>.o.o.o.o.e.9.o.o.o.o.o.| } | | { o.o.o.o...C C j [ ;.| | } } ' [ Z N h < , 4 * X X X * 6 4 * * g C.:.H j ' | o.;.3.e.e.>.>.>.,.o.o.o.&.=.=.+.W R H =.4.h f ",
"<.f f :.T g H D =.3.e.e.e.u.p.e.e.u.e.9.u.i.u.;.O.H g g &.G.D > * * o @ o X * 4 4 s f f h j N Z [ | | ..| o.o.,.o.o.| | o.o.;.| | o.>.3.;.} ' [ } | o.3.;.o.| 3.3.o.o.| | } | | o.o.o.o.,.3.e.e.3.o.o.| | | | o.>.3.3.3.3.3.3.;.;.;.;.| | ;.;.| H j j H =.*.;.=.=.&.;.o.3.e.p.u.u.u.u.u.e.e.u.u.p.p.p.p.p.p.u.u.p.p.p.p.p.p.u.t.u.e.e.e.p.u.p.p.p.u.u.u.p.p.p.p.p.p.e.e.e.e.u.u.p.p.u.e.u.u.p.u.u.e.u.u.u.u.e.e.e.e.u.u.u.u.e.e.o.e.e.u.q.u.e.e.e.e.9.9.9.9.e.e.u.u.e.e.e.9.q.e.e.9.e.e.e.u.u.u.u.u.u.e.9.9.o.;.o.>.9.9.u.u.q.u.e.9.9.o.=.=.R -.-.s @ O 3 h } | o.N t w % . sXsXsXsXsXsXsXsXsXsXsXsXsXsXsXsXsXsXsXsXsXsXsXsXsXsXsXsXsXsXsXsXsXsXsXsXsXsXsXsXsXsXsXsXsXsXsXsXsXsXsXsXsXsXsXsXp R ;.=.Z 0 3 @ ) D.4.e.e.u.p.u.e.u.t.u.u.u.e.u.e.u.p.p.p.p.u.u.p.p.p.u.u.u.u.e.e.e.u.u.u.p.p.u.p.p.p.p.p.t.e.e.e.e.e.e.e.3.o.3.u.u.e.9.9.9.u.u.u.e.e.9.q.q.u.u.u.u.u.u.e.e.e.e.e.u.u.9.9.9.9.q.9.9.9.9.9.9.9.9.9.9.9.9.9.e.e.9.u.q.9.u.e.9.9.e.u.u.e.e.e.e.9.e.e.e.e.9.9.o.| | | o.o.o.| Z N N } } } =.' ' | ;.| [ ' | o.9.e.e.3.*.} &.3.&.Z N | o.o.9.9.e.3.,.>.e.e.9.9.>.o.| ..o.o.>.9.9.o.o.7.9.>.o.o.o.>.o.| ..| ) | o.>.o.o...[ L ) ..| | } =.&.| ' Z N h < , 4 * X X X * 6 4 * * g C.1.H Z =.;.;.3.3.3.e.e.o.o.o.>.>.o.o.| D T T T R =.4.j f ",
"<.f f <.T N H D &.3.e.e.p.p.i.e.9.u.u.u.p.i.u.;.O.H g g =.D.D > > = @ @ . X * 4 , s g j h h C | | o.o.| ....| o.o.;.o.| ..| o.o.| o.e.o.=.=.O.[ } | 3.3.3.3.| | ;.3.o.o.o.| | ;.3.o.o.o.,.3.o.>.e.3.o.| | | o.o.o.o.o.o.e.e.9.3.3.*.' ' ;.3.3.;.=.=.T =.;.e.e.3.;.;.3.3.3.e.e.u.u.u.u.u.e.e.u.u.u.u.p.p.p.p.p.p.t.u.u.u.p.p.u.p.p.u.u.e.p.p.p.p.p.u.u.u.p.p.p.p.p.p.p.u.u.u.t.p.p.p.u.u.u.u.u.p.u.u.u.p.u.u.u.u.e.e.e.u.u.p.u.e.3.e.u.p.u.u.u.u.u.u.u.u.e.9.9.t.u.e.9.>.e.e.u.u.e.9.>.e.e.e.e.9.e.e.u.u.9.>.3.e.u.e.e.e.u.u.u.u.u.9.9.>.| O.R -.-.f @ @ 7 h } | o.h t w $ . sXsXsXsXsXsXsXsXsXsXsXsXsXsXsXsXsXsXsXsXsXsXsXsXsXsXsXsXsXsXsXsXsXsXsXsXsXsXsXsXsXsXsXsXsXsXsXsXsXsXsXsXsXsXsXsXi R &.=.Z 6 > @ ) 4.<.3.e.u.p.u.u.u.p.u.u.u.p.p.e.u.p.p.u.u.u.u.u.p.e.e.e.e.e.e.e.e.u.u.u.p.p.p.p.p.p.p.p.e.e.u.p.p.e.u.u.3.e.u.t.p.e.u.e.9.q.q.u.e.9.9.u.u.u.u.u.u.u.u.u.u.e.9.e.u.u.u.9.9.q.q.9.9.9.q.9.9.9.9.9.e.e.9.9.e.u.9.u.q.9.u.u.e.e.9.9.9.e.e.e.9.9.e.e.e.e.9.e.o.;.| | o.o.o...| } } ..o.o.&.| | | ;.;.| } | o.9.e.3.3.*.} | <.&.} =.| o.o.9.e.e.3.3.e.e.e.e.e.3.o.| o.3.e.9.o.o.7.7.o.o.o.o.;.>.3.o.| | | | | o.o.o...| } | ....| [ [ } =.} Z N j f , > 4 * X X   * 4 4 * * B C.1.H Z =.;.e.e.3.3.e.e.3.o.o.e.9.9.3.;.D T T D H =.4.f f ",
"*.s s 4.W B H R =.6.e.e.p.p.i.o.[ 3.y.t.t.t.e.3.=.T j g +.G.D > = = $ * X X * 4 , t f f h C | ..o.o.,.o...[ [ | o.o.o.o.o.o.o.o.o.;.;.' H H =.| ..o.e.e.>.,.,.;.;.;.;.o.o.3.o.o.3.e.e.3.o.;.;.o.o.o.;.| ' } | o.| | ..;.;.;.3.e.3.;.=.=.e.e.e.;.;.;.*.=.;.3.e.3.3.e.e.e.e.e.e.e.e.u.p.t.e.e.u.u.u.t.e.p.p.p.p.p.p.u.e.t.u.p.p.p.p.p.p.p.p.p.p.p.u.e.e.u.u.p.p.u.u.u.p.p.p.u.u.u.u.u.p.p.p.p.p.u.u.u.u.u.u.u.u.u.9.e.e.e.e.t.u.u.e.e.p.u.u.u.u.t.u.u.u.u.e.e.>.e.e.e.9.9.e.u.u.u.e.e.9.e.e.e.e.9.e.e.u.u.e.e.e.e.e.e.e.e.e.u.u.e.e.e.e.o.| H H Q -.f @ @ 3 C ..o...h t w $ . sXsXsXsXsXsXsXsXsXsXsXsXsXsXsXsXsXsXsXsXsXsXsXsXsXsXsXsXsXsXsXsXsXsXsXsXsXsXsXsXsXsXsXsXsXsXsXsXsXsXsXsXsXsXsXsXy B =.=.[ 6 > @ Z 4.<.3.e.u.u.e.p.p.p.p.p.p.p.p.u.u.e.e.e.u.u.u.t.e.e.9.e.e.e.u.u.u.u.p.p.u.p.p.p.u.p.p.p.u.u.p.u.u.p.t.e.e.t.p.u.u.u.u.u.q.q.u.u.9.9.q.u.u.u.u.u.u.e.9.9.e.e.9.q.q.q.q.q.q.q.q.q.9.9.9.u.9.9.9.u.u.e.9.9.9.e.9.9.9.9.q.u.e.e.e.9.o.9.e.e.e.9.>.9.e.9.9.e.;.o.| | o.o.o.o.| Z Z | o.o.o.;.| | o.o.| ....o.3.3.3.3.;.;.;.;.o.o.o.o.o.9.9.e.3.3.3.e.e.e.e.e.3.o.o.o.o.o.o.o.o.o.o.o.....| &.;.;.o.o.o.>.o.,.o.o...[ Z D | ....[ Z Z J } ' H j g t , > , * . X   * 6 4 * * B C.C.H N =.;.e.e.e.3.3.;.&.| o.9.9.o.o.o.=.=.O.H H =.<.j f ",
":.f f 4.W B N D =.*.3.e.p.p.p.| C ;.t.e.e.e.3.;.=.T j d +.F.T , = = @ * o o > 6 , , t f N [ ..o.o.>.>.o.| | | o.o.o.o.o.o.o.o.o.o.| } H N H =.&.3.e.e.e.e.3.3.3.o.| o.3.3.o.o.o.>.e.e.>.o.;.;.| | | | Z Z Z } | } | | ;.3.;.;.3.3.;.=.=.3.e.3.3.;.;.*.;.;.;.;.;.*.e.e.e.e.e.e.u.u.t.e.e.e.e.u.p.p.e.e.e.e.u.u.p.p.u.u.u.p.p.p.p.p.p.p.p.p.u.u.e.t.t.u.u.u.p.p.p.p.p.p.p.p.u.u.u.u.p.p.p.p.p.p.u.u.u.u.u.u.u.q.9.9.9.9.9.u.u.u.u.u.e.u.u.u.u.u.e.e.e.u.u.u.e.e.e.e.e.t.e.e.u.u.u.u.u.e.e.e.e.e.9.e.u.u.u.e.e.e.9.9.9.e.e.e.9.9.9.9.9.>.o.| N B E Q s @ @ 3 0 ) o...g t w $   sXsXsXsXsXsXsXsXsXsXsXsXsXsXsXsXsXsXsXsXsXsXsXsXsXsXsXsXsXsXsXsXsXsXsXsXsXsXsXsXsXsXsXsXsXsXsXsXsXsXsXsXsXsXsXsXi j [ ' C 7 - @ Z D.4.;.e.u.u.e.e.p.p.p.p.p.p.p.p.t.e.3.e.u.u.u.e.e.e.u.u.e.p.u.p.p.u.p.p.u.p.p.p.p.p.p.p.p.p.p.u.u.p.t.e.e.e.u.u.u.u.u.q.q.9.9.9.9.9.q.u.u.u.u.u.q.e.>.o.9.u.u.q.u.u.u.u.u.q.q.9.9.9.q.u.u.9.9.9.9.9.9.9.9.9.9.9.9.9.9.e.e.e.e.9.9.9.9.9.7.o.o.o.9.9.9.>.o.o.| o.;.;.o.| ' ' } | o.o.&.=.=.o.o.o.;.o.o.,.3.3.3.3.3.;.o.o.o.o.o.9.9.9.9.>.,.o.3.e.e.u.e.e.3.o.....o.3.e.o.o.o.o.| ..| | } =.| o.>.>.>.>.o.o.o.o.[ N C Z ..| ....| | | ' D H g s , > , * X X   * 6 6 * * j C.B.R T *.3.e.e.3.3.;.[ N | e.e.9.o.| o.;.;.} D H =.<.j f ",
":.f f 4.W B N H ' ;.3.e.t.u.t.o.[ ;.t.p.e.e.3.;.=.O.H d E H.O.4 = = @ * @ o > 6 , , , t j } ..o.>.>.>.9.>.>.3.e.e.3.o.o.o.3.3.3.o.o.| =.=.' ' | 3.e.e.e.3.3.3.o.o...| o.o.o.o.3.e.3.o.o.o.| | | | | D N Z ' } } | =.=.=.o.;.| | 3.<.=.=.3.e.3.3.o.o.3.3.3.3.;.=.O.;.e.e.3.3.3.e.u.u.e.e.e.e.e.p.p.e.e.e.e.t.p.p.p.p.p.p.p.p.5Xp.p.u.u.u.u.e.e.e.u.t.u.u.u.u.p.p.p.p.p.p.p.p.p.p.p.p.p.p.p.u.u.u.u.u.u.u.u.u.9.9.9.9.9.u.u.u.u.u.t.e.e.e.e.e.e.o.>.e.u.q.q.u.e.e.e.u.p.u.e.u.u.u.u.u.e.u.u.u.e.e.u.u.u.u.t.p.u.u.9.9.9.e.9.o.o.9.9.7.o...| N H W +.4 @ @ > 6 C ) o.Z i t $   sXsXsXsXsXsXsXsXsXsXsXsXsXsXsXsXsXsXsXsXsXsXsXsXsXsXsXsXsXsXsXsXsXsXsXsXsXsXsXsXsXsXsXsXsXsXsXsXsXsXsXsXsXsXsXsXd Z ..[ h 3 2 q _ D.4.;.e.e.3.;.;.e.u.u.u.u.p.p.p.p.e.e.e.p.p.p.e.e.p.p.p.p.p.p.p.p.p.p.p.p.p.p.p.p.p.p.p.u.u.u.p.p.p.u.3.3.e.e.e.u.u.9.u.u.u.u.u.e.9.q.u.u.u.u.q.q.e.9.7.9.e.u.e.u.u.u.u.e.e.e.9.9.9.q.u.e.e.9.9.9.9.9.9.9.9.9.9.9.9.9.9.9.9.9.9.9.e.e.9.>.o.o.o.9.e.e.3.<.3.&.} } | ' H D ' [ [ } &.T j H ;.o.o.;.| o.;.3.3.e.e.e.3.o.o.o.o.o.o.3.3.3.>.>.,.3.e.e.e.u.e.e.,.o.o.o.o.o.o.9.7.o.o.o.o.[ [ Z | o.>.9.9.9.>.o.>.>.| [ C L | ,.o.o.,.o.| | [ N g f t , 4 = . o X * 6 6 > * j C.B.R R &.;.>.e.e.e.3.| C | e.e.9.o.o.o.3.&.} T T =.<.j f ",
"1.f f <.W g j Z } 3.u.p.u.e.e.3.&.3.u.p.e.e.3.;.=.T k d E G.T , * * * > * o > 6 , , t t j } ..o.o.>.9.9.9.>.9.9.9.o.| o.3.e.3.o.o.,.;.3.3.&.} | o.o.o.o.o.o.;.o.o.o.o.o.3.3.;.o.>.>.o.o.| | } | | | D D =.*.;.| ' | O.} | =.| | &.=.V ' ;.3.3.*.;.3.e.e.e.i.r.*.=.o.e.e.e.3.e.e.e.e.e.e.e.e.9.9.e.e.u.u.e.e.e.p.p.p.p.p.p.p.p.p.p.p.p.u.u.u.u.u.u.u.u.u.u.u.u.u.p.p.p.p.p.u.p.p.p.p.p.p.p.p.u.u.u.u.u.u.u.u.u.9.9.>.9.q.u.9.9.e.3.;.3.3.e.e.e.o.>.t.u.q.q.u.u.u.u.u.u.u.u.p.p.u.w.w.q.q.u.u.t.e.9.u.e.e.e.u.u.u.q.9.9.e.9.o.>.9.9.7.o.{ | D T :.:.f @ @ > 6 C o.o.Z d t $   sXsXsXsXsXsXsXsXsXsXsXsXsXsXsXsXsXsXsXsXsXsXsXsXsXsXsXsXsXsXsXsXsXsXsXsXsXsXsXsXsXsXsXsXsXsXsXsXsXsXsXsXsXsXsXsXsX' ;...C 3 2 @ _ D.4.;.e.>.o.o.;.e.u.p.p.p.u.u.p.p.u.u.u.p.p.p.t.t.p.p.p.u.p.p.p.p.5X5Xp.p.p.p.p.p.p.p.p.p.u.u.u.p.p.e.3.;.e.e.e.u.u.9.u.u.u.q.9.9.9.u.u.u.u.q.u.u.q.u.e.9.9.9.9.9.9.9.9.9.e.e.e.9.q.q.9.9.9.9.9.9.9.e.e.9.9.9.9.9.9.9.o.o.9.9.9.9.u.u.e.9.9.e.e.e.3.o.| &.*.=.V B j j g N Z [ | $.T R d g =.;.| | [ | o.o.o.e.e.e.3.o.o.>.o.o.o.| o.3.e.e.e.t.t.u.u.e.e.9.9.3.o.o.) ) o.e.9.9.9.9.o.o.) [ | o.o.o.>.9.9.9.>.>.o...| ..3.3.>.>.>.>.o.| Z j f s 4 < f > o o X * f 6 > * j C.-.j H #.o.>.e.e.u.u.3.&.3.e.9.9.o.o.....=.=.D D =.5.j f ",
"<.f f <.W g j D &.e.y.t.e.3.>.e.3.3.e.p.p.u.e.;.' H g d W D.D > * * @ > = o = 6 < s g f j [ | o.o.>.9.9.9.>.9.9.9.o.| | o.3.3.3.3.,.,.3.3.;.| | o.o.o.o.o.>.3.e.e.e.3.3.3.3.o.o.o.>.3.o.| | | | ;.;.=.T =.*.3.o.o.| | =.=.=.=.=.' H H ' *.*.&.=.*.4.e.e.e.u.u.i.r.e.u.u.e.e.u.e.e.e.e.t.u.u.w.w.e.e.e.u.e.o.>.p.p.p.p.p.p.p.p.p.p.p.p.p.p.p.p.u.u.u.u.u.u.u.u.u.u.p.p.p.p.e.9.e.p.p.p.p.p.p.u.u.p.u.u.u.u.u.u.q.q.9.9.u.u.e.e.e.| | ;.3.e.e.e.o.3.e.u.u.u.u.p.p.p.u.u.u.p.p.p.p.u.w.q.9.q.u.u.e.u.u.u.e.e.u.u.q.q.9.9.9.>.9.9.9.9.9.o.{ | D =.4.1.f @ @ > 6 ) o.o.Z g t $ sXsXsXsXsXsXsXsXsXsXsXsXsXsXsXsXsXsXsXsXsXsXsXsXsXsXsXsXsXsXsXsXsXsXsXsXsXsXsXsXsXsXsXsXsXsXsXsXsXsXsXsXsXsXsXsXsXsX' ;.| C 3 @ @ _ r.<.3.e.9.3.3.e.t.u.p.p.p.p.p.p.p.p.p.u.p.p.p.u.u.p.p.p.p.p.p.p.p.5Xp.p.p.5X5Xp.u.u.u.p.p.p.u.u.p.p.p.e.3.u.u.e.e.u.t.e.9.9.o.9.9.u.u.u.u.u.q.u.u.u.e.9.9.9.9.9.9.9.9.9.9.e.e.e.u.q.9.9.9.9.9.9.9.9.u.u.9.9.q.u.9.9.9.9.9.9.9.9.e.e.9.9.9.e.e.e.e.o.o.Z H O.O.H j j j j N ' =.&.=.V B H D &.o.| ' | ;.;.| | ;.e.3.o.o.9.9.9.o.o.| | 3.e.u.t.p.p.p.u.9.9.9.e.e.>.o.o.o.e.e.9.9.9.e.e.>.o.o.o.o.o.o.o.>.9.9.>.o.o.o.| o.3.e.>.>.9.e.>.| Z h s s < 4 f = X X   @ 6 6 > * g B.-.j R &.3.e.e.e.e.e.e.3.;.>.9.9.>.o.o.| $.=.T T =.5.C f ",
"4.f f <.W B N D &.e.u.e.e.3.9.e.e.e.e.u.p.u.e.;.=.H g d E C.N > * * o ; * o * 6 4 s g j N Z ..o.o.o.o.>.9.9.9.9.9.o.o.o.o.o.o.3.3.3.3.o.o.o.o.o.o.;.>.9.9.>.3.e.u.e.3.o.| ;.o.,.>.9.e.3.o.| | ;.3.3.=.D D =.;.3.3.o.| } ' O.=.;.;.| ' =.*.=.T R T *.;.3.e.e.e.e.e.e.u.e.;.3.e.e.e.e.e.u.u.u.u.u.e.e.u.t.e.e.e.p.p.p.p.p.p.p.u.p.p.p.u.9.9.e.u.e.e.u.u.u.p.p.u.u.u.p.p.p.p.u.e.e.p.p.p.p.p.p.p.p.u.u.u.u.u.u.u.u.u.9.>.3.e.e.3.>.,.;.3.e.e.e.3.3.e.e.u.u.u.u.u.p.u.u.p.p.u.e.9.9.9.9.9.9.u.u.u.u.u.u.u.u.u.u.u.q.9.9.9.o.o.>.e.9.9.9.o.{ | Z =.4.:.f @ @ > 6 ) o.o.C g u $ sXsXsXsXsXsXsXsXsXsXsXsXsXsXsXsXsXsXsXsXsXsXsXsXsXsXsXsXsXsXsXsXsXsXsXsXsXsXsXsXsXsXsXsXsXsXsXsXsXsXsXsXsXsXsXsXsXsXZ | [ C > @ @ Z 5.<.3.e.e.e.e.e.t.e.e.e.t.p.p.p.t.t.p.p.p.p.p.p.p.p.i.i.p.p.a.p.p.p.p.p.p.p.p.p.p.u.p.p.p.p.p.p.p.p.p.u.e.u.p.t.u.u.u.e.e.e.9.9.9.u.e.q.q.9.e.e.u.u.9.9.9.e.u.9.9.e.e.9.9.9.9.q.q.9.9.9.9.9.e.9.u.u.u.u.9.q.u.9.9.9.9.9.e.9.9.9.e.9.9.9.e.e.e.e.e.o.o.} ' | =.} ] H H H j T O.H g B D =.;.o.o.| } ;.;.;.o.o.o.o.o.o.o.9.9.9.9.3.o...o.e.u.e.e.t.u.e.e.e.9.9.e.>.>.9.e.e.9.e.e.e.9.9.9.e.e.e.e.9.7.o.>.>.9.9.>.>.o.o.| o.>.>.o.>.>.o.| Z h f s < < f * X X   o 6 6 > * g B.-.j D =.3.u.p.u.u.e.e.3.o.>.9.>.9.e.3.*.=.T T T =.4.j f ",
"4.g f 4.W B H H =.3.e.e.e.e.e.u.u.e.e.p.t.e.e.3.&.D g d R D.N ; * * o * @ o * 6 4 t f j N [ ..o.o.o.o.o.o.o.o.>.>.>.>.e.e.3.o.o.;.3.3.3.>.>.,.o.o.o.e.e.9.9.9.>.3.3.;.| [ | 3.3.9.9.9.>.>.| o.3.e.3.&.D H R =.;.3.o.| } } =.| o.e.e.;.;.3.=.T E R W =.=.*.;.3.3.<.3.3.<.=.&.<.&.3.e.u.u.u.u.u.p.e.u.p.p.p.i.a.a.p.p.p.p.p.p.p.p.p.p.u.e.9.u.e.9.9.u.u.u.p.p.p.p.p.p.p.p.p.p.u.u.p.p.p.p.p.p.p.p.p.u.u.u.u.u.u.u.u.e.o.| | ;.3.e.e.e.e.e.e.e.e.3.e.e.e.e.u.t.p.u.e.e.p.p.p.e.>.e.e.e.u.u.u.u.u.p.p.p.p.u.e.e.q.q.9.9.o.o.o.o.>.9.9.>.o...| Z D :.1.f @ @ > 6 ) o.o.C g u % sXsXsXsXsXsXsXsXsXsXsXsXsXsXsXsXsXsXsXsXsXsXsXsXsXsXsXsXsXsXsXsXsXsXsXsXsXsXsXsXsXsXsXsXsXsXsXsXsXsXsXsXsXsXsXsXsXsXN ..[ h > @ @ Z 4.:.&.;.;.e.e.u.u.u.e.e.u.p.t.u.3.e.t.p.p.p.p.p.p.p.u.u.t.p.p.i.i.u.u.p.p.p.p.5Xp.p.p.5X5X5X5Xp.p.p.p.p.e.e.t.p.p.e.u.e.u.p.p.u.q.9.9.9.9.9.e.e.e.e.9.9.e.u.u.w.w.u.u.u.u.q.q.q.9.e.e.e.9.e.e.9.q.u.q.q.u.u.t.9.9.9.u.u.u.9.9.9.9.9.9.9.e.7.o.o.>.o.o.;.o.o.o.o.| | ' H R R j d j D } | o.o.>.o.=.| | | ;.3.e.o.o.o.9.9.9.9.9.e.o.) o.3.e.9.>.e.e.e.e.e.9.9.9.>.9.e.9.9.9.e.e.e.9.9.9.9.9.9.e.e.7.o.o.3.e.9.o.o.| | ..o.>.>.>.o.| | [ H g d u t < s * o O   o 6 4 > * g B.-.R D } ;.e.u.u.u.e.e.3.;.o.9.e.e.e.;.=.T H H R W 4.h s ",
"4.h f <.T N D V ' o.>.e.e.e.e.e.e.e.e.t.e.e.e.3.;.=.N f T D.Z = * * . o o . * 6 , , u g H } ..o.o.o.| | ..| o.o.o.3.e.e.e.e.3.| } =.;.;.3.3.3.o.o.o.>.e.e.9.>.o.o.,.3.3.;.o.3.e.e.9.9.o.o.| o.3.e.3.;.} W =.=.;.3.o.| o.>.;.o.>.e.e.9.e.e.3.*.*.&.3.:.=.' } 3.3.3.;.3.3.3.3.3.3.3.e.e.u.u.e.e.e.e.u.p.p.p.p.a.a.p.t.t.p.p.p.p.p.p.p.p.p.u.p.u.e.q.u.u.u.p.p.p.p.p.p.p.p.p.5Xp.u.u.u.u.u.u.p.p.u.u.u.u.u.u.u.u.u.u.u.e.>.>.e.e.e.9.9.e.e.e.e.e.e.9.9.u.u.u.u.p.p.e.e.u.p.p.p.t.p.p.p.t.u.u.u.u.e.e.e.e.9.>.7.9.9.9.o.o.o.o.o.o.o.o.o.o...Z h N *.:.f @ @ * 6 C ) ..Z g u $ sXsXsXsXsXsXsXsXsXsXsXsXsXsXsXsXsXsXsXsXsXsXsXsXsXsXsXsXsXsXsXsXsXsXsXsXsXsXsXsXsXsXsXsXsXsXsXsXsXsXsXsXsXsXsXsXsXsXh ..) 0 3 @ @ Z 4.&.O.} | ;.e.u.u.e.e.e.u.u.e.3.3.e.t.p.p.p.p.p.p.u.e.e.t.a.e.u.u.e.t.u.p.p.5Xp.p.p.p.a.a.p.p.p.5Xp.p.p.e.>.u.p.u.e.e.p.p.p.u.u.9.9.u.u.q.q.9.e.e.9.9.u.u.u.u.w.w.u.u.u.q.w.w.q.e.e.u.u.u.e.e.9.e.u.q.u.u.u.t.9.e.u.u.u.u.9.9.9.e.e.e.e.e.o.o.o.o.o.9.9.9.7.9.9.o.o.' H R T N Z | o.o.o.o.9.e.3.3.| ....o.e.e.9.o.o.9.9.9.9.9.e.o.o.>.e.e.9.>.>.9.e.e.e.9.>.>.>.9.e.9.9.e.9.9.9.9.e.9.9.9.9.e.e.e.o.o.>.>.>.o.o.o.o.o.o.o.>.3.o...[ Z N g d f t , 4 * o o . * 6 4 * & g :.-.H D } o.e.u.u.e.u.u.e.3.>.>.e.e.;.| O.T H H j E :.s s ",
"<.h h <.D N ' O.=.;.>.9.9.9.e.9.u.p.e.3.e.e.e.3.;.} N f W D.H = * * o o o . * 6 , , u g Z | o.o.>.>.o.| | ;.o.o.o.o.9.9.9.e.3.;.} =.| | o.o.o.o.o.o.o.>.3.e.3.o.,.>.9.e.3.o.| >.e.>.>.o.o.} | 3.e.3.;.;.;.3.3.3.3.>.>.e.9.9.e.e.e.9.9.e.e.e.e.e.3.e.e.3.| ;.3.e.e.e.u.t.t.t.u.e.e.e.e.u.u.t.e.e.u.u.p.p.p.p.p.p.t.e.e.t.p.p.p.p.p.p.p.p.p.p.p.u.9.u.p.u.p.p.p.p.p.p.p.p.p.p.p.u.e.u.u.u.u.u.u.u.u.u.u.u.u.u.u.u.u.e.u.e.e.9.9.9.9.9.e.e.3.3.e.e.e.9.u.p.p.p.p.p.p.u.u.p.p.a.a.p.p.p.u.u.u.p.t.e.9.e.e.9.o.o.o.9.o.o.o.o.o.o.o...o.o...[ j j N :.:.f * o * 9 ) o.| C f t o sXsXsXsXsXsXsXsXsXsXsXsXsXsXsXsXsXsXsXsXsXsXsXsXsXsXsXsXsXsXsXsXsXsXsXsXsXsXsXsXsXsXsXsXsXsXsXsXsXsXsXsXsXsXsXsXsXsXh | | C 7 @ @ C 4.:.=.=.D } 3.e.u.t.e.e.u.t.e.3.e.u.u.t.p.p.p.p.p.p.e.p.a.a.e.e.u.p.p.p.p.p.p.5Xp.p.t.t.p.p.p.p.p.p.p.e.e.e.i.y.e.e.u.p.p.p.u.u.u.u.u.u.u.u.u.q.u.9.9.u.u.u.u.u.u.u.u.u.u.w.w.u.9.9.9.u.u.e.o.e.u.u.q.u.p.t.u.u.u.u.u.u.u.u.9.9.e.e.e.e.e.o.o.o.>.9.9.9.9.9.9.8.;.;.T j T ;.o.o.9.>.9.9.e.e.e.e.e.3.o.o.o.e.9.9.>.>.9.9.9.9.9.e.>.9.9.e.e.e.e.e.e.e.e.9.9.>.o.>.>.9.9.9.9.9.9.>.>.9.9.9.9.e.e.3.3.o.o.o.o.>.e.e.e.9.9.>.o.o.o.o...} D N g g f t , 4 * o o . * 4 , * & g :.-.H D | o.e.u.u.u.e.e.3.;.;.3.3.3.;.=.=.T H B j W :.s s ",
"1.h h <.T H O.O.&.*.3.e.e.e.o.>.e.t.3.3.e.e.u.e.;.' g f W D.D = * * o @ o X * 6 , , u g Z | o.>.>.>.o.| o.3.3.3.o.o.o.>.e.3.o.| &.| o.o.o.o.o.o.o.o.o.o.>.9.>.;.3.>.9.>.>.;.| ..o.;.;.;.&.=.D ;.3.e.3.3.3.e.e.3.3.3.e.9.9.9.e.e.e.e.q.q.u.u.u.e.3.3.u.u.e.e.e.t.e.u.u.u.i.i.p.p.y.4.*.3.e.e.e.e.p.p.p.p.p.p.p.i.u.e.e.t.p.p.p.p.p.p.p.p.p.p.u.e.9.e.u.p.u.u.p.p.p.p.p.p.p.p.p.u.e.u.u.p.u.u.u.u.u.u.q.u.u.u.u.u.u.u.u.u.e.9.9.9.9.u.e.;.J J &.3.u.p.u.u.p.p.p.p.p.u.u.u.p.p.u.e.e.p.p.u.u.u.u.e.e.e.e.e.>.>.9.9.9.o.o.9.9.o.o.| | } [ Z N Z D :.:.s @ o * 0 [ | | Z g t . sXsXsXsXsXsXsXsXsXsXsXsXsXsXsXsXsXsXsXsXsXsXsXsXsXsXsXsXsXsXsXsXsXsXsXsXsXsXsXsXsXsXsXsXsXsXsXsXsXsXsXsXsXsXsXsXsXsXZ ;.&.Z 4 @ @ C 4.4.*.=.H O.;.e.u.u.e.e.t.i.y.t.i.t.u.u.u.p.p.p.p.p.p.p.p.p.u.u.u.p.p.p.p.u.p.p.a.e.o.o.3.p.p.p.u.u.u.u.e.i.a.i.e.e.t.p.p.u.p.u.p.u.u.u.u.u.u.q.q.u.u.u.w.q.9.e.u.p.p.w.w.u.u.u.e.9.q.u.e.9.>.e.u.u.w.u.u.e.e.u.u.p.u.u.u.u.u.u.e.9.9.9.9.9.e.e.e.9.9.9.9.9.9.o.o.| ' N ' 3.3.e.9.>.>.e.e.e.e.e.e.e.e.e.3.e.e.e.o.o.>.9.9.9.9.9.9.e.e.q.u.e.u.u.e.e.9.>.3.3.| | o.e.9.9.e.e.3.>.>.>.>.9.e.3.o.o.3.3.3.>.>.9.9.e.e.e.9.9.>.o.o.o.| | O.H B j u , > < * o o . @ 4 4 * * g :.-.H H } o.>.e.u.e.e.u.3.=.} ;.e.>.>.3.<.=.D N g T <.s f ",
"<.h h <.W D O.T =.;.e.e.e.9.3.o.e.u.3.;.e.i.i.e.| Z h d W D.D > * * o o o . * 6 4 , u g N } | o.o.o.o...o.3.;.;.o.o.;.3.3.o.| | o.3.e.e.>.o.o.o.o.>.o.o.3.>.>.>.o.>.9.e.3.3.,.3.3.o.o.| | D Z } 3.e.e.e.e.9.9.e.e.>.>.>.9.e.e.e.9.e.u.q.u.u.e.e.;.3.u.e.e.3.3.e.i.p.u.u.i.i.t.p.r.&.' ;.3.e.e.e.e.p.p.p.p.5Xp.p.u.e.u.i.a.p.p.u.p.p.p.p.p.p.u.u.9.e.u.p.p.p.p.p.p.p.p.p.p.p.p.p.p.u.u.p.u.u.u.u.u.u.u.u.u.u.u.u.u.9.e.u.e.9.9.e.9.u.u.&.Z N Z o.u.p.u.u.p.p.u.u.p.u.u.u.u.u.e.o.e.p.p.u.u.u.p.e.e.e.e.e.e.e.9.9.9.7.o.7.9.o.o.| ' H H Z j j H :.&.6 @ o * 4 C ) ) C f , o @ sXsXsXsXsXsXsXsXsXsXsXsXsXsXsXsXsXsXsXsXsXsXsXsXsXsXsXsXsXsXsXsXsXsXsXsXsXsXsXsXsXsXsXsXsXsXsXsXsXsXsXsXsXsXsXsXsXf C N 6 > @ @ [ 4.*.=.' ' =.*.3.3.3.e.e.u.p.p.p.t.t.u.t.t.p.i.p.p.p.p.p.p.p.p.t.e.e.e.u.p.p.p.p.t.>...| 3.p.p.p.u.p.p.p.i.u.u.u.u.p.u.w.q.q.u.u.p.u.u.u.u.q.q.q.u.u.u.w.w.w.9.9.u.u.p.p.w.u.u.p.u.p.p.p.u.e.e.e.u.u.q.q.u.e.e.e.e.u.u.u.u.p.u.u.u.9.9.9.9.9.9.e.9.9.9.9.o.o.o.{ ..o.| [ ..o.o.9.7.o.o.e.e.e.e.e.e.e.9.9.>.o.o.3.....o.9.e.e.e.9.9.e.q.9.9.u.u.u.u.e.e.3.3.3.=.| 3.e.9.9.e.3.;.o.3.3.e.e.e.,.| o.3.e.e.e.3.9.9.9.9.e.9.9.9.o.o.o.| ' H j j d t = = , * o o . @ 6 4 > > g D.:.H N ' | >.u.u.u.u.u.<.D D ;.e.9.e.3.3.=.D H H =.<.0 f ",
"<.h h 4.=.H ' H ' ;.e.t.t.t.e.3.e.u.;.o.e.i.i.e.o.Z h f W D.Z > * * o o o . * 6 4 t u g j H H ' | o.o.| o.o.o.o.o.o.3.3.| } &.;.| o.e.e.>.o.o.o.e.e.o.o.,.3.>.3.o.o.3.e.3.;.3.3.3.3.o.o.| =.} &.3.e.e.e.9.9.9.e.e.o.o.3.9.9.9.>.9.9.9.q.u.u.e.e.;.;.e.3.3.;.;.<.6.y.y.y.e.3.e.e.r.<.=.<.e.e.e.e.e.p.p.p.p.p.p.p.t.t.a.a.a.p.p.p.p.p.p.p.p.p.p.p.u.u.p.p.p.p.p.p.p.p.u.u.p.p.p.p.p.p.u.u.p.p.p.p.u.u.u.e.e.e.u.u.e.9.9.u.u.t.u.e.q.u.u.e.,.3.3.e.e.u.u.u.u.u.p.p.p.p.p.p.u.e.e.e.t.p.p.u.u.u.u.t.9.o.o.| 9.9.9.9.9.7.7.o.o.>.;.| H j g h f f j &.&.f @ o @ 3 0 C C C f , $ o sXsXsXsXsXsXsXsXsXsXsXsXsXsXsXsXsXsXsXsXsXsXsXsXsXsXsXsXsXsXsXsXsXsXsXsXsXsXsXsXsXsXsXsXsXsXsXsXsXsXsXsXsXsXsXsXt f h 6 > $ o * [ 6.;.] Z ' =.=.=.;.3.e.t.u.u.u.t.u.t.p.p.u.t.i.a.u.u.p.p.p.p.p.p.p.u.u.u.p.5Xp.p.p.e.e.u.t.u.u.e.u.p.p.p.e.o.e.p.p.p.p.p.q.q.w.p.p.q.u.q.q.9.9.q.w.w.w.w.w.u.w.0.u.u.u.p.p.p.p.u.p.p.p.p.p.e.e.u.u.u.q.q.u.e.e.e.e.e.e.u.u.u.u.u.e.e.e.e.e.9.9.9.9.9.o.o.o.o.) { o.,.o.o.o.o.7.9.o.o.o.9.9.9.9.9.9.9.9.9.>.o.o.o.| | | ;.3.3.o.o.9.e.9.9.e.u.u.u.u.p.e.3.3.;.&.| 3.e.9.9.e.o.....3.e.e.e.3.o.o.o.3.o.o.3.3.e.9.9.e.3.>.>.>.o.o.o.| [ j j g d t > , , * o o . * 6 4 > > g D.:.B N } o.e.p.p.p.e.e.&.V ' 3.e.9.e.e.3.;.} D H =.3.0 h ",
"<.h j <.=.H D D } 3.t.t.t.t.t.u.t.u.;.=.3.e.3.3.=.D h f T D.Z > * * o @ @ . * 6 4 t u d d g j N ' ;.3.o.,.,.o.o.| | &.| Z [ &.3.o.;.3.e.>.o.o.o.>.o.| ....o.3.3.o.| ;.3.;.| ..o.3.;.3.3.3.3.;.;.3.>.3.e.e.9.9.e.e.o.o.e.e.e.>.o.o.9.9.e.e.u.e.e.e.;.3.3.3.;.;.&.&.3.e.6.<.&.3.3.e.e.3.3.e.t.e.u.t.p.p.a.5Xp.p.u.t.p.a.a.y.i.p.p.p.p.p.p.p.p.p.p.p.p.p.p.u.u.p.p.p.p.u.u.p.p.p.p.p.p.p.u.p.p.p.p.u.u.u.e.e.e.e.e.9.9.9.t.t.t.u.u.u.u.u.e.e.e.p.u.e.u.p.p.u.u.p.p.p.p.p.p.u.e.t.p.p.p.p.p.u.p.p.u.9.o.o.{ o.o.| | o.o.o.o.o.o.o.| Z j f s f f j =.&.s @ X o > 6 C L C f t .   sXsXsXsXsXsXsXsXsXsXsXsXsXsXsXsXsXsXsXsXsXsXsXsXsXsXsXsXsXsXsXsXsXsXsXsXsXsXsXsXsXsXsXsXsXsXsXsXsXsXsXsXsXsXsXsXg N Z s , $ o * [ r.*.D Z H T D D =.3.3.e.e.3.e.e.p.p.p.e.>.e.u.t.p.p.p.5X5Xp.p.p.6Xp.p.p.p.5X5Xp.p.p.p.p.p.u.e.e.u.p.p.p.u.9.t.p.p.u.p.p.p.p.p.p.p.q.u.u.u.9.9.q.q.q.q.w.p.p.u.w.u.u.u.u.u.p.p.u.p.p.p.p.p.u.u.e.t.u.u.e.e.e.u.u.u.e.e.u.e.u.u.e.e.e.e.e.o.o.o.9.9.9.o.o.o.o...o.3.9.>.9.>.9.9.9.o.X.9.9.9.9.9.9.9.e.9.9.9.o.o.| &.| o.;.o.o...o.>.9.e.e.e.e.e.e.e.e.e.o.o.o.;.>.e.e.9.9.e.3.o.o.3.3.e.9.o.o.o.e.9.o.{ ..o.e.e.e.;.;.;.;.;.o.o.o.| ' H j d d u , > , * o o . * 6 4 * * B D.:.H N =.| e.u.u.e.e.3.;.} | 3.3.o.3.3.3.;.=.H H =.4.h f ",
"1.h h :.=.D D ' *.4.r.r.e.e.u.p.p.t.3.*.3.;.&.&.' N h f T F.D > * * * * * X * 6 4 t s d d j H N } ;.3.,.3.3.3.3.;.| | =.D } &.3.;.=.;.;.3.,.o.o.o.o.| } Z [ ;.;.| | ;.;.=.' ..;.&.} &.3.3.3.o.3.3.o.o.o.o.9.e.3.>.>.>.>.e.e.e.e.9.9.9.e.e.9.9.e.e.3.e.e.e.3.3.<.;.;.3.*.*.&.;.e.e.u.e.e.e.t.p.i.a.i.p.a.5Xp.p.p.p.a.y.3.<.r.p.p.p.p.p.p.p.p.p.p.p.p.p.p.p.p.p.p.p.p.u.u.p.p.u.p.p.p.p.p.p.u.u.u.u.u.e.e.e.e.e.9.9.9.e.t.e.u.e.u.t.e.e.9.e.u.w.u.u.u.p.u.u.p.p.p.p.5Xp.p.e.u.p.p.p.p.p.p.u.p.p.u.u.e.>.o.e.o.o...o.o.o.o.o.o.o.| [ D N N N j j =.=.s @ X o > 6 C C h g i & . sXsXsXsXsXsXsXsXsXsXsXsXsXsXsXsXsXsXsXsXsXsXsXsXsXsXsXsXsXsXsXsXsXsXsXsXsXsXsXsXsXsXsXsXsXsXsXsXsXsXsXsXsXsXsXsXg j j s > o o * | 6.*.D H O.O.D D =.3.3.3.3.o.3.e.p.p.p.u.e.e.y.t.p.p.p.p.5X5Xp.5X5X5Xp.p.p.5Xp.u.e.u.p.u.u.u.t.e.e.u.p.p.p.p.p.p.u.u.u.u.p.p.p.u.u.q.u.u.u.u.u.u.u.9.9.9.w.w.p.u.u.u.u.u.u.u.p.p.p.p.p.p.p.u.u.e.e.e.e.e.u.u.9.u.u.u.e.e.e.e.e.e.e.e.e.e.| [ o.9.9.>.o.o.....;.e.e.9.9.9.9.9.9.o.o.o.9.9.9.9.9.9.e.e.9.9.9.9.o.o.=.| | o.| ..| o.>.9.e.9.9.e.e.9.e.e.>.o.o.>.e.e.e.9.9.9.e.e.e.3.3.3.3.9.o.o.9.e.e.>.o.o.o.e.e.o.=.=.=.=.=.;.;.o.o.=.T R k d f < > , * o o . @ 6 4 * * H G.V.R H O.| o.e.3.3.3.3.e.3.;.3.>.;.;.;.;.&.=.D H =.4.h j ",
":.f f :.=.D D =.:.4.<.*.3.e.e.p.p.t.e.3.3.3.| } Z j h f W G.D > * * * * * X * 6 4 t s f g R T D } | 3.3.o.o.3.3.3.;.| ;.;.;.;.3.3.} } | ;.;.o.o.o.;.;.;.[ Z | 3.;.&.&.*.=.} =.;.} Z D &.3.o.o.3.e.3.o.o.o.3.e.e.e.e.e.9.e.e.e.e.e.e.e.e.9.9.9.9.e.e.e.e.e.e.e.e.e.e.3.*.*.;.3.e.e.u.u.e.e.e.p.i.i.u.e.p.a.p.p.p.p.i.e.;.;.4.p.p.p.p.u.u.p.p.p.p.5Xp.p.5Xp.p.u.u.p.p.p.p.p.u.u.u.p.p.p.p.p.u.u.u.u.u.e.e.e.e.e.9.9.u.u.t.e.e.e.u.e.9.e.e.e.u.p.p.u.u.u.q.u.p.p.p.p.p.p.u.u.u.u.p.p.p.p.p.p.p.u.u.u.e.e.e.e.>.o...| o.o.;.o.o.o.o.| | =.=.W H j O.T s * X . * 4 h N h P k.e . sXsXsXsXsXsXsXsXsXsXsXsXsXsXsXsXsXsXsXsXsXsXsXsXsXsXsXsXsXsXsXsXsXsXsXsXsXsXsXsXsXsXsXsXsXsXsXsXsXsXsXsXsXsXsXsXu f s 4 > @ o ; } 6.<.=.O.=.*.=.=.&.3.3.e.3.o.3.e.p.a.a.p.u.u.i.p.p.p.p.p.5X5X5Xp.p.p.p.p.p.p.u.e.9.e.p.u.u.u.u.t.e.u.u.p.p.p.u.u.u.p.u.u.u.u.u.u.u.u.u.u.u.u.u.u.u.9.9.9.q.w.u.u.u.q.u.u.u.u.u.u.p.p.p.p.p.u.e.e.e.9.e.e.e.e.0.u.u.e.e.3.o.>.3.e.e.3.;.;.;.o.o.9.9.>.o.o.....3.3.>.9.9.9.9.9.9.>.o.9.9.9.9.9.9.9.e.9.9.9.9.9.9.>.} | | | ..o.o.o.o.e.9.9.9.>.9.e.e.e.9.o.>.e.e.e.e.9.9.e.e.9.e.e.e.e.e.e.>.o.>.9.9.9.9.o.9.9.3.| } T =.=.T O.=.&.;.*.=.R k j d t > , * o o   o 4 , * * H F.D.R H O.=.;.3.;.*.3.e.u.e.e.9.3.;.=.=.=.=.D D H =.4.h j ",
":.f h :.=.H T =.1.4.-.*.6.y.e.e.e.e.u.u.e.3.;.&.} N h d Q H.W , * * * o o X * f 4 t d d g j T O.} | | &.} } 3.3.3.o.o.e.e.>.o.&.*.&.' } 3.3.;.o.| 3.e.e.o.| | 3.<.*.W T O.| | o.o.' D ;.3.3.e.e.e.3.o.o.3.3.>.e.e.9.9.9.e.9.9.9.9.e.e.e.e.9.e.e.9.e.3.3.>.9.e.e.e.e.e.3.;.3.e.e.u.t.e.e.e.e.p.i.i.e.e.t.a.p.p.p.i.i.y.e.u.i.p.p.p.p.p.p.p.p.p.p.p.p.p.5Xp.p.p.p.p.p.p.p.p.u.w.u.p.p.u.u.u.u.e.e.u.e.9.e.e.u.u.u.u.u.u.e.e.e.e.e.u.u.u.q.e.u.u.p.p.p.u.e.e.u.p.u.p.p.u.u.u.p.p.p.p.u.p.p.u.p.p.p.e.e.9.9.e.9.o.o.o.o.o.o.o.| o.o.| } $.W W R j H R t o X . @ 3 h N s P n.i . sXsXsXsXsXsXsXsXsXsXsXsXsXsXsXsXsXsXsXsXsXsXsXsXsXsXsXsXsXsXsXsXsXsXsXsXsXsXsXsXsXsXsXsXsXsXsXsXsXsXsXsXsXsXsXsXsX, < , > $ o ; [ r.4.*.*.*.;.e.3.3.e.e.e.u.e.e.t.p.p.p.u.u.p.p.p.p.p.p.p.5X5X5Xp.p.p.p.p.p.u.u.u.u.u.u.u.u.u.p.u.u.e.e.e.u.u.u.p.p.p.u.e.9.e.u.u.u.u.u.u.9.9.0.q.q.9.u.q.q.q.u.e.e.9.e.w.u.u.u.u.u.u.u.u.u.u.e.e.>.>.e.e.e.e.u.u.u.e.e.3.3.;.o.3.e.;.o.;.e.e.>.9.9.7.o.o.....| ;.o.o.9.9.9.9.9.o.o.9.9.9.9.9.9.9.9.9.9.9.9.9.9.9.;.o.o.o.o.o.o.7.9.9.e.9.9.e.e.t.e.e.e.9.e.e.e.e.9.e.e.e.e.e.e.9.e.e.e.e.3.o.o.9.9.9.9.9.9.9.>.o.| } &.*.W R R =.&.=.W R R j d , = > * o o   o 4 , ; * H F.B.l R O.*.6.<.=.&.3.e.e.e.e.9.e.;.=.=.=.T H j H =.4.h h ",
":.f f :.=.R T =.-.:.:.<.y.i.u.3.o.3.u.u.e.e.3.3.&.D h g +.H.=., * = * o o o = 6 s s u d d j T =.| o.o.| ' ' o.3.;.| o.e.u.e.o.o.;.;.&.&.3.4.;.[ | 3.9.9.>.o.o.;.*.=.H j ' ;.o.>.>.| ' ;.3.e.e.u.e.e.o.e.e.e.e.3.3.>.9.e.e.e.9.9.e.e.e.9.9.e.e.e.>.o.o.>.e.e.9.e.e.3.3.4.3.3.e.u.t.t.e.3.e.y.p.p.a.a.i.p.p.p.p.p.p.i.i.y.p.t.p.p.p.p.p.p.p.p.p.p.p.p.p.5Xp.p.p.p.p.p.p.p.p.u.u.p.u.p.u.u.u.e.e.9.e.e.9.9.9.u.u.u.u.u.u.u.u.u.u.e.e.e.e.e.u.e.e.u.p.u.u.u.u.u.u.u.p.u.u.u.p.5Xp.u.u.u.t.e.t.p.p.u.e.9.9.9.e.7.o.| o.o.| | o.o.o.o.&.} J U C.Q N H R s @ O . % = 6 6 u I M.p sXsXsXsXsXsXsXsXsXsXsXsXsXsXsXsXsXsXsXsXsXsXsXsXsXsXsXsXsXsXsXsXsXsXsXsXsXsXsXsXsXsXsXsXsXsXsXsXsXsXsXsXsXsXsXsXsXsX& > > * o o > | r.4.C.b.~ <.e.t.e.e.u.t.t.u.e.p.p.p.p.u.e.p.p.p.p.p.p.p.5X5Xp.p.p.p.p.p.u.u.u.p.p.p.u.u.u.u.p.u.u.u.u.t.t.u.p.p.p.p.u.e.9.e.e.e.e.u.u.u.e.e.w.q.q.t.e.e.9.u.u.e.e.e.e.u.u.u.u.u.u.u.e.e.e.u.u.u.e.e.e.e.e.9.9.u.e.e.>.3.3.>.e.e.u.e.o.3.e.9.o.o.X.o.o.o.....;.;.o.o.e.9.9.9.9.9.o.>.e.e.9.9.9.9.9.9.9.9.9.9.9.9.;.| | 3.3.>.o.>.9.9.9.9.9.e.e.u.u.e.9.9.9.9.9.9.9.9.9.e.e.e.e.e.e.e.9.9.o.o.o.7.9.9.9.9.9.9.9.>.o.| 3.*.=.T T =.&.=.R j j j f , = , * o @   o 4 , * * H C.-.j l O.:.4.*.} O.;.3.e.e.e.e.e.3.;.| =.=.H H H =.4.h j ",
"*.f j 4.=.H T T +.:.<.6.y.p.u.3.>.e.u.u.u.e.3.3.;.' h f =.H.=., * * * o o o * 6 4 s f d f h Z | ,.3.3.| =.;.o.3.e.| | 3.u.u.3.o.;.;.3.;.&.;.=.| >.e.e.9.e.e.3.;.&.T H H ' ;.o.9.3.o.| ;.3.e.e.u.e.>.o.e.e.e.e.3.,.,.3.e.e.e.e.e.e.e.e.>.9.9.e.e.3.| o.3.e.e.9.e.u.*.' *.6.e.u.u.e.e.3.o.3.p.p.p.p.a.a.p.p.p.a.i.t.u.t.t.p.p.p.p.p.p.p.p.p.p.p.p.p.p.p.p.u.u.u.u.u.u.p.p.p.p.u.u.p.p.u.u.u.u.e.>.>.e.e.e.e.u.u.u.u.u.u.u.u.u.u.u.e.e.e.u.u.u.u.q.q.q.u.u.u.p.p.u.u.u.u.u.p.p.p.p.u.u.e.e.t.p.p.u.e.9.9.9.9.9.o.o.o.o.o.o.o.o...&.<.=.W A.XXc.B V W s @ O o : , 4 < t Y M.k sXsXsXsXsXsXsXsXsXsXsXsXsXsXsXsXsXsXsXsXsXsXsXsXsXsXsXsXsXsXsXsXsXsXsXsXsXsXsXsXsXsXsXsXsXsXsXsXsXsXsXsXsXsXsXsXsXsX& > : : % o > | 5.G.[.^.^.b.<.u.u.u.u.t.t.u.t.p.p.p.p.u.p.p.t.p.p.p.p.p.p.p.p.p.5Xp.p.q.w.w.u.p.p.p.u.p.u.u.p.u.p.p.p.u.u.u.p.p.p.p.u.e.e.e.e.9.9.u.u.u.e.9.9.q.q.e.e.e.e.u.u.e.e.e.e.u.u.u.e.e.9.e.e.u.e.e.e.e.e.e.u.e.9.9.e.e.e.9.o.>.3.e.e.p.e.e.e.e.e.9.o.o.o.o.>.o.o.o.e.e.o.9.9.9.9.9.9.9.9.o.e.9.o.>.9.9.9.9.9.9.9.9.9.9.;.[ [ o.3.o.>.9.9.9.9.9.9.9.9.e.u.9.9.9.e.9.9.9.9.9.9.9.9.e.e.e.e.9.9.9.9.9.9.9.9.9.9.9.9.9.9.9.>.o.>.o.| ' =.*.3.&.D j g d s , > , * o @   @ 6 4 ; > H -.E g k W &.&.=.} } o.e.e.e.e.e.3.e.e.3.3.:.=.R R =.<.f h ",
"&.f j 4.=.D O.=.=.:.<.3.u.u.e.u.t.u.u.u.u.e.3.3.;.' j f =.F.=., * * * ; * X * 6 4 s j H N Z [ o.3.3.3.o.;.3.>.9.>.o.o.3.e.u.3.3.>.>.3.;.} } ;.;.e.e.e.e.e.e.u.3.| ' T =.| o.9.>.3.;.;.3.3.3.e.e.e.>.9.e.e.e.e.3.3.3.e.e.e.e.e.e.e.e.e.e.e.e.e.e.o.| o.e.u.e.9.e.e.=.N =.3.3.u.u.e.e.3.3.e.p.p.p.p.p.p.p.p.p.a.i.i.u.u.t.u.u.e.p.p.p.p.p.p.p.p.p.p.p.p.p.u.u.u.u.u.u.u.u.u.p.p.u.u.u.u.u.u.p.e.>.o.3.t.e.e.u.u.u.u.u.u.u.u.u.q.q.u.u.u.w.w.w.q.w.w.q.u.u.p.p.u.u.9.9.u.u.u.p.p.p.p.u.u.e.e.u.u.u.9.9.9.9.9.9.o.o.o.o.7.7.o...} 2.2.1.U _.,XA.B D W f @ # % b b f < u I v.y sXsXsXsXsXsXsXsXsXsXsXsXsXsXsXsXsXsXsXsXsXsXsXsXsXsXsXsXsXsXsXsXsXsXsXsXsXsXsXsXsXsXsXsXsXsXsXsXsXsXsXsXsXsXsXsXsXsX& t b Y i o % D G.S.!.3X3XOX'.y.u.u.u.u.u.u.t.p.p.p.u.u.p.p.p.p.p.p.p.u.e.e.u.p.5Xp.p.w.w.u.u.u.p.p.p.p.u.u.u.p.p.p.p.p.u.u.p.p.p.u.e.u.u.u.q.9.9.e.9.9.e.9.e.u.q.9.9.9.9.q.u.u.e.e.e.u.u.e.e.e.e.e.e.e.o.o.>.9.e.u.u.e.9.9.9.e.e.9.9.e.u.e.u.u.e.9.9.9.3.o.o.o.3.3.3.o.o.3.e.e.e.7.9.9.e.e.9.9.9.9.9.7.o.o.9.9.9.9.9.9.9.9.7.7.;.o.o.o.o.o.o.>.9.9.9.9.9.9.9.e.e.e.9.e.9.9.e.9.u.e.e.9.>.e.e.e.9.9.9.9.9.9.9.9.9.9.9.9.9.9.9.9.9.9.>.>.o.;.;.3.3.&.O.H j j f , > , * o @   @ 6 4 > > H -.Q R l W O.=.;.;.3.e.e.e.e.e.;.o.e.u.i.r.<.=.T H W :.f f ",
"<.f j <.=.=.;.6.<.&.3.e.t.t.t.i.p.u.u.a.p.e.3.3.;.' j s T C.W , = = > 4 > o * 6 4 s H } } | | | o.,.,.| o.>.>.>.o.o.o.o.3.o.o.;.>.>.3.;.| | | o.>.3.e.e.9.9.e.>.| } =.| o.9.o.o.| o.3.3.;.;.;.o.3.3.e.e.e.e.e.3.o.o.;.3.e.e.e.e.e.e.3.u.u.e.e.3.o.o...o.e.e.e.e.3.;.| ;.r.e.e.u.u.t.y.u.u.p.p.p.p.u.u.t.i.i.i.i.a.p.p.p.p.e.e.e.u.p.p.u.u.p.p.p.p.p.p.p.p.u.u.u.u.u.u.u.u.p.i.i.p.p.p.p.p.t.e.e.3.e.e.e.e.u.u.u.u.u.u.u.q.u.u.u.q.q.q.w.u.u.u.t.u.u.u.u.u.u.e.9.9.9.9.u.u.u.u.u.u.u.u.9.9.u.u.u.9.9.9.9.9.>.,.| | o.o.o.| $.1.A.1.W V W A.A.R V E f @ # e x.l.g < , p Y w sXsXsXsXsXsXsXsXsXsXsXsXsXsXsXsXsXsXsXsXsXsXsXsXsXsXsXsXsXsXsXsXsXsXsXsXsXsXsXsXsXsXsXsXsXsXsXsXsXsXsXsXsXsXsXsXsXsX& e x.!.Y $ o [ I.G.F.Z.[.OXOX].6.u.e.e.e.u.u.t.p.y.y.y.p.p.u.p.p.p.p.u.e.u.u.p.p.p.p.p.p.u.9.9.u.p.u.q.u.u.u.u.p.p.p.p.u.u.u.p.p.e.9.u.u.u.q.9.9.9.9.9.e.e.e.u.u.9.q.e.e.e.e.9.e.u.u.u.u.u.e.e.e.e.e.>.o.>.9.9.e.u.u.e.9.9.u.e.e.e.e.u.u.u.u.q.9.9.9.9.3.o.o.;.| ' Z [ o.e.e.9.e.9.7.e.e.e.e.9.9.e.e.e.7.o.7.9.9.e.e.9.9.9.9.o.o.o.>.e.o.o.o.o.o.o.>.9.e.9.e.e.e.e.e.e.9.e.e.e.e.e.e.o.o.e.e.9.9.9.9.e.9.9.9.9.9.9.9.9.9.9.9.9.9.9.9.e.3.3.3.3.3.| ' D D R g < , , o X o   o 6 4 > , H C.-.W j R ' ;.3.e.e.e.e.e.e.e.o.o.e.u.e.3.=.H H j T :.f f ",
"<.h j <.=.| r.y.3.3.e.u.t.t.t.t.e.e.p.p.p.u.3.=.' Z h s H C.W , > > = > * o * 6 4 4 j [ ....| | o...| } | o.>.o.o.>.9.9.3.o.o.o.>.>.3.3.;.;.o.o.o.o.o.o.o.o.7.3.&.=.' | | 9.| [ [ ;.3.3.;.T D } ;.3.e.e.e.e.3.3.;.| | ;.e.u.e.e.e.e.o.o.e.e.9.9.e.3.o.o.e.e.e.9.>.3.e.u.u.e.e.e.i.p.p.p.e.e.u.p.p.p.i.y.u.p.i.p.p.p.p.p.p.u.e.e.e.e.e.u.u.p.u.e.e.e.e.e.u.u.t.t.t.t.u.t.e.>.3.u.t.t.p.p.e.e.e.u.e.e.e.e.e.u.u.u.u.e.e.9.e.e.u.u.u.u.e.e.u.e.e.3.e.e.u.e.e.t.9.9.9.9.9.u.u.e.9.9.e.u.u.e.e.9.u.9.9.9.9.9.9.t.5.A.A.A.2.$.$.1.C.2.W Z Z V ~ A.W V E g @ # i ~.g.i , > e b w sXsXsXsXsXsXsXsXsXsXsXsXsXsXsXsXsXsXsXsXsXsXsXsXsXsXsXsXsXsXsXsXsXsXsXsXsXsXsXsXsXsXsXsXsXsXsXsXsXsXsXsXsXsXsXsXsXsX* i m.~.Y $ O ) y.y.3.| =.2.].'.2.e.e.3.3.e.e.e.y.@X@X+Xi.u.0.p.p.p.p.e.e.u.u.u.u.p.p.p.p.u.9.9.9.u.q.q.q.u.u.u.u.p.p.u.u.u.u.u.u.e.9.q.u.u.u.q.9.9.9.9.9.9.9.9.u.9.e.3.3.3.&.| 9.u.u.u.u.u.9.9.9.e.e.9.9.u.u.9.e.u.u.e.9.e.u.e.9.e.e.u.u.u.e.u.u.9.9.e.e.>.o.>.o.) C ..e.e.u.9.9.e.e.e.o.e.e.e.9.e.e.e.e.7.7.9.9.u.e.9.9.9.9.9.o.>.9.9.9.>.9.o.o.o.o.9.e.e.e.;.o.;.e.e.9.9.e.e.e.9.o.o.o.e.e.9.9.9.9.e.9.9.>.o.o.o.o.>.9.9.9.9.9.e.>.>.9.o.3.3.3.o.} [ D j f < , 4 o X o   @ 6 4 > , H C.-.R g H | 3.e.e.e.u.e.e.e.e.o.| o.e.3.&.D N j g W :.f h ",
"<.h j 4.=.' ;.e.e.u.u.t.e.t.t.e.u.p.e.e.u.p.3.| [ Z h f T C.W , > = * o o X * 4 4 4 f C | o.o.o.o.| } } ' | ;.o.o.e.9.e.e.;.o.;.3.>.3.3.3.;.3.e.>.e.;.o.;.o.o.;.| D O.=.o.7.| [ ' ;.3.3.;.T D =.;.3.9.e.e.3.3.e.r.3.3.e.u.u.e.e.e.e.o.9.e.u.e.e.u.e.e.e.e.e.e.e.e.e.u.u.e.e.9.;.e.u.u.p.p.e.e.u.u.p.i.u.e.t.i.p.p.p.p.p.p.p.i.p.u.e.e.u.u.p.u.9.9.9.9.9.e.e.e.e.e.t.u.u.9.{ ..3.u.t.u.e.e.9.e.u.u.e.e.e.e.e.u.u.u.e.e.9.9.e.e.u.e.e.3.o.| } ' | o.e.e.e.e.e.e.u.u.u.u.u.u.e.o.o.9.t.u.e.t.9.t.e.9.9.9.9.e.y.'._.[._.S.2.~ 1.1.W D | ;.&.1.C.W R E B @ O P ).N.i 4 > t b t sXsXsXsXsXsXsXsXsXsXsXsXsXsXsXsXsXsXsXsXsXsXsXsXsXsXsXsXsXsXsXsXsXsXsXsXsXsXsXsXsXsXsXsXsXsXsXsXsXsXsXsXsXsXsXsXsXsX> P /.~.Y $ O ( t.t.9.o.o.o.;.5.5.3.e.t.t.t.t.t.+X#X#X+Xt.u.p.u.p.p.u.e.e.u.u.u.u.p.p.p.p.p.u.q.q.u.u.u.u.u.u.u.p.p.p.u.u.u.u.u.u.e.9.q.q.w.q.9.9.9.9.9.9.9.o.7.9.e.3.[ C N D J 3.e.u.u.u.e.9.9.9.e.e.e.e.e.e.e.e.e.e.e.e.e.9.o.o.9.e.u.u.e.e.u.u.u.9.9.9.9.e.e.e.>.o.9.e.e.u.9.9.9.e.e.7.e.u.u.e.e.e.e.e.e.9.9.e.e.e.7.9.9.e.9.9.9.9.9.9.9.9.e.o.o.o.>.e.e.>.o...o.e.e.e.e.e.e.e.>.o.;.3.e.e.9.9.9.9.9.9.>.>.9.o.o.o.o.9.9.9.o.o.o.>.>.>.o.o.o.o.,.o.| N f s < 4 4 * o o   * 6 4 > > B -.Q j g D | 3.e.9.q.e.e.9.e.e.;.| | o.3.&.} D N g W :.h h ",
"<.j N <.=.' } | 3.e.u.u.u.u.e.u.u.u.u.t.t.e.e.3.o.[ j f T 4.J , * = * o O o * 6 4 < f N [ o.o.o.o.o.} D D } ' [ o.e.e.9.9.7.o.;.;.3.;.=.=.;.8.7.>.9.>.o.o.o.o.| ' H H =.;.o...| o.o.,.,.o.o.| | | ;.;.;.;.3.3.e.u.t.p.p.t.e.e.e.e.3.e.e.e.e.e.e.u.u.e.e.e.9.9.9.9.e.e.e.q.e.e.o.o.3.e.t.u.e.u.p.u.p.i.3.3.u.u.u.p.p.5Xp.p.p.p.p.u.e.e.u.u.u.u.u.u.u.u.9.e.u.u.e.e.e.9.u.9.9.e.p.p.p.u.9.9.e.e.e.e.e.e.e.e.e.e.u.9.>.9.e.e.e.e.q.u.e.e.o.| o.3.3.;.;.e.e.9.u.u.u.u.u.u.u.u.u.e.9.t.e.e.9.e.9.0.e.e.9.>.>.9.3.6.2.2.1.1.1.1.-.W W &.o.3.6.D.2.W R E j @ o I m.j.g < * > f > o sXsXsXsXsXsXsXsXsXsXsXsXsXsXsXsXsXsXsXsXsXsXsXsXsXsXsXsXsXsXsXsXsXsXsXsXsXsXsXsXsXsXsXsXsXsXsXsXsXsXsXsXsXsXsXsXsX< Y ~.m.b $ O C t.e.7.7.X.X...4.2.3.e.t.t.y.y.y.+X&XI.y.i.p.t.u.u.e.e.e.u.u.u.u.u.u.u.u.u.w.p.p.p.w.w.q.q.u.u.u.u.u.u.u.u.q.p.u.u.e.9.9.w.q.q.9.9.9.9.9.9.o.Z Z &.3.| L ) e.e.e.e.u.u.e.e.e.9.7.9.9.e.9.9.9.e.e.u.e.9.e.e.o.o.o.o.e.e.;.;.e.e.u.u.9.9.9.9.9.9.u.u.w.q.9.9.9.q.q.9.9.e.e.e.e.e.u.u.e.3.3.e.e.9.9.e.;.o.o.e.9.9.9.3.>.7.9.9.9.9.9.9.9.9.9.9.9.9.9.o.;.e.e.e.9.e.e.3.3.e.e.e.e.e.3.o.o.>.e.9.9.9.9.e.9.>.9.9.9.9.o.o.o.7.o.o.o.| [ | | | } Z j s , s 4 $ o o . * 6 4 * > g Q W j g ' ;.3.e.u.u.u.e.e.e.>.>.o.o.o.o.o.| D N N =.<.j h ",
"4.j N 4.=.Z ' | ,.e.u.e.e.e.e.e.u.e.e.e.e.u.e.e.3.| Z f O.D.=., * = * o O o * 6 s s g H [ ..o.o.>.3.| | } ' [ [ | o.o.o.;.;.;.;.;.&.D D ' =.| o.o.>.9.o.o.o.o.| ' H H T =.o.o.3.3.3.3.3.3.3.;.| | ;.;.;.o.o.;.o.3.e.t.e.e.e.3.3.e.e.e.e.e.e.9.9.u.u.e.e.e.9.e.u.u.>.>.9.u.u.e.e.o.o.e.e.e.e.u.p.u.t.i.;.3.y.i.p.p.p.p.p.p.p.p.p.u.e.u.u.u.u.u.u.u.u.p.u.u.u.u.e.e.t.e.u.u.e.p.a.a.p.e.e.e.e.e.e.e.9.>.>.e.e.e.u.u.e.e.e.u.u.u.u.q.e.e.3.3.3.u.e.;.o.e.e.u.u.u.e.e.e.u.u.q.q.e.9.9.9.9.9.9.9.u.u.e.9.>.o.>.3.3.3.<.3.3.&.} J $.$.| | <.D.A.1.W P E H * @ p d.b f 4 % & , % . sXsXsXsXsXsXsXsXsXsXsXsXsXsXsXsXsXsXsXsXsXsXsXsXsXsXsXsXsXsXsXsXsXsXsXsXsXsXsXsXsXsXsXsXsXsXsXsXsXsXsXsXsXsXsXsXsX> b x.d.i % O c t.e.o.o. . .| 2.A.3.o.>.3.3.e.e.6.6.6.e.t.p.u.u.u.e.e.u.u.e.e.e.t.u.q.w.p.p.p.u.u.u.w.q.q.u.u.u.u.u.u.u.e.e.u.q.u.e.9.q.w.q.q.9.q.9.9.9.9.;.D N D o.;.o.>.e.u.e.9.q.u.q.q.u.e.9.9.9.9.9.9.9.e.u.9.9.e.e.o.o.e.9.e.e.>.o...9.e.e.9.9.9.9.9.9.e.e.u.q.q.9.e.e.e.9.9.e.e.9.e.e.u.u.3.o.o.9.e.e.e.e.e.;.;.e.e.9.9.9.| | o.9.9.9.9.9.9.9.9.9.9.9.e.e.e.e.e.3.e.e.e.3.o.o.3.e.e.9.9.>.o.| o.,.o.>.9.9.9.9.9.9.9.9.o.o.o.o.o.o.>.>.o.[ [ | ..| [ j s , 4 , o @ @ . o 4 4 * > B :.+.H N ' ;.>.e.e.e.3.3.e.e.e.3.o.o.o.o.o.| ' H H =.<.j f ",
"4.j N 4.=.Z ' | o.e.e.e.e.3.e.u.p.e.9.e.u.u.e.e.3.| C f O.D.=., * * @ X o o * f s s h Z [ ..o.o.3.3.o.| | &.| | | o.o.;.;.;.;.;.&.} D D =.&.o...o.o.>.o.o.o.o.o.} H g g j Z o.e.e.o.o.3.3.e.3.| | =.&.| ;.3.3.;.| 3.3.3.3.e.3.3.e.u.e.e.e.e.9.9.e.u.u.e.9.e.u.u.e.o.o.9.u.u.u.e.e.e.9.9.9.e.p.p.u.p.p.e.e.t.t.i.p.p.p.p.p.p.i.e.e.u.u.u.p.u.p.u.u.u.u.u.u.u.u.u.t.t.e.u.u.e.t.p.p.e.e.u.p.t.u.e.9.9.3.e.e.e.u.u.u.u.u.u.u.u.u.u.9.e.e.>.>.>.e.e.9.9.e.u.u.u.e.9.9.9.9.u.9.9.9.9.9.9.9.9.9.e.u.u.9.9.o.o.>.9.e.e.e.o.o.) C J *.=.Z | <.A.~ Q W P I B * @ k h.b s 4 & % > $ . sXsXsXsXsXsXsXsXsXsXsXsXsXsXsXsXsXsXsXsXsXsXsXsXsXsXsXsXsXsXsXsXsXsXsXsXsXsXsXsXsXsXsXsXsXsXsXsXsXsXsXsXsXsXsXsXsX* y n n i % @ 0 e.e.| o. .) } A.A.&...o.o.o.,.3.e.e.t.u.u.u.u.u.u.e.u.e.u.u.e.3.>.9.9.q.u.u.u.u.u.u.u.w.q.9.9.9.9.e.u.e.9.9.9.9.q.q.9.9.9.9.9.9.9.9.9.9.9.3.=.H Z o.o.,.>.e.9.9.9.q.q.q.9.u.u.q.9.9.9.9.9.9.9.q.q.9.9.o.o.o.9.e.e.9.>.>.,.e.e.e.e.9.9.e.9.e.e.e.e.q.q.9.e.e.9.9.9.e.9.9.e.e.e.3.3.3.e.e.e.9.9.e.e.;.o.>.e.e.e.o.| ..o.>.9.9.9.9.9.9.9.9.e.e.9.e.e.e.;.| ;.e.e.;.;.o.3.e.e.e.e.3.o...| o.o.o.o.o.o.7.9.9.9.9.o.o.o.>.9.9.9.9.o...[ ....| [ j 4 , 4 , o @ o . o 4 > * * N 4.:.Z H | o.>.9.9.9.>.>.9.e.e.3.o.9.9.e.e.;.' N B W <.h f ",
"6.h j 4.O.Z D | ;.3.e.e.3.e.e.u.u.9.9.9.u.u.u.e.>.| j h W D.J , > * @   X X * f f s f j [ | o.o.>.o.....o.,.o.| | o.>.3.3.3.;.>.>.;.&.| | | o.o.o.o.>.>.>.3.;.;.' N N N Z Z o.3.3.o...o.o.o.o.o.| | | | ;.3.e.;.| 3.3.e.e.e.3.3.9.e.u.p.e.e.e.e.u.u.u.e.e.e.e.e.9.>.e.e.e.u.p.u.e.e.e.9.e.u.p.p.t.p.i.u.e.e.e.u.u.e.e.p.p.p.p.e.e.p.p.u.p.p.p.p.u.u.u.u.u.u.u.u.u.u.u.u.u.e.e.e.e.e.e.u.e.e.e.e.e.e.e.e.e.e.u.u.u.u.e.u.u.u.u.q.q.9.e.9.9.9.9.9.9.u.u.9.9.u.u.9.9.9.9.q.q.q.q.9.9.9.9.9.e.e.0.9.9.9.>.o.>.9.9.9.o...C h h W -.W W &.2.H.Q Y -.R P g * @ P l.P < 4 & % : $ . sXsXsXsXsXsXsXsXsXsXsXsXsXsXsXsXsXsXsXsXsXsXsXsXsXsXsXsXsXsXsXsXsXsXsXsXsXsXsXsXsXsXsXsXsXsXsXsXsXsXsXsXsXsXsXsXsX= i b p i % o 0 e.3...[ ) ) } A.A.$.| 3.3.3.3.>.e.e.e.u.e.e.u.p.i.u.u.9.q.u.e.3.o.9.e.u.u.u.u.p.p.u.w.q.9.9.9.9.>.e.e.e.9.9.9.9.9.9.9.9.9.9.9.9.9.9.9.9.9.9.| } | 7.o.| o.>.9.9.9.q.q.q.q.q.9.9.e.9.9.9.9.u.9.9.u.e.>.X.o.o.9.9.9.>.e.e.3.9.9.9.e.e.9.9.9.9.e.u.e.u.u.9.9.9.9.9.9.e.e.9.e.e.e.o.3.e.p.p.u.u.u.u.u.3...o.>.e.e.>.o.| o.o.e.9.9.9.9.9.9.9.e.e.e.e.u.3...[ ;.3.e.e.3.3.e.e.e.e.e.e.,.| | ,.,.o.o.o.o.7.o.9.o.o.o.o.9.9.9.9.>.3.3.o.[ ..| ..C h 4 4 4 4 o o o . o 4 3 * = N 4.:.Z Z | o.9.e.u.e.9.e.e.e.e.>.9.9.9.e.e.;.O.N B W 4.h f ",
"6.f j 4.O.j Z H } ;.3.3.3.e.t.u.e.9.9.9.e.u.e.e.| [ h f W D.D > * * @ . X X * f s s s h Z ' | | | | o.o.>.>.o.o.o.>.e.e.e.3.9.9.9.3.3.o.o.o.>.>.o.o.o.o.o.=.=.=.D j H =.;.| o.e.e.e.>.e.e.e.e.3.;.;.| o.;.3.3.;.3.e.r.t.t.e.e.3.>.9.e.e.9.e.e.e.9.u.e.9.e.e.e.e.9.9.e.e.e.u.p.u.e.e.e.e.p.u.u.t.t.p.p.p.p.e.e.e.e.e.e.e.p.p.t.e.e.u.p.u.u.u.p.p.u.u.u.u.u.u.u.u.u.u.u.u.e.e.e.e.e.e.9.9.e.9.9.e.e.e.e.e.e.e.e.u.u.e.9.e.e.u.u.u.u.e.9.9.e.9.9.q.9.q.u.9.q.9.9.9.9.9.9.q.q.9.9.9.9.9.9.e.e.t.t.9.9.9.9.o.>.>.>.>.| Z h h B E E W W =.1.2.Q Q Q B B g * * P d.p u s * % & $ . sXsXsXsXsXsXsXsXsXsXsXsXsXsXsXsXsXsXsXsXsXsXsXsXsXsXsXsXsXsXsXsXsXsXsXsXsXsXsXsXsXsXsXsXsXsXsXsXsXsXsXsXsXsXsXsXsX> i a p i % o 0 e.3.| ' _ _ T C.Z.1.<.e.3.;.o.o.e.e.y.u.e.e.t.e.3.e.e.e.u.u.u.e.e.e.e.e.u.u.p.p.w.w.w.w.u.e.e.e.e.e.e.e.e.9.e.e.e.9.9.9.9.9.9.9.9.9.q.9.9.9.o.o.9.9.o.{ ..>.9.9.9.9.9.9.e.9.9.9.9.9.9.9.9.9.9.9.9.9.7.o.o.e.e.9.o.o.9.e.9.9.9.9.9.e.e.o.9.9.e.u.u.u.e.9.9.9.9.9.9.e.e.9.9.e.e.e.3.3.t.p.p.u.u.p.u.3.o.>.9.9.e.e.e.3.o.o.9.9.9.9.9.9.9.e.9.9.9.e.e.e.o.| o.e.9.e.e.e.t.t.t.e.e.e.3.3.3.3.3.o...o.9.>.o.o.o.o.o.9.9.9.o.o.o.o.;.;.| | ;.} Z h 4 4 4 4 o o @ X * 6 4 > = j :.=.N Z ' o.e.e.t.u.e.3.3.3.3.e.e.9.9.o.| } H H j W 4.j h ",
"5.f h 4.O.j j j H =.;.3.9.e.e.e.e.e.e.e.e.e.e.;.' Z h f T D.T , * = * @ @ X * f s s s f j H Z Z | | o.3.>.>.9.e.e.e.3.;.;.3.e.9.>.>.3.o.o.3.e.;.[ [ | | Z g H D H N Z | ;.o.o.e.e.e.e.e.9.9.e.e.3.3.3.e.e.e.e.e.e.e.e.u.t.e.e.e.e.9.9.>.9.e.e.e.9.t.u.e.e.u.u.u.9.q.u.e.e.e.p.p.e.e.u.p.u.u.e.e.t.p.p.p.p.p.p.p.u.u.e.u.p.p.p.p.u.e.u.u.u.p.p.p.p.u.u.u.u.u.u.u.u.u.u.q.e.9.e.9.9.e.e.e.e.>.>.u.u.e.u.u.u.u.u.u.u.e.e.e.e.e.e.e.e.9.9.9.e.9.9.q.q.q.u.u.u.9.9.e.e.9.9.9.q.9.9.9.9.9.e.e.e.e.e.9.e.e.;.| | | | | | [ j h N W Q R Z C C D P E P i g g * * P d.b f f , & & o . sXsXsXsXsXsXsXsXsXsXsXsXsXsXsXsXsXsXsXsXsXsXsXsXsXsXsXsXsXsXsXsXsXsXsXsXsXsXsXsXsXsXsXsXsXsXsXsXsXsXsXsXsXsXsXsXsXsXe a n g & o C e.3.' D H T W c.Z.:.&.| } [ | o.e.y.y.e.e.e.3.&.} | 3.e.u.u.e.e.e.e.e.9.e.u.u.u.u.t.u.u.e.u.p.p.u.e.e.e.u.e.u.e.e.9.9.9.9.9.9.>.o.9.e.9.9.o.o.o.9.7.o.{ ..o.9.>.9.9.9.9.9.9.9.9.9.9.9.9.9.9.9.9.9.7.9.9.9.9.9.o.o.>.9.e.9.e.9.e.9.e.e.e.9.9.e.e.u.u.e.9.9.e.9.9.e.e.e.9.9.9.e.e.3.o.e.u.u.e.u.u.9.e.9.e.9.9.9.e.e.e.>.>.>.9.9.9.9.9.9.9.9.9.9.9.e.e.e.e.e.e.e.e.3.>.e.e.e.e.e.3.e.e.e.e.3.o.o.>.>.o.o.o.o.o.o.o.9.9.o.) ..| | =.;.;.=.' Z j s 4 4 > . o O o > h 6 * * g :.=.j N ' o.>.e.e.e.3.3.;.;.3.e.e.9.o...[ D H j j =.4.j h ",
"r.h h 4.=.H O.R R =.3.e.e.9.9.9.t.p.t.e.e.e.3.=.' Z g h =.G.=., * * > > * o * s s s f g j H D Z } &.o.o.>.9.9.e.e.3.&.[ [ *.e.e.3.3.3.3.e.e.;.| } | ;.&.j d k D T D Z | o.9.e.e.9.e.e.9.9.9.o.o.o.o.3.e.e.e.e.e.e.9.e.t.e.e.e.e.e.e.9.o.e.u.u.e.e.t.p.u.u.u.u.u.u.p.u.u.e.e.e.p.p.u.p.u.e.u.u.t.t.p.p.p.u.e.p.p.p.p.u.p.p.p.p.p.p.t.e.u.p.p.p.p.p.u.u.u.u.p.p.u.u.u.u.u.u.e.e.9.e.e.e.e.e.>.3.t.u.e.u.u.u.u.u.u.u.e.e.e.u.e.9.9.e.e.t.e.e.e.e.9.9.u.e.u.q.q.q.e.u.u.9.9.q.9.9.9.9.e.e.o.o.o.3.e.e.;.=.H j R =.&.;.o.) C H =.W N h ( ) C R ~ W g j d * o P l.I g s = % : $ . sXsXsXsXsXsXsXsXsXsXsXsXsXsXsXsXsXsXsXsXsXsXsXsXsXsXsXsXsXsXsXsXsXsXsXsXsXsXsXsXsXsXsXsXsXsXsXsXsXsXsXsXsXsXsXsXsXsXw a n I = @ C 6.<.D R P W Q v.c.W j 0 h C | ,.;.<.4.3.3.;.;.T T =.3.e.q.q.u.9.9.9.e.e.9.e.u.t.y.e.3.&.;.u.u.u.u.9.9.u.e.e.e.e.9.9.9.9.9.e.9.o.o.o.;.o.o.o.o.>.9.7.o.| | o.o.>.9.9.e.9.9.9.e.e.9.e.e.e.9.9.9.9.9.9.7.9.9.9.>.o.7.e.e.u.q.u.u.u.e.e.e.u.e.e.e.e.u.u.e.e.u.u.u.u.u.u.e.9.9.9.9.u.u.e.e.u.e.9.e.t.t.9.9.9.9.e.e.o.9.u.e.9.>.9.9.9.9.9.9.9.9.9.e.e.e.e.e.9.9.e.e.e.e.o.o.e.u.e.e.3.e.e.e.9.>.>.>.>.o.o.o.o.9.o.o.o.9.9.o.| | } [ _ ' =.=.D H Z f , , > X X O o > h 6 = * H D.:.N g H | o.e.e.e.3.*.;.;.3.e.e.9.o.} =.=.T H H =.D.H j ",
"r.f f 4.=.H D D &.4.3.3.3.3.&.=.e.a.u.u.u.3.;.&.} } N f =.H.=.4 * * @ > * . * 4 s s f h D | [ Z Z } | | | | 3.e.e.e.o.o.3.e.e.3.3.;.;.;.;.o.| | o.o.o.o.' Z D } } D D | o.e.9.9.9.e.9.9.9.9.o.o.| | >.e.e.e.9.e.e.u.e.3.3.3.3.e.u.e.e.e.e.e.e.u.u.e.p.p.p.p.p.u.u.u.p.u.9.9.e.u.p.p.u.e.e.e.u.p.p.u.e.e.u.u.u.p.p.p.p.u.u.u.p.u.u.u.e.u.p.u.p.p.u.t.t.u.u.u.u.p.p.u.u.e.u.9.9.e.e.e.e.u.e.>.,.e.e.e.9.e.u.u.u.u.e.9.9.9.e.e.9.>.>.e.t.u.e.e.9.9.9.e.9.0.t.e.3.e.u.u.q.q.9.9.o.o.9.e.;.| [ | 3.3.&.' T W W R T =.;.o.| j B R W R V Z Z B Y A.W f i f $ . s P B f s , : t $ . sXsXsXsXsXsXsXsXsXsXsXsXsXsXsXsXsXsXsXsXsXsXsXsXsXsXsXsXsXsXsXsXsXsXsXsXsXsXsXsXsXsXsXsXsXsXsXsXsXsXsXsXsXsXsXsXsXsX& , , , * o C 6.4.B.j.h.x.Z.b.U Z j C ) o.e.e.*.*.*.*.3.e.e.*.;.o.>.9.e.e.9.e.e.e.e.3.3.3.>.e.r.:.R R &.e.e.e.e.e.e.e.u.3.} } 3.e.9.9.9.9.9.o.| } o.| } | o.7.7.o.o.| | | o.o.7.9.o.o.3.e.9.e.e.9.9.9.o.o.;.o.o.o.>.o.o.o.9.9.e.9.>.9.9.e.e.e.e.e.e.9.9.9.e.e.e.9.9.9.e.e.e.u.u.u.e.e.9.9.e.u.e.o.o.e.e.e.u.u.u.u.9.q.w.u.9.o.o.3.3.>.e.e.9.9.9.e.9.e.e.3.9.9.9.9.9.e.e.9.9.>.9.e.>.>.e.3.3.3.3.e.e.9.>.>.9.7.o.o.o.o.o.9.9.9.9.9.o.[ ..| Z N V D H H j j f , 4 > . X O o > h f = * H D.D.T g Z [ | 3.3.3.=.W =.3.e.9.9.3.;.o.| } H j j =.P.N f ",
"r.f f 4.=.H D ' &.3.3.3.3.3.&.' 3.p.u.u.u.e.3.3.&.J j f +.H.*.6 * * * > * X * f s f g h D ;.;.' Z } | | | o.>.e.e.e.e.e.e.e.o.o.| ;.;.=.| | o.o.9.9.7.o.| | ' | } [ [ o.e.e.9.>.>.9.9.9.9.9.9.3.o.o.o.e.e.9.9.9.e.u.e.e.e.e.e.9.9.9.9.e.e.e.9.9.e.u.e.e.u.u.u.u.u.u.u.u.e.e.e.u.e.u.e.e.e.u.p.p.u.p.p.e.p.p.p.p.u.e.e.u.p.p.p.p.u.u.u.u.p.u.p.p.u.t.e.u.u.u.u.p.p.u.u.e.9.9.9.u.e.e.e.9.e.3.3.e.e.e.e.e.u.u.u.u.e.9.9.e.e.e.e.>.9.e.e.e.9.9.9.9.9.e.9.9.e.e.o.9.e.u.u.e.7.o.o.o.e.e.o.| o.3.o.o.| =.=.&.=.=.*.&.3.>.o.| Z H E I E ~ 1.~ b.c.B u f f * . * > u s f t u d & . sXsXsXsXsXsXsXsXsXsXsXsXsXsXsXsXsXsXsXsXsXsXsXsXsXsXsXsXsXsXsXsXsXsXsXsXsXsXsXsXsXsXsXsXsXsXsXsXsXsXsXsXsXsXsXsXsXsX> & $ $ o o C 6.1.A.[.|.[.c.U B Z Z | ,.3.e.e.6.<.<.*.<.3.e.3.o.3.3.3.=.=.o.e.e.e.o.;.e.e.e.e.3.=.W =.3.e.u.u.e.e.3.3.e.3.&.} 3.e.9.>.o.3.3.;.| ;.3.&.} | o.7.7.>.>.o.| | | | o.o.o.o.o.e.e.e.e.e.9.e.o.' D | o.3.o.....3.9.9.9.>.>.9.9.u.e.9.9.9.9.u.9.9.9.e.e.9.9.e.u.e.9.e.u.9.9.9.9.q.9.u.9.o.9.e.u.u.u.p.u.e.e.w.u.9.9.e.o.o.o.>.e.e.e.e.9.e.e.e.e.e.e.e.e.9.9.9.e.>.9.9.e.e.e.e.e.3.3.3.3.3.>.>.3.>.e.>.o.o.o.o.o.o.o.o.>.o...) [ [ Z Z D D Z H j g s , , > X o @ o > h 6 > > H D.D.H f N [ o.3.e.3.=.' | 3.e.9.9.e.>.o.;.;.O.H j =.5.N f ",
"4.f f 4.=.H D } &.;.3.e.e.e.=.D ;.i.p.t.t.t.e.e.o.[ h f +.H.=.4 * * * > * X * f s s f g Z ;.3.| | | o.o.o.o.>.3.9.9.e.e.e.e.e.o.o.| =.O.' | o.o.7.e.9.o.o.;.| | | ..o.o.e.e.e.>.>.9.9.9.9.9.9.e.3.o.o.9.9.9.9.e.e.e.9.9.e.e.e.9.9.9.9.9.9.e.e.9.e.e.e.e.e.e.u.u.u.u.u.u.u.e.e.e.e.u.p.e.e.p.p.p.p.p.t.u.u.t.t.p.p.u.u.p.p.u.p.u.u.u.u.u.u.p.p.u.u.t.u.u.u.u.p.p.p.u.e.9.9.9.9.u.e.e.9.>.>.3.e.e.e.u.e.e.9.q.u.e.e.e.e.e.e.e.e.3.e.e.e.9.9.9.9.9.9.9.9.9.9.e.9.9.e.e.3.;.' ' | o.e.9.o.3.e.e.e.o.o.o.;.&.;.<.<.;.o.>.>.o.) Z W I I Y E E Y I f h h f > o o o , h j f g P : . sXsXsXsXsXsXsXsXsXsXsXsXsXsXsXsXsXsXsXsXsXsXsXsXsXsXsXsXsXsXsXsXsXsXsXsXsXsXsXsXsXsXsXsXsXsXsXsXsXsXsXsXsXsXsXsXsXsX, * * @ o @ C <.$.U c.Z.~ V N C { | 3.3.6.t.y.y.6.<.<.&.;.e.e.o.3.3.;.D T o.3.e.3.o.o.3.e.e.e.3.=.W *.3.e.u.e.e.>.3.9.e.e.<.<.3.e.>.o.&.=.=.=.=.;.;.&.&.| o.7.7.9.>.,...| | } | o.o.o.o.>.>.>.3.e.e.3.| C N | 3.e.3.o.o.e.9.9.o.>.9.e.e.u.e.9.9.9.9.q.9.9.9.9.9.9.e.t.u.e.9.9.9.9.9.9.9.q.q.e.9.o.e.u.u.w.p.u.u.e.e.q.q.9.9.e.e.o.o.e.e.9.9.9.9.9.9.9.o.o.9.e.9.9.9.9.9.o.o.e.e.e.e.e.3.>.3.3.3.3.3.3.3.3.3.3.o.o.o.o.| ..| o.o...) ) [ [ ) ..| | [ Z j f < > , > o o @ o > h 6 ; > N C.:.g h Z | o.3.e.e.;.;.>.e.e.9.9.9.>.>.3.3.=.Z j =.5.N f ",
"3.f s 4.&.D ' | ;.;.3.e.e.e.;.=.;.y.t.t.t.u.u.e.o.[ h f +.H.=.4 * * * 3 > o * 6 4 < f H Z | 3.;.o.,.>.e.e.>.>.>.>.>.e.e.e.9.e.>.o.| =.T O.;.o.o.o.;.;.o.| } } | o.o.o.e.e.e.3.o.o.9.e.e.9.9.9.e.e.e.9.9.9.9.e.e.e.e.9.9.e.u.e.e.e.e.9.9.9.e.e.e.e.e.e.e.e.e.u.u.u.p.p.p.p.u.e.e.e.u.p.u.e.u.p.p.p.p.u.e.e.3.e.p.p.p.p.p.p.p.u.u.u.u.u.u.u.p.p.u.u.u.u.u.u.u.p.p.p.p.e.e.e.e.e.e.e.9.9.>.>.e.e.p.u.u.e.e.e.9.e.e.e.e.u.e.e.>.e.e.e.e.e.e.9.9.9.9.9.e.9.9.9.u.u.e.e.o.| D H D =.3.e.9.9.e.e.e.e.3.o.o.;.;.o.;.;.| | o.>.9.o.| J R V P N f f g N D B u * O @ @ 4 j N f g E t o sXsXsXsXsXsXsXsXsXsXsXsXsXsXsXsXsXsXsXsXsXsXsXsXsXsXsXsXsXsXsXsXsXsXsXsXsXsXsXsXsXsXsXsXsXsXsXsXsXsXsXsXsXsXsXsXsXsX, > * @ O @ C 6.;.' H H Z ) [ [ } &.&.*.3.y.y.4.4.<.<.;.;.3.3.3.3.e.;.;.o.3.e.u.e.e.e.e.e.e.e.3.=.W =.3.e.e.e.e.e.e.e.e.3.*.:.6.t.e.;.=.R E T =.| ;.&.} | o.7.9.9.9.>.o...| } } &.;.3.8.3.o.o.>.9.3.3.o...| e.e.e.9.9.e.e.9.9.9.e.e.e.e.u.e.9.9.9.9.u.9.9.9.9.9.9.e.e.e.9.9.9.9.9.9.9.9.q.u.e.9.e.u.u.q.q.u.u.u.e.9.9.9.9.9.9.e.9.9.9.e.e.e.e.e.e.9.o.o.o.o.9.9.>.>.9.9.9.;.o.3.e.e.3.e.e.3.3.3.;.&.<.o.o.o.o.o.o.o.o.| | | o.o...L ) ..) ) o.o.| ..[ j f < , < > o o @ o > h 6 > > N :.+.g h Z | o.3.e.e.e.3.>.9.9.9.9.9.9.9.e.3.&.D H =.5.C f ",
"3.h f 4.*.D O.&.;.3.3.e.3.3.3.;.3.e.u.e.e.w.u.u.3.| j s =.H.=.4 3 > * 6 3 o * 6 < , f H Z | 3.3.o.o.>.e.9.>.>.>.>.9.9.e.9.>.e.3.3.3.=.D D =.o.o.;.;.;.| Z N H } | o.9.e.9.o.o.o.o.>.e.e.9.e.>.>.e.e.e.9.9.9.9.e.e.9.9.9.9.9.9.e.e.e.9.9.9.e.u.u.p.p.u.e.e.e.u.u.u.u.p.p.p.p.e.e.e.u.p.u.u.u.p.p.p.u.u.u.u.e.e.u.p.p.e.e.u.p.u.u.u.p.p.p.p.p.p.u.u.u.u.u.u.u.u.u.p.e.e.>.3.e.u.p.e.e.e.3.3.e.e.e.u.p.e.e.e.9.9.e.3.o.e.e.>.>.e.e.e.e.e.e.e.9.9.e.e.8.7.9.e.u.u.e.e.o...N H D &.;.e.9.9.e.e.3.o.o.o.3.3.o.| ..| | } [ | o.o.| } } | } C 9 4 j } J H g * X @ > 4 j N u i E t sXsXsXsXsXsXsXsXsXsXsXsXsXsXsXsXsXsXsXsXsXsXsXsXsXsXsXsXsXsXsXsXsXsXsXsXsXsXsXsXsXsXsXsXsXsXsXsXsXsXsXsXsXsXsXsXsXsXsX4 > * O o @ C 6.e.| D N Z | L J =.*.*.&.<.6.<.*.<.3.3.3.;.o.&.3.e.e.u.u.9.e.e.e.u.p.p.e.e.e.e.e.;.| | e.e.e.e.e.e.e.e.e.;.=.O.=.3.y.&.D R T =.;.o.| | } ..o.e.e.e.e.e.>.o.o.o.} } &.*.;.3.o.o.9.o.o.3.9.9.e.e.e.e.9.9.9.9.9.9.9.e.e.e.9.9.9.9.9.9.9.9.9.9.9.9.9.9.e.e.9.9.9.9.9.9.e.e.9.u.u.e.e.e.u.u.9.9.9.9.e.e.9.9.9.e.e.e.9.e.e.9.e.e.e.9.e.e.9.>.9.9.9.>.>.o.>.9.9.9.o.o.o.3.3.3.e.e.3.3.;.| | &.| ......o.o.o.o.o.| o.o.| [ L ..o...) ..o.| ..| Z h s , 4 > o o O X > h 6 ; * j :.-.j h Z =.;.e.e.e.e.e.>.9.9.9.e.9.9.e.3.;.| D H =.5.N h ",
"3.j f 4.*.D ' =.&.;.;.3.3.3.e.u.e.3.e.e.e.e.e.e.>...j s =.U.=.4 3 3 @ 5 3 o > 6 4 < g H ' o.3.3.>.o.o.o.o.o.>.>.>.9.9.>.e.>.>.3.3.3.o.} | o.o.o.;.;.o.| ' N j N } o.o.o.o.| o.o.o.>.9.9.9.>.o.o.o.>.o.>.o.o.>.e.9.9.9.9.9.9.7.9.9.9.9.9.o.7.e.u.p.p.p.p.e.e.e.u.e.u.p.p.p.p.p.p.p.p.p.p.u.u.u.u.u.e.u.i.i.p.p.p.p.p.e.e.e.e.p.p.p.p.p.p.p.p.p.p.p.p.p.p.u.u.u.u.e.9.>.o.o.3.e.u.e.e.e.3.>.9.e.e.e.e.e.e.e.e.e.e.3.o.e.9.>.9.e.e.e.e.e.e.e.9.9.e.3.;.3.e.e.u.e.9.9.>.| Z V D } | o.o.>.>.o.| ..| ;.3.;...[ | ..o...[ [ ....| | } ' Z h 0 0 h [ D V g * X * , s C Z f e I t sXsXsXsXsXsXsXsXsXsXsXsXsXsXsXsXsXsXsXsXsXsXsXsXsXsXsXsXsXsXsXsXsXsXsXsXsXsXsXsXsXsXsXsXsXsXsXsXsXsXsXsXsXsXsXsXsXsXf j 6 > @ X o C y.6.&.D V L | J W =.*.*.*.*.*.=.&.<.3.e.e.3.o.&.;.e.e.e.e.9.e.e.9.e.u.u.t.u.e.9.e.e.3.3.e.e.e.e.e.e.e.e.e.3.*.=.} ;.3.&.J D =.;.o.o.o.o.| ..o.3.e.3.;.>.e.e.3.o.} D D J | ;.7.o.;.o.| >.e.q.u.e.3.3.e.9.9.9.9.9.e.e.e.9.9.9.9.9.9.9.9.9.9.9.9.9.9.9.u.u.9.9.9.9.9.9.e.e.9.e.u.9.>.e.9.e.9.9.9.9.e.e.9.9.9.u.e.u.u.e.9.9.9.e.9.o.o.o.>.9.9.9.9.9.>.o.o.9.9.>.o.o.o.3.>.3.e.3.e.3.3.;.;.3.o.o.| o.o.>.>.3.o.o.o.| [ C [ ..o.| [ ..| ....| Z h s , 4 , o o o   * h 6 * * N :.:.H j D *.<.3.3.e.e.e.>.>.>.e.9.9.e.3.o.| D H H &.r.N h ",
"3.C h 6.*.H ' =.=.=.&.;.3.3.e.p.u.o.3.e.e.e.e.>...C h f -.U.=.4 3 3 @ 3 * X * 6 6 s g Z } o.o.o.3.>.o.....o.3.>.>.e.e.e.e.>.o.o.o.>.,.,.3.3.3.e.9.e.e.;.;.=.H B D o.o.o.| } ..o.o.3.9.e.9.3.o.o.o.>.>.9.>.o.>.e.e.9.9.e.9.9.o.o.o.9.9.o.o.;.e.9.9.9.p.p.p.e.e.e.e.t.p.p.u.u.p.u.u.u.u.u.p.p.p.p.u.u.p.a.p.p.p.p.p.p.p.u.e.e.e.u.u.p.p.p.p.u.p.p.p.p.p.p.u.e.u.u.e.e.3.;.;.o.o.3.e.e.e.e.9.9.e.e.e.e.e.e.e.e.e.e.3.9.e.e.e.e.e.9.e.e.e.e.e.e.e.e.o.o.;.e.e.e.9.9.e.e.| [ Z ' } ;.o.o.o.o.| | | | | | | | [ | o.o.o...| | | | =.D H H N h j h Z D T j * O > < h Z } h t P t sXsXsXsXsXsXsXsXsXsXsXsXsXsXsXsXsXsXsXsXsXsXsXsXsXsXsXsXsXsXsXsXsXsXsXsXsXsXsXsXsXsXsXsXsXsXsXsXsXsXsXsXsXsXsXsXsXsXH ' C 4 * X o [ y.r.;.D Z | ;.;.=.D =.<.3.<.=.=.*.e.e.e.e.e.e.;.;.;.;.;.;.;.o.3.e.e.9.e.e.u.u.q.9.e.e.e.e.9.e.e.e.e.e.e.e.3.3.3.3.3.;.<.&.;.;.o.o.o.o.o.| | o.o.o.} | | 3.3.>.,.=.W V V } ;.e.;.&.} } 3.u.u.u.3.| | o.>.e.e.9.9.9.9.9.9.9.9.9.9.9.9.9.9.o.o.o.9.9.9.q.9.9.9.e.9.9.9.e.e.9.e.9.o...o.o.e.e.e.9.9.u.e.9.9.9.9.9.9.e.9.o.9.e.e.e.o.o.o.9.9.9.9.9.9.9.o.o.>.9.o.o.3.3.>.>.e.e.e.e.e.3.e.3.>.3.3.o.,.3.e.e.o.o.o.>.o.| | o.o.o.o...| } ..| } Z f < , s 4 o X o   * C 6 ; > H D.B.R j ] =.=.&.;.3.e.3.o.o.o.e.e.e.e.o.| ' H H H &.r.j h ",
"4.Z j 6.*.H ] =.=.&.=.} | 3.u.p.t.>.o.e.e.e.e.o.Z f t f :.H.=.4 3 3 > ; @ X * 6 4 4 h Z | | ' [ o.>.o.....| 3.e.e.e.e.e.9.9.o.o.{ o.>.>.>.e.e.e.e.>.>.>.,.3.3.T N ' | o.>.o.9.9.e.e.e.9.9.e.9.o.o.e.e.9.9.9.>.>.e.e.9.9.9.9.9.9.7.9.9.9.9.e.e.e.9.e.u.p.p.p.t.9...o.u.u.e.u.p.p.e.e.e.u.p.p.p.p.u.e.p.p.p.p.p.p.p.p.p.p.p.p.e.o.o.9.t.p.t.u.u.p.p.p.u.u.q.q.u.u.u.e.e.e.e.8.;.;.;.e.e.9.9.e.e.e.>.e.9.9.e.e.e.e.3.e.u.e.e.e.e.e.e.e.e.e.3.3.u.<.&.&.3.e.e.e.e.e.e.e.| ..| >.9.9.9.9.o.| | ........| o.o.| ..o.>.o.3.;.| | | [ ' H g h N N N =.=.R f * O > 4 Z } &.g t g , sXsXsXsXsXsXsXsXsXsXsXsXsXsXsXsXsXsXsXsXsXsXsXsXsXsXsXsXsXsXsXsXsXsXsXsXsXsXsXsXsXsXsXsXsXsXsXsXsXsXsXsXsXsXsXsXsXsXg Z C 6 > o o Z I.6.&.Z _ | *.3.&.T D =.<.<.$.&.3.e.e.e.e.3.3.3.3.;.&.| | | | 3.e.9.9.e.e.e.e.e.9.9.9.9.e.e.e.3.o.o.e.e.e.3.3.3.e.e.3.;.o.o.o.;.;.o.| | o.o.o.o.o.| | ;.;.3.>.9.;.=.D D | >.9.;.=.| | 3.e.e.e.&.D N [ | 9.9.7.7.7.9.o.9.9.9.9.9.9.9.>.o.o.o.o.>.9.9.9.9.9.e.e.e.e.e.9.o.>.9.9.9.9.e.9.9.9.q.9.9.9.9.9.9.9.9.7.9.>.>.>.9.9.e.e.e.e.e.9.>.o.o.o.o.o.o.o.o.o.o.o.>.9.9.9.9.e.e.e.9.e.e.3.,.,.,.3.3.3.3.3.,.o.>.>.9.e.o.| | o.3.3.| D D D N h f , = , > o X X X * C 6 * * H D.:.H H R T N Z O.;.e.e.3.| ..o.e.e.e.o.| ' ] H H =.6.C h ",
"4.Z h 4.*.H O.=.=.*.;.;.;.;.e.u.t.9.o.3.u.e.e.;.' H g f +.H.=.4 3 3 * > @ X * 6 4 s g Z D ' Z [ ..>.o.o.| ;.;.3.e.e.e.e.e.e.e.o.| o.>.9.9.9.e.e.o.o.>.e.3.;.o.W D ' | o.o.o.>.9.3.;.o.>.9.e.e.9.>.>.>.>.>.9.e.e.e.e.9.9.u.q.9.9.9.9.9.9.e.u.u.u.t.t.p.p.p.p.p.u.e.e.t.t.e.u.u.u.p.u.e.u.p.p.p.p.u.u.p.p.p.p.p.p.u.e.p.p.p.p.t.e.e.e.p.p.u.u.u.u.u.e.9.9.e.e.e.e.u.e.e.u.e.e.o.o.>.9.9.e.e.9.e.i.e.>.9.9.e.e.e.9.9.e.u.e.>.o.3.u.e.e.e.e.3.3.3.;.;.3.e.3.3.e.e.e.e.9.o.o.,.>.9.9.9.>.o.| o.o.o.o.o.o.o.o.| ..o.o.o.| ' Z [ [ | ' H d f h h j D T d t * @ > 4 Z $.<.H t g > sXsXsXsXsXsXsXsXsXsXsXsXsXsXsXsXsXsXsXsXsXsXsXsXsXsXsXsXsXsXsXsXsXsXsXsXsXsXsXsXsXsXsXsXsXsXsXsXsXsXsXsXsXsXsXsXsXsXN [ C 4 * o o Z r.4.&.=.=.' | ;.*.*.*.&.&.&.&.&.;.3.e.e.9.o.o.3.o.| | | | | o.3.e.9.u.e.e.e.e.e.e.e.e.e.e.9.>.3.;.;.3.e.e.e.e.3.o.;.o.;.9.9.o.| | ) | o.o.3.3.o.o.3.3.>.3.9.9.9.e.;.=.=.o.>.9.3.;.;.;.;.;.3.3.;.' Z Z | 9.9.7.7.o.7.9.9.9.9.9.9.o.o.o.o.o.>.e.e.9.9.9.9.9.9.9.9.9.9.9.>.e.e.e.9.9.e.9.9.9.9.9.9.9.9.9.9.e.e.e.e.3.>.>.>.9.e.e.e.>.o.o.o.o.o.o.o.o...{ ..o.....>.9.9.9.e.3.3.e.e.e.9.>.o.| | <.3.;.| | o.,.>.3.3.3.o.| [ ..o.o.| Z N N N j g t , t , o o X   * h 6 * * H D.:.H j H D } =.;.;.e.e.e.o.o.o.e.9.9.e.3.;.=.D H =.6.j h ",
"4.Z h 4.*.' O.O.=.*.r.e.e.e.e.q.u.e.o.o.u.u.e.;.' T j f =.U.=.6 3 * * > @ X * 4 4 s g H Z Z ' [ | o.o.o.| ;.;.| ;.3.e.e.e.e.3.;.o.>.>.>.>.>.3.3.o.o.o.o.o.;.;.D ' ' ....o.o.o.o.o.....>.e.e.e.e.3.o.o.>.>.>.3.e.3.>.e.e.e.9.9.9.9.9.9.9.9.e.u.u.t.t.p.p.u.u.p.p.y.3.3.>.e.p.u.u.p.u.e.u.p.u.u.u.u.e.u.u.p.p.p.u.e.e.e.u.p.u.p.p.u.u.u.u.u.u.u.e.e.e.e.e.e.e.e.e.e.e.u.e.9.9.>.>.>.9.e.e.e.u.u.e.3.3.e.9.9.9.9.9.9.e.e.e.o.o.>.u.e.e.e.e.3.3.3.;.3.e.e.3.o.3.e.e.>.o.>.>.>.o.o.>.>.o.{ ..| o.o.o.o.o.o.o.| ......| | ' ' ' ' } D N f f g f h N H B f * @ > 4 Z &.<.H t g , sXsXsXsXsXsXsXsXsXsXsXsXsXsXsXsXsXsXsXsXsXsXsXsXsXsXsXsXsXsXsXsXsXsXsXsXsXsXsXsXsXsXsXsXsXsXsXsXsXsXsXsXsXsXsXsXsXsX=.&.C 4 * o o Z 6.<.&.=.} ' | ;.3.<.<.*.=.=.&.&.&.;.;.o.3.9.o.o.o.o.o.o.o.| o.>.e.e.u.e.e.e.3.o.o.e.e.e.9.>.o.3.e.3.3.e.e.3.3.| o.;.| 3.e.e.o.} ' } ..o.o.o.o.o.| 9.9.9.9.9.9.e.e.3.;.;.;.e.e.e.;.;.;.o.| ;.3.3.| } o.o.9.9.9.3.;.;.o.o.9.9.9.9.o.o.o.o.9.9.9.o.o.9.9.q.q.9.9.9.9.9.9.9.e.e.9.9.9.9.9.9.9.9.9.9.9.>.>.9.e.e.e.3.3.>.>.>.9.e.u.9.o.o.o.o.o.o.>.>.o.o.o.o.o.o...o.>.o.o.| | | o.e.9.9.9.>.| &.<.&.=.} &.o.o.3.3.>.o.o.| [ ..| o.| Z j Z Z j h 4 , 4 , $ o o   * h 6 * * H D.:.H h N } &.3.3.o.>.e.e.3.o.o.e.e.e.3.3.;.} D H =.6.j h ",
"<.Z h 4.*.' O.T =.*.r.i.u.e.e.u.u.u.e.o.e.u.e.;.D H g f =.H.=.6 3 * * > > X * 4 , < g H H O.O.' } | o.o.3.3.o.| ;.3.3.3.e.3.| | | o.>.>.o.o.o.o.3.>.>.>.9.o.o.V H ' | o.o.| | ;.;.| | ;.e.e.3.o.....o.3.e.>.o.>.>.o.>.e.e.9.9.9.9.9.9.9.9.9.9.e.e.e.e.u.u.u.t.e.e.3.,.>.e.e.u.u.u.e.e.u.p.p.p.u.e.u.e.e.u.p.p.u.9.9.e.u.u.u.u.u.u.e.e.u.u.u.u.e.e.e.e.e.3.e.3.o.o.9.e.e.9.o.o.3.>.3.e.e.e.e.3.[ [ ;.3.o.o.>.9.9.9.e.e.e.9.e.e.e.e.e.e.3.3.3.<.e.e.e.e.o.| ;.;.3.e.e.e.9.>.o.o.o.o.o...{ { X.o.>.;.o.;.;.| | [ [ | &.=.=.=.=.=.D H g f g g g g g H g * @ 3 6 D &.6.V u B t sXsXsXsXsXsXsXsXsXsXsXsXsXsXsXsXsXsXsXsXsXsXsXsXsXsXsXsXsXsXsXsXsXsXsXsXsXsXsXsXsXsXsXsXsXsXsXsXsXsXsXsXsXsXsXsXsXsX<.6.[ 4 * o o L r.4.=.' } =.;.3.;.;.;.*.;.=.=.&.=.$.| o.3.e.9.9.9.e.e.3.o.o.9.>.9.e.e.e.e.9.o.o.9.e.e.e.e.e.e.e.e.e.e.e.3.o.| o.3.3.o.;.e.3.| D =.*.o.3.e.o...| | 9.9.9.o.o.o.3.3.>.;.;.;.3.e.;.o.3.3.;.| &.;.3.;.3.3.3.9.9.>.3.;.} ..o.>.9.9.7.o.o.o.o.9.9.e.o.o.9.9.q.u.e.9.9.9.9.9.9.9.9.o.o.9.9.9.9.9.9.7.9.9.>.o.o.e.>.o.;.o.o.>.3.e.e.e.9.o.o.o.>.o.o.o.o.o.| | o.o.o...o.o.o.| ' D ..o.>.9.9.9.9.,.o.;.&.| | ;.o.o.3.3.o.o.o.| =.o.o.| | [ Z ' ' Z h 4 , 4 , $ @ o X * h 6 * * H D.:.N h N } | 3.3.>.>.>.3.;.o.o.e.e.e.3.;.} D H H O.4.j h ",
":.N h 4.*.D D T O.*.e.u.e.e.e.e.0.u.u.8.3.3.;.| D H g d +.H.=.6 3 * * 3 3 o @ 4 , , g H H R H D } } o.o.3.e.e.3.3.3.3.e.e.>.o.....o.o.o.o.o.o.o.| o.3.e.3.o...V N ' ;.o.| [ } =.&.| | o.>.e.3.o.....o.3.e.>.o.>.9.o.o.o.e.o.o.7.9.9.9.9.9.9.9.e.e.e.e.e.e.e.e.e.e.e.e.e.e.e.e.u.u.e.e.e.p.u.u.e.e.e.e.e.u.t.t.u.e.e.e.u.u.u.u.u.u.e.e.e.e.u.p.u.u.e.e.3.o.;.3.e.>.9.e.e.o.o.o.e.e.o.o.e.e.e.e.o.| ;.o.o.o.o.9.e.e.e.e.e.e.e.e.e.e.e.3.3.o.| o.e.e.9.e.3.o.| o.o.e.e.e.>.>.o.o.o.o.>.o.o.o.o.>.3.o.o.| | | =.| =.=.=.O.' ' ' D D H N f g g g H j H h * @ 3 6 ' 3.6.T i P sXsXsXsXsXsXsXsXsXsXsXsXsXsXsXsXsXsXsXsXsXsXsXsXsXsXsXsXsXsXsXsXsXsXsXsXsXsXsXsXsXsXsXsXsXsXsXsXsXsXsXsXsXsXsXsXsXsXB 5.y.[ 6 > o o L y.4.=.=.&.*.*.3.;.o.o.;.;.=.} =.=.D ' | ;.e.9.>.e.e.3.o.o.;.9.>.9.e.e.e.e.9.9.e.e.e.9.9.>.e.u.e.e.e.e.3.3.,.>.>.3.3.o.o.;.;.' H T =.3.3.e.o.| | o.9.9.9.>.....o.3.3.;.;.| | =.| o.o.e.3.;.;.;.e.e.e.e.>.o.>.>.3.| } | o.9.9.9.o.o.o.o.o.9.9.>.o.o.9.9.9.u.e.e.9.9.9.9.9.9.9.9.o.9.9.9.9.9.>.>.9.9.e.o.>.e.o...o.o.o.o.o.o.>.>.o.o.o.o.o.o.o.o.o...} [ ..o.o.....o.3.;.&.*.;.>.>.9.9.9.9.>.>.>.3.3.>.>.o.o.o.;.o.o.o.| =.| | ....| | } D j f t , 4 > o @ @ X * h 6 @ * H D.1.N j j Z | 3.e.e.e.3.o.o.o.o.3.3.;.*.=.T H H H O.4.j h ",
"&.N h <.*.H H R O.;.e.u.9.9.e.9.9.e.u.e.;.o.o.| D H g d +.H.-.6 3 = > 6 3 o * 4 , t s g j j j j H D D ' o.e.e.3.;.;.e.e.e.9.>.o.o.o.o.o.o.o.;.;.} } | | | | &.D g N | o.| } D } | | o.3.9.e.3.;.o.o.3.e.9.>.9.9.9.o.o.o.e.>.o.9.9.9.9.9.9.9.9.e.e.e.e.e.e.e.e.e.e.e.e.t.e.e.u.p.p.e.e.e.e.e.e.e.e.e.u.e.e.u.u.p.p.t.u.e.e.u.u.u.u.e.e.e.e.e.e.t.t.t.u.e.o.e.e.e.e.9.9.e.;.o.7.e.e.o.o.e.e.3.e.e.3.;.o.o.o.o.o.e.e.3.3.3.e.e.e.e.,.3.3.3.>.>.>.9.9.9.9.e.3.o.o.o.e.e.3.o.o.o.o.o.>.9.>.o.o.o.o.;.;.| } [ | =.=.=.=.D H ' D D D D ' ' D N f d R W T j * O 3 h } <.5.W g P sXsXsXsXsXsXsXsXsXsXsXsXsXsXsXsXsXsXsXsXsXsXsXsXsXsXsXsXsXsXsXsXsXsXsXsXsXsXsXsXsXsXsXsXsXsXsXsXsXsXsXsXsXsXsXsXsXsXB 5.y...0 > o o [ y.<.=.&.*.=.=.&.3.3.o.3.3.;.} } } } } | ;.;.>.o.3.3.o.....;.9.e.3.o.o.3.e.e.e.u.u.e.e.>.>.e.e.e.e.e.e.3.3.3.e.e.9.>.o.| o.;.' T D ' | o.e.>.o.o.o.9.9.9.9.o.o.3.e.e.e.;.o...| | o.>.e.e.;.;.3.e.e.e.9.>.o.o.>.o.o.o.o.9.9.9.>.o.o.o.o.>.9.9...| ..o.9.9.u.e.e.9.9.9.9.9.9.9.e.9.9.9.9.9.e.>.o.9.e.e.9.e.e.o.| o.3.;.o.| | o.o.o.o.o.o.o.o.o.o.o.| | &.o.o.o.o.o.o.o.;.3.3.3.>.>.9.e.e.e.9.>.o.>.9.e.e.e.o.o.o.;.;.| ' Z Z } } Z [ | ' j d f , = 4 > o @ @ X > h 6 * * H D.4.Z j N Z | 3.e.e.e.3.;.;.o.o.o.;.=.=.=.T R H j =.4.j h ",
"O.j h <.&.H H R O.4.r.e.>.>.3.>.9.9.e.3.3.3.;.} H B g f +.R.-.6 3 3 3 0 3 o * 4 4 t s d f j R H j R R H } e.e.o.} | e.e.9.9.9.>.o.o.o.o.o.o.;.=.T D =.' Z Z =.T H N ' o.3.;.=.=.&.3.3.e.e.o.o.;.o.o.o.9.9.9.9.9.9.9.>.o.3.e.e.9.9.9.9.9.9.9.9.u.p.e.e.e.u.u.u.e.e.u.u.p.u.o.3.t.p.u.e.e.u.e.e.e.e.e.e.e.3.e.u.p.p.u.e.o.9.e.u.u.e.9.>.e.e.e.e.e.p.p.p.t.e.e.e.e.e.e.e.e.e.e.e.e.e.>.3.e.e.3.e.3.o.o.o.9.3.o.o.3.3.;.| ..e.e.9.>.,.,.3.e.e.e.9.9.9.9.9.9.e.e.e.e.e.3.;.o.| | o.o.>.o.o.o.>.3.o.;.3.3.;.| ' ' ' O.T H T } D D D D ' ' [ Z h f R W W g * O 3 6 ' 6.y.W g P sXsXsXsXsXsXsXsXsXsXsXsXsXsXsXsXsXsXsXsXsXsXsXsXsXsXsXsXsXsXsXsXsXsXsXsXsXsXsXsXsXsXsXsXsXsXsXsXsXsXsXsXsXsXsXsXsXsXB 5.y.| 0 > o * [ r.*.D D ' Z [ ;.3.3.e.e.e.3.| | | 3.;.| ;.3.o.;.3.3.;.| | &.9.e.3.| | 3.e.e.e.e.e.e.e.e.e.e.e.e.u.e.e.e.*.;.e.u.e.;.o.o.>.o.&.$.&.| } o.o.>.o.o.7.9.9.9.e.9.9.e.e.u.e.9.o.o.o.o.>.e.e.9.o.>.e.e.e.q.u.e.e.3.3.o.o.3.e.9.e.>.o.o.o.>.>.>.>.o...[ | o.9.9.9.e.9.9.9.e.e.9.9.9.e.u.u.9.9.e.e.>.o.7.9.9.e.e.e.>.o.| 3.3.;.;.;.o.o.>.o.o.9.o.o.o.>.o.| D =.3.3.>.3.3.| ..o.3.3.3.>.>.>.>.>.o.o.o.o.o.>.e.u.e.o...| ;.o.| H j Z } =.Z Z ' H g d d t > 4 > o @ @ X > C h * * H G.4.Z j ' &.3.>.9.e.e.>.o.3.3.o.o.| =.=.=.T D H j =.4.j h ",
"W g j 4.*.H T W T =.3.e.e.e.3.3.3.;.;.;.3.3.;.=.H j d d W H.=.4 > = > 4 * X * 4 4 s d d s H O.] j H O.=.3.3.3.o.} | e.3.e.e.o.o.>.o.o.9.e.>.o.o.' ' =.O.D } ;.&.} ' } ;.3.3.3.3.3.3.e.e.3.o.....| o.o.>.>.>.>.9.9.9.e.>.o.>.3.e.>.7.o.7.e.3.3.e.u.e.e.e.e.u.u.e.e.u.u.u.e.o.>.e.e.e.e.e.u.u.u.e.e.e.u.u.e.e.e.u.u.e.o.o.9.e.e.e.9.9.e.e.e.e.e.t.p.a.p.u.u.u.u.e.e.9.9.9.9.e.e.e.e.9.9.9.9.e.>.o.o.o.>.>.e.o.o.,.3.;.| ..o.e.e.o.| o.3.e.e.9.9.9.9.>.o.>.e.e.e.e.e.e.o.| } } o.o.o.....o.>.;.o.o.;.e.e.o.=.' [ | =.' =.o.| ' ' ' ' _ C j h j H j j f * o > 6 ' 4.y.R i P sXsXsXsXsXsXsXsXsXsXsXsXsXsXsXsXsXsXsXsXsXsXsXsXsXsXsXsXsXsXsXsXsXsXsXsXsXsXsXsXsXsXsXsXsXsXsXsXsXsXsXsXsXsXsXsXsXsXP <.t.{ 6 * . o [ 5.:.D H j g D &.&.;.3.e.e.3.| [ | r.r.*.;.;.o.3.3.3.3.o.o...9.e.e.| | >.3.3.3.3.3.e.e.u.u.e.e.e.e.e.e.e.=.O.;.3.o.o.o.o.o.o.o.o.o.o.&.| o.o.o.o.>.9.9.9.9.9.9.9.e.3.o.o.>.9.7.7.9.9.9.9.9.9.e.e.9.9.e.e.e.e.9.9.9.e.9.9.o.o.| o.| | o.o.>.>.o.;.3.e.e.9.9.e.e.9.9.e.e.9.9.9.9.e.9.9.9.9.e.o.o.o.e.e.3.o.o.7.>.o.o.o.3.3.3.o.o.>.o.o.>.o.o.o.o.o.[ N N ;.3.e.e.e.>.| o.3.e.e.9.>.>.o.o.o.| o.,.>.o.>.>.e.o.| | &.;.o.} } } | &.| | | ' j d f t , < , o o o . > h h * * D G.4.Z f ' ;.9.9.e.e.3.| ' | e.9.o.=.=.=.| } D H j =.4.h h ",
"W j j 5.:.R R W R T ;.e.e.e.3.3.=.#.;.3.3.;.;.&.H j d f W H.=.s , * * > * X * 4 4 s g s s H =.D H T =.;.3.e.3.;.;.3.3.o.| o.o.o.>.o.o.o.e.3.3.3.3.*.&.=.| ;.3.o.| | | ;.;.o.3.3.3.>.>.>.o.o.o.| o.,.>.>.o.o.o.o.o.o.o.o...| o.o.o.o.o.o.o.o.o.o.3.>.e.e.u.u.9.9.e.u.u.u.e.e.e.e.e.e.u.u.u.u.e.e.e.e.u.u.e.e.e.u.t.t.e.e.e.p.u.u.e.e.e.e.e.e.t.p.p.p.p.u.u.u.e.e.9.9.9.9.9.9.9.e.9.e.e.e.e.9.o.o.o.o.o.o.>.o.o.>.e.3.3.;.o.o.o.o.| ..o.>.e.9.9.9.9.>.,.,.o.o.o.3.e.e.3.| =.=.| o...[ | | o.;.o.| o.3.;.o.| | | =.=.=.=.;.;.} D D Z Z j j h N H h f f * o > 6 Z <.6.R i I sXsXsXsXsXsXsXsXsXsXsXsXsXsXsXsXsXsXsXsXsXsXsXsXsXsXsXsXsXsXsXsXsXsXsXsXsXsXsXsXsXsXsXsXsXsXsXsXsXsXsXsXsXsXsXsXsXsXP =.3.) 6 = . o Z 5.:.=.+.R B ' } | | o.o.3.3.;.| | &.=.' ;.3.o.3.3.3.e.3.;.;.3.3.e.3.o.o.3.e.3.e.e.e.e.e.u.t.u.e.3.e.e.3.;.=.*.3.o.o.o.o.o.o.o.o.o.o.| ....| o.o.o.9.9.9.9.9.9.9.e.o.o.| o.o.7.7.9.9.9.9.9.e.e.e.7.9.9.9.9.9.9.e.e.e.e.>.o.o.o.;.| ....o.9.9.o.o.3.e.9.9.9.e.e.e.e.9.9.9.9.9.9.9.9.9.9.9.9.3.o.o.3.o.....o.7.e.>.o.o.3.3.o.o.o.>.>.9.9.o.{ { o.o...Z D ;.e.9.e.e.e.>.o.e.e.e.e.e.>.>.3.3.;.,.>.9.e.9.>.>.o.| | &.&.| &.;.;.o.o...| ..| Z g f t , , , o o X   = j f * * D G.4.Z f ' ;.9.9.e.;.&.W H ' ;.3.| T O.=.;.=.=.H j O.3.h h ",
"+.N j 5.:.H H R R D =.o.9.3.;.=.H H =.3.3.;.| =.H g d f W G.=.s 4 * * > > . * 6 4 s g t s H ' Z ' *.;.;.3.>.3.3.e.e.3.o...o.o.o.o.o.o.o.| 3.3.3.3.;.=.| | | o...| o.,.o.o.| | | o.o.o.>.3.e.e.;.;.3.3.>.o.o.7.7.o.o.o.| | | | o.| o.o.7.9.o.o.o.>.9.e.e.e.e.9.e.e.u.u.e.e.e.e.e.e.e.e.u.u.e.e.e.e.e.u.e.o.o.e.e.u.u.u.u.e.e.u.u.u.e.e.u.u.u.p.u.e.9.e.u.u.e.e.9.9.9.9.e.9.9.9.9.9.e.e.u.e.o.o.o.o.o.o.o.e.o.o.3.e.e.3.3.3.o.o.o.>.o.o.>.e.e.9.9.o.,.3.;.| o.o.o.3.e.3.[ Z ' ;.3.o.| | 3.3.;.;.| ;.;.=.| | | ;.*.&.} =.=.=.O.H N j h h f s H H h s s * O 3 6 Z &.<.R B E u sXsXsXsXsXsXsXsXsXsXsXsXsXsXsXsXsXsXsXsXsXsXsXsXsXsXsXsXsXsXsXsXsXsXsXsXsXsXsXsXsXsXsXsXsXsXsXsXsXsXsXsXsXsXsXsXsXP W ;.C 6 > o @ Z 5.:.=.&.H f Z } | | o.o.>.3.3.3.&.=.H D *.3.3.;.3.e.3.;.=.;.;.;.3.y.u.e.e.e.e.e.e.e.e.8.e.e.3.3.,.3.3.e.e.3.e.e.>.o.o.o.o.o.o.o.3.3.o.o.o.o.o.....o.9.9.9.9.e.e.9.9.o.o.o.o.o.9.9.9.9.9.9.e.e.e.9.7.e.o.o.o.9.e.e.e.e.3.>.>.3.;.o...o.9.9.9.o.o.o.9.9.9.9.9.9.e.e.q.q.q.9.9.9.9.9.9.q.q.e.e.e.o.o.) ....o.o.e.e.e.3.;.| ..| o.7.9.9.o.X.{ { o.o.o.o.;.e.9.9.e.9.e.9.>.9.e.e.9.9.e.e.e.e.;.3.>.9.e.9.9.o.o.;.;.&.&.*.3.3.3.o.| ..| ..| [ j f , = , , $ @ o . * h 6 * * H D.:.j f ' ;.>.o.o.=.W R P H | ;.' H R O.&.*.=.T H O.<.h h ",
":.N j 4.+.j j j H T ;.3.>.o.' H T =.&.;.3.3.*.&.T j f f T H.=.s 4 * * 4 * X * 6 4 4 s s s Z ' Z } &.;.o.o.o.o.o.o.e.e.3.o.o.o.o.o.o.o.o...| ;.;.;.o.o.o.| ......o.>.>.o...[ Z [ ..o.o.>.e.9.e.e.o.o.o.o.7.7.9.9.7.>.>.>.o.o.o.o.o.o.9.9.9.e.e.e.e.e.>.9.9.9.e.e.e.u.9.9.>.9.e.e.e.e.e.e.e.>.3.e.e.u.u.3.o.;.e.e.e.e.e.e.9.9.9.9.9.9.u.u.u.u.u.e.9.o.9.u.p.e.9.9.9.9.9.9.9.9.9.e.9.9.9.9.9.o.o.o.>.9.7.9.e.e.o.e.u.3.3.3.>.9.e.e.e.9.>.9.e.e.9.>.,.o.| | | o.>.>.3.3.| [ C Z | o.o.[ ' | | | | | | ' ' H ..| &.&.=.D ' =.O.H H H j h f 4 s j D N h f * O 3 6 Z &.4.W B B , sXsXsXsXsXsXsXsXsXsXsXsXsXsXsXsXsXsXsXsXsXsXsXsXsXsXsXsXsXsXsXsXsXsXsXsXsXsXsXsXsXsXsXsXsXsXsXsXsXsXsXsXsXsXsXsXsXP R &.) 6 > o @ L 5.<.&.=.j s Z | | | o.o.9.e.3.3.3.<.&.=.;.3.o.;.3.e.;.| | | | | | ;.3.>.o.9.9.9.9.e.e.e.3.e.3.,.o.3.9.9.9.e.e.9.9.>.o.o.o.o.o.o.o.o.9.9.>.o.o.....7.9.9.e.9.9.9.9.e.e.o.o.o.o.o.7.9.9.7.9.9.9.9.9.9.e.e.o.o.o.9.e.o.o.o.o.9.>.o.o.o.9.e.9.9.>.o.o.9.9.9.9.9.e.e.e.u.q.q.9.9.9.9.9.9.q.w.e.e.e.o.o.o.o.o.o.9.e.e.e.e.3.| ..o.o.7.9.9.o.o.o.o.o.o.9.e.9.e.9.9.e.e.e.9.9.9.9.9.o.o.3.e.e.o...o.o.;.*.1.1.<.<.<.;...o.o.o.o.o.o.o...| ..o...Z h s , 4 > * = * . * 6 6 * * N :.=.f h _ | o.o.| ' D R R D | | D j R T O.O.T R j =.6.h h ",
":.N h <.=.g j j H T &.3.e.3.=.O.&.:.<.| *.:.*.=.R j f s T G.W 4 > * * 4 > X * 4 4 s g f j Z ' Z | ..| | | o.o.o.o.e.3.3.3.o.o.o.>.9.3.e.3.o.;.3.;.3.3.e.e.o.o.| o.o.9.>.o.[ | | o.o.>.>.>.9.9.e.e.o.o.o.9.9.9.9.9.9.9.9.>.9.9.9.9.9.9.9.9.e.e.9.e.e.>.>.9.e.e.e.9.e.9.9.9.e.e.e.e.e.e.e.e.o.| ;.e.u.u.e.e.e.u.u.e.e.e.e.9.9.9.9.9.e.u.u.u.u.u.e.e.9.e.e.u.e.9.9.9.9.e.e.9.9.e.e.e.e.e.9.9.>.>.>.9.9.9.e.e.e.e.e.e.e.3.3.9.9.9.o.>.9.9.9.e.e.e.3.3.;.' } o.>.o.>.>.o.| | | | | o.o.[ D | | | | | ' D Z Z | &.=.=.=.D O.&.O.V V D H j h f g R W N h f * O > 6 Z &.4.W g u & sXsXsXsXsXsXsXsXsXsXsXsXsXsXsXsXsXsXsXsXsXsXsXsXsXsXsXsXsXsXsXsXsXsXsXsXsXsXsXsXsXsXsXsXsXsXsXsXsXsXsXsXsXsXsXsXB P V &.| h > o @ Z 5.<.&.O.j h [ [ ..| o.3.e.9.e.e.e.e.3.o.3.>.o.>.3.e.9.3.3.3.;.;.o.o.o.e.9.9.9.9.9.9.e.e.e.e.9.9.9.e.9.9.9.e.e.9.9.9.o.o.o.3.o.o.o.>.9.9.9.o.o.o.3.e.e.e.u.u.u.e.e.e.e.e.o.o.o.o.7.7.o.9.9.9.9.9.9.9.9.9.9.9.9.e.3.o.o.o.o.9.>.o.>.9.9.9.9.9.o.o.9.9.9.9.q.e.9.9.9.u.q.9.9.9.9.9.9.9.q.9.e.e.e.e.e.e.3.>.9.e.e.e.9.>.3.| ..o.o.9.9.9.o.o.o.o.o.9.9.9.9.9.9.e.e.e.e.9.9.9.>.>.>.>.,.o.o.o.....| <.Z.b.c.1.4.<.| ..o.o.o.o.o.o.o.o.......[ Z h f s s > * > * . * 6 4 * * N :.=.j j Z ' ;.;.;.| } D T =.o.o.' R W T T R R R H =.6.C h ",
":.j h :.=.g j H H H | o.e.3.;.=.=.3.3.| O.O.O.T j d f s T F.T , * @ * 4 3 X o , s f j j h N Z Z | | ....| o.o.o.o.o.3.3.e.3.o.o.o.9.e.e.e.3.3.3.3.3.e.e.9.o.o.o.o.o.9.9.o...o.o.7.9.9.9.>.9.9.e.e.o.o.o.9.9.9.>.9.9.9.9.9.9.9.9.9.>.>.9.9.e.o.o.9.e.e.e.e.e.e.e.u.u.u.u.u.u.e.u.e.e.e.e.e.| [ ..| o.;.e.e.e.e.e.e.e.e.e.9.9.e.e.e.u.u.u.u.u.e.e.e.e.e.e.u.e.9.9.9.e.u.u.e.e.e.e.e.e.e.e.9.e.e.9.9.9.9.9.e.e.e.e.e.3.3.3.3.e.9.o.9.e.e.e.e.e.e.e.3.3.| ;.3.>.o.o.o.o.o.3.3.;.;.o.o.;.=.=.;.;.;.;.| ' Z ' ;.;.=.=.=.=.&.;.O.D ' =.' ' Z N H =.T h s s * o > 6 Z <.<.W f , % sXsXsXsXsXsXsXsXsXsXsXsXsXsXsXsXsXsXsXsXsXsXsXsXsXsXsXsXsXsXsXsXsXsXsXsXsXsXsXsXsXsXsXsXsXsXsXsXsXsXsXsXsXsXsXsXj g B =.Z 6 = * * Z D.4.=.T H H =.| | | | o.o.>.e.7.7.o.>.e.e.>.o.>.9.9.9.e.e.e.e.3.3.o.3.e.e.9.9.9.9.9.e.e.e.9.9.e.9.e.9.9.9.9.e.9.9.9.o.3.3.e.3.>.9.e.9.9.9.9.9.9.e.e.u.u.u.u.u.e.e.e.e.e.9.o.o.o.9.>.>.9.9.9.9.9.9.9.9.9.9.e.e.e.;.| | o.o.o.o.o.o.9.9.9.>.>.o.o.>.9.9.9.9.9.9.o.o.9.9.q.9.9.9.9.9.9.q.e.e.e.e.e.e.u.3.>.9.e.9.>.9.o.>.;.| ..o.9.o.o.o.o.o.o.o.>.>.9.o.7.9.9.e.e.e.9.9.9.o.o.>.o.o.o.,.o.| ..| 1.S.S.v.1.<.&.....o.3.3.o.o.o.o.o...{ ..[ C C h s 4 > * * @ . * 6 4 * * N :.+.N j j H =.*.3.;.| ' O.;.o.o.' O.O.W T T R R H =.4.j h ",
":.j h 4.+.g j j H H } o.e.;.| o.;.3.3.*.=.W T T H g f s T F.T , * @ * 3 * X o , 4 f h f f C Z ' &.;.| | o.,.,.,.o.o.e.y.y.o.o.o.o.9.e.9.9.9.9.>.3.e.9.9.>.o.o...o.o.7.o.o.o.X.o.9.9.7.o.o.9.9.9.3.e.9.9.9.o.o.| ;.e.e.e.9.9.9.9.9.o.o.9.9.e.>.o.9.e.e.e.3.3.e.9.9.u.u.e.e.e.e.e.e.e.9.e.e.;.| | | | o.7.9.9.e.e.9.>.e.e.e.e.;.o.e.e.e.e.e.t.e.9.t.t.e.q.e.e.9.9.e.e.u.u.9.e.e.e.9.9.e.e.e.e.e.e.9.9.9.9.e.e.3.3.>.;.;.3.3.e.e.3.>.9.>.9.e.e.e.e.3.;.=.;.3.9.9.9.o.o.o.9.7.o.o.o.o.o.} | o.o.;.;.o.| | &.| =.O.R R R O.=.=.} } ' ' ..[ Z H T N < t s * o @ 6 Z } &.D f , & sXsXsXsXsXsXsXsXsXsXsXsXsXsXsXsXsXsXsXsXsXsXsXsXsXsXsXsXsXsXsXsXsXsXsXsXsXsXsXsXsXsXsXsXsXsXsXsXsXsXsXsXsXsXsXsXg g g D h < * * * Z D.4.T H H D } | | o.| | o.o.o.o.o.o.o.3.3.o.>.3.e.e.9.9.e.9.e.e.e.e.;.o.o.o.9.9.9.9.9.9.9.;.3.3.e.e.e.e.9.>.e.9.9.e.e.3.3.3.>.e.e.e.e.e.e.e.9.9.9.e.e.e.e.e.e.e.9.9.e.e.7.7.7.9.>.9.9.9.9.9.9.9.9.9.9.9.9.e.e.e.o.| } | o.o.o.>.>.>.o.>.o.o.o.o.o.9.9.9.9.9.9.o.o.>.9.9.e.9.9.9.9.e.e.9.e.e.e.9.e.e.3.>.e.e.9.>.9.o.>.3.| ..o.>.o.o.>.o...| o.3.3.3.>.o.>.e.e.e.9.9.>.>.o.o.o.;.3.y.3.o.| o.o.<.A.C.-.} | ....| 3.5.4.3.| ........) ..[ C C j 4 , > o * * X * 6 4 * * N :.=.j g f j ' &.;.;.| =.O.} ..| T T O.=.=.T R R j O.<.j h ",
"*.j j 4.&.j j H H H | o.o.| ..o.o.3.3.3.;.=.=.=.T j f t R D.T , * * * 3 @ . o , 4 4 s 6 h C Z } ;.6.3.,.3.<.1.1.<.4.I.$Xe.o.o.o.o.9.9.>.o.>.>.o.o.e.9.>.>.o.o.....o.o.o.o.o.X.o.o.o.o.| o.o.9.9.7.9.e.9.o.| | | o.o.7.e.9.9.9.9.o.| | o.o.3.3.>.9.9.3.o.o.o.o.e.e.9.u.e.9.9.>.>.3.3.e.e.e.e.e.e.3.o.o.o.e.e.e.e.e.>.>.e.e.e.o.o.>.e.9.9.e.e.e.e.e.e.u.u.9.9.9.e.e.e.e.e.9.9.e.9.9.o.o.9.e.;.o.>.3.o.e.9.e.>.o.>.o.o.;.;.3.;.o.3.o.o.o.o.e.e.e.e.o.[ } | o.o.9.o.| | ;.e.7.o.o...| | ' ' | | } | | | | =.} O.R j g g H =.} ' =.O.} | ' j g H h s s s * o * 3 h C Z Z h > & < sXsXsXsXsXsXsXsXsXsXsXsXsXsXsXsXsXsXsXsXsXsXsXsXsXsXsXsXsXsXsXsXsXsXsXsXsXsXsXsXsXsXsXsXsXsXsXsXsXsXsXsXsXsXsXf i f j 6 , = * * N 4.:.T H H N j N } &.} ' | ;.;.o.o.| | | o.o.>.3.o.o.3.e.e.9.9.9.9.e.9.o.o.o.o.o.o.9.e.9.o.o.| | ;.3.e.9.>.>.>.9.e.e.e.o.o.o.o.o.o.3.e.e.e.u.e.9.e.9.e.e.e.e.e.e.9.9.9.9.o.o.;.o.o.>.9.9.9.9.9.9.7.9.9.e.9.>.>.o.o.| | o.o.3.e.e.9.>.>.o.o.o.| | o.o.9.9.9.9.9.>.>.9.9.9.9.9.9.o.o.9.9.9.>.e.e.e.e.o.;.o.>.e.e.9.9.o.>.3.o.o.o.3.;.;.o...[ ..o.3.3.>.>.3.3.3.>.>.>.>.o.o.o.o.o.;.5.@XI.| o.o.o.| &.} | ........| &.1.<.$.} | ............) Z f < , > o * * o * 6 4 * * g +.T f f j N D } | o.o.=.' ' | =.D H T W T T T H j T <.j h ",
"<.j j 4.O.j H [ [ ' | o.o.| o.o.>.3.e.3.3.3.3.;.O.j d s R D.D > * o * > @ . o 4 , , t h L | ..| | &.| | ;.4.S.S.D.4.6.y.>.X.o.o.o.>.9.9.o.o.o...o.o.o.o.o.o...[ ) ..............[ [ [ | | o.o.7.7.7.9.7.o.o.;.e.e.o.7.9.9.o.9.o.o.[ ..o.o.3.3.3.3.o.o.| o.o.o.;.e.9.9.e.e.e.e.9.>.,.3.e.3.3.e.e.e.9.o.o.e.3.o.o.3.o.o.>.e.e.3.e.e.e.e.9.9.e.e.e.e.e.u.u.9.9.9.e.e.e.e.9.9.9.9.9.9.o.7.9.e.;.| ..o.o.e.e.3.o.o.,.,.o.o.| &.| | o.>.>.>.e.e.e.e.;.;.| } | | o.3.;.| | ;.3.7.o.o.o.;.=.' } &.=.} ' =.' ' ' ' R R R H N D =.=.D D O.=.' Z f g H j f f s * o 3 6 C [ ' N f * $ > sXsXsXsXsXsXsXsXsXsXsXsXsXsXsXsXsXsXsXsXsXsXsXsXsXsXsXsXsXsXsXsXsXsXsXsXsXsXsXsXsXsXsXsXsXsXsXsXsXsXsXsXsXsX> f f f j h 6 > * * j :.*.O.T T H j Z =.=.' Z ' =.;.| | ......o.>.>.e.o.| ;.;.3.9.>.>.9.9.7.o.o.>.o.o.o.o.3.>.o.o.| ' } o.o.>.,.o.o.o.9.e.e.3.>.9.e.>.;.3.;.3.e.e.e.9.e.9.u.p.u.e.9.o.>.>.e.e.o.o.' [ | 3.9.9.9.9.9.9.o.>.e.e.3.o.o.o.3.3.o.o.o.o.o.>.o.>.>.>.o...[ ..o.o.7.9.9.9.9.9.9.9.9.9.9.9.9.o.o.o.9.9.>.o.3.3.o.| o.;.e.e.9.o.o.>.>.o.o.o.3.3.3.;.| [ ..o.3.3.>.>.3.e.;.o.o.3.3.o.o.o.o.o.o.| 1.`.2.| o.....| ......[ ) ) L C L Z =.=.1.2.| { ..o.o.o.[ j s , , > o * * . @ 6 4 @ * j +.T h h Z ' ' } | o.o.;.=.' | &.| ' T W W T T j j T <.h h ",
"<.h h *.' j H ' | &.;.o.o.>.e.e.e.9.3.3.e.e.3.*.T g s s W G.D , * $ o > @ . @ , , , t h [ | | | ....| | } 1.S.S.C.*.<.,.o.X.o.o.{ o.3.3.o.o.| ..o.o.o.X.X.o...) ) ) ..[ ) ) ) ) [ Z Z | | ;.| o.3.9.o.o.3.3.e.e.3.>.o.>.9.9.9.o...{ ..9.e.o.o.o.e.7.o...o.;.| o.3.e.9.e.e.e.e.e.>.o.o.;.;.o.o.3.3.3.3.;.o.o.o.o.>.>.o.9.e.e.e.e.e.9.e.e.9.e.e.e.e.e.e.e.9.9.9.e.e.e.9.9.9.9.9.9.9.9.9.e.e.;.| | o.o.9.e.3.o.o.o.;.3.o.| | o.o.3.e.e.e.e.e.e.e.o.o.;.| | o.o.;.o.| | | ..o.;.;.;.;.| ' } =.=.' ' ' ' D D H j R R H ' =.=.=.D N H ' ' Z j h H j f h s * o 3 0 C ' ' C f > & > sXsXsXsXsXsXsXsXsXsXsXsXsXsXsXsXsXsXsXsXsXsXsXsXsXsXsXsXsXsXsXsXsXsXsXsXsXsXsXsXsXsXsXsXsXsXsXsXsXsXsXsXsXsX> s u h [ ) h 3 @ @ C 3.*.} D D ' ' | o.| | [ } =.| } | | o.o.o.>.9.e.e.o.| o.o.9.;.o.>.9.7.7.7.9.>.o.o.o.o.o.o.>.;.' Z | o.o.o.o.o.o.o.e.e.>.e.e.e.e.e.3.| o.>.e.e.9.9.9.u.p.u.e.9.9.o.>.e.e.3.o.[ ..o.>.>.9.9.9.9.9.>.>.e.e.3.o.o.3.e.e.o.o.o.o.o.o.o.o.o.o.o.| | o.o.9.9.9.9.9.9.9.>.9.9.9.9.9.9.9.9.9.9.e.9.o.o.o.3.| ..o.e.3.o.o.o.>.>.o.o.3.3.3.;.o.o.o.3.3.3.3.3.3.e.3.o.o.o.3.>.>.>.o.,.o.o.| $.=.$.......| } | } [ ) ) { ) C { | } 1.`.`.&.) o.o.>.o.[ j s , , > o o o . o 6 , * * N 1.&.N j ' | | | o.o.>.;.=.| | ;.;.=.=.=.*.=.R l j W <.j h ",
"3.f f *.D h H } =.&.&.;.>.9.e.e.e.9.>.3.e.e.;.=.H g f u W H.T > * * o ; @ X * , , , s j Z | o.| | | | } } =.C.C.=.| o.o.o.o.o.....| o.| | | o.o.o.o.o.o.X.X.o.[ ) [ [ [ ) [ ) ..[ C N ' =.=.' ' ;.;.| | o.o.o.o.o.o.o.o.o.o.e.9.o.o.>.e.e.o.o.o.e.o.o.o.;.;.| ..;.e.e.e.9.9.9.9.>.o.o.o.o.;.3.3.o.;.;.| | | o.o.3.e.e.e.e.e.e.>.o.o.9.9.9.9.e.e.e.e.9.e.e.9.e.e.e.3.o.>.>.9.9.e.9.>.>.e.3.;.;.;.;.3.e.e.3.;.o.o.o.o.o.;.3.3.3.3.e.9.e.e.3.o.o.o.o.;.3.3.3.3.;.| | | | | | &.=.=.' Z ' | ;.=.' H O.O.D D j d d j Z ' =.D D H H H D =.} Z N N h f j h * @ 7 0 C C Z j f , * < sXsXsXsXsXsXsXsXsXsXsXsXsXsXsXsXsXsXsXsXsXsXsXsXsXsXsXsXsXsXsXsXsXsXsXsXsXsXsXsXsXsXsXsXsXsXsXsXsXsXsXsXsXsX& t u N | [ h 3 @ @ ) e.<.} [ _ } | ;.o.| | | | =.D Z | o.o.o.o.9.9.9.9.>.o.o.e.e.| | ;.o.9.9.9.9.>.o.o.o.o.o.o.o.;.} Z } o.o.o.o.o.e.e.9.o.o.e.e.e.e.e.3.o.o.>.e.e.e.9.9.e.e.e.e.e.9.o.o.o.3.3.3.3.;.>.>.>.9.9.9.7.>.>.o.3.3.3.o.o.o.3.o.o.o.o.o.o.o.o.o.o.o.o.o.e.e.e.9.9.9.9.9.9.>.o.o.9.e.9.9.9.9.9.9.9.e.e.e.9.e.e.;.| | ;.o.o.o.o.o.o.o.| ..o.o.o.,.3.3.3.>.o.o.o.>.>.3.3.3.;.o.>.e.e.3.o...o.| } J | o...| [ Z Z Z Z C C L C { | o.| 2.H.A.=.| ..o.o...[ j s , , > o o o . o 4 , * * H D.<.Z h [ ;.o.o.o.o.9.>.| | | ;.;.&.=.*.*.=.R l l O.<.j h ",
"3.f f *.' N D O.T O.=.*.3.e.e.e.e.9.>.o.e.3.| ' H H f f W H.T > * * o * @ . * , , < s j Z ' | ..| o.o.| ..} *.*.&.o.o.o.o.o.o.o.| | } Z ' o.o.o.| | ..o.o.o.| [ [ [ ' [ _ C [ | ' C j H T H N Z ' | | ' } =.=.| | | o.o.| o.e.e.3.>.3.3.o.o.o.o.o.o.;.3.<.&.} | | o.o.o.9.9.9.9.9.o.o.o.;.3.3.;.| | | | ' ' | o.;.e.u.u.e.e.3.>.o.>.9.e.e.9.e.e.e.e.9.9.9.9.9.e.3.3.o.| | o.;.o.o.o.o.o.| | &.;.;.3.e.e.e.3.;.&.;.| ;.;.3.3.3.>.>.o.o.o.o.| | | o.o.3.3.3.o.| ;.| | ' =.=.D V D T D D =.*.=.D H D T D N j g g N Z ' ' D D T T D D =.=.} D N f f j h * * 4 0 C C h j s * & < , sXsXsXsXsXsXsXsXsXsXsXsXsXsXsXsXsXsXsXsXsXsXsXsXsXsXsXsXsXsXsXsXsXsXsXsXsXsXsXsXsXsXsXsXsXsXsXsXsXsXsXsX& & < s N | [ h 4 * * ) e.<.| C C | ;.o.o.| o.;.| } Z N } ;.o.o.9.9.o.o.9.e.3.3.e.;.' } | o.o.9.9.>.o.o.o.;.3.3.o.o.o.&.=.| o.o.o.3.3.e.3.3.o.o.3.e.e.e.>.o.3.3.3.e.e.e.e.e.e.e.e.e.e.9.3.o.o.o.;.3.3.3.3.>.o.o.o.7.o.o.o.o.o.o.o.o.o.o.o.o.o.o.o.| | | o.o.o.o.o.o.o.9.7.7.o.o.9.9.>.o.o.o.>.9.9.>.o.>.9.9.e.e.e.e.e.e.e.;.| | | | o.o.o.o.o.o.....' | ;.;.o.o.o.>.>.o.o.o.o.3.3.3.3.o.o.3.3.;.o.| | o.&.=.| o.| } Z h 4 s f s f f h L | | | <.C.C.=.[ ) ) | ) L j s , > * o @ @ . @ 4 , * * D D.:.Z Z } o.o.o.o.e.9.o.| | | o.;.&.*.*.&.W R R j =.<.C j ",
"3.0 f 4.=.j H R R W O.*.3.e.9.e.e.e.o.o.3.3.=.O.H H d s T G.V > * * o @ o   * , , < s f j Z | | ..| o.| | | =.;.o.o.o.o.o.o.| o.o.| ' Z D ;.3.o...[ [ ..| | | ' Z ' ' Z j h N D =.V N g j g H H D =.=.' ' =.=.#.' | | ;.| | ;.3.o.| o.o.o.o.o.o.o.;.;.;.;.| =.;.;.| o.o.o.9.9.9.>.o.o.| | ;.;.| | | &.&.=.} } | o.3.3.3.9.9.>.>.o.>.9.e.e.9.e.e.o.o.o.>.o.o.o.o.o.o.o.| | } ' | | ;.;.3.o.=.&.;.o.o.3.3.3.;.=.=.} =.;.o.o.o.o.o.o.| o.;.;.} Z | | o.o.o.| [ } &.&.} ' =.D g j H W =.H D =.T H j j H N h H H H D [ [ N H V T T D H ' ] N N B f f h u $ * 4 0 C [ _ C f = % , sXsXsXsXsXsXsXsXsXsXsXsXsXsXsXsXsXsXsXsXsXsXsXsXsXsXsXsXsXsXsXsXsXsXsXsXsXsXsXsXsXsXsXsXsXsXsXsXsXsXsXsXsXsX& s f N ..) 0 3 * * ) r.3.} Z [ | | | | | | | } D ' D D | o.>.3.>...o.>.3.3.3.;.| =.&.| | o.o.o.o.o.o.| | o.| | | ' | | | ..| o.o.o.o.o.o.o.| o.o.o.o.o.o.o.>.3.e.e.e.e.e.e.o.>.3.e.e.>.o.o.;.| | o.o.o.o.o.o.o.9.9.>.o.o.o.o.o.;.,.| | | o.o.o.| ..| | } | | ..o.o.o.o.o.o.o.9.3.;.o.o.o.o.o.o.o.o.o.>.9.>.o.o.3.o.o.o.o.;.&.} | o.| | ;.o...| =.D D } | o.o.o.o.o.o.o.;.o.| | o.;.3.3.o...| &.;.| | ;.=.[ ) [ } D s > , = , 4 , 6 Z | | ..&.2.1.=.[ [ [ [ ) C j s , * * o * @ X @ 4 , * > D 4.&.N Z ' ..o.o.o.e.>.o.| | | | =.=.=.=.T R W R H =.<.j j ",
"e.h h 4.&.j H k P E Q *.3.e.9.e.e.e.o.o.3.6.:.=.H j d f R F.V > * * o @ o   * , , s h f h Z ' } | | | | | } =.=.o.| o.......| | | | ' Z D | ,.o.| Z [ [ ..| ' D N H N g d d g g H B g d d g B H H D D H D } =.} ' [ ..| | | o.| [ [ | | | | ;.| | ;.;.} } =.&.<.;.| | o.o.o.o.>.o.o.o.| | | | | | ;.;.;.&.&.=.| | | o.o.o.o.o.o.o.o.>.>.9.>.e.3.o.| o.o.o.o.o.o.o.| | | | } } } | ;.3.;.&.&.&.| ..| | =.| =.' D H =.&.;.o.o.o.o.| ..| &.} D D ' } | | | ' Z D | =.' ' D H g B R T V N B j j g g g g j N Z H T } | D H H T T R T ' Z f f g g f f s , $ $ 4 h ..| [ j f = % sXsXsXsXsXsXsXsXsXsXsXsXsXsXsXsXsXsXsXsXsXsXsXsXsXsXsXsXsXsXsXsXsXsXsXsXsXsXsXsXsXsXsXsXsXsXsXsXsXsXsXsXsXsXsX* s f Z | { 0 3 * * C e.<.=.' ' } [ [ } | | | ' D ' O.D Z | ;.o.| | o.o.o.o.o.| | ;.;.=.| | o.o.o.o.o.| | [ [ [ [ ' ' } ......| | | | | ;.;.| | o.o.o.o.o.o.3.3.3.3.3.3.3.3.>.o.o.3.e.o.o.o.;.| | | o.o.o.o.o.o.9.9.3.>.o.o.o.;.3.;.| [ [ | | o.| | [ [ Z Z [ | o.o.o.o.o.o.o.o.o.| ;.o.o.o...| ..o.o.o.o.o.o.o.o.| ..[ | &.=.D ' | o.&.;.| [ | =.T H H } | ..o.o.o.o.o.;.| | } | | ;.;.| Z ' =.&.&.} =.=.| L [ | ' f , 4 4 = > = 4 C [ L ) } =.=.[ [ [ [ ) L C j s = * * o @ @ X @ 6 4 * = H :.=.N Z ' | o.o.>.o.o.o.;.=.| | &.=.T R R R R R H W <.h h ",
"r.h h 5.&.j j j P Q Q *.3.9.9.e.e.3.;.3.3.6.4.*.R j g f T F.V > * * $ ; @ . * , , f g j j N D ' } } } } } } =.;.&.o.o...[ [ [ [ [ [ [ Z D | | ..[ Z Z ' ' D D H N g g f f d d d f u u u d g g N N j g g H D ' ' Z Z | } D ' } ' Z Z } | | &.&.| | | =.Z ' } &.&.&.| | | o.o.;.o.o.o.........| | =.&.=.} =.&.&.&.| | | o.o.| o.o.3.e.3.;.o.>.3.;.| | | | | | | | | | | | | | | | | o.o.| | =.=.} | | } ' ' T D H H D =.&.| | | | [ [ Z ' D H D D D J } D D V D D ' ' D H j j R W T H g g g g g g h j Z H H D ' | | } D T W T R O.=.Z f d d f h h s t & @ 7 C | | [ j f = % sXsXsXsXsXsXsXsXsXsXsXsXsXsXsXsXsXsXsXsXsXsXsXsXsXsXsXsXsXsXsXsXsXsXsXsXsXsXsXsXsXsXsXsXsXsXsXsXsXsXsXsXsXsXsX= s s Z ;.| c 3 @ @ C 3.<.=.O.O.O.' Z [ ' ' | | Z ' =.D Z [ | | ' | o...| | | | | ;.;.| [ | | | ......| ..[ Z Z Z ' [ [ ......| | | | | | | | | | o.o.o.o.| ,.3.3.3.3.3.3.3.3.3.;.o.;.o.;.;.;.=.| | | | o.o.o.o.9.9.>.>.o.o.;.;.;.| | Z Z Z | | } Z Z N N Z ' &.;.| | | o.o.o.o.| ' | &.o.| ..| ......| | ....| | | [ [ [ ' D V Z D } =.' Z ' =.W E R H D [ [ [ | | | | | ' Z D } } } } [ Z D W =.$.} } =.} L Z ' D j f f f 4 4 6 j Z Z L L Z W J [ ) Z Z [ C h s , = & * o o @ . @ 4 4 * * H -.W H N } ;.3.>.>.o.o.o.;.&.| =.*.-.Q W W R H H H T <.j h ",
"5.j f 5.=.H j H E Q +.:.3.e.e.e.3.3.3.6.3.<.:.=.W R g d T F.T > * * & < > . * > > s g d d k R R T H V T W =.=.=.=.=.=.' D D } ' D D H D O.=.O.D T O.T D T R j j j g d u u i d u u u y d d j R R R R k j j R E W W W W W E E T R H H H =.=.=.=.=.=.=.R H D =.=.=.W =.*.*.*.<.<.*.*.=.=.=.=.=.=.T =.:.:.=.=.*.=.=.=.&.*.*.=.} &.<.3.3.3.*.&.*.*.*.*.=.O.=.=.=.=.*.<.*.=.O.O.&.<.<.*.*.*.=.T W -.:.=.T W T R R R R P H H T T W W W T H H R R W W W W R R W W W R R R R P B g P R E E R R H H H N N N ' =.O.D Z } ;.3.&.} T W R R R R H g g g f N h s s * O 7 h [ [ ) j h , % sXsXsXsXsXsXsXsXsXsXsXsXsXsXsXsXsXsXsXsXsXsXsXsXsXsXsXsXsXsXsXsXsXsXsXsXsXsXsXsXsXsXsXsXsXsXsXsXsXsXsXsXsXsXsXsXf s j | ..C 3 @ @ C 4.:.=.+.-.-.+.W T T D =.=.D ' *.*.D D =.=.=.=.| ' ' =.=.=.=.=.*.=.' D } =.$.=.=.=.=.T D H T T O.=.=.=.*.=.=.T =.=.=.W =.=.=.=.:.*.=.=.:.<.<.*.=.=.1.<.<.1.*.*.*.*.:.:.:.*.=.=.=.*.&.&.&.;.;.;.<.3.3.<.<.*.&.=.=.T H H D $.=.D Z H H V W =.=.=.=.=.| &.;.=.=.T W =.=.O.O.} =.} =.=.D D =.=.W W T T D T R R V V H R R R W Q Q E P P P H H V T =.=.W T R j H R W W T T T T T W T T T =.W D D D T O.D H Z Z Z D =.=.W D | W W R Z Z Z D Z C h t , , > * o o @ o o 4 , $ * g -.E k H ' ;.e.3.o.o.o.o.o.o.&.*.:.Q Q =.=.T H j j O.<.j h ",
"6.h f 5.*.V H T W +.+.=.*.e.e.e.o.,.e.r.3.*.&.=.W W j g W F.=., * = > h 4 o @ > , f j k P E E Q W E E Q Q 1.C.C.B.-.-.Q Q Q -.-.Q W W Q +.+.Q Q +.-.+.Q W E I P P P P k d g g d k P P P E Q Q B.-.-.-.Q E Q k.B.C.C.B.k.Q Q Q Q E W W +.B.B.B.B.B.B.E E W :.C.C.-.B.C.C.D.D.D.C.B.B.B.B.D.B.-.E Q C.F.F.F.C.-.-.1.C.C.1.:.-.1.D.D.D.5.4.4.C.D.F.F.B.-.-.-.-.B.D.F.D.C.-.Q B.F.H.F.F.F.B.B.B.Z.Z.B.k.Q -.-.-.k.Q I E E E Q Q -.-.B.Q I Q k.B.B.B.B.B.B.B.B.B.-.+.Q Q E E Q Q Y k.k.B.B.Q Q Q +.+.:.4.D.D.-.*.<.5.5.<.=.T R R R R H N j h j N Z h s s * @ 7 0 C ) ) C j , & sXsXsXsXsXsXsXsXsXsXsXsXsXsXsXsXsXsXsXsXsXsXsXsXsXsXsXsXsXsXsXsXsXsXsXsXsXsXsXsXsXsXsXsXsXsXsXsXsXsXsXsXsXsXsX= f s h ) ) h 3 @ * C 4.:.+.:.C.C.-.+.W R T T T =.:.1.:.-.+.-.1.1.1.:.-.Q -.-.-.-.C.C.C.-.-.-.-.B.B.B.B.k.Q k.k.k.B.B.C.C.Z.Z.C.C.B.C.C.C.c.c.v.v.Z.Z.Z.C.C.C.C.C.C.B.k.C.C.C.C.C.C.C.F.F.F.F.F.C.-.-.1.1.D.D.4.1.1.1.1.1.4.D.D.1.1.-.+.Q Q -.1.:.:.*.+.+.+.:.:.:.:.:.:.:.:.4.1.1.-.-.-.-.-.-.-.C.C.C.-.E -.B.B.B.B.B.B.-.B.B.B.Q Q Q Q Q :.D.F.C.B.k.I I I E Q -.B.B.B.B.Q E E Q B.B.B.B.B.B.-.+.E +.+.-.:.-.+.:.:.:.:.:.:.:.1.4.4.4.1.:.:.1.k.Y W J T T T D H j k j f > o @ * o o 4 , * * N :.E R H ' ;.;.o.o.o.o.o.o.o.;.*.=.E E =.*.=.D N j O.<.h h ",
"6.j f 5.=.V O.=.*.:.=.=.&.3.e.e.3.3.e.e.e.3.&.=.=.T H g W D.=.4 = > > h 6 o @ 6 f j j B R W W E R E W Q Q Q C.C.F.1.W R T W T T T W R W Q E E Q E E E W E E E E E E P k k k k k P P P P P E -.-.-.-.-.E E Q Q B.B.B.k.Q Q W W W W =.+.B.C.C.B.k.k.k.Q E W W -.-.B.1.-.Q -.-.-.1.-.Q Q Q -.-.W R W -.1.C.D.1.:.-.1.1.1.-.-.-.:.1.4.<.<.4.4.1.4.4.1.1.-.-.-.B.B.C.D.C.B.-.+.Q -.C.C.D.F.D.1.-.C.C.-.Q Q Q -.Q Q Q Q E E E Q k.B.k.1.Q W W Q -.-.:.:.-.-.-.:.:.-.-.+.+.W W Q -.Q B.B.B.Q Q E Q +.-.1.C.C.1.1.1.4.4.<.=.T T R H T W W D Z C N j C s t s * @ 7 0 C C C j j < * sXsXsXsXsXsXsXsXsXsXsXsXsXsXsXsXsXsXsXsXsXsXsXsXsXsXsXsXsXsXsXsXsXsXsXsXsXsXsXsXsXsXsXsXsXsXsXsXsXsXsXsXsXsXsX> f s h ) C 0 7 > @ h *.&.+.1.C.:.W T T T =.=.T =.=.Q Q W W =.:.:.:.-.-.Q Q Q Q -.F.C.C.-.-.-.Q +.-.:.:.=.W +.+.+.-.:.:.1.1.4.4.1.:.1.1.1.1.C.F.F.C.C.C.-.1.-.1.1.1.-.Q Q Q Q -.-.-.C.C.C.C.C.D.1.+.W -.1.1.:.:.:.-.-.-.-.1.1.1.1.:.-.+.+.+.-.:.:.&.=.=.=.=.-.1.4.4.4.4.:.:.4.1.C.-.-.-.-.-.-.C.C.C.C.Q E +.-.C.C.C.C.C.C.B.B.B.Q Q E E -.C.F.G.F.C.k.Y E E E Q B.C.B.B.B.Q E +.-.-.:.:.C.C.B.:.O.W W +.+.+.+.+.:.:.=.&.&.=.&.=.:.:.1.:.:.:.C.c.Y R D D H H H H k k j f > o @ > o @ 6 4 * > N :.+.j D ' =.o.o.o.>.>.>.o.o.| =.T R R =.<.*.} Z Z =.3.h h ",
"4.h f 5.=.D O.&.<.<.:.&.*.3.e.e.e.e.e.e.e.e.3.;.| } C f R D.*.6 3 3 3 C 0 o @ 6 h s f f h h h g B N D D D V H T -.=.[ C ) ..[ ....Z [ ' O.H B B g g g H H j g j g g d d f f f d g g d d d g H T V N N N N N N N D W W T Z C C C C Z [ ' ' T T T W W W D D D D W =.=.D N Z ' } =.} [ L C L L C C _ [ } | ;.;.| | [ ' ' Z Z | | | | ..| =.| ;.| ....| | ..} =.=.=.=.=.' [ ) ) [ | | | | | | Z L | } | Z Z N N Z V D D N N D T D D L L C C L Z [ | | | | | } } } [ [ Z C j C Z O.O.T T H D D H D T =.=.W W =.=.=.W T V H T T D H D D =.&.=.O.j j s s s * O 3 0 C C C h h < * sXsXsXsXsXsXsXsXsXsXsXsXsXsXsXsXsXsXsXsXsXsXsXsXsXsXsXsXsXsXsXsXsXsXsXsXsXsXsXsXsXsXsXsXsXsXsXsXsXsXsXsXsXsXsX, h s h ) C 0 3 * * h &.O.O.&.&.=.} | =.| | | } =.H N R T =.=.} =.=.} } } D N Z ' *.=.} ' } | | { o.o.o.) ) ) ) ) ) ) [ ........[ ) ) ..| ....| } | | | ..| | | | | L | Z Z [ } } } | | | | | } [ C C ' ' | [ [ | } } } | | | =.=.=.=.} } | ......) ) L C _ [ } =.=.| | } } | =.} D N Z Z D H D D D H T R H V D W W W W T R R R V N N j H ' ' } ' D H H j B H R T W D N N Z Z [ [ [ [ [ ' ' O.O.' Z Z Z D D D } =.} | | | ..| | } } } } } =.-.c.E N C C h h f s t t , > * o o @ . * h 6 * , H 4.+.H H O.| ;.,.,.3.9.e.3.o.| | =.=.=.*.<.3.;.| ' =.6.h h ",
"4.h f 5.*.V ' &.*.<.:.<.3.e.e.e.e.e.u.e.e.e.9.>.3.| C h V G.<.h > = 4 C C @ o 4 s < t f h C C C Z Z [ ..} [ C Z | } C C [ | [ ....o.o.....| &.=.W N h j Z N g j h h h f f f h j j j f h h C ) ) C C C C ) C c 0 C ..o.| | ) ) L C C ) { { [ ..| o.| | ..| ..| | ..| ..) { o.o.o.o.o.o.) ) ) ) )  .X.o.o.o.7.o.o.X.) ) ) ) o.o.o.X.o.7.7.o.7.o.o.o.o.o.o.o.X.X.X.o.o.o.{  . .X.X.X.X.) ) ) ) ) ..o.o.) ) ) ) ) ) ) C C C [ ..| [ ) ) [ [ [ ..[ [ ..| o.o.| | o.o.o...) ) { ..o.....[ [ ..o.| [ [ } | ;.;.;.;.=.' D ' } ' =.} ' D N N Z D D j N h s s * O 3 0 C C C f f , $ sXsXsXsXsXsXsXsXsXsXsXsXsXsXsXsXsXsXsXsXsXsXsXsXsXsXsXsXsXsXsXsXsXsXsXsXsXsXsXsXsXsXsXsXsXsXsXsXsXsXsXsXsXsX$ , g s f ) C 9 3 @ $ f T H D O.' [ | o.;.o.o.o.;.| N j H ' | | o.| | o.o.o...) ) o.o...o.X.o.X.X.| | ........{ { { ) ) ......| o.o.............[ [ | ........o.o.o.X.) ..X.X.X.X.X.X.X.o.o.o.o.o.X.X. .) X.X.X.o.o.o.X.X.X.o.o.o.o.o.o.o.o.o.o.o. . .X.X.{ ) ) { ....{ { { ..o.o. .) ) C ) ) C h C C Z Z N j j N H D H H C N j N L L L C _ ) ) ) ) C C C C _ [ | | ....) { X.X.X.X.X.o.o.o.o.| | ..) ) ) ) | | ..| | ....o.o.o.o.| ..| [ ) ' :.F.-.[ ) ) Z C h s , = , , * o o @   * C 6 * > Z D.:.T H ' ;.;.3.3.o.7.e.3.o.o.o.3.3.;.;.*.*.&.=.} &.6.j h ",
"4.f f 5.*.Z ' =.&.*.*.<.3.e.e.3.3.e.t.t.e.e.e.e.3.o.Z h R H.4.h > > 3 C h o o 4 s 4 f s f j C L [ [ | } | | [ ) ) [ Z [ [ [ [ [ ....) ) Z &.4.D.<.Z h h C Z Z C j j N j j j Z [ [ C h h C C C ) ) ) ) [ [ Z C C ) ..o...........) ) ) ..| | | o.o.o.| o.o.o...| ....o.o...o.o.o.o.o.o.| o...)  .X.o.o.>.o.o.o.o.o.o...) ) o.o.7.7.o.o.o.o.| ;.;.o.o.o.o.o.o.o.o.o.o.o.o.X.X.X.X.o.X.{ ) ....| | o.o.) o.o.o.o...) ) ) ) o.o.o.o...o.| o.o.o.o...o.;.3.o.o.o.o.o.o.......| o.o.| ....| o.o.o.[ [ | | o.o.o.o.| Z C [ | | | | | ' N f f f d g N j s s * O 3 0 h C h f s > $ $ sXsXsXsXsXsXsXsXsXsXsXsXsXsXsXsXsXsXsXsXsXsXsXsXsXsXsXsXsXsXsXsXsXsXsXsXsXsXsXsXsXsXsXsXsXsXsXsXsXsXsXsXsX$ < g 4 f C C 9 3 @ o s R H H D N C [ | | | o.;.;.| D N N Z [ ..o.o.| o.o.o.o.o.o.o.o.{ { o.o.{ ) { ....................| ..o.o.o.o.o.o.o.| | o.[ | | | ....o.o.o.7.o.o.o.o.o.o.o.o.o.o.o.o.o.o.X.X.X.X.X.o.o.o.o.o.o.o.o.o.7.7.7.o.o.o.o.o.o.o.o.X.X.X.X.X.X.X.X.X.o.o.o.o.o.o.X.X.X.) ) { ..C C ) [ Z Z j g g N ' ' D H C j j Z | | [ ) [ ..o.o.o...) ..| ..| o.o.o.o.o.o.o.o.o.o.o.o.o.o.o.| | ....[ ) [ ....| | | ..) { X...| o.| ....) [ 1.C.-.[ ) [ Z C h 4 = = & * * o o o . * C 6 * = H D.1.W D ' =.;.;.o.;.9.e.9.o.o.>.9.>.o.o.;.| ' D D *.6.j h ",
"<.f f r.*.Z ' =.&.*.*.3.e.e.e.3.e.u.t.t.t.e.e.3.o.} Z h T H.D.C 4 , , 0 0 @ * 4 4 , f s h N ' } | | } D ' } } [ [ ) ) ) ) ) ) { ..[ [ L } <.1.1.$.Z C C Z Z Z N N N N N j j Z } | [ ) ) ) [ [ [ [ | | } D H D ' | ;.o.| | | o.o.| [ [ [ | =.=.| | &.| ;.3.3.o.| ..| 3.3.| ..| o.o.o.o.o.o.o.o.o.o.o.3.3.3.3.3.o.o.;.| [ | o.o.9.9.o.o.o.o.o.>.3.>.o.>.o.o.| | o.;.;.| o.o.o.o.3.o...) ..| o.o.;.o.o.| | o.;.;.o...[ [ ..3.>.o.o.o.o.>.>.>.3.o.o.o.e.e.>.o.o.o.o.o.3.3.o.o.o.o...| | o.o.o.o.....| ;.o.| >.,.| ) L ..o.o.o.o.| Z N j g f s g Z h 4 < * O 7 0 h h h s 4 * $ $ sXsXsXsXsXsXsXsXsXsXsXsXsXsXsXsXsXsXsXsXsXsXsXsXsXsXsXsXsXsXsXsXsXsXsXsXsXsXsXsXsXsXsXsXsXsXsXsXsXsXsXsXsX$ < h s 0 C C 9 3 @ o s R R H H N N Z [ Z Z } } ' } D N N D Z | ..| | o.| | o.o.o.o.o.....o.o.| [ ..o.o.o.o.o.o.o.o.o.o...X.o.>.7.9.9.>.>.9.>.o.o...o.o.o.o.....o.>.>.o.....| o.o.o.o.o.o.o.o.o.o.o.o.o.o.o.o.o.o.o.o.o.o.>.9.9.o.o.o.o.>.>.o.o.o.o.o.o.o.o.o.o.o.o.o.o.o.o.o.o.o.o.o.o...[ [ Z [ } } D T D N C Z | | | | D H D ' | | [ ....o.o.>.o.....| o.| | o.o.o.;.;.o.o.| o.o.o.o.o.....| [ | | | ..| | | ' [ ........| ..| o.| | [ ) | <.1.=.| ..| Z Z C h s t & & * o o @ o > C 6 * > N D.:.D Z [ ' [ [ | 3.e.e.9.>.>.9.9.>.o.o.;.} H H H *.6.j h ",
"4.6 6 y.<.' } | | o.e.u.u.u.u.e.e.e.e.t.u.e.e.o...[ C g T G.5.j 4 3 3 6 6 @ @ 4 4 , s s h C [ | | [ [ [ ) ) ) | ) ) ) ) [ [ | | [ ) ) ) [ } =.' | | ..| [ [ D N N j j h j j C [ ..{ { | [ | ) ) o.o.o.| ) [ | | ..........o.o.o.o.| L [ } | | | | =.| o.3.3.o.| | o.3.3.o.o.o.o.o.o.o.o.7.7.o.o.o.9.9.e.9.9.9.9.o.o.o.[ [ o.o.9.9.7.7.o.o.| o.9.9.9.9.7.o.o.o.o.o.o.o.o.o.o.>.>.o.o.{ o.o.o.o.o.o.o.o.o.o.o.>.o.o.o...o.o.o.o.o.e.>.o.9.e.e.o.o.o.9.e.e.o.o.o.o.e.e.e.>.o.o.o.o...{ ..,.3.;.o.....o.o.| | | | [ [ | | | | | | Z H j d f f h H j < , @ X 3 0 h f 6 4 4 * * , sXsXsXsXsXsXsXsXsXsXsXsXsXsXsXsXsXsXsXsXsXsXsXsXsXsXsXsXsXsXsXsXsXsXsXsXsXsXsXsXsXsXsXsXsXsXsXsXsXsXsXsX@ . , f 4 6 ) C 6 > @ @ s R H H H j j Z ' [ [ [ } } | ' Z N D Z L ) [ ..o.o.o.o.o.o.o.o.....o.o.o.o.) X.o.o...[ ) ) o.o.o.{ { o.o.o.o.o.o.9.9.7.o.o.o.o.o.o.o.o.o.o.9.9.o.o.o.o.o.9.o.o.o.o.o.o.o.o.o.o.o.o.o.o.o.9.9.9.9.7.9.9.9.9.o.o.o.9.9.o.o.o.9.7.o.o.9.9.o.X.X.X.o.o.X.X.o.o.o.o.o.o.) ) ) | | | | | [ _ [ o.o.o...| } | | ..| o.o.o.o.o.o.o.o.o...o.o.o.o.o.o.| o.o.>.>.o.o.o.o.o.o.o.o.) ..| ..........[ | | ..{ X. .X.o.o.o.o...| ......| | ....[ [ Z j h f s , = * o @ o   * h 4 @ * N :.=.C ) [ [ [ o.o.e.9.9.>.o.>.9.o.o.o.o.3.;.' H H =.6.j f ",
"<.f h y.<.' | | o.3.u.p.u.u.u.u.u.e.e.e.e.u.e.e.o.| N g W H.D.j 4 > 4 h h @ @ 4 , , s s h Z Z [ [ ) C C [ ) ) ) ) ) ) [ ) ) ) ) ) ) ) ) [ | | [ | ..| ....[ D Z Z Z j h j Z [ [ { { ....o.....) { o.o...[ ..| ........) | ..o.o.o.| [ [ ' | | } =.*.;.;.o.o.o.| | o.3.3.o.o.o.o.>.9.9.9.9.9.9.9.9.9.9.e.9.9.9.9.9.>.o.o.o.7.9.9.9.7.o.o.o.o.>.9.9.9.9.9.7.o.o.7.o.o.o.9.9.>.>.9.o.o.o.o.9.9.o.o.o.o.o.>.9.7.>.o.o.o.o.o.o.o.o.7.9.9.9.9.9.9.9.o.9.9.9.>.o.o.o.o.e.e.e.>.o.o.3.>.o...o.o.>.3.o.o.o.o.o...| | | [ | | | [ [ [ [ Z N j g d f j D h < , o . 3 0 6 6 , , 4 * o o sXsXsXsXsXsXsXsXsXsXsXsXsXsXsXsXsXsXsXsXsXsXsXsXsXsXsXsXsXsXsXsXsXsXsXsXsXsXsXsXsXsXsXsXsXsXsXsXsXsXsXsXsX  > s , 6 h 6 4 @ @ @ s R R D H j N ' ' } } } ' } =.=.=.' Z C C ) ....o.....o.o.o.o.o.o.o.o.o.o.o.o.o.......) ) ) ) ..o.X.X.o.o.o.>.>.9.9.7.o.o.o.o.o.o.o.o...o.9.9.7.o.o.o.o.o.9.o.o.o.o.o.o.o.o.o.7.o.X.X.o.o.9.7.7.9.9.9.9.9.9.7.o.7.9.9.o.o.o.9.9.9.9.9.9.7.X.X.X.o.o.X.X.o.o.o.o.o.o.o.....o...| | | | | | o.o.| ..| | | | | o.o.o.o.o.o.o.o.o.o.o.o.o.o.o.o.o.....o.>.9.o.o.o.o.o.9.o.o.o.o.o.o.o.....[ [ | | [ ) { ) ) ) ........{ { { [ [ [ ) { [ [ Z h f f s , = * o o o   * h 6 * > Z <.=.Z ) | o.o.o.e.e.9.9.>.o.o.>.o.o.o.>.3.3.&.O.D =.6.j f ",
"<.6 h y.<.' } | o.e.p.u.u.u.u.u.p.u.e.e.u.e.e.e.3.;.Z g W H.D.j 4 * 4 C h @ @ 4 , = s f g N Z Z [ ) C ) [ [ | | L ) [ | ..) C C ) ) C _ | | ....[ ........[ Z Z [ Z C C Z _ [ [ [ | ..o.o.....) X.o.o.......| | ....o.o.| | ..| | } [ [ ' =.T H H T | o.o.o.| | | o.o.o.o.o.o.o.>.9.e.9.9.9.9.9.9.9.9.9.9.9.9.9.9.o.o.9.9.7.9.9.9.7.o.o.o.o.o.>.9.9.9.9.7.7.7.7.o.o.7.9.9.>.>.>.9.o.o.o.o.;.o.o.o.o.o.9.9.o.o.o.o.o.o.o.o.o.7.7.9.9.9.9.9.9.9.9.9.9.9.9.o.o.o.o.o.e.9.9.>.o.o.3.o.o.o.o.o.3.;.o.| o.o...| | | | | | ..Z Z [ Z Z N j g i u B D f , , o . 3 6 6 4 > , 4 *     sXsXsXsXsXsXsXsXsXsXsXsXsXsXsXsXsXsXsXsXsXsXsXsXsXsXsXsXsXsXsXsXsXsXsXsXsXsXsXsXsXsXsXsXsXsXsXsXsXsXsXsXsXsX> s , 4 6 4 > o o o f H H H j h N } | } ' ' ' ' ' ' ' Z C C ) ..| | ..) [ ......o.o.o.o.o.o.o.o.o.o.) [ ..) ) ) ) { { X.X.o.o.o.o.o.o.o.o.o.o.o.o.o.o.o.o...o.o.7.o.o.o.X.X.o.o.o.o.o.o.7.7.o.o.o.7.o.X.o.o.o.9.9.9.9.9.9.7.9.9.9.o.9.9.9.X.X.o.7.7.7.7.7.7.7.X.X.7.o.o.X.X.X.o.o.X.o.o.o.o.o.o...[ | } } =.| ;.o.| | } | | | | ..o.o.o.o.o.o.o.o.o.o.o.o.o.o.o.....[ ..o.9.o.o.o.o.7.9.9.o.X.o.o.o.o...) ) [ } &.} [ | | ..| | } [ ) { ....| } [ | | | [ N h f f s , = * o @ o   * h 6 * > Z 4.=.Z [ | o.o.o.9.9.9.9.o.o.o.>.9.9.o.>.e.3.*.=.D &.6.h h ",
"<.6 0 r.*.Z [ ..>.u.p.u.e.e.u.u.u.u.e.e.e.e.e.e.3.&.Z g R F.4.j 3 * 3 C h @ @ 4 = & s g d f j Z [ ) ) [ | =.&.| | Z ' =.=.' ' } } D T T O.} | | ) ) | | | [ Z Z [ [ [ Z Z [ [ | ......[ ......{ ) ..o.....| | ' ' | o.o.....| | [ [ ' [ ' T H g j R [ | | | | | | ........| o.o.o.o.o.o.>.9.9.9.9.9.9.>.o.o.9.9.o.o.o.7.7.7.9.9.9.o.o.o.o...o.o.7.7.9.9.7.o.o.o.o.o.o.o.o.o.o.o.9.9.o.o.o.o...) ..o.o.o.o.o.o.o.;.o.o.o.o.o.o.o.o.9.9.9.e.e.9.9.9.9.9.9.>.o.o.o.o.o.o.>.9.>.o.o.o.o.o.3.3.;.;.| ;.;.;...| | | | | | [ Z Z Z C N g g d d u h N f , > o X > 4 4 = % > 4 @       sXsXsXsXsXsXsXsXsXsXsXsXsXsXsXsXsXsXsXsXsXsXsXsXsXsXsXsXsXsXsXsXsXsXsXsXsXsXsXsXsXsXsXsXsXsXsXsXsXsXsXsXsX> s , , 4 4 ; o o o f H j j j h Z =.=.' D ' O.O.' ' D Z [ [ | | | ..[ [ [ [ | ..o...{ o.o.o.o.o.o.[ C [ [ [ ) ) ) { { { X.o.o.o.o.......o.o.o.o.| | o.o.o...o.o.o.o.o.o.o.o.o.o.o.o.o.o.o.o.o.{ o.o.o.o.o.o.o.7.7.7.o.o.o.o.9.9.9.>.9.9.9.X.X.o.o.o.o.o.o.o.X.X.o.7.o.o.X.o.o.o.o.X.o.o.o.o.o.o...[ [ ' ' ' | | =.=.=.=.=.} ' [ [ ..o.o.o.o.o.o.o.o.o.o.| | ........| ..o.o.o.o.o.o.o.7.9.o.X.{ ..o.o...) ) [ } &.=.=.&.;.*.4.<.=.Z [ | ;.;.=.} [ ....[ Z C f s s t , = * o @ O X * h 6 * > N 4.=.Z [ | o.o.o.9.9.9.o.o.o.>.>.9.9.9.3.3.3.=.=.T *.r.h h ",
"<.6 h r.:.Z ) ..o.e.u.e.e.e.u.u.u.u.e.e.e.e.e.3.3.&.N g R C.4.j 4 * > h 6 O @ , = & s f f s f C ) ) ) [ ;.&.} } | ' D =.=.T T =.=.W W W T D Z [ [ [ [ [ [ [ _ N } =.' N N ' [ | | } Z C ) [ [ ) ) C C ) [ [ [ Z Z [ ....| | } Z C Z [ ' ' D H H H T ' =.' D D } } } ..| ......o.o.o.o.o.o.o.o.>.9.9.>.o.o.X.o.o.o.o.o.o.o.o.>.o.o.o.....| ..| o.o.o.o.o.o.o.o.o.>.o.o.o.o.o.o.o.o.o.o.o.o.| [ ) ) o.o.o.o.o.o.| | ..| | | | | ..o.o.o.3.3.3.o.>.>.>.o.o.o.o.o.o.| | o.3.3.o.o.o.o.o.;.;.o.| | | ;.;.| [ } } | | | [ Z Z Z Z N j g j d d u s h 6 , = o X * 3 > * $ > 4 *       sXsXsXsXsXsXsXsXsXsXsXsXsXsXsXsXsXsXsXsXsXsXsXsXsXsXsXsXsXsXsXsXsXsXsXsXsXsXsXsXsXsXsXsXsXsXsXsXsXsXsXsXsX* , > > 4 3 > o X o f H j j j j N D D D D ' O.O.' O.O.[ ' } =.| | [ [ | [ [ [ ..{ { ) ) ..o.....| [ C C C Z C C [ ) ) { ..o.o...| | [ ....o.o...| ;.;.| ......o.o.o.o.| o.o.o.o.o.o.o.o.| | [ ) [ X.o.o.o.o.o.o.o.o.o.X.X.o.>.>.o.o.o.o.o.X.{ ..o.....o.o.o.o.{ o.o.o.o.o.o.o.o...) [ ............[ Z D ' ' ' ' ' D ' O.=.T T H Z [ [ | | | | ........| | Z Z [ [ ..| | | | o.o.o.o.o.o.o.o.{ ) ) ......[ [ [ Z =.&.&.=.=.&.:.:.O.D D ' ;.=.' ' [ ) [ Z N h f s s , = * * o o o X * h 4 * * Z 4.*.Z [ | o.o.9.9.9.9.o.o.o.o.>.>.>.3.3.3.=.=.T D &.6.j h ",
"<.6 f r.*.Z ) [ o.3.e.e.e.3.e.9.e.u.e.e.e.e.e.;.| ' N h R F.4.j 3 * > 6 4 # @ , = & t s s s f h C ) ) [ ' Z N Z [ [ ' ' D N N H T T T H N Z [ [ L Z Z Z D D Z N ' O.N h h N Z D ' D C h C [ L L C h 0 h C Z N j j Z Z [ [ } Z j j C C Z H j j B D D T T H g g H D Z Z [ [ [ [ [ ....| | | ....o.o.o.o...) ) ) o.......o.o.o.o.o.o...) C Z [ | ..o.o.X...{ ) ..o.o...{ ) [ ) [ ....) ) ..[ ' N C L ) [ ..| | [ ' ' [ Z Z Z [ [ C ) { o.o.| ....| | | ..[ ) [ | | [ [ | o.o.| | | | | | | | Z Z ' =.' Z L [ [ Z ' D Z j N D D Z j g g d u u h h 4 = * o X * > > o . * > @       sXsXsXsXsXsXsXsXsXsXsXsXsXsXsXsXsXsXsXsXsXsXsXsXsXsXsXsXsXsXsXsXsXsXsXsXsXsXsXsXsXsXsXsXsXsXsXsXsXsXsXsXsXsX$ $ @ 3 4 > @ X o f N h h j j h j j H D D D D D } } Z Z H D D D Z [ [ [ [ [ ) ) [ C C [ [ [ [ L Z C j j j h f h L L L [ [ [ Z D ' ' } ..o.[ Z ' =.O.[ L L ) ) ....) [ ) { ..) ) ) ) ) [ Z h h Z [ ) ) [ ..o.o.o.) ) ) ) ........) { { ) ) L [ | L C ) [ ) ) ) [ [ [ [ [ [ [ [ C C Z C C C L [ Z Z C N D D ' Z N h j H H H H H H N C [ ' [ Z [ [ [ [ [ Z h j Z [ [ | } [ [ ..o.o.o...[ ) [ C C C Z [ [ [ ) [ C [ ' [ L j Z ' D D H Z Z Z Z Z C C C C N g h f f t , = * * . o o   * 6 4 * * H D.+.N Z [ o.>.9.9.9.e.o.| o.o.o.o.o.o.;.=.O.D D H =.4.j h ",
"*.6 f 5.*.Z ) [ ;.3.e.e.e.3.e.e.e.u.9.9.e.e.3.| _ Z j B W G.G.C > * * , > o @ > = & < s f h h h C ) ..[ h h j Z C ) [ ..L h j Z ' ' _ C C C ) C C C N Z D H Z N N j f h f h C N N N h h j Z C C C h 6 6 h j h f h h C C ) [ Z h C N j h f u u j H H H H j d f B H C C C [ ) [ ) ) [ [ } Z C C ) [ ....) C C ) ) | L C [ ..) ) ) ) [ h j h Z [ [ ) ) ) ) C C ) ..{ C C C C C C [ ) C C C C j h j C C C [ | [ j j H Z N N j N C C C ) ..| ) C ) ) [ [ C C C C [ [ Z Z } | [ ) L C [ | | [ Z Z Z H H N j Z L C Z Z N j f h N D Z j d i u u s Z ) 4 * * X X > 3 * o . o > * o @ * sXsXsXsXsXsXsXsXsXsXsXsXsXsXsXsXsXsXsXsXsXsXsXsXsXsXsXsXsXsXsXsXsXsXsXsXsXsXsXsXsXsXsXsXsXsXsXsXsXsXsXsXsXo $ . o 3 4 > * X o f N h h N j h h j H O.O.=.D Z Z ' ' D H H H N j C C Z Z C C ) Z j h j j j C C [ Z j f f s s f h C C Z Z j f g j H Z [ ..C h j j h h h C C ) [ ) h h C ) ) ) ) C h h j f u f N Z C h C [ [ [ ) / h Z _ C C ) [ C C C C C C C L h 6 h C C C h C j j j C [ [ C h f j j h f h C N h s h N Z ' ' N f f g f f g H H N j N Z j h N Z C [ j s f j N Z [ Z C h h [ [ ) ) ) ) C j h h h N N Z Z C C 0 c C L C c L Z Z Z L C C C C C C h h j g g g g f t , = * * . o X   @ 6 4 * * H D.-.N Z ' o.>.9.9.9.e.o...| o.3.9.>.;.&.=.O.D H j T <.j h ",
":.f h r.:.Z _ [ ;.r.3.3.e.e.9.u.p.e.o.3.e.e.;.| ' Z j g T G.D.C , * * > > X o > & & , , 6 f h h h C [ Z f 4 6 j C C C h h h j j j j h h h h C Z N h s s N N h h s s s 4 s h j h s 4 4 s f j j C h f 4 4 f f s s < s s h N C j f f f h h s t t s g g f f g g d d g f f f 6 h j j Z Z j j j j j j C ) C h 0 0 0 h h 6 h ) ) 0 f h h h s s f j Z _ C f f f h 0 C Z C h f f s 6 C Z C h f f s t < s h j C N C f f f h B f s t s h h h [ ' Z h h h C j f 6 s f j j Z Z j j N N j h f h N Z j j g g j f 4 f Z C C h h h h f s f j g f u u s f Z [ h > * * X X > 6 = . . o % , f h f sXsXsXsXsXsXsXsXsXsXsXsXsXsXsXsXsXsXsXsXsXsXsXsXsXsXsXsXsXsXsXsXsXsXsXsXsXsXsXsXsXsXsXsXsXsXsXsXsXsXsXsXsX. . . o 3 6 > @ . o 6 N f h C C h h j H T =.=.C f j Z ' j d d f d g f h h f f h C h h h f f s f h C N g s < , , , 4 f h j h f t t t f h C N f f s u f f f j j j h 6 4 f j h h h h h h f s s t < s s s 4 h C [ h f s f f f f j j f 4 6 f f f f h 6 4 4 6 h C h 0 6 4 s f h h h 6 6 6 4 4 6 f f 6 4 < < , s j D D h 6 s s s s t s h h f h h f s f h j h f f 4 4 f j N j f s s f j N Z j f f f s f g g d f f f t 6 6 f f h h h h j h f s f f f j h s s f g g d j g t & & = * . X X   @ 4 , o * R D.+.N N } ;.9.9.9.o.3.| ..o.>.3.;.=.=.&.=.] H H j D *.j h ",
"1.f f 5.:.Z [ ..;.3.3.e.3.3.e.e.e.o.o.;.e.3.;.;.;.} j g R D.4.C > * * > * X o * % % , , < 4 s s f f j j f 4 4 s f f 6 6 s f h f s s f f 6 6 4 s s < < < f h h f s 4 4 , , 4 s t < , , 4 s h h f 6 < , 4 4 s < < < < < < s s s 4 4 4 s s s t t t t t t t f f u t u s s < < 4 s s f f s s s s s f h h f 6 6 6 f f f s f j f 6 4 6 6 6 4 4 4 s f j f 4 < < < , 4 f s < , , , < 6 f s 4 , , , , , , s f < t < < , < t s t , , < 4 s f h h s s s 4 s 4 < , , s h j g g f f f f f f s s f f h g g d d s t 4 h h f f f f f f t f g g d d j g g Z [ 6 $ $ $ X X @ > * . o * > < f g g sXsXsXsXsXsXsXsXsXsXsXsXsXsXsXsXsXsXsXsXsXsXsXsXsXsXsXsXsXsXsXsXsXsXsXsXsXsXsXsXsXsXsXsXsXsXsXsXsXsXsXsXsX$ o o $ > , ; o o o 4 Z h f N N N g d d g N N f 4 s j Z g u w t t t f f t , > < f f s 4 s s s t s f f f t , = = > , 4 4 s t t t t t t s s s s t t t t t s s 4 s 4 4 , 4 4 4 4 4 4 , > , , , , , > , , , 4 f h 6 6 s s s s s f s 4 , 4 4 4 4 , , , , 4 4 6 h h 6 4 < < 4 4 4 4 4 4 4 4 , , , , , , , , , , t s 4 4 , < < 4 , , , 4 4 6 f s < , , 4 4 s s 4 , , 4 f f f s s s s f f f s , , , s f f s t , , < , < < 4 4 s s f s s , , , , , s s < , , s f f f u t , & & , * X X     @ 6 , * * R C.Q h N } o.9.9.e.e.*.&.| o.3.;.| D =.*.&.' Z j j T *.j f ",
":.f h 5.:.H [ o.3.3.r.e.3.e.u.e.;.;.;.>.>.>.o.;.3.&.N g H D.4.C > @ o * @ X X * $ $ = , , < s s s s s f f s s s s s 4 4 s f f 4 4 s s s < < < > > , < s h h s s 4 4 4 , , 4 s s < , , , 4 f s 4 , , , < < s s s s s t t s f f s < < 4 s s s s s s s u s h h f t u f s s s s s s f f f f s f f g f s s s s f f f f f g f s s 4 6 6 6 4 4 4 u f f s 4 < < , , t s s t t t t t s s s t s s s t t s s s t t t t t t u f f s t t t s s t t t t t t f u t < , < s f f u u u u f d f u u f f f u u t u u t , t s s s s s s s t t s s f g j g g C 0 > o . . . . X o o $ % > > t f B B sXsXsXsXsXsXsXsXsXsXsXsXsXsXsXsXsXsXsXsXsXsXsXsXsXsXsXsXsXsXsXsXsXsXsXsXsXsXsXsXsXsXsXsXsXsXsXsXsXsXsXsX, * $ o o * * o . X X @ 4 , , 4 j T T j f f h h f 4 s h h f u w w x x u u t , = > , s , , , t t t t t s t = = = = , , , < < , t t t t u t t t t t t t t t s s t t s s s s t s s s s t , , , < 4 t t t t t t s s 4 s s s s t s s 4 , > , , , , , , < 4 s s 4 f f s s t t s s s t t t s s < , , 4 4 s s s s s t s 4 , 4 s t s t , , , s s f s , , , < < s s s t , < s s s s s s s t s f s t , , s f f s t t t , , < t t t t s f t , = , < < t f f t , , < t t t t t , > > , @ . .     o 4 > o * R C.+.g Z | o.>.,.o.;.=.=.=.;.3.;.| Z } <.3.| Z N j T <.j h ",
"=.f h r.:.' } ;.<.<.*.3.3.e.3.;.;.;.3.3.9.>.o.o.;.=.N h D D.4.N > @ o * o X # * % $ > , 4 s f f f f s f g g g g h g g g g g f s s f j h f h f s s f j D ' Z h s s f f f f f j j h f f f f j h f s s f f h j j N N j j j N H D Z N C Z Z Z H H D D } D D ' O.D H H H D D D D D H D T T T V D T W T D V V D D H g j R R H j H H D T T T H H T T T D D H H N N H H D H H H H H H H j j j R R l R R D H H H H H D H H N H H N g B H H j j H j j H T T R H N B B g g g j H j H R R R H H H B j d d d j g f h g g g h h h h h f f s f h h h j h > @ @ . . o * $ $ * > , < t f B V B sXsXsXsXsXsXsXsXsXsXsXsXsXsXsXsXsXsXsXsXsXsXsXsXsXsXsXsXsXsXsXsXsXsXsXsXsXsXsXsXsXsXsXsXsXsXsXsXsXsXsXsXf < > & % % o o o @ o o o o o o , j H g f h h h h h j j h g j j g d d f g g g g g g f f f g H j j j j j d f f f g j j g h h h g g j H H j j j g j d g j j R H j j N N g j H T R H H H B g H H T R R R H H j j H j j g g g g g j g g f h g j N N N H H H H H H H R R R E W W T T T T T T T R T =.=.=.=.O.T T W T R T T T R R H j g j H V R j d d j B j R R R R H R R R j l l l l j R R P R j g j j j g j j j g f h h g g g j N g s t f h h g j g h s s s s s s s f f s < , o . X     o 3 * o * H C.+.N ' | o.o.| } Z H W &.;.;.;.o.| &.3.3.3.=.O.R T <.j h ",
"=.s f r.:.' } ;.:.*.=.*.3.e.3.;.=.;.;.>.9.9.o.| } D N g D D.4.C > @ X * o X O * * * 3 4 s f f f f j h h g g j j j g g g g g g f s j j C C C j h j j C Z Z Z j h h j C C C C Z Z Z j j h h Z j j j j j j j j Z Z Z Z Z Z Z ' ' ' [ _ [ ' ' ' ' ' } | } } } | ' ' O.' } =.&.=.=.=.=.=.*.&.=.=.=.*.*.=.=.=.&.=.=.O.T O.=.O.O.=.O.=.=.=.=.=.=.&.&.=.=.=.=.=.=.=.=.=.=.=.D O.O.O.O.D H H T W W W W =.=.O.' ' ' ' ' D D D D D D V V D ' D D T H H O.=.O.T O.O.D D N j H H O.D T O.T T T T T T T H H R T H H H N N D D Z Z Z N C C j h h h j f > @ @ * * * , , < < < s f f g B R R P sXsXsXsXsXsXsXsXsXsXsXsXsXsXsXsXsXsXsXsXsXsXsXsXsXsXsXsXsXsXsXsXsXsXsXsXsXsXsXsXsXsXsXsXsXsXsXsXsXsXsXH g f s < < , , , , > > * o       X * 6 j Z Z Z Z Z Z C C N H H H H H j j H H H H N j g N H D V H H R R R R H N N D O.' D H Z H H V T T T T V H T R R R R T T T T D D D H H D T O.O.O.' D H V T T T T T R W W W W W W T H R R R H j H B H D D T T T O.O.O.=.=.=.W =.W Q +.+.+.+.+.=.=.=.=.W W =.=.=.&.=.=.=.W W =.=.=.=.=.+.=.W R T W =.=.+.W R R W W W W W W W W W W T R R R R R R W W W R R B H H j j j R H g g j N N N N H D Z j h j j j N N j j j h h j j j h f j f 4 , o .       o > * o % H C.+.N Z ' | | | } Z N =.;.o.o.o.o.;.;.3.<.| =.O.R T :.j f ",
"=.s f 5.:.' [ =.*.*.;.3.e.e.e.3.| | ;.>.9.9.;.| D N g j D D.<.h * o X @ o X X o $ $ * * = > > > > > > > , , > > = * * * * * * * * * = , > > > * = > > > = > > > = = > > > > > > > = * * = > * * * * * * = = > > > > , > > > > > > > > > 4 4 4 4 > > > > , > > > 4 , 4 4 4 4 4 4 4 4 6 6 4 4 4 4 4 4 4 4 4 4 4 4 4 4 4 4 , 4 , 4 4 4 4 4 4 4 4 4 4 4 4 , 4 4 4 4 4 4 4 4 4 4 4 4 , , 4 4 4 , , , , , 4 4 4 4 4 , , , , , , , , , > , , , > > > , > , , , , > > > , 4 4 , , , , 4 4 4 4 < < 4 4 4 4 4 < < < 4 4 4 4 4 4 < < 4 4 < 4 4 4 * . $ * * , < s f h g g B H B R W W P P I sXsXsXsXsXsXsXsXsXsXsXsXsXk sXsXsXsXsXsXsXsXsXsXsXsXsXsXsXsXsXsXsXsXsXsXsXE W sXsXsXsXsXsXsXsXsXsXB B B B B g h f f h s u u < > @ X       o > 4 4 4 , , , > > , , 4 4 , , , , , , , , = = , , < 4 < , , , , < t t < , 4 4 4 , , , , , , , , , , , , < < < , , , , < , , , , , , , , , 4 4 4 > > > , , , , > , , < < < < 4 4 , , , , , , , > > , , , , , , , , , 4 4 4 < 4 < < < 4 4 < < < < , , , , , , , , , , , , , 4 4 4 , , 4 < , , 4 4 4 s s t t s s s s s s < < , > > , , , , , , < 4 , , > > > , , > = = > * * > > , > > , , , , > , , , , , , , , > = > , , = * * * * o X         X > * X o j B.W N j H ' =.&.=.} ' =.;.o.| | o.3.,.| } D D H H R *.h s ",
"=.s f 4.&.] [ | | ;.3.e.e.9.e.3.| | ;.3.9.9.;.;.O.N g g H 4.*.4 @   . @ o                               . .                       .   . .     . .                                                                                   .                                         .                     .           . . . X X X X X X X   X X . . .     . .       . . . .     . . . . . . X . . .   X X       . . X X X . . . .     X X                     . . . . . . . . . . X . . . . . . . . . . . . $ $ $ $ $ $ $ % % % % % $ * * * & * < t u u h B H H H R R W W W Q E k P E Q sXsXsXsXsXsXI b b I I P P b P P P i p b r r y i p P E Y E E Q 1.-.Q E E E Y U E -.C.E W I W P P P P R R R R V H V V B B B u u < * o o @ . . . . . . . . . . . . . . . . . . . . . . .   X . . . . . . . . . . . X . . . . . . . . . . . . . .                               .       . X                               X         .                         X X         X X     X X               X X                   X X       X . .   X X     . . . . . . . . .             . . X .     X         .                               . . .   . . . . . .     . . . .                     X @ o . $ N :.W h j H O.} | | | ;.o.o.,.,.o.,.3.3.<.=.T T H H R *.h s ",
"=.s h 3.} h _ ' } ;.3.e.e.9.e.9.>.>.9.9.9.9.7.| D T j f j 1.=.6 @   . . X                           . . . . . . . . . X               . . . . . . . . . .   . . . . . . . . . . . . . . . . .           .                   .                                             .                     . .       X X     . . . .         .       .         . . .           . .       .         . .       . . . X o o . $ $ $ o . . . . . . .   . . . . . . . . . . . . . . . . . $ $ $ $ . . . . o $ % $ $ $ $ % $ % & & : , u f f s < t u u u u t f g d g H V V H R E W Q Q Q W E R P Y Y E Y Q Y I p i i b P P p p i k P p p p w y i y i P P P I Q -.Q Q E I I E E E I E Q I E Q Q Q E P P W W I P I W Q Q E R P B g u t , < < > > > & * * * $ $ $ $ * o . . . . . . . o . . . . . X   . . . . . .   . . . . . .     . . .                                       . .                                                                                                                                 .                                                             . . . . .                                                                                                     @ o . $ g -.W h j j R T D ..o.o.o.o.o.e.e.3.3.3.&.=.=.R j g H &.f s ",
"=.s f *.' j Z D ' ;.3.e.e.e.e.e.e.e.>.>.9.9.o.| O.T H g H 1.=.4 @     . X           . . . . . . . . o o $ % * * * > > * * > > * * > * * = = & & = * & & & * * * * * = , = = * & & % % $ & * & & * * * * * > > > > > * * * * > > * * * * * & % * * = * * * & & * * , , , , 4 4 4 , 4 4 4 > > > > > , > > < < , , , > > , , , > > > > > > > , , > > , < , , > < 4 4 < 4 , , < < , * > , 4 , < , 4 4 4 4 4 4 s s < , s s s t < 4 < s 4 , , < < t < < < < t s u < , < < < > > , , s f f s < , < t t t t t s f g g f u f B R V H g g g B B V H g B R B R R W T B P W E E W W E Q Q W E Q E E E I P i i P I I I p b P I I I n p i P P P I I I I E B.B.Q E I I I I P P P I E E E Q -.1.Q E Q -.Q E I W Q Q Q W P R R R R H g j N B N H N h h j j f f g N g h h f t 4 s f s < < , 4 4 < , > , , , > > , > , , , , < > * * > > > > > > * * & * > > & > < 4 , , , , , , > , , , , > > , 4 4 , , , , = > > , > * * > > , > > * * * > , , > > > > > 4 4 > > > > * , , , > * * > , , , , > > > > > > > , 4 4 4 4 4 , , , , , > < , , > , , * * * * > = > , , , , > = , = = = = = * * * * & * % $ $ * * * * * * $ $ o % * * * * = > * % % * * $ $ $ o . . . . . . . .                     @ o   . g -.W j j g H V } | >.o.o.o.o.;.;.o.,.3.| =.=.T H g H &.f f ",
"*.s f *.' j h Z ' &.;.3.3.>.9.e.e.e.o.o.o.3.3.;.O.R g g H C.O.4 @             . . . . o o o o $ $ * * * * * * > , , , < < < < , , , > , < t t t t t , > , < , , , t s s s t t < < , > > , , , , < < , 4 4 s f 6 6 6 6 < t s s s s t t t u u t t s < < s t , t f f f f s f h N N j j h h h h f f f B B B g g h g g g g B B j H H H H B H N H N B g B B H B j B H H N N H H H H H B g g H V V H H H H j h N V V B g g B R j f f B f f f h B H H B B g g H H B g f f f f f g g h B V T D f t u d d d d g j R R V g f h H H H H V T W W =.:.+.W W W W Q Q W W W W E I Y Q Q Q Q W W E Q Q E E E I I E Y Q E I P b P I I Y Y I P I E E Y k.Y Y Y Y Y I I I I I P P P I E E W Q Q 1.~ Q ~ C.C.-.E E P R E E W E W Q Q W W W T T W W D V V D T T H B W E R P R R R f g H H N B B B d f g f u g g d d g g g j R D V B h g g g g g g f f f f f d d u u d j f f f h h f f N H H B g g H H B g g N N g g g H g f s h N Z N N g g g g B N B N N C Z Z N h h j h h u f g f t u h h g N g f f h g g h h h H N j h h h g f d g g j g f u f f g f u u u d g B B j g d d d d d f d f f f h g B B f u < t t s u s t , , < t t t t s f f s , , < , , > > > > * % $ $ $ $ $ . . . . .           X .   . f +.W j j g j D | >.9.9.o.o.o.o.| } ;.3.&.*.=.T j g H &.h f ",
":.s 6 *.' h h N D =.;.;.;.;.3.e.e.o.o...o.;.;.=.H g f f H :.O.4 @           . . . . . o $ * * > * * > > , , < s f s s s f s < 6 f s 4 s s f f d s d f s h h f s h h N N N j N g h h h f s t s f f h h h j N Z N N Z N j f h j N B g g d d u f f h h j g f f f g j H H H H ' O.' ' ' Z D } D N N B R T R g g N H D D D H R T T T H H H T D T T T V H R T =.=.T T W =.$.=.J D D =.=.T D T W T H N D D N N D W T V H P -.-.R g B V D H V T T T T T T V H H H H B B g j H H V H H T W W H h h h B H H B H H R R H H V V V B H R W =.=.=.-.-.W R W W E W Q Q Q E P P I I E Q Q Q W P R W Q Q Q E W Y I I I g i g b p p P b I P k k P P P I I P b b P b p b n n I I E Y Q Q E Q Q Q E E ~ -.Q E E E E V E E Q Q Q Q W W W -.=.W =.W H B R -.:.=.R B R W W E R R B B N D T W =.W R g H T B d g B j g j H H T T W T T V V H H H V V V V V V H H R R j j H H H N V D D R T =.W H B V T T H H V W W R j H H H N N N Z ' O.T V B g j j j g g N ' | D N N N H Z N H H H g h h g N H H N g N V D D D N N =.=.D Z N D T T R T R R B B H R R T g g g B H R W W R R R R P g g j H V V V H D D H g f s s h h f f f f h g g g h h g g g h h h f f f s s j j f , * * * * * * $ o . o o X             . h =.D f f g j Z | o.9.>.o.o.| | } ' =.;.&.&.T H g f H &.h h ",
"*.6 6 *.' f f j N T =.=.&.;.3.;.o.....| | | | ' N g s s j :.T 4 o           . . . $ $ $ & > , , > * > > > , < 6 f f 4 4 6 6 6 0 h f s s s t t s f f f f h h h h j C N Z D H D N N Z D Z C f f j H H D Z Z D D D H D Z Z Z ' ' D D H N g g g g j Z [ ' N j j f f j D H Z H ' ' } | | =.| ' Z N N N H T R h N D =.=.O.N g H T D H j j H T } =.=.=.D V D =.=.=.T O.=.&.&.} } D ' =.&.=.=.D V H V D D [ ' D D H N D W W -.-.W V V T =.O.' T D N B D D N h f h g g B V V N h h f g H H g f h N N N N N N N B g g B H R V B g j R P B B B R R B j P R P P E E E P y g I I P P W Q W P R W -.-.Q W P I P P P i i B I P k p b P P i i P P P P p p p b P b i p b I I I I I I I E Q -.Q P I E -.Q E I P B B P P E W W R B P E W E R R H g B R Q -.W R B R R H j g B B W W =.W =.=.O.H g N R B d g B B B B T T V H D T T H j B R V D D D D T W D N D T H g H T H N Z N H H D =.T N N D D T D D D D T T T D H D Z Z Z Z [ } T H B f u f f f f j Z ' Z Z Z Z Z Z N j g f h N Z N N Z Z Z D D D D ' ' Z Z ' =.=.[ Z ' =.=.T T H g g H D T =.V B B R R R T =.W R R R R R g g H T =.=.D C h j f f h C C N h h h N N j N D H j f h j h N N N h s s f f h f 4 , > > > > > * $ o o . . .             o h W N 6 s f j N [ ..o.o.| ..[ } ' ' } | =.D j h f f N &.h h ",
"$.4 6 ;.D f s f h H H H ' } | } [ [ ' ' ' Z Z Z j g f s h =.D , X         . . . $ $ $ & * > , , > * > > > > > , , < , > , 6 C C h 6 6 s < , t t f s < 4 s f f h j h f j N Z h s s j Z N h s f j H H H N Z H N N N j j N ' =.' N j h h f f g N Z Z C j h f f f f f j g f f h N D } &.;.} N h j N B g H H H D =.=.=.D h f f H H j g g H D J =.=.O.D N N H H N V D } =.} D ' } =.D ' =.=.H g g V =.' Z Z N g f f g H R V V T =.=.=.D N g g h f f g B f t t f f f B H g u t s f g f f f f g g N B g g B B B u u i g g g f f g g g i i g R R B B R E E E W E P k g P P P P B B P P P W W Q Q Q I B P P E I P B P I P k P P P P i i P P P P P P I I E Y P i k P P P P B B P Q -.-.Q E I W -.-.Q E g B R E E E W W P B P E E P P P P B B P E E P B H j g d d g B B W W T H N N B N g g B j g g g B B R T T B g H T W j d g B V T D H N Z D N h H R H g B B g g h h f f N D N h h N N H D D N g H =.=.T D D D ' D Z N N N N g f t t t u t s f j Z C j h h h h f s t f N H N h h j N V V N N N N N j N D ' ' Z D D D V H g f f g H H H H H R E R H N H N g g g g g d g H D T D N h h s s f H =.D h f f g j g f H T D h < s f h H D N f 4 4 s s , , , , 4 4 , , > * % $ o . . . .           o f T j 4 4 f h h j C L } ' Z Z Z D Z Z Z Z N g f h h N ;.h h ",
"=.< 6 ;.D s s f f g g g j j j j j N Z Z j j j j h f s t f =.N , X       . . $ $ $ % % * , , , , , , , , , , , , < < < < < s h h 6 4 4 4 s s t t t t , t u f f f h s t t f f s t t f h h f s f g j g h h B h s f g f f h N H N f s f f s t f g f s f s f f f f f u f s f f f g H D T D N h h g B B j d g R R H R H g f t t u d f u d g g V V B g g g g f g g B N D D Z N D T T H H H H g i d B H N N g f t u t t t u u i g g g g f s f g g f f u u u u u d i g B g i i i d g g g g u u g g g g g B B B g d u u g g g i g B P P g B V R E R P P I E E R E I I E E R P P P P R P R E Q E E E E P B P E W E P P P P R I I I P B B P P k k P I I I E E P g P P P P R R W W =.1.1.:.-.W W -.-.-.Q E E W Q Q Q Q Q W E R E Q E E E W W R P P E E R T I P g B P P B P E R B g B B B P P P P P B g g B E E R B B H R R P i i g P W T R B B H N H H R P B g g d g g g g g g g f f u f g B B g u u j R R H H B B g g f f f f g f u t t t u u t f f g g f f u u u f u t f g g d t t f d g g f f d g g g f g N Z g f f g g d f g g g j j j g B P P P B g g g g d f u i d d g B H g h f g f s g T D B g d f f d d d B B g u t u u d B R H f t t t t , , t s s s < > = , < > * % % $ o o X       o f T j 4 4 4 s s f h N Z N j j j j h h h f f f h h h Z ;.h h ",
"} , 4 &.D f 6 s s f f f f s f f f g g j f f h h f f s s f =.B * .     . . . $ % * * * , , , , , , > , , , , , 4 4 , 4 , , , 4 4 4 4 4 4 4 4 , , , , , , < < < < < , , , , , , , < < s s < 4 4 4 4 , 4 4 < , , , < < < s s s s s < , , < , < < < < < < 4 s s s t t = > > , < t s s f f s s < u 4 < < < < t s s t t < < , , & > > > , < , < < < < < < < , t t s f f h f h g h f f s s t , t t t t t s 6 < < , , , , , , t , t t u f s s f s t t < < t t t t t t f u u u u f f f f f u t u i g g g B P B g f i i i i g f g j B B B B N B B g g g g g B B B B B P B B N B B B N B B B H B B V V B g g B B B B B g B B B B B B B B B g g g B B B B B B g j B V B B B W W W W W =.=.=.W R =.=.W D H B N B B B H B B B g j B B P R R R H B B P R H H P g i i i i g g B B j g g g B B B B g g g g f g B B g g g f f g g i i i g B B g f u u f f f f d d d t s f s t t u t < t t t t f f f s t t s t < < < < < , , , , , , , , , : > , , < < < < s t < > > > , > > > , < < , > > > , , , > > > > , < < < 6 6 4 < < < < < < 6 6 s s f f f f s s f s 6 6 6 6 s s u t s s t s s t < < 4 , , < 4 4 < s s t , = = , t < < < < t t t f f s , , , = = = > , < < t < > > < s , > > > * * * o o X   o f O.N 4 4 4 4 4 4 f h h h f f f f f f f s s s s s s Z ;.j f ",
"J > 6 &.N , * * , < < < < , , 4 4 < < , , , , , , > , = , g < $ .     . . . . $ $ $ $ % % % % * * * * * * * * * * o o o o o o $ $ $ * % % % % % % % % @ $ $ $ % $ $ % $ $ o $ o $ o $ $ $ $ % o o o o o o o o o $ $ $ % * % % % $ $ $ $ $ $ % & & & $ % * * $ $ $ $ $ $ $ $ % % $ o $ $ $ $ % % % % % & * > = > > > & & % % $ $ $ $ o o $ $ $ $ $ $ $ $ $ $ $ % % & % & & & % % % $ $ $ % & % % % $ & & & & & % & & & & & = > , & & & % % & & % % & & & & & & & & : & % % & * * > > ; : , , , < < < < , , , , t , , , t t u t t t , < , , , , , < < s < u u u f t t u u u u u u u f f f f u t u s s f f s s s s s s f u < , , < < < u s s s s s < < < s f f u f f f f u u f f s s t t u t < , , < , , , , , , , 4 , , < 4 s s s 6 < < < t < < < , , , , , , , , , , , > , > > > > > > , , > : , , , , , : : , : , : & : : : : & % % % % & & & & & & & * * & & & $ % & & & & & & = * * & $ $ $ $ $ $ $ % $ $ $ $ $ % $ $ $ $ $ $ $ $ $ $ & % $ $ $ $ $ . . o $ $ $ $ $ o o $ $ o . . o o o o o o o o $ $ $ $ $ $ $ $ $ % & * * & % $ * * % * @ % % % * & & * * * * * @ @ o o o o o o $ $ $ $ $ $ $ $ $ $ $ $ % % % % & & & % $ $ $ $ o $ o $ $ % & & & & & % % $ $ o o . . . .     o 4 j f = * * * * * * > > = , , , , , 4 4 4 4 6 4 4 , h =.j j ",
"J , 4 =.h % . . . o o o . . . . o o o X X X o X o o o o o > & o * ; * % $ $ $ $ % % & > > > > ; * * ; * % > > & & & & & & & & > ; & & & & & & & & & & * * > , * * > = % $ % & & % % * * = * * % % * $ $ $ % % % & > > > = & & & & & & & * & & > & & & & & % % $ % $ % & * * > > > > > > & & & & = & & & & * * * * ; & > & & & & & & & & & & & = & & & & = > > , , , , , , , < > > > > , < < u s 4 4 < < < , , > > > , , , , , t t , , , , t t t t t t u u t u u g i i t t t < s u u u u u u f f f f f u f d g g g d f i g g g i i e u f f g g g g h h h g g g g g i P I I I I I I E E E I P P B B B V V H B V V R R R B B B V R W W W -.-.=.=.=.=.W T T E E Q Q Q Q E Q Q W E R R P P P P B g g B B N N N f f f h N h h N N B B B h f f f f f h h h h h s s 6 6 6 6 6 6 6 t t t u u s s f t u f f s u u u u f f u t t , , , , , , , : > > , , , t , , , , , > > > > , , > > > & & & > * * * * * * * & > > > * * $ $ $ $ $ $ $ & * * > > & & & % % $ $ $ $ & * * > > & & * * & % % % $ $ * * = = * & & & & & & % & & & & & > > > > > > > > * * * > > > > > > > > > > ; * * = * * * > > > ; % % * > > > * * * > > > = % % & * * * & & * & * > > > & & & : : , , , , , , , , , > < < > > & $ . o . . . . . . . . . . . . . . . . . $ $ $ % t H h h ",
"} > 4 =.T h f h h j C j f f h j C C C C C h C C C C C C C Z Z Z | ;.&.&.=.=.=.=.=.*.*.=.:.<.<.<.*.3.<.=.=.-.:.:.:.:.:.:.:.:.:.1.1.<.1.:.=.=.=.=.Q +.=.:.:.<.<.*.=.:.:.W R E -.+.=.*.*.<.4.:.=.=.*.*.=.=.=.W =.=.-.1.1.1.4.1.:.=.=.=.:.:.:.:.:.1.1.=.W W =.=.W T D T T =.&.:.<.4.1.4.4.1.:.+.=.+.+.Q W =.=.&.&.=.=.=.=.=.W T -.-.:.1.1.1.1.1.D.D.D.:.-.:.4.D.D.G.I.I.I.G.G.G.G.G.G.4.D.D.D.G.G.I.I.G.G.F.F.D.C.1.:.C.C.C.D.D.D.D.1.1.1.C.C.C.C.C.C.C.C.C.1.1.C.F.G.F.F.F.F.F.Z.H.K.H.H.S.Z.Z.H.K.K.K.H.H.H.H.H.'.H.H.H.H.@X@X=X=X@X@XH.H.H.H.H.H.H.H.H.H.S.S.H.H.H.H. X=X X XK.[.[.XX=X=XXX X X X.X.X.XXXXX X X-X-X.X.X XJ.J.L. X X X.X.X-X-X-X-X-X=X X X=X-X:X:X:X:X:X:X:X:X:XXXXX.X=X=X=XH.H.H.H.K. X XH.Z.Z.Z.Z.Z.Z.Z.H.H.H.H.H.H.H.H.H.H.H.H.Z.Z.Z.Z.Z.Z.F.Z.H.H.Z.Z.F.F.F.F.F.G.G.G.G.F.F.G.H.H.G.G.F.G.G.G.D.D.C.C.C.C.C.C.D.1.:.1.1.:.:.1.1.C.C.1.1.1.1.1.-.:.1.1.1.:.:.-.-.W W =.=.:.:.:.*.&.*.*.*.*.*.=.=.O.O.T T T W =.*.*.=.=.*.*.:.*.*.=.=.O.O.O.=.=.=.=.=.W T =.+.+.+.W W W Q 1.1.1.-.1.1.1.4.1.:.-.-.+.+.+.+.:.:.1.:.1.1.1.1.-.=.=.=.:.-.-.+.-.-.-.-.-.Q Q Q W W T T O.=.=.J V H T =.=.T T D H Z D O.T =.$.*.:.*.=.=.T V H V =.*.=.=.T H V =.4.1.=.=.=.=.=.=.=.=.:.-.W H B g N Z Z N N N N N j j j j j j j g f f g B B B B W =.f s ",
"J > 4 =.:.*.*.*.*.*.:.*.=.=.&.&.:.<.:.*.*.*.<.<.<.<.<.*.&.} } ' } =.$.&.&.*.:.:.:.:.:.1.D.D.G.G.I.I.G.1.+.1.F.F.C.F.F.F.F.G.G.G.I.I.I.G.G.G.G.G.F.F.F.G.G.G.I.G.G.G.H.C.B.C.C.C.C.D.G.I.I.G.D.D.F.F.D.D.C.C.C.D.F.G.H.H.U.H.G.F.D.D.G.G.G.G.H.U.U.H.G.H.H.H.G.D.4.1.C.D.D.G.I.H.U.U.U.U.G.G.F.F.Z.Z.F.F.G.I.G.G.G.G.G.F.C.-.:.C.D.G.F.D.D.F.G.H.C.-.-.-.:.C.D.G.H.H.H.H.G.G.G.G.G.G.F.F.F.G.G.G.G.D.C.C.C.C.C.C.C.C.C.F.F.F.F.H.H.H.H.H.H.H.H.H.H.H.H.H.H.H.G.H.H.H.H.H.H.F.Z.H.H.H.H.Z.C.C.F.H.H.H.H.H.H.H.H.H.H.H.H.H.U.@X=X@X@X@XH.K.=X=X=X=X=X=X X XK.K.K.H.H.U.=X XH.H.H.H.H.H. XH.H.H.H. X X X X X=X=X=X=X=X=X X XK.H.K.K.K.K.K.K.K.K.K.K.H.Z.Z.H.H.H.K. X X X=X XXX=X=X'.H.[.=X=X=XH.H.H.H. X=X XK.H.Z.Z.Z.F.F.Z.H.H.H.K.K.K.H.H.H.H.K.K.S.Z.Z.S.H.S.H.H.H.H.H.H.H.H.H.H.H.H.H.H.H.H.H.K.=X=X@X@X=X=X=X=X=XU.U.H.H.H.K.H.H.H.H.H.G.G.F.G.G.H.F.F.H.H.H.H.F.H.H.H.U.H.H.R.H.C.-.1.D.F.G.G.D.D.D.D.D.G.D.4.D.D.D.4.D.4.D.G.G.G.D.1.4.4.4.4.1.:.:.:.:.:.:.:.1.4.4.1.-.B.F.F.C.C.C.C.F.F.F.F.F.C.F.F.F.F.D.C.D.C.C.C.C.F.F.F.F.F.H.H.F.C.C.C.C.D.C.C.B.C.F.F.F.F.F.C.C.C.B.-.-.:.1.4.1.-.+.-.D.D.C.:.=.=.=.=.:.:.4.D.I.I.D.D.4.:.W R W 1.D.4.4.:.W W :.5.<.*.*.*.*.:.:.:.:.1.1.1.1.4.<.4.4.4.4.4.4.4.4.5.5.5.5.5.5.5.1.-.-.1.C.C.F.F.D.1.h s ",
"Z , , H D V Z H H H D R H H H H H V D D D D T =.=.=.D D D Z Z Z Z D Z J D D T W W R V T T W =.=.=.=.=.T B R E E E E E E W W =.=.=.O.T T T T R R E E E W =.=.=.=.=.=.=.E R R R R P W W =.=.R R R W E R R R R E E W W Q Q -.-.Q E R W W W W =.-.:.-.-.+.-.-.-.-.W T R R W =.=.=.-.-.-.-.-.=.W W Q Q Q Q Q Q =.=.W W W Q W R B R W +.-.-.=.W -.-.W R P P P R R W W Q +.Q W W =.+.W W W W E E W +.-.+.+.Q Q E E W W W E E W Q Q Q +.+.+.O.=.+.+.+.W O.=.=.+.+.+.+.=.=.=.W T W T =.=.-.:.:.=.=.=.=.=.=.&.*.*.&.-.:.:.:.:.:.1.1.1.1.1.1.1.-.:.:.D.D.D.D.D.1.:.-.Q Q Q W Q -.-.-.-.-.-.:.:.:.:.:.:.:.=.:.*.*.1.<.<.1.1.1.:.:.:.=.=.*.<.:.:.<.<.<.<.<.*.&.=.=.*.:.+.-.-.:.:.:.:.:.4.4.:.-.-.-.-.-.-.1.1.1.1.4.4.:.=.=.=.=.=.=.=.=.-.:.:.:.-.=.=.=.=.+.+.=.=.+.-.-.=.=.=.=.=.=.=.:.-.-.Q Q -.-.-.-.Q Q Q -.-.-.-.-.-.1.C.C.1.:.-.-.B.B.Q Q Q -.-.+.+.Q Q Q Q Q Q Q Q W W W E Q Q -.-.-.B.Q E P R T W W W W T T W W W T W W R H B H H T T =.T T V T T T T T T T H H H R T T T T R H R E E I R R R T T O.O.W W W W +.+.=.W W E R P E E W E E Q Q E E P R R E W W E R T T T =.T T T W Q E R B H R T E R P P E E E H H N H V R R T W =.=.W D D H g f g H T T T H g h j Z Z N C C Z Z Z H Z T W W =.=.=.' O.O.=.=.=.=.=.=.=.=.=.=.O.T O.O.O.O.O.O.=.=.:.=.s s ",
"[ 4 4 h u < 4 s f f f f f s s s s f h N C j h j j j j C C h h h f j h h h g g j j g f j j j j j j h h h h f s s s s s h h j j j j h j j h h f f f h h h h j h h h f f f s s s s f f h h h s s f g g f f f f f f g g g g g N j h h j C j j j j j j h f h g j j h s s s h C C N N N N N C C j C N N N N B g h h h h g g f f f h h N Z N N C N N N N g h f f f f f f f f s f j N j h h h f h g B j j g j g g g g j j j h h C j h h h h j N N N B h h j j j j j j j j N j h h j j j j N H N Z Z Z ' =.&.=.} D T =.=.=.=.=.=.=.=.=.W T T T T =.=.=.=.=.=.=.T T R R V V D =.=.*.=.=.=.=.*.*.*.*.*.*.*.*.*.*.=.&.&.&.&.&.=.=.=.=.=.=.&.&.&.&.;.&.| | =.=.} } =.=.=.=.=.=.=.&.=.&.*.*.=.W =.=.=.=.=.=.=.=.=.=.=.=.=.=.=.=.=.=.T T O.=.=.O.O.D D D D T T D D T T D D H D D T D D ' D D R R T O.T D H H R R H H N H N N H H H N B B P j j N B B N N j g g j g g H H H j g h h f g g j j g j j g g j j j g f f f d g g f g g f t < 6 4 6 f f f f f f f f f f f f f f f f f f f f f f f f f f f f f f h j h f f f f j j h f h h s s f f h h g h h f f f f h h h j j j h h h h h f f h g f f s s f s u t t t f f f u < 4 f f f s f h h j h h h f 6 4 4 6 f f f f s s s f h 0 0 6 6 0 f 6 6 s h h f h f h 6 h h h f h h h j j j j j j j j j h j j j j N D f s ",
"' , 4 f > > , 4 s s s f s 4 , < 4 6 h C C h 6 f h j h h h h f f f f 4 4 < s u u u t f 6 f f h h f s s f f f 4 4 4 4 6 f f h h h h h h h h f f f f f f f 6 6 f 6 4 4 4 4 4 4 4 4 s s s s s s s s f s < s f s s s s s s s f f f s f h h h h h j j j f f f f f f f 6 6 6 6 0 h h C C h h C C h j j j h h h h h f f f f f s s s f f h j j j h j j Z Z j f s f s s s s s s s f h h h h h h f f f h h f f f f s s f h h h h h h f f f h f j N N h s h h s h h j h f h N Z j f f j h f h g j j N Z D ' =.=.=.' D D W W =.=.' } D =.W D T T W J J W =.=.=.=.=.W V H R V H D D =.*.*.=.=.W =.*.<.*.$.=.-.-.-.-.=.=.=.:.:.*.=.+.+.=.=.=.=.=.&.*.*.&.} =.=.$.=.=.=.W W W W =.=.=.$.*.*.=.=.W =.*.=.=.=.=.=.=.=.=.=.=.=.W W W W T V D D T O.T D H H H T T D D N Z Z H j B H D D D Z _ Z C h N H D Z B h f g H H N N N j N N j f h g g g g g g h s s f f f f u t f f j j j h f f f f g d d d d g g f f f h h f s s s s s t s s s t < < 4 4 6 6 4 6 6 6 6 6 6 6 4 6 6 4 4 4 6 6 4 4 4 4 4 s s t t 6 6 4 6 6 6 4 4 4 4 6 6 6 4 4 4 4 < t s t < 4 4 s s 6 6 4 6 6 f h f h f s s s s 6 6 6 6 6 6 f f 4 < , , , , < t < , 4 4 4 6 f f 6 4 4 6 6 6 0 6 4 4 4 4 4 4 4 s , , 4 f h f 6 6 6 6 6 4 4 4 s < , , 4 4 4 6 6 4 4 4 4 4 6 6 6 6 f h h h f f f f f h j D f s ",
"' , 6 j 4 < s 4 s s f j f f f f h h h C C h s j Z _ [ ) C j h h j j h h u f d i u f j j N N N Z N g f s s f f f s s f j C C C C C C Z C j f f f h g g j h C Z C f f f f s f f f f f f f g j f t s s s s h N j h h h f g g f s s h j C Z Z Z H D D H H H h f f N Z h C C C ) [ [ | [ Z Z Z j j N N H B N H j j g g g g f f f j C Z Z Z Z j H D H j f 4 s f h h h f f h N Z j h h h j f f f h h j j C N h s s j Z C h j j j N N N N h h N g f f H H g g H H j f j H Z j f f h h h g N h h j N D D ' =.=.D T T D W =.=.=.} T =.W T W =.=.W =.=.:.=.:.4.D.-.P P E W W W =.1.1.:.=.=.=.:.4.4.:.=.W =.Q Q -.:.*.:.:.1.1.-.-.-.W W =.} } &.*.1.*.&.*.*.1.<.=.=.+.W W W =.=.=.*.1.1.1.:.:.1.1.:.-.-.-.-.-.=.=.*.=.=.W W W W V V D =.&.=.D H H R R T =.Z N N Z ' T R B N Z D D [ } =.V H V T D N H B g g T T V B j j H H j j j g g g j j g f h h h h g d f u f f f g N N g f f g H R P k g d f h h N N j g f g g g h s t < t s f f f f h h 6 6 h j h j h h f h f s 4 s f h h f s 4 4 s d f t < 4 6 f j j f s < 4 j C h 6 6 6 s s d g d < s s h h f s 4 6 h h C j j h h f h f s f f f s s j j h t < < t t t s s 4 6 6 6 h j h 6 4 6 f h h h 6 4 < 4 f h h f s , , s j N j f f h j j j j h s t t f f s s s f s s f f f f f 6 f f f h f s f f f f f j H s 6 ",
"C > < h f s s s f s f N N j j Z Z N Z Z Z N N D =.&.*.&.=.Z D D O.D H N f f d g g h j [ } W } } } T B h g N H H g g N D ' ' D D D Z Z Z D H N j H H H V Z Z D Z Z N H H g j j N H H H H H V g f f g g B D T T H H B H H H g f f H D D =.=.=.=.=.=.=.W T R H D =.=.O.' [ [ | | &.;.&.=.} } H Z D T W W W =.T R H R T R H B H D ' =.=.=.D Z O.O.H N f f f g H H H g N V T D N h h Z H N h h j j N H D D g g j T D N j j j g N H H H H N H H H R R R H B R T R j j H H N j j N N H V V N g g V D T =.=.=.W =.W T W =.:.*.W W -.Q W Q -.-.-.-.1.D.1.D.D.F.1.Q Q -.1.1.:.1.D.D.1.W W 1.D.G.D.1.-.Q Q E Y Q :.:.:.-.1.1.-.Q Q W W -.=.$.*.*.1.-.=.:.4.1.-.=.=.C.-.E W -.-.1.1.4.4.1.1.1.1.-.-.-.1.-.Q W -.-.-.=.=.=.=.=.W V V =.:.:.=.D V R R T W =.H H H ' =.=.E B B H H D =.*.:.=.W W W T T W W R R W W T H g H D T H H R H j k k P j g g g g g g g g j j j g j R T j d f j R R P P j g h N D W =.D j g R T T H g g f g g H H N N N C j j Z ' ' D H N j N H H g h j H H j h h h j R j f s f j Z H H j f s f H =.' Z Z h h g j j d f d N H H j f s f C Z ' H j h f h N N N N C j f h N H j f f g g d d g g h h j j C N N f f h Z N N C h f t f Z Z j g f t t f j Z N h h C Z D D Z g u t s g j f h h h h f j Z N j f f j Z N g f f f f f f h j H f s ",
"=.g N D H V H B g f g D R j j N N N N H H H V T =.*.*.&.=.=.=.=.=.T H H B H T W W T ' [ D D } } ' V H j j R T T H H D T T O.D D D D N H =.=.=.T H R R V Z N H N D T T H j j T T T R H H H H B j R R R H T W T R H B R R E R B R T T T W W =.=.=.=.W W =.+.+.-.-.=.=.=.' ' ' =.&.&.=.=.=.=.W =.-.+.Q Q W T T R R W +.+.W R T T W =.=.T V H R R R R R H H H R T R g g R R R H g Z O.O.T R R R R R R R R R H H R T D T T H H H H R R T W T W W E R R R P R R R H R T T T R T T T R R T R R T W =.=.-.1.:.-.:.-.W W -.:.:.W Q Q Q Q Q C.1.1.C.D.F.D.D.D.C.C.C.C.C.F.F.C.1.C.C.-.Q -.D.G.G.D.1.1.C.C.C.c.C.C.C.C.F.D.D.C.C.c.Q Q C.1.=.=.-.-.-.-.-.-.Q Q W -.C.C.~ 1.1.1.D.G.G.G.F.C.C.1.1.1.C.C.C.1.1.-.-.1.1.:.-.-.-.-.W W =.:.*.=.W R R R R W =.W T T D T R P P B R T T =.*.:.Q W E E W W Q Q W E E W E R H H T T H R R R P P P P R R H R R H j k R R R R R R W W R j g H T W E P k j H D T T =.T B j R W R R R R R R R T R H H H Z N N H O.O.T H H B N W T R H H N j j j h g H R R B B N N N H j g g g H T D D D D H g g g g d j j H H R H g h j Z ' D H N f f g B R H V D H B g N H g d B R R k g j j h h j j N B g f g j H N N j C h s f N j f d d d d g H N j h j Z D D Z Z g g g g g H H V V H g g j H H j h j H T T j g g g g g g j H T f s "
};
