/* XPM */
static const char *door3[] = {
/* columns rows colors chars-per-pixel */
"600 448 231 2 ",
"   c #050302",
".  c #0A0603",
"X  c #070806",
"o  c #0D0906",
"O  c #070709",
"+  c #0A0708",
"@  c #070809",
"#  c #0E0C0A",
"$  c #110702",
"%  c #120B06",
"&  c #1A0E05",
"*  c #130E0A",
"=  c #190F0A",
"-  c #0F100D",
";  c #151007",
":  c #1B1106",
">  c #15110D",
",  c #1B130D",
"<  c #1D190E",
"1  c #0E0F10",
"2  c #120F10",
"3  c #0F1010",
"4  c #151411",
"5  c #1B1612",
"6  c #171815",
"7  c #1D1915",
"8  c #1A1718",
"9  c #171919",
"0  c #1D1C19",
"q  c #161618",
"w  c #210E06",
"e  c #220F08",
"r  c #231305",
"t  c #2B1505",
"y  c #241905",
"u  c #2B1B05",
"i  c #22150D",
"p  c #2A160C",
"a  c #24190E",
"s  c #2B1B0E",
"d  c #321D0D",
"f  c #331909",
"g  c #221711",
"h  c #291710",
"j  c #241B14",
"k  c #2B1D14",
"l  c #241E19",
"z  c #2A1F19",
"x  c #311E13",
"c  c #391F11",
"v  c #311F18",
"b  c #1F201D",
"n  c #2C210E",
"m  c #34220D",
"M  c #3B240D",
"N  c #36290E",
"B  c #3C2B0C",
"V  c #332206",
"C  c #252016",
"Z  c #2D2116",
"A  c #25211C",
"S  c #2B241E",
"D  c #2A241D",
"F  c #2C251D",
"G  c #2C251F",
"H  c #2E261E",
"J  c #2C231C",
"K  c #2E281E",
"L  c #2F2915",
"P  c #332215",
"I  c #3A2515",
"U  c #352915",
"Y  c #3B2A15",
"T  c #30261E",
"R  c #32251B",
"E  c #39261A",
"W  c #34291E",
"Q  c #3A2A1C",
"!  c #3E3215",
"~  c #36311C",
"^  c #3D311C",
"/  c #3E391E",
"(  c #3D300A",
")  c #1C1F21",
"_  c #211F20",
"`  c #1E2122",
"'  c #1E2729",
"]  c #252522",
"[  c #2B2621",
"{  c #2D2620",
"}  c #2E2721",
"|  c #2D2622",
" . c #2B2621",
".. c #262825",
"X. c #2E2822",
"o. c #2D2A25",
"O. c #252728",
"+. c #262A2A",
"@. c #2D2D2B",
"#. c #292728",
"$. c #312721",
"%. c #312922",
"&. c #312B24",
"*. c #332C26",
"=. c #342B23",
"-. c #3A2D23",
";. c #322E2A",
":. c #392F29",
">. c #382720",
",. c #2E302E",
"<. c #2F3026",
"1. c #363126",
"2. c #3C3126",
"3. c #3D3924",
"4. c #33312D",
"5. c #3B332B",
"6. c #36392D",
"7. c #3D392D",
"8. c #272E31",
"9. c #2C2F31",
"0. c #312F30",
"q. c #2E3333",
"w. c #2F3837",
"e. c #2F3639",
"r. c #2F383A",
"t. c #333533",
"y. c #3A3632",
"u. c #353836",
"i. c #3B3935",
"p. c #323639",
"a. c #353A3B",
"s. c #3A3C3C",
"d. c #393738",
"f. c #422B0C",
"g. c #44260F",
"h. c #44330B",
"j. c #4A350A",
"k. c #553A0D",
"l. c #412514",
"z. c #422C15",
"x. c #422D1C",
"c. c #492F19",
"v. c #462A17",
"b. c #443315",
"n. c #4B3314",
"m. c #43331D",
"M. c #4A341C",
"N. c #45391C",
"B. c #4B3B1D",
"V. c #493B16",
"C. c #523C14",
"Z. c #51351C",
"A. c #543B1C",
"S. c #5A3B1D",
"D. c #543614",
"F. c #412E22",
"G. c #432F27",
"H. c #423324",
"J. c #4A3524",
"K. c #443A25",
"L. c #4B3B24",
"P. c #42352B",
"I. c #49362A",
"U. c #433A2D",
"Y. c #4B3B2C",
"T. c #523D23",
"R. c #523E2B",
"E. c #593B21",
"W. c #413731",
"Q. c #423B33",
"!. c #4B3D32",
"~. c #423E39",
"^. c #4C3F38",
"/. c #503E30",
"(. c #3E4037",
"). c #37403E",
"_. c #3D413E",
"`. c #5A431C",
"'. c #54401B",
"]. c #4E401C",
"[. c #4D4325",
"{. c #45412D",
"}. c #4C422C",
"|. c #4C472C",
" X c #544224",
".X c #5B4322",
"XX c #53422C",
"oX c #5A442E",
"OX c #54492D",
"+X c #5B4B2B",
"@X c #5C4A24",
"#X c #5A502E",
"$X c #56502C",
"%X c #444134",
"&X c #4B4333",
"*X c #4D4935",
"=X c #44423B",
"-X c #4A433B",
";X c #4D4A3A",
":X c #534432",
">X c #5A4532",
",X c #544B33",
"<X c #5B4933",
"1X c #52463D",
"2X c #524C38",
"3X c #594839",
"4X c #5C5133",
"5X c #565136",
"6X c #644825",
"7X c #635535",
"8X c #6C4F27",
"9X c #654419",
"0X c #363E40",
"qX c #393E41",
"wX c #403F41",
"eX c #364042",
"rX c #3C4243",
"tX c #3F4749",
"yX c #414443",
"uX c #4A4642",
"iX c #4C4945",
"pX c #414648",
"aX c #444949",
"sX c #4E4C49",
"dX c #454946",
"fX c #534B43",
"gX c #524E4A",
"hX c #594D46",
"jX c #53514C",
"kX c #575244",
"lX c None",
/* pixels */
"j 5 j 7 l l l j j 7 l A [ A l l l l l l A A A l l l A J J J l 7 l A A A l l l l A A A g j l l j j j l A J J l l l A S X.K A l l l l l l l l A A l 0 7 l l A A l l l l l A A j j j l A [ A A A A l l l l A A l 0 7 7 J S A l l A A A A [ A l l A [ { l l l l l A A A l j l j j l j g 7 g j l l l l l 7 7 l A l g g g j j l l l l l 7 j l J l j 5 5 j l l 7 7 5 5 7 l l l l j 7 0 l l l l l l g g l l l l 7 7 j l A J J A l A A l l l l l l l A l j 7 7 7 7 j l l 7 7 j l l l l j , g J J j j g g j g j l g l l l 7 7 7 7 l l l l l l l l l l l A A J l l j j l A z g , 5 j j j l l j j l l A G l 7 7 l l l l l l j 7 l S K S A l l l l l l l 0 l A A A l l l l l A A l l l l A A l z J l j 7 l l l l l j j l l A A l j 7 7 j j l l 7 7 0 l l l J l g g j l j l l l j l A l l 0 7 6 7 l A A l j l l l l l l l l j 7 l l l l 7 7 l A A l 7 7 7 7 l l l 7 7 0 l A A l l j j l J J l l j j l A S A l l l j j A [ [ l 7 7 7 l A l l g g g l J l g 7 7 j l l l l , , i l z j j l l J J A J J l j 7 l l j g g j j j l l A C l j l A D l 7 7 7 j j j l l g , , 5 7 7 7 7 7 7 j l l l 7 5 5 l J J l 0 0 l l l l j j j j j j 7 l j j l l l l l J A l 7 7 l l A A A l J A A A l l l l l l l l A A l l l l A A l l l l A J J l l A A A A S A g l l l l l l J ",
", l *.X.{ { { { S S { &.*.*.%.{ G { %.&.*.*.X.G G G K =.*.$.J l J G $.%.G G G G G K G J A A A A A A F W %.R S J G %.=.*.%.%.K S J J J S G G %.%.A l l A S { { { S A G G G G J J J A { &.{ J A S { G G { %.=.R G J J R %.G S A G { X.X.G J J G %.%.$.J J J J G %.=.G Z l z z J G J l l l J G G J J J l J X.%.G l l l A A [ [ A A A A S G X.S l l l A { { J l l l J G { { A A A S [ G G A J J J A G G A A l A A G { J G G G G G S J z l J J G G J l l l l A J G G A A A G { A J J J R =.W G G G J J S G { G J S G J l A A [ X.X.[ S S G G G { { { $.{ S A A A { o.o.A l l J A { %.*.X.G { &.*.*.G J l A { G A A A A J K 1.5.*.%.G G A A S X.o.S A [ X.X.{ { G S G %.&.X.D G G G G G R R G J J J J J R J J z J G $.$.G J A l l G &.{ A A A S { { W R J l J S G X.&.{ A S X.&.{ A A A S { X.{ A J G { { { G A S S J l A G G A l A [ &.&.A A A A [ { %.S A A S [ { { J J l A G %.%.%.{ A A G %.=.%.G S A S { &.:.&.S A J S G %.G J l l z J { G Z g g l J J J G Z l J R R J A G G G { { { { A l l A { G A l l Z J D S X.{ G A A { %.A A J J A A A J J J l l l A z j j l J A J z j g j J R R J A J J A { %.{ Z J l l l J K D J J J J D D G %.%.{ A A { X.&.*.%.{ { %.%.{ G A G G { { S S { { S J S G %.%.G J S S G G R $.{ X.%.G %.%.G G G $.$.=.=.=.*.",
", X.Q.7.5.5.4.4.4.4.4.5.5.y.5.*.%.*.5.5.5.7.5.5.*.*.5.7.7.5.=.%.=.*.:.2.:.:.:.:.:.2.:.:.*.*.*.*.*.=.2.5.5.5.*.=.*.2.5.5.*.7.7.:.%.W %.W %.:.5.2.=.R G %.*.*.:.:.=.W %.%.W W W =.=.%.*.:.=.W %.=.*.*.*.*.:.-.-.=.$.R =.*.*.&.=.=.:.:.:.=.%.%.*.5.2.*.*.=.%.%.=.:.2.W G F R W =.*.*.%.G X.*.5.*.*.%.%.{ *.5.7.*.G J G %.*.*.&.G A G %.=.*.*.2.*.W G %.*.*.%.X.G G %.=.*.*.=.%.W *.*.*.%.%.$.%.*.*.*.*.=.%.$.%.*.*.*.W %.*.*.*.*.*.%.%.%.%.*.*.*.=.$.G %.W %.%.*.*.*.*.=.*.*.=.-.:.:.:.:.:.=.:.:.*.=.*.*.*.*.=.*.*.%.G %.*.4.5.5.:.*.*.*.*.*.:.:.:.:.:.*.&.X.&.:.4.5.*.%.%.%.*.5.7.W.5.*.5.5.5.5.1.%.%.*.5.5.*.=.%.%.W =.2.5.5.2.:.=.W %.*.5.5.%.%.%.*.*.5.5.*.=.=.5.5.5.=.*.*.=.=.*.2.:.:.*.=.%.*.2.U.P.:.=.=.:.5.5.*.$.G G X.:.5.5.*.%.%.*.*.5.:.:.=.%.=.:.5.5.7.5.*.*.4.5.:.*.&.*.*.:.*.*.%.%.*.*.*.*.*.*.*.*.=.=.*.*.*.%.%.%.*.5.5.*.%.%.*.:.*.*.*.*.*.*.*.*.*.$.R G %.*.5.5.5.*.%.$.%.*.*.*.=.%.%.*.:.5.5.4.*.K G %.:.5.*.$.J G %.=.*.:.W J J G %.=.%.*.%.R =.:.*.=.=.*.*.*.*.*.*.*.&.{ o.*.5.4.*.G G G %.*.:.*.:.=.%.$.%.=.G G G $.$.$.%.%.%.%.$.R %.%.=.W R W -.:.=.R P R R =.:.*.=.=.=.%.=.5.5.:.=.=.%.W K =.5.*.=.%.=.*.*.*.2.2.2.*.*.*.:.5.5.5.5.*.:.5.5.:.*.=.=.=.:.2.*.*.:.:.*.=.=.2.5.5.5.5.5.5.*.-.2.5.5.5.5.5.U.7.5.5.5.U.U.U.Q.U.U.",
", X.Q.5.5.5.5.5.5.5.5.5.y.y.7.5.2.5.7.7.7.7.7.5.5.5.5.7.7.5.5.5.5.5.5.5.5.5.2.5.5.5.5.5.5.5.5.5.5.5.5.7.P.5.5.2.5.5.U.7.2.W.Q.7.5.:.:.=.*.5.U.5.5.:.*.:.2.5.5.5.:.:.*.-.-.-.:.5.5.:.5.5.5.2.:.:.:.2.5.5.P.P.5.5.:.:.5.5.5.5.5.5.5.5.5.5.5.5.5.5.5.5.5.5.:.5.5.5.5.*.=.%.*.*.5.5.5.5.*.*.5.5.5.5.5.:.*.5.7.U.7.:.=.%.*.4.4.:.%.%.%.*.:.5.2.7.5.:.*.*.5.5.5.:.*.*.*.*.5.5.5.*.*.5.5.5.2.:.2.5.7.U.5.5.5.5.:.:.5.5.5.:.*.2.5.5.5.5.2.*.*.:.:.2.2.5.2.:.:.:.*.:.5.5.5.2.:.2.5.5.P.5.5.5.2.5.5.U.5.5.5.5.5.7.5.5.2.:.*.=.*.5.5.5.5.5.5.5.5.5.5.5.5.5.5.5.5.4.*.:.4.5.5.5.2.*.*.4.5.W.W.7.5.7.7.7.5.5.2.:.5.7.7.5.5.2.:.*.2.5.5.P.P.5.2.2.2.5.7.5.5.*.*.2.5.7.7.5.5.5.5.U.U.5.5.5.:.:.5.5.5.5.5.:.:.2.5.U.U.5.2.:.5.U.U.:.$.%.=.*.5.5.5.5.5.:.2.5.5.5.5.5.2.2.5.7.5.7.7.5.5.5.7.5.5.5.5.5.5.5.5.:.*.5.5.5.:.:.2.2.2.:.:.5.5.5.2.:.*.2.5.5.5.5.5.5.5.5.5.5.5.5.5.5.5.5.:.:.:.5.7.7.7.7.5.5.*.:.5.5.5.5.2.2.5.5.7.7.5.4.*.*.5.7.7.5.:.*.*.5.5.5.5.:.*.=.=.*.5.2.5.2.=.=.5.5.5.5.5.5.2.5.5.5.5.4.:.:.5.5.5.5.*.%.=.1.5.5.5.5.:.*.&.&.*.*.*.*.*.*.*.5.5.:.:.*.=.:.:.2.:.-.-.2.:.:.-.-.Q Q -.5.5.5.:.:.:.4.5.y.7.5.5.5.:.*.5.7.5.:.:.2.2.5.5.5.5.2.:.2.5.5.5.5.5.5.2.5.7.7.5.5.5.2.5.5.5.5.5.5.5.5.5.U.5.7.U.5.7.U.U.2.2.2.5.5.5.7.U.U.U.7.5.U.U.U.U.7.5.5.",
", X.Q.*.&.*.;.;.*.*.o.o.o.*.&.%.%.=.=.=.=.%.%.%.%.%.*.*.*.%.%.*.=.%.%.&.%.%.%.X.%.%.%.%.%.%.%.R R %.%.=.%.%.%.%.%.*.5.*.W *.*.*.=.*.=.R R =.*.*.=.=.%.%.%.=.*.=.%.%.%.%.W %.%.=.=.%.%.=.=.=.%.%.%.%.%.=.=.*.=.=.&.&.&.*.=.%.%.*.*.*.*.*.*.*.&.&.*.*.X.{ X.*.:.*.*.%.%.X.{ $.&.&.&.%.$.$.%.%.&.%.=.=.%.%.=.*.*.%.%.{ G { X.&.$.{ { $.%.=.*.*.=.%.R %.=.*.%.%.=.%.%.%.=.*.=.%.%.=.*.*.=.=.*.:.:.*.*.=.=.*.*.&.&.*.:.*.%.%.*.*.*.*.%.W W W W %.%.%.%.%.%.%.%.$.%.%.%.W G %.=.=.=.=.=.=.-.=.=.=.=.=.=.=.*.:.=.=.%.R R $.$.%.%.%.%.%.&.*.*.*.=.%.%.%.=.*.&.%.G G X.%.%.%.$.$.%.%.%.*.5.:.*.*.*.*.*.=.%.%.%.%.=.%.R R G G R %.=.=.=.=.=.%.%.%.%.%.%.G G G G X.{ { G G { %.%.G G G G G G %.=.%.R F J G G R R R G R R =.=.R J G G G { X.%.%.%.W W %.%.%.=.%.%.%.%.%.&.&.&.%.%.&.&.&.&.&.&.%.%.%.%.%.%.%.%.%.%.%.=.=.%.%.%.=.%.&.%.%.%.%.=.*.=.*.&.%.&.*.*.*.*.=.=.*.*.*.*.*.*.*.:.5.4.*.*.*.*.*.*.:.:.:.:.*.*.*.:.:.;.&.o.X.*.:.:.=.%.%.%.=.*.:.%.&.&.X.X.X.%.%.:.=.R E =.*.:.:.=.=.=.*.*.*.%.&.&.o.&.&.*.&.%.%.%.%.%.:.*.%.X.{ X.X.%.%.G G G G K %.%.$.G G J J R R F J F R R E E R R R P E =.=.%.%.&.o.&.*.*.=.$.%.$.{ $.%.R R R %.R %.%.%.W W R %.=.=.%.%.%.%.%.%.=.*.%.%.%.G G %.%.%.%.%.%.%.%.=.%.=.%.%.%.%.%.W G R %.%.%.%.%.%.%.%.%.%.%.%.%.G G W ",
", [ y.J l l l A A A A l l l A A A A A A A A l l l l l l A A A l l A A A l l l l l l l l l l l l l l l l l l l A A A A A l A A A A A A l l l l l A A l l l A A l A A A A l A l A A l l l A l l C J J J z Z J z z z z z J l l z J J J J J J z z z J J l l l z J J J J z l j j j j j j j l l l A l z J J l z J J J J J l l l l l l l l l l J A J z l z J J A J J J J A J J A A A l A J z z J A J J A A A A A A A A [ A A A A G G A J A A l A A A A l A A A A A A A l l l A J J J A z z z z l l l l z l A A z J z j l l l l l l l A J A A A J l l l J J l l l l l l l l l l l l z z J J J J J J J J J J l l z z l l l l l l l l l l l l l l l l l l j j j l j j j j j l l l l l l l l l l l g g g 7 j g j j g g g j g j l l l l l l l l l l l l l l l l l l A l A A l l A A A A A A A A A A A l l l l A A A A A l l l l A A A l l l A A J A A l l A A A A A A A A S A A A A A A A A A A A J J A J J J J J J J A l l l l l z z l l l l l l l z z J J z l l l J Z z k z J J J J J J J A J J A A A J J J J z J z z z J A l l l l z z z l l z z l J z z l l j j l l l l l l l l z z k k k z z z l l l l l A z z l l l l l z l l l l l l l l l l l J J J J J J A A l l A A A l l l l A l l l l l l l l l A A l A A l l l l A A l l l A A A l l l l l l J ",
"5 A 5.l j 7 0 l l A A A l l A A l A A A l l l l l l l l l l l l l [ A 0 l l l l l l l l l l l l A A A l l l l A A A l A A l l A A l l A l l l l l l 0 0 l l l l l l A A l l l A A l 0 l l l l A J J J z z k k k k k k k z z z z z z z z z k k k k k j j k k k z z z z j j g j i g j j j l l l l l z l l l l l l J J l l l l l l l l j l l l l J J J J l l l l A A A l l A l l l A A l l A A A A A A A A A l l l l l A A A A A A A A A l l l l l A A [ ] A A A A l l A A A A A A l l z z l l A J A z A A z z z z l l l l l l l l l l l l l l l l l l l J z j j j j j k z z z z z l l z z z J J J A A A A J J l l l l l l l j j l l l l l l l l l l l 0 0 7 7 7 7 7 7 l 0 0 l l l l l 0 j 7 7 5 5 7 7 7 7 7 7 5 j 7 0 l l A A l l A A A l l l l l l A A A A A l l A A A A A A A l l l A l A A l l l A A A A A l l l A l A A A A l l A A A A A A A l A A A [ [ [ [ [ S A A A A A A A A A A A l J J J A J J z l j z z z k j k z l j j g g h k z z z k z k l l j k k z z A A z J J z z l z J A z z z z z z z k z l l z z J z z z z z z z J J z z z z J J l l l l l l l A l l l z z z z z z l l l l z J z k j z z k j j z j l l l l l l A J J A A A A A A A A A A A A A l l A l l A A A A A A A l l A A A l l l l l l l A A 0 0 l A A A A l l 7 j l G ",
", l :.J j l l A [ o.#.#.#.[ ] ] ] [  .] ] [ S A A A [ A l A [ [ [ #.[ ] ] ] ] A A A l J S S A A S R { [ A S A A A A [ { [ A ] [ [ [ [ [ A [ o.[ A [ A A A [ [ ] [ A A A A [ A A [ A A A A A A A G A { J J Z Z Z Z J P Z J R R R R J J Z R P P x P k k k z k k k k Z k k k k k a g k k z z k k z J J J l J J J z J J z k z k z k z z z z z k z J J F F J z J J J J J J J A A A { &.G A S { { { o.o.#. .#.#.[ A A ] S [ [ [ [ [ [ A A [ [ A A A A A [ [ #.[ [ [ S A A [ [ [ [ [ X.G J J J S A [ { [ o.[ A A { { J J J A G A { X.G G G J J { G J z J J G G J J Z z k k z J J J J J J G %.$.{ G A o.;.*.[ [ { { [ [ A A l A J l A A A [ X.#.o.{ [ [ A l ] ] ] A A A A A A A ] A A A A A l l j l j j l l j j l l j j l l A A A A ] ] [ ] A [ [ [ ] [ [ S A [ [ A [ [ [ [ [ [ [ ..#.o.[ A A S A A A A A [ S [ #.[ A A S [ [ #.#. .o.[ A J X.o.o.o.o.&.{ A o.;.&.&.&.&.%.%.%.=.=.%.{ G G G %.G F J J R R R R $.R z z k k k k k Z x P k k k k k k x J z J R P k Z k k R R R z A J k E R k k R R G G R J v R R Z R R J z Z R R J J x x x x P E E R P k J R G J J J J J J J S { G J z Z G G J z J J J G $.&.$.k Z J R P Z Z Z Z z l A S S A J G X.X.[  . .[ [ o.o.#.o.o.[ [ [ [ [ [ [ S ] [ #.#.#.A A J G S X.[ A [ [ [ ] ] #.#.] A S #.#.#.[ A l l l j G ",
", l *.J l l ] [ o.4.@.@.@.o.#.@.@.@.@.@.o.@.o.#.#.#.@.o.[ #.@.@.o.@.@.#.@.@.o.o.o.o.[ { X.o.o.X.%.*.*.o.#.o.o.o.o. . .&.X. .o.@.;.@.@.@.#.o.;.@.o.o.o.[ [ #.#.o.o.o. . .o.@.o.X.o.#.#.[ [ [ [ [ &.{ %.X.G G R $.%.=.W R $.=.W R R E R R W -.R P P P J k k x x k k R k k k k k k h k k k z z z J R G G J R R R R E R z z k J x R k k x k J R J G G R W R J R R R W R W R { { [ *.:.;.&.%.&.&.&.;.;.o.o.@.;.o.[ [ [ [  .o.;.&.o.o.{ [ o.o.[ A S [ [ [ #.o.o.#.o.o.o.[  .o.;.o.o.o.o.%.{ { { #.o.*.;.;.o.o.o.*.%.R $.%.o.o.o.;.;.&.&.%.G { o.&.R J G %.&.&.&.$.J Z Z J J %.&.&.X.X.&.:.:.*.&.&.o.;.4.4.;.;.*.;.;.4.;.o.o.%.%.{ X.{ { ;.;.4.;.;.4.;.#...#.o.#.#.#.#.[ [ #.#.@.@.o.o.o.&.*.X.S A A A [ S A A [ { A A { [  .#. .o.@.@.@.o.#.o.;.;.o.;.;.o. .o.o.o.o.o.o.o.o.#.#.#.@.;.o.[ [ o.o.o. .[ [ [  .o.o.o.o.[ o.o.@.@.@.;.4.&.S S *.;.;.;.4.:.*.o.;.4.4.;.o.*.4.5.5.*.=.=.%.$.%.%.*.%.W R R R R R %.%.W R J R x x k x P P P k k k k k k R E R R R P k P P R R R R J $.E R R R R R R E $.$.R R R R R R $.=.E R P R E E E P P x x R -.=.E R P J R *.%.G J F G G G %.:.*.R J J W %.G J $.%.%.*.4.4.*.G F R R P R R G G G G [ o.o.X.S { *.*.o.;.;.;.@.4.4.t.t.;.o.o.o.o.o.o.o.o.#.o.@.@.@.#.#.o.o.X.;.o.o.@.o.o.o.@.@.@.@.o.o.<.@.@.@.X.A l l l R ",
", l 5.A l ] [ o.@.t.t.t.t.@.@.,.q.t.t.4.@.4.@.@.4.4.4.@.@.@.4.@.@.4.t.;.4.4.;.4.4.;.;.*.o.&.;.4.;.;.4.;.@.o.@.4.4.o.o.&.&.@.@.;.4.4.t.4.o.@.t.4.;.@.@.o.@.@.4.4.4.;.o.@.4.t.;.@.t.@.@.@.o.*.o.o.;.o.*.o.&.*.;.:.5.5.:.=.:.5.*.W %.=.=.R -.:.-.E E Q =.R x P R k J R J k x x x k k k R R k k z R $.R R J E R R R =.E J J J R P P x v x x R G G G X.%.=.E J R =.=.=.$.%.:.;.;.@.;.t.4.;.&.*.*.&.;.;.@.@.t.t.;.o.o.&.o.o.o.;.;.*.;.@.o.@.@.#.[ o.o.o.#.#.@.@.@.@.@.@.#.#.;.4.;.@.;.;.;.*.*.;.;.*.;.4.4.@.:.*.:.%.$.=.:.:.;.t.t.t.;.;.&.&.o.*.:.W R =.*.;.:.4.*.{ G %.X.X.;.4.4.4.4.t.t.4.4.;.;.4.t.t.y.t.4.4.u.p.a.u.4.;.:.*.:.4.;.*.;.4.4.t.t.y.t.;.@.@.q.9.@.@.@.o.@.t.t.t.t.;.@.4.4.4.*.o.#.#.@.+.;.@.o.;.;.o.o.o.o.@.@.#.;.t.t.t.t.@.@.t.t.t.t.4.@.o.@.@.4.;.4.4.;.@.@.4.@.4.4.;.o.o.4.4.4.@.@.@.o.#.o.;.4.;.o.;.4.4.@.4.4.4.;.X.X.*.4.4.4.4.4.4.4.4.t.y.;.*.;.4.y.5.=.%.=.=.=.*.=.*.%.%.W W F J $.*.%.$.R R R P x x P x P R P x z k k k R $.E R R P k P R P R E R R $.E P R E E E E W =.$.R R E R R =.:.-.=.$.W W %.=.E R P P R E -.-.=.Q E R %.*.*.X.X.%.%.X.o.:.4.:.%.R W =.*.%.%.*.o.*.5.t.t.4.*.%.%.R R R &.*.X.o.@.@.;.;.;.o.o.;.;.;.4.t.t.t.t.t.u.u.4.@.@.4.4.4.t.4.@.@.@.q.t.t.@.#.;.o.@.4.@.@.,.;.@.@.q.q.q.,.@.4.t.q.t.4.*.X.J z z E ",
", l 5.S l A #.@.@.t.t.t.t.q.q.q.t.t.t.t.t.t.@.@.t.t.t.@.@.t.t.4.@.4.t.t.@.4.4.t.4.;.;.*.&.;.4.4.;.4.4.4.@.o.@.4.4.4.@.o.*.;.@.;.t.t.t.t.@.@.t.t.t.4.@.@.,.t.t.t.t.t.@.t.t.t.4.t.t.t.t.q.@.;.@.o.t.@.@.,.4.4.;.4.4.5.5.*.4.y.4.%.=.*.=.=.:.-.-.-.-.-.-.R P P R R $.R R k k x x k k x R R k k R R $.$.R J E R J R =.=.J J R x P P P P R z E %.&.&.%.%.$.$.J $.=.*.%.$.*.4.t.4.4.4.t.4.;.*.*.&.o.o.4.4.4.t.t.;.o.o.;.;.o.o.&.&.*.4.@.@.@.,.@.#.o.o.o.@.@.@.@.t.q.,.@.@.@.;.;.;.4.4.4.4.;.@.4.t.0.;.,.t.4.t.;.*.%.{ &.:.4.t.u.u.t.@.;.;.4.;.o.:.=.W :.5.4.y.4.;.o.&.;.;.;.;.;.4.4.t.u.u.t.t.t.t.t.t.u.u.t.4.t.y.a.s.s.t.4.4.4.:.4.4.:.4.4.4.t.u.u.t.q.t.t.t.t.@.;.4.@.4.u.u.u.u.t.4.4.@.X.o.o.#.@.4.t.t.4.;.;.;.@.@.@.@.,.@.#.@.t.t.u.t.t.t.t.t.t.t.t.4.4.;.4.t.t.t.t.;.@.4.t.t.t.4.;.o.;.4.t.4.;.4.4.4.@.;.;.;.o.o.@.4.4.t.t.4.;.;.o.;.o.;.@.@.@.@.4.t.t.t.t.t.4.4.4.t.4.%.R =.-.*.:.:.:.%.$.$.R F J %.*.*.$.R E E P x P I P P P P x v v x R E E R R R R k P R R R E W =.=.R x R E E E E E =.%.=.=.-.$.E =.:.=.$.$.%.W =.=.W R R Q Q -.=.=.=.=.=.=.=.*.*.*.o.o.o.o.;.4.4.;.&.&.*.*.:.&.*.4.;.*.4.4.t.4.4.*.*.%.G %.;.@.@.@.@.@.@.@.;.@.@.;.;.@.4.t.u.t.t.t.t.t.t.q.4.4.t.t.t.t.@.@.t.t.t.t.t.@.@.@.4.t.q.t.q.q.,.,.q.q.q.q.,.q.q.q.t.t.4.o.J z z R ",
", A 7.{ l A ..@.,.t.t.t.t.t.q.q.t.t.u.t.t.t.4.,.t.t.t.@.4.t.t.t.4.t.t.u.t.t.4.4.4.;.;.;.*.4.4.4.@.4.4.4.4.@.@.4.t.t.;.o.o.4.4.4.t.t.u.t.@.q.u.u.t.t.t.t.t.t.p.t.t.t.q.t.t.t.t.t.a.p.p.t.q.t.;.@.u.t.t.t.t.t.t.t.4.4.4.4.t.y.4.4.4.4.:.5.*.%.=.:.:.:.=.R P E E E =.E R x x x x x x x P R k k P R $.%.%.F R R R G =.W P R P x Z P R R J J J *.*.*.%.$.$.R G %.*.*.&.X.:.4.t.t.t.t.t.t.;.;.;.o.o.o.4.t.t.t.t.@.o.;.t.t.;.;.*.*.*.4.@.@.t.t.4.o.o.#.o.;.@.@.@.t.t.t.@.4.4.@.;.4.t.t.t.4.;.o.4.t.t.t.t.u.t.:.;.:.&.X.;.:.4.t.a.u.;.;.;.t.y.;.;.:.=.W =.:.4.y.4.@.@.;.;.;.;.&.o.:.t.u.u.u.u.u.u.u.u.u.s.u.4.4.t.p.a.a.s.u.t.4.4.4.t.t.4.4.t.t.t.u.t.t.t.t.u.t.u.t.t.t.4.t.s.a.u.u.t.4.4.#.[ o.;.@.@.t.t.t.t.4.4.4.t.t.t.t.t.4.@.0.t.p.u.u.t.u.u.t.t.t.u.t.t.4.;.4.t.t.t.;.4.t.u.4.;.;.;.;.;.4.t.t.t.t.t.t.4.;.;.o.o.#.#.@.4.u.t.t.4.4.;.;.4.4.@.o.@.;.4.t.u.u.t.t.t.4.4.4.:.%.R W =.&.5.5.5.%.%.%.*.%.{ *.4.*.&.=.=.-.R P P I P P P P R R R R R $.R R R E W P P R E E =.=.E E E R R R R E R E E W W =.-.-.$.=.=.W $.=.=.W =.=.E R E Q -.-.W E W =.=.=.*.%.*.4.4.;.;.;.4.4.4.;.;.:.4.4.4.&.:.y.4.*.=.:.4.t.t.4.;.%.G o.;.q.t.@.#.#.#.@.,.4.4.@.*.@.@.t.t.t.t.u.u.t.t.t.t.4.4.t.t.t.t.t.t.p.p.t.t.t.t.t.t.t.@.,.q.@.@.q.q.q.q.q.q.t.p.w.t.t.4.o.G J z E ",
", A 7.{ l ] ..@.q.t.t.t.t.t.q.q.t.t.u.t.t.t.,.,.t.4.4.@.4.t.t.4.;.;.t.t.t.t.4.@.;.;.;.;.;.:.*.&.o.;.4.4.;.*.*.;.t.4.@.{ o.4.4.t.t.t.t.t.q.t.u.u.t.u.t.t.t.t.p.p.p.t.t.p.p.p.t.t.a.a.a.t.t.t.t.@.u.t.t.t.t.t.u.u.t.4.4.t.u.t.t.t.t.t.4.4.:.&.=.=.*.*.%.R R E R E =.=.R R x P I I x x P P x x P R G $.=.R R R R G R R P R P P Z P P E R J R &.*.%.R R R $.%.*.*.:.*.o.;.t.t.t.t.4.4.4.;.@.;.&.o.o.@.4.t.t.t.@.@.4.t.t.t.4.:.%.%.*.;.4.t.t.4.o.o. .o.;.@.#.o.;.t.4.;.4.4.@.@.t.u.t.t.4.;.o.4.t.t.t.t.u.t.*.@.4.;.&.;.;.4.t.t.4.;.4.4.4.4.;.:.*.W P %.X.o.;.4.;.;.4.;.4.:.&.{ ;.t.t.t.t.t.u.u.u.u.t.u.t.;.4.t.u.a.p.u.u.t.t.t.t.t.t.4.t.t.t.t.t.t.4.t.t.u.u.u.t.t.t.t.t.u.u.u.t.4.4.4.o.o.;.4.4.;.4.t.t.u.t.4.t.u.u.t.q.t.t.@.;.t.t.u.u.u.u.t.4.t.t.u.t.t.;.o.o.t.t.t.;.4.t.t.;.@.;.;.;.4.4.t.t.t.u.u.t.4.@.o.o.o.@.@.4.4.t.t.t.t.t.t.4.4.4.o.o.;.4.t.t.u.u.t.t.t.4.4.4.;.%.W R R %.5.5.5.=.*.*.5.1.*.:.4.4.*.=.W W R P P R P P R Q E R R R R R R J R =.-.W =.%.%.%.&.%.J R E E R R E Q R P E E E E E E E R =.=.=.=.E E W =.W E W E W E R R E =.%.=.%.G o.4.t.4.:.:.4.4.4.4.4.4.4.4.4.;.4.y.4.*.R %.4.t.t.t.4.&.G o.4.q.@.@.o.o.#.@.,.4.;.X.X.o.@.4.t.t.u.t.t.t.t.t.t.t.4.4.t.t.t.t.u.a.p.t.t.t.t.t.4.@.#.@.@.,.q.t.t.q.q.q.t.a.a.p.t.t.4.o.G J z R ",
", z 7.[ l ] #.@.q.t.t.t.p.p.q.t.t.t.u.t.t.t.4.4.4.;.4.4.4.t.t.4.4.4.4.4.t.t.;.@.;.4.4.;.:.:.%.%.&.:.4.;.&.*.;.;.t.4.@.o.;.4.t.t.t.4.t.t.t.t.t.t.t.a.u.t.t.a.p.t.t.t.p.p.t.p.a.p.a.p.a.p.t.u.t.t.a.t.t.t.t.t.u.u.u.u.u.u.u.t.t.i.u.u.t.4.4.5.:.*.:.5.&.=.W E R E =.=.E E P P I I x P P P P P R R J J =.%.=.E =.%.W R E E R R P R E E $.R R &.&.%.R R =.=.:.5.:.*.:.;.;.4.4.4.4.4.4.4.4.4.4.;.;.o.@.4.t.t.t.4.4.4.t.t.t.:.&.G { *.;.;.;.;.;.o.o.o.@.4.@.@.@.;.;.;.4.4.4.;.4.t.u.4.4.4.4.;.4.t.;.4.t.t.4.;.;.t.4.;.;.;.4.;.:.;.:.5.:.;.*.%.=.=.R R %.*.&.;.4.4.4.4.t.t.4.*.&.;.t.t.t.t.t.u.u.t.t.t.t.t.t.t.u.p.s.u.u.u.u.u.u.t.u.t.t.u.t.t.t.t.t.t.t.t.u.u.t.t.4.4.t.t.u.t.t.@.@.4.4.;.t.t.t.t.t.t.t.t.u.4.4.4.t.t.t.,.t.t.;.;.u.u.u.u.u.u.t.4.t.t.u.t.t.4.&.X.@.t.4.4.4.t.4.@.@.4.4.4.4.t.t.t.t.t.t.t.t.4.*.;.4.t.t.t.t.t.t.4.t.t.t.t.4.;.o.o.4.4.t.t.t.t.t.t.t.t.t.4.&.*.*.=.%.*.4.5.5.=.*.*.4.4.:.:.4.4.&.$.R R R W W E R P Q 2.W R E $.R R R R =.=.=.%.*.*.;.;.:.*.G J R =.E R E E E E E E R E E E E E W -.-.=.Q E E =.-.-.-.E W R R W =.=.:.*.=.&.:.4.t.4.*.;.4.t.4.4.4.4.4.4.t.t.t.t.4.*.W %.4.t.t.t.4.*.K %.4.,.@.@.;.;.@.@.4.4.X.G X.*.;.4.4.t.t.;.;.4.t.t.t.t.4.<.4.t.t.u.u.a.a.t.t.t.t.t.@.4.4.;.4.4.t.t.t.q.q.q.p.a.a.p.t.t.4.&.G F Z E ",
", l 7.S A ..@.9.t.q.q.e.e.p.p.r.p.p.t.t.t.t.t.4.4.4.t.t.t.u.t.4.t.t.,.@.4.t.4.;.4.4.4.4.4.4.;.&.*.*.;.$.$.=.*.*.4.4.@.@.;.4.t.t.@.;.t.t.q.t.u.t.t.u.u.t.t.a.u.t.t.t.t.t.t.p.p.p.a.p.p.p.a.p.t.t.u.u.u.t.u.u.u.u.a.a.a.a.a.u.u.u.i.u.u.t.t.u.t.4.4.t.;.*.=.W R W *.*.=.$.R P P P x P I P P P R E R R %.&.&.=.:.:.*.%.W -.Q E E Q Q $.$.$.$.{ %.%.%.%.=.5.5.5.:.:.4.4.4.;.;.4.,.,.4.4.4.4.4.4.@.;.4.;.;.;.4.4.4.4.u.t.4.;.o.[ o.;.;.@.o.o.;.;.;.;.4.4.t.t.t.4.4.4.4.4.4.4.4.4.;.;.;.4.t.t.t.4.;.;.4.t.4.4.,.t.t.t.4.4.4.4.;.*.;.:.;.;.:.*.=.%.%.;.t.t.4.;.4.4.4.t.t.4.4.;.4.t.u.p.t.t.t.t.t.t.t.t.t.t.y.y.i.a.a.a.u.u.u.y.y.u.u.u.u.u.u.t.t.t.t.u.u.t.t.t.4.4.t.t.t.t.u.t.t.t.@.4.4.4.t.u.u.t.t.t.t.t.t.4.4.t.t.t.t.@.4.t.;.t.u.u.u.s.u.u.t.t.t.u.u.t.t.4.4.;.o.4.4.4.;.;.4.4.4.4.4.t.t.a.u.u.t.@.,.t.t.4.*.*.4.t.t.t.t.u.t.4.4.4.4.4.4.;.o.o.;.t.q.@.@.0.t.t.t.t.4.;.;.;.;.;.4.4.:.&.&.%.*.*.5.:.*.:.4.4.;.&.%.%.*.:.4.:.W R Q H.Q J J { G R R R =.=.=.=.1.4.4.t.4.4.*.%.%.%.%.R R R R =.:.:.=.*.:.:.=.W =.:.:.:.Q Q =.*.5.5.4.*.:.*.*.*.*.*.4.;.4.5.y.t.t.4.;.t.u.u.t.t.t.t.4.t.u.a.u.t.4.4.:.;.4.t.4.4.4.o.X.&.;.@.@.@.t.4.;.;.4.;.o.X.%.;.4.4.4.t.4.o.o.;.t.t.t.t.4.4.4.t.t.u.u.a.a.p.u.u.t.t.,.t.t.t.t.t.t.t.t.q.q.e.p.a.a.p.t.t.t.4.%.R Z W ",
", z 5.S A ..@.9.q.q.q.e.e.t.q.t.p.p.t.t.t.t.t.4.4.t.t.t.t.p.t.t.t.t.t.4.t.t.t.4.4.4.;.4.4.4.4.:.;.4.;.G R =.%.%.&.@.@.@.4.4.t.t.@.;.t.t.t.u.u.t.4.t.u.t.t.p.p.u.t.4.t.t.t.p.a.p.a.p.p.t.u.a.t.t.u.u.u.u.u.a.a.a.a.s.a.a.s.a.a.s.s.a.a.y.u.u.t.t.t.t.t.4.4.:.=.:.4.4.:.=.$.E E E I E E Q Q R E W =.%.%.=.:.*.*.7.5.1.=.-.W R R W =.=.*.:.:.&.X.%.%.$.{ *.*.&.o.@.4.4.4.4.;.4.,.t.4.;.@.@.4.<.@.4.4.;.;.;.4.;.@.@.4.4.4.;.;.;.4.4.;.;.@.@.;.;.@.@.4.4.t.t.t.t.t.t.t.t.4.4.4.;.*.;.;.t.t.t.4.;.;.@.;.t.t.t.4.t.u.u.t.t.t.t.4.;.4.;.;.:.4.4.:.;.4.u.p.u.t.,.,.4.4.4.4.4.4.4.t.u.a.a.p.p.t.t.t.t.t.t.t.t.4.t.u.a.p.a.a.u.u.y.y.t.t.t.i.s.a.a.u.t.t.t.u.t.4.4.4.t.u.a.a.p.p.a.a.u.t.4.4.4.4.t.u.t.t.t.t.t.t.t.t.t.u.t.t.4.t.t.;.t.y.t.t.y.y.u.u.u.u.u.u.t.t.t.t.4.;.;.4.;.&.;.4.;.4.4.t.u.u.a.p.u.t.t.t.t.t.*.G X.;.;.;.;.t.u.t.4.;.4.4.4.4.4.;.;.4.t.q.@.@.;.;.@.@.@.@.;.;.;.@.4.4.4.;.o.o.*.&.=.:.5.:.*.4.4.4.4.:.4.4.y.y.7.2.W 2.H.Q =.%.%.%.%.=.W W =.=.*.4.4.t.t.t.t.4.:.;.;.;.&.&.&.&.:.5.5.5.4.5.5.4.:.4.5.5.5.:.5.5.y.t.t.t.y.t.t.t.4.;.4.4.4.4.t.u.u.p.u.u.u.a.a.u.u.u.y.4.4.u.a.u.t.t.y.t.t.t.4.4.;.;.&.o.;.@.@.;.@.q.4.o.X.o.;.*.*.*.;.,.4.4.4.;.*.o.@.4.t.t.t.t.4.4.4.t.u.i.i.i.a.s.i.t.t.t.u.u.t.t.t.t.t.4.,.q.t.u.u.u.q.q.p.u.4.&.R k W ",
", l 5.S A #.@.9.q.t.t.q.t.6.7.7.i.i.i.i.i.s.i.i.u.u.u.u.u.s.%X%XQ.Q.Q.Q.t.4.4.4.:.;.;.4.:.*.*.*.;.4.;.o.%.%.X.o.o.@.4.4.4.4.;.4.4.t.t.t.u.u.t.4.4.4.t.u.t.p.a.u.u.t.t.t.p.p.a.p.p.p.p.t.t.t.t.u.u.u.u.a.s.s.a.u.a.s.a.a.s.s.s.s.s.a.a.s.u.t.t.u.u.u.p.t.t.y.y.t.u.y.y.5.:.:.:.:.Q Q F.H.-.W W =.2.*.=.H.L.H.5.i.7.5.2.2.R R =.=.*.*.4.4.5.y.4.:.*.*.&.*.*.o.o.@.<.4.4.4.4.;.4.t.4.@.o.@.@.4.t.t.;.@.4.4.4.;.@.@.@.@.@.4.4.4.4.4.4.4.4.4.@.@.@.4.;.4.t.t.t.t.t.t.t.t.4.4.4.4.4.t.t.u.t.t.4.4.4.t.t.t.t.u.t.t.t.t.u.u.u.t.t.t.t.4.4.t.u.t.4.4.t.u.a.p.t.4.4.t.t.;.;.4.t.t.t.t.u.a.a.a.p.u.u.t.t.t.t.4.;.;.t.u.u.u.u.u.u.y.t.4.4.t.t.u.u.u.u.t.0.t.t.t.4.;.4.u.s.a.a.a.a.p.a.s.u.t.t.4.4.t.t.t.t.t.u.t.t.t.u.u.u.u.t.t.u.t.;.4.t.4.;.t.t.t.t.u.u.t.t.4.4.t.t.t.4.4.;.;.;.;.4.;.;.@.4.t.u.u.t.u.u.u.u.u.t.*.{ o.;.;.;.;.4.t.,.@.;.t.t.4.t.t.t.t.t.t.t.u.u.t.t.t.4.4.4.4.4.4.4.4.4.4.;.4.4.4.;.;.4.5.4.*.1.5.y.y.4.4.4.y.i.5.5.5.2.^ H.H.2.H.-.2.2.2.=.=.*.4.y.t.t.t.t.4.t.t.t.4.4.4.4.4.4.4.4.t.t.y.u.t.t.t.t.y.y.y.t.y.i.a.a.a.a.i.y.u.i.t.4.4.t.t.4.t.u.a.a.a.a.a.a.a.u.u.u.y.:.:.t.t.t.5.4.4.4.t.t.,.4.@.4.;.@.;.4.,.o.o.@.;.X.{ o.@.;.*.*.@.<.4.;.*.:.;.*.;.4.t.t.4.t.t.t.t.y.%X&X&X&X=X=XQ.i.t.t.u.i.t.4.4.4.t.y.7.7.i.7.i.i.t.p.u.u.4.&.R J W ",
", j 1.S [ #.@.q.t.p.t.t.6.{.[.[.{.{.%X%X%X=X=X=Xs.i.u.t.t.%X*X,XOXOXOX}.5.4.;.4.4.4.t.4.*.=.W =.;.4.t.4.4.;.;.4.4.4.4.;.;.X.o.;.4.4.4.t.t.4.4.4.4.4.t.t.t.u.s.u.u.t.t.t.p.p.a.a.p.p.t.t.4.t.t.u.u.u.u.p.s.s.a.t.a.s.s.s.s.s.s.s.s.a.s.s.a.a.p.a.s.s.s.p.u.i.i.u.u.i.y.5.4.5.5.5.2.-.2.P.2.-.2.P.7.t.5.T.6XL.3.5.7.U.5.2.o.;.4.4.4.;.;.4.4.t.4.4.4.4.4.4.4.4.4.4.4.4.4.4.4.;.4.t.4.@.;.;.4.t.u.t.@.@.4.4.4.4.4.4.4.;.@.@.4.;.@.@.;.4.t.t.t.t.t.4.4.;.4.t.t.4.4.4.4.t.t.t.t.u.t.t.t.a.u.t.t.t.t.u.u.u.p.a.4.t.t.t.t.u.t.t.t.t.t.t.t.u.t.u.u.t.t.u.u.u.t.t.t.t.t.4.4.y.y.y.u.u.u.a.p.t.t.u.u.t.t.u.t.4.;.4.t.t.t.t.4.4.t.t.t.t.y.t.t.t.t.u.u.t.t.t.t.t.4.4.4.t.u.t.t.t.a.p.a.a.u.u.u.u.u.u.t.t.u.a.p.t.t.u.a.a.t.t.t.t.t.u.4.4.4.4.o.;.4.;.4.t.t.t.4.4.4.t.t.t.t.t.4.4.t.t.4.4.;.@.;.4.t.u.u.u.t.t.t.t.t.t.4.4.4.t.4.4.4.t.4.4.4.t.t.t.t.t.t.t.t.t.t.t.t.t.u.i.u.t.4.t.4.t.t.4.4.4.t.4.4.4.4.4.y.5.4.1.1.5.y.y.4.4.4.i.i.4.7.3.3.H.H.H.2.H.H.K.H.3.2.2.5.5.5.4.;.t.y.y.t.t.t.4.t.i.i.y.5.4.4.t.t.t.t.t.u.u.i.i.t.y.u.a.a.a.a.a.a.a.u.u.a.u.t.t.u.u.u.t.u.s.a.a.p.p.a.a.p.u.u.t.:.;.;.4.4.4.4.4.4.4.,.t.4.4.4.4.4.t.t.4.{ { o.*.*.;.;.@.@.X.%.;.<.@.o.{ %.*.:.4.4.4.;.4.4.t.y.i.Q.,X#X$X$X5X2X,X_.i.i.i.s.s.i.t.t.i.%X&X{.}.{.&XQ.y.u.p.t.4.&.R J =.",
", g *.S #.@.q.p.a.a.p.t.6.{.OX[.K.5.i.i.i.i.i.s.i.u.t.t.u.i.%XU.U.}.}.}.i.4.4.4.4.t.t.4.4.=.=.*.4.4.4.4.4.;.;.;.4.4.;.o.X.X.o.*.;.@.4.4.4.;.4.4.4.t.t.t.t.u.u.u.u.u.t.t.a.p.p.p.p.a.a.t.4.t.p.u.u.u.t.p.a.s.s.u.a.a.s.s.a.a.u.s.s.s.s.s.s.a.a.a.s.s.a.t.t.y.y.i.i.u.t.t.4.5.5.7.7.7.7.7.U.U.Y.Y.Q.i.Q. X.XL.U.5.3.7.5.5.4.t.4.y.y.4.;.;.4.;.;.;.4.4.4.4.4.4.t.t.t.4.t.4.;.;.4.4.4.4.4.4.t.u.u.4.4.@.@.4.4.4.t.t.t.4.@.;.4.;.@.4.;.;.t.u.t.t.t.4.;.@.4.4.4.4.4.t.t.u.u.t.t.t.p.p.p.a.a.u.t.t.u.u.u.u.t.t.t.t.u.u.u.u.t.t.t.t.t.t.t.t.p.a.a.a.u.u.u.u.u.u.u.u.t.t.t.t.t.t.u.u.p.p.p.p.u.u.u.t.t.t.t.t.t.t.t.u.t.4.t.t.t.u.u.i.s.i.u.u.u.s.s.u.u.t.t.t.t.t.u.u.u.t.p.a.a.s.a.p.u.u.u.u.u.u.u.u.a.a.a.t.t.a.a.a.t.t.t.p.a.u.t.4.t.4.;.4.4.;.4.t.u.t.t.t.t.t.t.t.u.u.t.t.t.u.u.u.t.4.4.4.t.u.u.t.;.4.t.u.u.u.t.t.t.4.4.4.4.q.t.t.t.4.t.t.t.t.t.4.t.t.a.t.t.t.t.t.t.4.t.t.t.t.t.t.4.4.t.4.4.4.4.t.t.t.y.4.5.5.5.5.5.4.4.i.y.;.7.U.K.K.H.:.*.5.U.U.2.5.5.5.5.H.K.3.4.y.i.i.t.t.4.4.y.i.i.7.7.7.i.y.t.t.t.u.u.i.s.i.y.y.s.s.s.s.s.s.s.s.u.u.a.u.u.a.p.a.s.u.u.a.s.a.a.a.s.s.a.t.t.u.t.t.t.t.4.5.:.*.=.*.<.t.u.4.4.4.4.t.t.4.&.o.o.:.4.:.;.t.;.X.%.;.4.4.*.%.%.*.4.4.4.4.;.4.t.t.4.5.W.|.OXOX|.2X;X*Xs.i.t.t.u.i.i.4.4.y.i.Q.U.}.}.:X&Xi.p.p.t.;.&.$.J =.",
", g *.{ o.,.t.p.a.s.a.p.4.7.}.U.5.9.t.t.t.t.t.t.t.t.t.t.t.p.p.u.y.Q.&X&Xi.t.t.t.t.t.t.4.4.4.5.4.4.4.4.4.;.;.;.&.%.*.o.o.&.*.;.;.@.@.;.4.4.4.t.t.4.y.t.t.t.u.u.u.u.u.u.u.p.p.p.p.a.a.a.u.u.a.a.u.u.u.u.a.a.s.s.a.a.s.s.s.s.a.u.s.s.s.s.i.s.s.s.s.s.s.t.4.t.y.y.i.i.y.t.u.i.y.i.W.%X%X7.7.%X*X&XU.i.s.Q.}. XL.Y.U.3.5.4.4.4.t.5.y.y.4.;.;.;.;.4.4.4.4.4.4.4.4.t.t.t.t.t.4.;.4.4.4.4.4.4.4.4.t.u.t.t.4.4.4.4.4.4.t.t.;.;.t.u.t.4.4.;.;.4.t.t.,.4.4.4.4.t.t.4.4.t.u.u.a.a.t.4.t.t.p.p.a.a.u.u.t.u.t.t.t.t.t.t.t.u.u.u.t.t.t.t.t.t.t.t.t.a.a.a.a.s.a.u.u.u.u.u.u.t.t.t.t.t.t.u.a.a.a.t.u.u.t.t.4.4.t.t.t.t.t.t.u.4.4.t.u.s.a.u.u.u.s.s.s.s.a.s.a.u.t.t.t.t.t.p.a.a.s.a.a.a.a.t.t.u.u.u.t.t.t.t.u.a.a.a.u.u.a.a.p.u.4.t.u.s.t.t.t.t.t.:.t.t.4.t.t.u.t.u.i.u.t.t.t.u.u.t.t.t.u.a.u.u.i.t.t.t.t.u.t.;.t.u.u.u.u.t.t.t.4.4.t.t.t.t.t.t.4.,.t.t.t.t.4.t.u.u.t.t.t.i.t.4.4.4.4.t.t.t.4.4.t.t.4.4.4.4.t.t.t.y.y.y.y.y.y.i.7.7.y.4.4.7.K.K.J.H.1.4.4.5.Q.W.U.U.U.U. XXX{.U.Q.i.y.u.y.y.y.y.5.7.7.7.i.i.i.y.y.i.i.i.i.s.i.y.i.s.s.s.s.s.s.s.s.s.u.u.u.u.a.a.s.s.a.a.a.s.a.a.a.s.s.u.t.t.t.u.u.t.t.4.5.*.=.$.%.4.t.u.4.4.;.;.4.4.4.4.;.;.;.:.4.q.t.;.%.%.:.4.4.4.4.;.4.4.4.4.;.;.4.t.4.4.t.y.%X;X-X=X=Xs.i.u.u.t.4.4.4.4.,.@.,.4.4.7.Q.}.:X&Xi.p.p.t.4.;.$.J =.",
", g *.X.o.,.q.p.s.s.a.p.t.i.%Xi.t.9.q.q.q.q.q.q.q.q.q.t.t.a.a.a.0Xs.%X&Xi.t.u.u.t.t.t.4.t.t.t.4.4.4.4.4.:.:.*.G G &.;.;.*.;.;.;.@.;.&.*.1.5.t.t.:.:.4.t.t.u.u.u.i.i.t.t.t.p.u.p.a.a.p.u.i.u.u.u.u.u.a.a.a.s.s.s.s.s.s.s.s.u.u.s.s.s.s.s.s.s.s.s.s.i.t.t.u.i.i.i.i.i.i.i.s.s.Q.Q.*X,X&XQ.%X=X%Xi.i._.=X%X}.}.XX}.U.5.4.4.4.4.4.5.4.4.4.4.4.;.;.4.4.4.;.@.4.4.t.t.t.4.4.;.;.4.4.4.4.4.;.4.4.t.t.u.u.t.t.4.4.4.4.t.t.;.4.t.u.t.t.t.:.;.4.t.t.;.@.4.t.t.u.u.t.t.t.u.a.a.p.t.4.t.u.a.p.a.a.u.t.t.u.t.4.4.u.p.t.t.t.a.p.t.t.u.u.u.t.t.t.u.u.a.a.a.s.s.u.t.t.u.u.u.t.u.u.u.t.t.u.s.a.a.u.u.i.t.4.;.;.a.t.u.u.u.t.u.t.t.t.a.s.a.a.a.a.a.a.s.s.s.s.a.u.t.4.4.t.u.p.a.s.s.a.a.a.u.u.t.t.t.t.t.t.t.t.u.a.u.p.u.u.u.p.u.t.4.4.u.u.t.t.t.t.t.;.4.u.t.t.t.t.u.u.i.i.u.t.u.u.u.t.t.u.u.a.p.p.i.u.t.t.t.t.t.t.y.u.u.p.u.t.t.t.4.t.t.u.p.t.u.t.t.,.4.t.t.t.4.4.t.u.@.4.u.i.t.4.;.4.4.t.t.t.t.4.t.t.4.;.;.4.4.u.u.i.i.y.y.y.i.W.U.U.7.4.5.i.7.U.H.5.7.y.4.6.=X%X%X}.{.OX XOX:X&XQ.i.s.i.s.s.s.y.5.7.i.i.i.s.s.s.i.i.i.s.s.s.i.i.s.s.s.s.s.s.s.s.s.s.u.u.s.a.p.a.a.a.a.a.a.s.s.a.a.a.a.t.4.4.t.t.u.t.u.y.5.*.=.$.*.4.t.t.;.4.;.;.;.;.t.t.t.t.;.;.4.t.t.4.*.=.:.4.4.4.4.4.4.4.4.;.;.*.4.4.4.t.u.u.(.iX=Xs.0Xp.p.t.t.t.t.t.t.@.@.9.9.t.t.t.u.&X&X%Xi.a.p.u.t.4.&.G =.",
", , *.G X.@.,.t.a.a.a.p.t.i.i.y.u.q.,.,.,.,.q.q.q.t.q.q.t.p.p.a.0Xs.%X}.i.u.p.u.t.4.4.4.t.t.t.t.4.5.4.5.:.*.*.G G &.;.*.;.;.@.@.;.;.%.%.*.y.u.t.:.;.:.t.t.t.u.y.y.t.4.t.t.p.u.u.t.a.a.u.u.a.u.u.u.u.p.a.s.s.a.a.a.s.s.s.a.u.i.s.s.s.s.i.s.s.s.s.i.u.q.t.i.i.i.u.a.i.s.s._.=X=X-X>X<X2X-X%X=X_._._.=X=X=X{.}.OXOXU.7.y.t.4.4.t.4.4.4.t.t.t.4.4.4.4.4.4.@.,.t.t.t.t.4.;.o.;.t.t.t.4.;.;.4.4.t.t.u.t.t.t.@.@.4.;.@.@.@.t.u.u.t.t.t.4.;.4.u.t.4.4.t.u.u.u.u.u.t.u.u.a.a.t.;.;.4.u.a.a.a.a.u.u.t.u.t.4.t.u.p.t.t.p.p.p.u.u.u.u.u.t.t.t.u.u.u.p.p.s.s.u.4.4.t.u.t.t.u.u.i.t.t.u.a.a.a.u.u.t.4.4.4.4.a.u.u.t.t.t.t.u.t.t.a.s.a.a.a.a.a.s.s.s.qXs.a.u.t.4.4.t.u.a.a.a.a.a.a.s.s.u.t.t.t.t.4.t.4.t.t.u.t.a.u.u.a.u.u.u.4.4.t.t.t.u.u.u.t.@.t.u.u.t.t.t.u.a.i.s.u.u.u.u.t.t.t.y.s.u.u.u.u.u.u.u.u.u.u.u.i.y.u.a.d.u.t.4.4.4.t.u.p.u.t.t.t.t.t.q.t.4.4.4.4.t.;.t.s.s.t.@.@.;.4.t.u.t.t.t.t.t.;.o.o.;.t.u.i.s.i.i.t.t.i.Q.Q.Q.W.y.i.i.i.7.5.7.i.i.y.u.(.%X&X*X}.|.K.Y.&X%XQ.i.s.s.s.=X=Xi.i.i.s.s.s.s.s.s.s.s.s.s.s.s.s.s.s.s.s.s.s.s.s.s.s.s.u.u.s.a.a.a.a.a.a.a.s.s.s.u.u.u.a.u.t.t.t.t.u.p.u.5.:.4.:.*.4.u.t.,.;.4.:.*.&.;.4.u.u.t.4.@.4.t.t.4.*.*.4.;.4.4.4.t.t.4.;.;.*.*.4.4.t.u.u.u.(.=X_.a.s.a.t.t.t.4.4.,.@.@.@.9.q.t.q.q.t.%X*XQ.i.a.s.u.t.4.&.J *.",
", , :.J { o.4.4.u.a.p.p.p.u.u.t.t.<.A A l b b A A ] ] ..t.a.a.p.p.s.%X:Xi.t.u.t.4.4.t.4.t.u.u.t.5.:.*.5.*.*.:.%.{ ;.;.o.;.;.;.@.;.*.X.%.*.4.t.t.4.:.;.4.4.t.t.4.4.4.;.t.a.a.a.p.p.p.p.p.p.p.p.t.t.t.p.p.a.a.a.p.s.a.a.a.a.a.a.s.s.s.a.s.s.a.p.a.a.t.q.p.s.i.i.a.s.u.s.s.=X=X%X2X#X4X2X2X&X&X=X=X=X=X=X%X}.&X*X,X{.U.i.i.y.y.t.t.y.y.y.u.u.4.t.t.4.4.@.@.@.4.t.4.4.4.4.;.;.t.t.t.4.4.4.;.4.4.t.t.t.t.4.@.@.@.@.@.@.@.4.t.t.t.t.t.;.@.t.t.t.,.4.t.u.u.u.t.u.u.u.u.u.t.4.4.4.4.u.a.a.a.p.t.t.q.t.4.t.t.t.t.t.p.p.a.t.t.t.t.t.4.t.t.t.t.t.u.p.u.s.i.4.%.*.4.t.t.u.i.t.4.t.t.t.t.u.u.u.4.4.4.4.t.t.t.t.t.4.4.4.t.t.t.t.a.s.s.s.a.a.s.s.s.a.s.a.u.4.4.4.;.@.t.a.p.p.a.a.a.a.u.u.t.y.7.:.-.:.*.*.:.4.t.a.u.a.u.t.t.u.t.4.4.4.y.y.t.t.4.@.4.t.t.t.t.t.t.u.i.u.t.t.t.u.4.4.4.u.s.s.t.u.u.u.u.p.t.p.t.u.s.i.u.u.u.u.u.t.t.4.4.t.t.4.<.,.,.t.t.t.t.4.4.4.*.4.;.t.s.s.t.;.t.4.4.t.t.t.t.t.t.t.@.o.;.t.t.u.s.s.s.u.t.u.i.i.%X&XQ.U.Q.%XU.3.3.7.i.i.i.u.i.&X*X&X&X{.7.i.Q.%X=X_.s.s.~.=X%XQ.i.s._.rXqXs.s.s.s.eXs.a.s.s.s.qXs.qXs.s.s.s.s.s.s.a.p.p.a.a.a.p.t.u.a.a.a.s.a.u.p.t.a.t.t.4.4.4.t.u.t.:.*.4.4.4.4.4.4.;.*.*.*.*.%.*.4.t.t.4.4.*.*.4.4.;.%.*.*.%.*.4.4.t.4.4.4.:.*.&.4.4.t.t.u.i.i.%Xi.u.a.a.t.t.4.o.{ [ ] ] ..[ [ ,.q.q.t.Q.%Xi.u.p.s.p.t.4.&.J *.",
", i :.J A X.;.4.t.u.p.t.t.t.t.t.t.o.6 * * * * * * * > A t.u.p.p.e.u.%XOX7.4.4.t.4.t.t.;.4.y.y.5.5.5.=.:.=.*.:.%.%.*.;.*.&.X.X.&.o.X.%.=.*.:.4.4.4.4.4.4.4.4.4.4.4.;.@.t.u.a.t.t.a.a.u.u.t.t.t.t.t.t.t.t.t.t.u.u.u.u.u.t.u.u.i.s.s.s.s.s.s.i.u.u.u.t.t.y.W.Q.i.s.s.s.i.Q.=X-X*X#X4X4X,X5X,XOX:X*X&X-X-X&X&X&X*X*X%XQ.=X-XQ.Q.y.i.i.W.W.W.W.4.t.t.4.4.4.4.4.4.4.4.4.5.5.5.:.4.4.4.4.5.5.4.4.4.t.t.t.t.4.4.4.4.4.4.4.4.4.y.y.t.t.4.4.4.t.u.t.t.t.t.t.u.t.y.i.i.u.t.t.4.t.t.4.4.,.t.t.t.t.4.4.4.4.4.4.4.t.t.4.t.y.y.4.4.*.&.:.4.5.5.4.4.4.4.t.t.y.7.1.=.-.5.5.y.y.5.:.*.4.4.:.:.4.y.5.*.*.5.5.5.y.4.4.4.4.4.4.4.:.4.5.i.i.y.y.y.i.i.i.i.i.i.y.4.1.*.1.*.*.4.u.u.u.u.a.a.a.y.5.5.5.F.x.l.E E -.=.;.t.p.y.y.t.5.5.5.5.*.*.5.5.5.4.:.*.*.4.t.t.t.t.t.t.t.y.y.y.4.4.4.4.4.t.u.i.s.t.t.t.y.i.i.y.u.t.t.i.i.t.u.y.y.y.y.y.4.4.4.4.;.1.4.5.4.4.4.4.5.5.:.:.:.*.4.y.y.5.5.5.5.5.4.4.4.4.4.4.4.4.5.7.5.y.i.i.i.y.y.y.y.i.Q.&X:X}.{.}.&X}.U.{.%X%Xi.(.=X%X&X&XU.Q.~.i.i.i.%X=X=X=X&X&X&X&X&X%X%X_._.s.s.a.a.s._.s.u.s.s.s.s.s.qXs.s.d.s.s.s.a.u.u.u.a.a.p.p.t.u.u.i.i.s.i.u.u.i.a.u.t.4.4.5.7.y.5.:.-.:.:.:.:.:.5.5.:.:.=.=.=.=.:.5.4.1.1.1.5.5.5.:.:.-.-.:.:.5.4.4.4.4.4.2.*.=.5.5.5.t.t.y.i.%Xi.t.u.u.u.t.o.7 , , , , 5 5 7 o.q.q.,.7.%Xy.u.p.a.u.t.4.*.R =.",
"i i :.J J { o.@.4.4.4.t.,.,.,.4.4.@.4 o o % % * * % % l t.t.u.p.p.u.U.[.5.4.4.t.t.t.t.:.5.5.5.5.5.5.H.H.2.5.5.:.=.=.*.*.=.-.2.:.*.=.:.5.2.2.5.7.5.5.7.7.7.7.y.5.5.7.5.5.y.i.W.W.W.Q.U.K.I.I.P.P.P.U.U.U.U.U.U.U.5.3.U.Y.U.U.U.U.!.!.!.Y.U.U.U.!.Y.K.K.I.I.I.K.U.Q.i.Q.W.&X&X&XXXXX:X&X1X:X3X:X!.!.&X&X&X>XOX}.&X&X%X&X&XQ.U.7.U.U.U.U.U.Y.W.U.7.U.U.U.7.7.7.U.W.Q.U.U.U.U.U.7.U.U.U.U.U.U.y.y.y.y.4.4.4.5.5.5.:.:.1.4.5.5.5.4.4.5.y.y.t.t.t.t.4.4.4.t.y.y.y.y.5.5.5.5.5.5.5.:.4.5.7.7.5.P.P.5.2.H.5.W.Q.7.7.W.Q.U.5.5.=.:.7.U.7.5.5.*.*.5.5.5.P.-.Q -.:.*.2.5.*.W =.:.:.=.%.*.5.:.W =.2.5.5.y.5.:.:.P.P.P.:.:.5.7.7.7.7.7.7.5.5.5.5.7.U.U.P.:.-.F.F.-.:.2.2.5.5.7.5.5.5.5.:.-.F.x.x.E -.:.:.5.y.u.y.5.5.5.5.5.2.5.5.U.P.5.5.5.2.2.5.U.W.W.W.y.7.7.7.W.W.U.7.4.5.5.7.y.4.5.4.4.5.7.7.7.U.7.5.5.7.i.5.y.5.5.5.5.7.5.5.5.:.:.P.P.P.5.5.5.2.2.P.P.P.5.U.U.U.U.U.U.U.U.U.U.U.7.5.5.P.P.I.J.Y.Y.I.I.I.I.I.Y.Y.}.}.}.OX+XOXXX!.!.!.!.!.&X%X%X%XQ.Q.%X%Xi.i.Q.i.i.7.7.Q.Q.%X&X}.}.Y.}.%XQ.Q.i.i.i.s.s._._.i.i.i.i.i.i.i.Q.Q.Q.Q.Q.Q.Q.i.i.i.i.i.i.s.s.s.i.i.i.W.7.5.3.U.7.7.5.5.1.5.2.5.7.5.2.-.2.2.2.2.2.P.P.2.2.2.2.P.P.P.P.3.2.5.P.5.5.:.:.P.H.F.H.P.5.5.5.5.5.5.*.=.:.5.5.5.4.5.5.Q.&XQ.i.u.t.u.t.] % % % % = % % , #.,.,.4.7.Q.y.i.u.y.4.4.5.:.E -.",
"i i 5.F J S X.o.;.:.5.7.4.4.4.4.4.@.> o , , , , > * * l 4.t.u.t.u.y.U.L.5.5.y.t.4.4.t.5.5.5.5.5.P.P.P.P.P.5.5.:.:.:.:.:.-.:.H.H.-.-.-.P.Y.U.K.U.P.P.U.U.U.U.Q.U.Q.!.U.P.U.!.Y.Y.Y.Y.J.J.J.J.J.J.J.J.I.I.P.U.U.P.2.H.Y.:XXXXXY.Y.:X3X3X>XXXY.J.J.J.J.I.I.I.I.U.U.W.7.i.i.Q.i.Q.}.+X+X|.,X2X5X>X*X%X%X%XOX<X+X X}.}.&X&XQ.7.7.U.U.P.P.P.K.Y.U.U.!.Y.K.K.P.H.P.P.U.U.U.U.U.U.U.U.U.U.U.U.U.P.5.2.2.5.5.5.*.-.2.2.:.*.5.:.:.=.*.:.5.*.5.5.4.5.y.t.4.4.4.4.4.4.4.5.:.2.5.5.:.4.:.:.:.:.P.U.P.H.P.P.P.P.U.W.Q.U.U.5.P.P.P.2.=.:.7.7.5.4.4.5.5.5.:.:.-.-.-.:.2.5.5.7.7.2.:.:.:.*.=.*.1.*.=.:.:.5.5.y.:.-.-.:.:.:.=.-.-.:.5.U.U.U.:.=.%.%.*.5.5.5.P.:.-.-.Q Q -.-.-.-.:.2.5.5.1.2.5.7.7.5.5.5.4.5.7.7.5.5.7.5.5.5.5.5.5.7.U.7.5.5.5.5.2.2.2.P.U.U.U.U.5.5.5.P.U.U.P.5.2.H.5.5.:.5.4.5.5.5.2.2.2.P.P.P.U.U.5.5.4.4.4.:.4.4.4.5.-.:.H.H.F.F.2.F.H.H.2.5.U.W.Q.U.U.U.Y.Y.Q.K.U.U.U.U.U.U.P.Y.Y.R.R.R.R.L.J.J.J.Y.XXXXXX[. X+X+XXX!.Q.Q.W.U.K.}.XXXX}.*X=Xi.7.{.[.Y.Y.&X%X%XQ.Q.U.!.&X!.Q.W.Q.Q.W.W.W.Q.~.~.Q.Q.W.Q.Q.Q.Q.Q.Q.U.U.U.U.U.Q.Q.Q.Q.7.5.y.Q.~.~.Q.W.7.5.2.Q H.P.5.5.5.5.5.5.-.:.2.5.5.2.5.5.5.5.5.5.5.5.5.5.P.U.U.P.2.2.2.5.5.5.5.*.:.5.5.:.=.:.5.5.5.:.:.2.*.=.=.=.=.*.*.4.7.U.*X&Xi.u.u.t.@.0 % % , , , = % = [ 4.4.4.U.Q.7.i.t.y.:.:.:.:.E -.",
"j i 5.G S [ { #.o.*.5.U.7.4.t.t.4.#.4 , G R F D 7 > # A 4.t.u.i.i.i.U.L.5.5.y.5.4.4.t.5.2.:.-.2.2.H.H.2.:.:.:.:.5.5.:.=.P W :.:.:.-.=.H.Y.!.P.2.:.5.5.5.5.5.7.W.Q.Q.P.2.U.&XQ.Q.i.i.5.:.2.2.5.7.7.7.t.t.t.y.4.4.4.t.i.i.U.7.5.i.Q.;XfXfX-Xi.4.4.5.5.t.y.i.i.s.s.s.a.qXs._.i.%X5X7X#X|.2X*X*X*X;X=X=X%X&X<X+XOX,X2X2X*X%XQ.%X,X&XU.7.7.U.Q.U.Q.!.Y.H.H.U.5.5.2.:.5.5.5.5.:.*.=.*.5.5.7.7.5.*.=.*.5.7.5.=.=.2.5.5.y.y.7.:.*.:.5.i.5.5.5.5.y.y.i.i.t.t.t.t.t.t.5.:.=.:.7.y.4.4.t.4.4.4.y.4.*.4.4.y.y.i.i.i.W.5.%.%.=.:.4.4.4.4.4.4.4.y.u.u.i.i.y.5.7.7.y.i.~.~.=X~.i.4.:.*.4.t.y.y.y.i.y.4.y.y.y.4.4.4.t.y.4.4.4.4.5.y.Q.Q.i.5.:.;.4.4.y.y.4.4.t.4.4.4.4.y.t.t.t.u.a.s.a.4.y.i.s.s.a.a.a.t.<.4.4.4.5.y.y.5.5.5.5.i.i.y.4.:.*.4.4.4.4.2.2.U.U.7.5.*.*.1.5.5.5.2.5.2.2.5.5.5.5.y.5.5.5.*.=.-.5.7.U.U.7.5.4.4.y.4.;.4.4.4.4.;.*.:.5.7.5.5.:.-.=.*.5.y.y.5.4.4.:.2.5.5.:.*.=.%.%.*.5.5.i.W.W.Q.W.7.5.4.:.;.4.7.Q.Q.W.U.:X<X,X*X&X%X%XK.L.OX+X+X4X<X&XU.}.+X@XOX,X*X-X=X=X=X-X;X-X-X=X=X=X=XW.7.7.W.Q.Q.W.7.5.W.W.W.Q.Q.~.i.y.5.5.i.i.W.W.7.5.5.5.i.~.~.~.i.5.2.*.4.i.i.i.u.u.a.s.y.5.*.4.t.5.y.u.t.5.5.4.4.4.;.;.:.:.4.:.*.%.=.4.5.y.y.5.5.5.5.5.4.*.*.;.4.*.$.{ *.4.4.:.*.%.&.*.4.y.7.&XQ.i.u.t.@.@.0 > j D Z z g % % S 4.4.y.%X%X7.y.t.y.5.*.=.-.P =.",
"j g 5.K A  .o.#.;.*.2.2.*.4.<.,.@.] > 7 3.3.2.1.A * # l 4.4.y.i.i.y.K.N.5.5.5.4.4.5.y.2.2.2.2.2.2.2.5.5.5.5.4.5.y.y.5.=.%.*.4.4.4.:.*.5.7.5.4.4.y.y.y.t.4.t.i.s.s.i.4.4.u.s._._.eX_.a.t.4.t.p.a.a.p.p.p.p.a.t.t.t.p.u.u.u.u.t.t.t.s.s.s.a.t.p.p.a.a.p.a.a.a.s.qX0Xs.qXs.rXs.(.*X2X*Xi._.s.s.s.=X=X_._.%X-X&X=X=X;X;X%XQ.i.%X:X&XQ.y.i.y.y.y.i.i.y.5.5.i.Q.i.y.4.4.y.y.t.t.4.;.;.t.s.s.i.i.t.4.;.4.5.4.&.&.4.t.u.t.t.4.4.;.4.4.u.y.y.y.i.i.s.s.s.s.u.u.i.i.i.i.4.;.4.i.s.a.a.a.a.p.a.a.u.p.t.p.a.a.p.p.p.a.u.t.t.t.u.a.a.a.a.a.p.u.a.s.0XeX_.s.a.u.u.y.s.s.s.s.a.u.4.4.4.u.s.s.s.s._.s.a.s.s.eXs.s._._._.s.s.a.s.s.s.rXrXs.s.s.a.s.s.s.s.s.s.s.a.a.a.a.s.s.s.qXqXeXeXqXs.s.s.qXs.a.s.s.u.t.t.t.u.u.u.i.t.4.4.u.s.s.s.s.u.t.i.u.u.u.t.t.y.t.u.u.u.u.u.u.u.u.u.t.4.4.4.t.u.t.a.a.u.t.t.4.4.t.u.i.i.t.t.t.u.y.t.4.t.u.u.t.4.;.;.4.t.t.u.t.;.o.;.y.i.t.u.u.t.4.4.5.t.4.4.@.o.@.4.t.t.t.t.y.i.u.t.t.p.u.t.t.s.s.i.s.i.Q.*X*X%X%X%X%X&X}.OX<X<X:X&X&X&X,X3XXX&X%XQ.s.s.s.s.=X=XyXrXrXrXrXrX_.s.s.s.=X=Xs.y.4.u.s.s.s.s.qXs.s.a.a.s.s.s.s.u.u.u.a.s.s.s.s.i.t.t.t.u.a.a.p.p.a.s.0Xs.t.t.t.a.a.a.a.a.i.u.t.t.t.4.,.4.4.4.4.4.4.4.t.u.u.t.t.4.t.y.i.t.4.4.4.4.;.o.[ ;.t.t.t.4.;.;.4.t.t.5.7.5.4.t.@.+...7 , l K G D z = % [ 4.4.5.U.U.7.y.y.y.5.=.R R J =.",
"l g 5. .A #.o.#.;.4.-.-.=.*.@.@.+.] * 7 3.K.H.3.J * # A 4.4.t.y.t.5.K.L.5.:.:.;.4.4.y.2.2.5.U.5.5.5.7.5.5.5.4.4.4.4.;.;.;.4.4.4.t.4.;.;.;.;.4.t.u.i.u.t.t.a.).s.s.a.u.p.s.eXs.s.s.s.s.u.t.u.a.a.u.u.u.p.a.u.a.a.a.u.i.i.a.a.s.s.a.a.a.a.a.a.s.s.s.a.s.u.u.t.u.s.s.s.s.s.rXrX=X=X&X=X_._.s.s.s.s.s.s.s.s._.s.s.s.s.s.i.5.5.U.K.U.7.y.u.u.u.p.u.t.t.4.4.i.i.i.u.t.t.u.t.u.u.u.t.t.u.s.s.a.s.s.t.4.;.;.;.;.;.t.t.p.q.4.4.4.4.4.t.t.u.t.t.i.s.a.s.s.u.t.u.a.a.s.u.t.t.u.a.a.a.a.p.p.p.s.s.a.s.s.0Xs.a.p.p.a.r.p.s.s.s.s.s.s.0X0X0Xa.s.s.0X0XqXqXs.a.t.t.a.0X0X0X0X0Xs.i.u.u.a.s.0Xs.0XeXs.a.s.eXrXqXrXrXrXrXrXrXeXeXrXrXrXrXrXrXrXeXeXrXrXrXrXrXqX0XqX0X0X0Xs.s.eXeXeXeXs.0X0X0XqXs.a.s.s.s.s.a.a.a.0Xs.s.s.u.a.s.qXeXrXrXs.a.a.a.a.a.a.u.t.t.p.a.a.a.a.a.s.a.p.t.t.4.,.t.p.q.p.p.a.p.t.t.u.t.t.t.t.t.t.p.a.u.t.,.t.u.t.t.4.;.;.;.;.t.p.t.,.,.4.u.s.s.a.a.u.4.4.4.t.u.t.,.,.,.t.t.u.u.t.5.y.t.t.a.s.s.y.i.i.i.i.s.s.~.=X~.s.i.i.Q.!.&XQ.Q.Q.Q.Q.%X%XQ.~.Q.s.s.s.s.s.s.s.s.s.s.s.s.eXrXrXrXeX_._._._.s.s.a.s.eXeXeXeXs.).).s.s.s.s.0X0X0Xs.0XeXeXqXqXeXa.t.a.s.a.a.a.u.u.a.a.a.a.t.t.a.s.a.a.a.s.s.u.t.p.a.t.q.q.t.t.t.u.,.q.q.t.p.p.u.;.;.t.t.t.t.u.u.u.t.;.o.@.t.t.t.4.4.4.4.t.t.4.4.*.@.@.#.o.#.0 5 A *.1.=.W , % S @.4.1.3.K.5.y.y.y.:.%.R R J =.",
"g g 4.X.A [ #.@.<.1.2.H.K.U.5.@.+.` 1 7 K.>XOXK.A 4 # A 1.4.4.4.5.U.}.,XQ.4.4.t.t.4.y.:.:.5.7.7.5.5.t.t.y.5.4.:.:.4.4.4.4.4.4.4.t.4.;.;.;.;.t.i.u.s.s.u.p.s.s.s.a.a.a.s.s.s.s.s.s.s.s.s.s.a.s.s.u.t.u.s.s.a.a.a.a.s.s.s.a.a.a.a.s.s.s.a.a.a.a.s.s.s.a.a.u.u.a.s.eXs.qX_.s.s._._._._._._.s.s.s.s.s.s.s.s.s.s.s.s.s.s.Q.i.7.7.7.y.y.u.u.a.s.a.a.t.5.5.5.4.i.y.t.t.t.t.t.u.a.s.u.u.u.i.s.i.s.i.t.4.;.;.t.t.4.4.4.t.t.@.@.4.t.t.u.a.p.p.u.y.t.t.t.t.t.u.a.s.s.a.u.a.a.s.a.a.a.a.t.t.a.s.s.a.s.s.s.s.a.p.p.p.a.a.a.a.s.s.s.s.0X0X0Xs.s.s.s.s.eXs.a.p.a.s.0X0X0XqX0Xs.qXqXqXqXqXqXqXqXqXqXqXqXqXqXrXeXrXrXrXrXrXrXrXrXrXrXrXrXrXrXrXeXeXrXrXrXrXrXrXrXrXeXeXeXqX0X0XeXeXeXqXs.qX0Xs.s.s.s.a.qXqXs.s.0XeXqXqXqXqXqXqXqXqXqXrXrXs.a.a.a.s.u.4.,.u.a.a.a.a.a.s.s.a.t.t.t.t.t.t.t.t.t.a.a.a.p.u.t.t.4.@.,.t.t.p.p.t.t.q.t.u.t.4.;.;.o.o.4.u.a.u.u.t.t.u.u.s.a.u.y.4.4.t.a.u.u.t.t.t.t.t.t.u.i.y.t.u.a.a.s.s.s.i.s.~.i.i._._.s.i.i.i.y.Q.&X%X%XQ.s.Q.=X=Xi.s.s.s.s.s.s.s.s.s.qXs.s.s.p.a.s.rXrXqXs.s.s.rXqXqXqXeXs._.eXs.qX0XqXqX0X0Xs.s.0X0X0X0XqXqXqXqXqXqXa.a.s.s.s.s.s.a.a.p.a.a.u.u.u.u.a.a.a.u.i.4.@.4.a.a.t.t.t.t.u.u.t.t.4.4.,.4.4.t.;.;.4.4.4.t.t.t.t.4.4.;.;.4.t.t.t.t.t.t.y.y.4.4.4.4.@.@.@.@.0 5 G U.Q.U.2.g % A @.4.7.{.K.i.y.y.t.t.4.o.{ J =.",
"l g *.{ A #.@.4.4.1.3.K.}.%Xy.@...` # 7 Y.7X7X{.C > # ] 5.5.y.y.y.Q.&X>X%X5.y.t.y.t.y.2.2.2.5.5.5.5.t.t.y.y.4.*.;.4.4.4.4.4.4.t.t.4.;.;.4.t.a.a.a.s.s.s.s.s.s.s.s.s.s.s.s.s.s.s.s.s.s.s.s.s.s.s.a.p.a.a.s.a.a.a.a.a.s.a.a.a.a.a.s.s.s.a.a.s.s.s.s.s.s.s.a.a.a.s.s.qX_._._.s.s._.s.s.s.s.s.s.s.s.s.s.s.s.s.s.s.s.s.s.i.y.5.W.5.y.t.u.u.a.s.s.s.t.4.:.5.t.i.t.t.u.u.t.u.i.s.s.s.s.i.y.i.y.y.t.t.t.t.y.u.u.t.t.t.u.t.4.4.t.u.u.u.a.a.s.s.u.t.t.u.u.a.s.s.qXs.a.a.s.s.s.s.s.s.s.a.a.s._.s.s.s.s.s.a.a.a.a.s.a.a.s.s.s.s.0X0X0X0Xs.s.s.s.eXs.s.a.a.s.s.qXqXqXqXeXqXs.qXqXqXqXqXqXqXqXqXqXqXqXqXeXrXeXeXrXrXrXrXrXrXrXrXrXrXrXrXrXrXrXrXrXrXrXrXrXrXrXrXrXrXeXeXeXeXeXeXeXqXqXqX0XqXs.s.s.s.qXqXs.s.0X0XqXqXqXqXqXqXeXrXqXqXqXs.s.s.s.s.s.u.u.a.s.s.s.s.s.s.a.a.q.t.a.a.a.a.a.a.u.a.s.a.a.a.u.t.4.4.t.u.a.a.a.u.u.t.u.u.u.t.4.4.4.4.t.s.a.a.a.a.u.u.s.s.s.i.t.4.4.u.a.u.t.t.t.p.u.t.u.u.i.5.4.u.s.s.s.s.i.s.s.s.s.s.s.s.i.i.i.i.y.W.&X,X&X%X=X=X=Xs.i.i.s.s.s.s.s.s.s.s.qXs.s.a.a.a.a.s._.s.s.s.s._.s.qXqXrX_.s.s.s.s.qX0X0Xs.s.0Xs.s.s.s.s.s.qXqXrXqXqXs.s.s.s.s.s.s.s.s.s.s.a.a.u.u.a.s.a.a.u.t.@.#.4.a.a.u.u.a.a.a.u.t.u.u.t.t.t.t.4.4.;.;.4.4.4.t.t.t.4.4.4.4.4.4.t.t.t.t.t.u.y.7.Q.5.t.t.t.4.,.l , =.;XkXkXU.g * ] @.t.%X2X*XQ.i.s.i.i.u.;.&.G =.",
"j g *.G A @.t.t.4.4.5.U.U.7.4.+.+.] * , 3.OXOX3.< # # A y.Q.~.s.i.Q.}.}.Q.7.y.t.4.4.4.5.5.4.4.5.y.y.y.y.y.y.4.;.4.4.t.t.4.4.4.t.t.t.4.4.y.s.a.a.s.s.s.s.s.s.s.s.s.s.s.s.s.s.s.s.s.s.s.s.s.s.eXs.a.a.s.s.s.a.a.a.a.a.s.a.a.a.a.s.s.s.s.a.a.a.s.s.s.s.s.s.a.a.a.s.s.s.i.i.s.s.s.s._.s.a.u.s.s.s.s.t.t.i.s.s.s.s.s.s.s.i.5.5.i.i.y.t.t.u.i.s.s.s.t.4.:.5.t.y.t.t.a.a.u.u.s.s.s.s.s.i.y.t.5.y.t.u.u.i.i.u.t.t.t.u.a.u.t.t.t.a.p.p.a.s.a.a.u.u.a.a.a.s.eXeXeXqXa.s.qXs.s.s.qXqXs.s.s.s.s.s.s.s.s.s.a.s.s.s.s.a.s.s.s.s.s.s.0X0X0Xs.s.s.eXeXs.s.a.s.eXs.s.s.s.s.eXs.s.s.qXqXqXqXqXqXeXeXeXeXeXqXrXrXs.eXrXrXrXrXrXrXrXrXrXrXrXrXrXrXrXrXrXtXtXrXrXrXrXrXrXrXrXrXrXrXrXrXrXqXqXqX0XqXs.s.s.qX0X0X0X0XqXqXqXqXqXqXqXqXeXqXs.s.s.qX_.s.s.s.s.s.s.s.s.0Xs.s.s.s.s.a.t.p.a.s.s.s.s.a.a.s.0X0Xs.s.a.u.t.u.a.a.a.a.a.a.a.a.a.p.t.t.t.u.t.t.i.s.a.a.a.a.u.u.y.y.t.t.4.4.y.s.a.u.t.t.u.a.s.u.u.t.y.5.4.y.i.s.i.s.i.s.s.s.i.i.i.i.i.i.i.i.y.U.&X>X&X%X=X%X~.i.i.s.s.s.s.s.s.s.s.s.qXqXs.a.s.a.p.s._.s.s.s.s.s._.s.s.s.i.y.u.s.s.qXs.s.s.s.a.s.s.s.s.s.s.s.eXrXqXs.s.s.s.s.s.a.a.s.s.s.s.s.s.a.a.s.s.s.s.a.u.4.<.t.a.p.a.a.a.a.u.p.t.u.a.a.a.u.u.t.t.4.;.4.4.4.4.5.4.4.t.t.t.4.4.t.t.t.t.t.t.i.&X*XU.y.u.t.4.,.l , G %X;X;X2.5 * ] @.t.Q.*X&Xi.s.s.s.s.y.4.o.G %.",
"j i =.G S @.t.t.t.4.6.7.6.,.@.@.@.] 2 , F W -.G > 1 # A y.i.=X=Xi.i.{.}.U.5.y.t.4.4.4.5.4.4.5.y.y.5.y.y.y.4.4.4.y.4.t.t.4.4.4.t.u.t.t.u.s.s.s.s.s.s.s.s.a.u.s.eXs.s.s.a.s.s.).eX_._.s.s.s.qXqX0Xa.s.s.0Xs.s.s.s.s.s.s.a.a.a.a.s.s.s.a.a.a.a.s.s.s.s.s.s.a.a.a.s.s.s.t.4.i.s.s.s.s.s.i.u.i.s.s.u.t.u.s.s.s.s.s.i.i.i.y.5.t.i.i.y.y.y.i.i.s.i.i.t.4.5.y.t.4.t.u.a.a.a.s.u.u.i.s.i.u.y.y.5.5.y.i.a.a.a.p.t.t.t.u.u.t.t.t.p.a.p.p.p.s.a.t.p.a.s.s.a.0XeXrXrXqXs.qXqXqXqXqXs.qXs.s.qXs.s.eX0Xs.s.s.s.s.s.s.s.a.a.s.s.s.s.a.a.s.s.s.s.s.s.eXeXeXeXeXeXs.qXeXs.s.s.s.s.s.s.qXqXqXqXeXeXeXrXrXrXrXeXrXeXrXrXrXrXrXrXrXrXrXrXrXrXrXrXrXrXrXrXtXtXtXrXrXrXrXrXrXrXrXrXrXrXeXeXqXqXqXqXs.0X0X0X0Xs.a.0XqXqXqXqXs.s.qXqXqXeXeXs.s.s.rXrXs.s.s.s.s.s.eX0XeXs.s.s.s.s.s.a.a.s.0Xa.a.s.qXs.qX0X0X0X0Xs.a.p.p.a.s.a.a.a.a.s.s.a.a.a.a.a.a.u.u.s.s.s.a.a.a.a.u.t.4.4.4.4.y.i.s.a.u.t.4.u.s.s.i.t.t.4.2.2.5.y.y.y.i.u.s.s.s.i.i.i.i.i.i.i.i.i.W.Y.Y.U.Q.i.Q.i.i.i.s.s.s.qXs.s.s.s.qXqX0Xs.s.0Xs.a.s.s.s.s.rXrXs.s.s.s.s.i.y.u.s.s.s.s.s.s.s.s.0Xs.s.a.s.s.s.s.qXqXqXs.s.s.0Xs.a.a.a.s.s.s.s.s.s.a.s.s.s.s.a.a.i.u.i.a.a.s.a.a.u.u.t.t.t.t.p.p.p.t.t.t.t.4.;.4.4.4.*.%.;.4.u.y.5.5.4.y.t.t.t.u.i.}.*XU.y.a.t.4.@.l = l *.5.1.W 5 * ..q.t.i.{.Q.i.s.qXs.s.u.4.;.G =.",
"g i =.G A @.4.t.t.t.u.i.t.q.q.q.@.] 2 5 j l [ A 4 1 + A 5.y.s.rXs.y.%X&XU.5.y.t.4.4.4.5.4.5.y.y.4.*.:.5.4.4.4.y.y.4.t.t.4.4.4.t.u.u.u.s.s.s.a.s.a.a.s.a.u.u.a.qXs.s.a.p.s.s.s.s.s.s.s.a.a.s.s.s.a.s.s.s.s.s.s.s.s.s.s.s.a.a.a.s.s.s.0X0X0Xs.0Xs.s.s.s.s.s.a.a.a.s.s.t.4.u.s.s.s.i.i.i.i.i.i.s.s.s.s.s.s.i.u.i.i.i.i.i.y.i.i.y.4.4.5.y.y.i.y.i.u.i.y.y.y.4.5.i.a.a.s.i.t.4.t.i.t.t.i.y.4.:.4.i.a.a.s.a.s.u.t.t.t.t.t.t.t.p.p.t.t.s.a.a.a.a.s.a.a.a.0X0XeXqXqXqX0XqXqXqXs.qXs.s.s.s.s.eXqXqXs.a.s.s.s.a.a.a.a.s.s.s.s.a.a.s._.s.a.a.s._.eXeXeXeXs.s.eXeXs.a.s.s.s.s.s.qXqXqXqXqXqXeXeXrXrXrXrXrXrXrXrXrXrXrXrXrXrXrXrXrXrXrXrXrXrXrXrXrXtXrXrXrXrXrXrXrXrXrXrXeXqXqXqXqXqXs.s.s.s.s.s.0Xa.a.s.0XqXqXs.s.s.s.qXeXeXeXqXs.s.qXs.s.a.s.s.s.s.s.eXeXs.s.s.s.s.s.s.s.0X0Xs.a.s.qXqXs.qXqXqX0Xs.a.p.p.a.s.s.s.a.t.p.a.a.a.a.a.s.a.a.a.a.s.s.s.s.a.s.s.y.4.4.4.4.4.y.u.t.t.t.4.4.u.s.i.t.y.5.5.5.5.t.4.4.y.y.i.s.s.i.i.i.i.i.Q.Q.Q.i.W.U.P.U.i.y.s.i.s.s.s.s.qXqXs.s.s.s.qXqXs.s.s.s.s.s.s.i.y.s.s.rX_.s.i.s.s.~.s.s.s.qXa.u.a.s.s.s.0Xs.s.a.s.s.s.s.s.s.s.s.s.qXeXs.s.a.a.s.s.s.s.s.s.a.s.s.s.s.a.s.s.s.s.s.a.s.a.a.a.u.t.t.u.t.p.t.t.p.t.t.u.t.;.;.4.;.&.%.*.4.4.4.4.:.:.5.y.t.t.t.y.}.&XU.i.u.t.4.@._ = g A X.X.G 7 > ..q.p.y.U.U.i.s.s.s.s.u.;.o.G =.",
"< < =.G A  .@.@.4.4.6.7.4.,.t.4.4.] * 4 0 l A A 4 # + A y.t.a.a.a.i.i.U.5.5.4.4.4.4.4.5.4.y.y.y.*.=.:.4.4.4.4.t.y.t.t.u.t.4.4.t.u.u.a.s.a.u.u.i.s.s.s.s.a.a.a.s.s.s.s.s.s.s.s.s.s.s.s.a.p.a.s.s.s.s.s.s.s.s.a.a.a.a.s.s.a.a.s.s.a.a.0XqXqXqXs.s.s.s.a.a.a.a.a.a.s.s.s.i.i.s.s.i.4.5.y.i.y.u.a.s.s.a.a.s.u.u.u.i.i.i.7.y.i.a.4.:.*.5.5.5.5.y.i.i.i.i.y.t.4.5.y.s.s.i.y.4.4.4.t.t.4.t.y.4.:.4.u.u.u.i.s.s.i.4.4.t.u.t.t.t.p.t.t.t.t.u.a.a.a.s.s.a.u.a.qX0X0XqX0Xa.a.qXqXqXqXs.s.s.qXs.s.s.s.s.s.s.s.a.a.a.a.s.s.s.s.s.s.a.s.s.s.a.a.s.s._.eXs.s.s.eXeXeXs.a.s.eXs.s.s.qXqXqXqXqXqXeXeXrXrXrXrXrXrXrXrXrXrXrXrXrXrXrXrXrXrXrXrXrXrXrXrXrXpXyXyXrXrXrXrXrXrXrXrXeXeXs.s.eXqXs.s.s.s.s.s.s.s.s.s.a.a.s.qXqXs.eXeXeXeXeXeXs.s.qXs.a.a.s.s.a.a.s.eXqXs.s.s.s.s.s.s.qXqX0X0Xs.s.qXs.s.s.qXqX0Xs.0Xa.a.a.qXs.a.t.t.t.p.p.p.a.a.a.a.a.a.s.s.a.i.s.s.s.s.i.y.y.4.4.4.t.t.t.t.t.4.;.t.i.y.t.t.5.5.5.7.t.4.5.y.y.y.i.i.i.5.Q.=X=XQ.U.5.i.W.i.i.i.i.t.i.i.s.s.s.s.qXrXrXs.s.s.s.qXs.s.s.s.a.s.i.t.y.i.s.s.s.i.t.y.s.s._._.s.qXa.t.a.a.s.s.qXs.s.s.s.a.s.s.s.s.s.i.s.rXeXs.s.s.s.s.s.s.s.s.s.s.a.a.a.a.a.a.s.s.a.u.a.u.u.u.s.u.t.t.u.u.p.p.t.p.t.t.t.t.4.4.4.4.4.4.4.*.*.*.:.*.=.:.4.4.4.t.y.%X&XQ.s.a.t.4.@.0 % , l J G G 5 > ..,.t.y.%X%Xi.s.s.s.i.t.;.X.J =.",
", , =.G J  .@.@.4.5.Q.%X7.4.t.4.4.A * * 0 C C 0 > # + #.i.t.t.q.a.s.i.%XP.5.4.t.y.5.4.4.4.4.y.4.*.=.5.5.4.4.4.4.t.t.t.u.y.4.4.t.s.a.s.s.a.t.t.t.i.s.s.s.s.s.s.s.s.s.s.0XeXeXs.s.s.qXqXs.a.a.s.s.s.s.s.s.s.s.a.p.p.a.s.s.s.a.a.a.a.a.0XqX0Xs.s.a.a.a.t.p.a.a.a.s.a.s.s.i.s.s.s.u.5.5.2.5.7.i.a.a.a.a.a.s.s.u.t.t.5.7.7.y.u.a.4.4.5.5.5.:.*.y.i.i.i.y.y.t.2.:.4.i.s.y.4.4.4.y.y.t.4.4.4.4.:.4.i.u.u.t.t.y.y.4.4.t.u.t.t.t.p.t.t.4.4.t.u.a.a.a.a.u.u.a.s.qX0XqXs.a.a.s.s.s.s.s.s.s.s.s.s.a.s.s.s.s.s.a.a.s.s.s.s.s.s.s.s.a.a.s.s.a.s.s._._.eXeXeXeX).s.qXs.a.qXeXs.s.qXqXqXqXqXqXqXeXeXeXqXeXrXrXrXrXrXrXrXrXrXrXrXrXrXrXrXrXrXrXrXrXrXpXpXyXyXyXrXrXrXrXrXrXrXrXeXeXeXeXs.s.s.a.a.a.s.s.s.s.s.a.a.s.s.qXeXeXeXeXeXqXs.s.qXrXs.s.a.s.a.u.a.s.eXs.s.s.s.s.a.a.a.qXqX0X0Xa.a.qXs.s.s.qXqXqXs.s.a.a.a.0XqXa.a.u.t.p.s.p.t.u.s.a.a.a.s.s.a.t.s.s.s.a.u.i.t.4.4.y.t.t.y.y.i.4.;.t.i.y.t.t.4.5.5.5.t.4.5.y.y.y.y.5.5.7.W.W.U.5.:.:.7.y.i.i.i.u.t.t.i.s.s.a.s.s.s.s.s.s.s.s.qXqXs.a.s.s.s.i.i.s.s.s.rX_.i.t.y.s.a.s.s.a.qXs.s.a.s.s.s.qXs.qXs.s.a.s.qXs.i.u.s.~.s.s.s.s.s.s.s.s.s.s.s.s.s.a.a.a.a.a.a.s.u.u.u.t.t.t.u.s.a.t.t.t.t.t.t.t.t.t.t.t.t.t.t.t.t.t.4.:.=.=.=.4.:.$.%.*.5.y.y.y.{.U.Q.s.a.p.t.,.l * 5 l J J D 5 4 o.,.t.y.&X%Xi.a.s.s.y.4.;.$.J E ",
"g i W G A o.@.q.,.4.7.%X7.4.@.4.@.A + > 6 6 6 4 # X # ] y.t.4.t.p.p.i.Q.5.4.4.y.y.5.4.4.y.t.t.t.4.4.t.t.t.4.4.4.4.t.u.d.u.4.;.4.y.y.t.i.i.u.a.s.s.s.s.s.s.s.s.s.s.s.0Xs.qXeXs.s.s.s.eXs.s.s.s.s.s.s.s.s.s.a.a.a.a.a.a.a.s.a.u.a.s.s.0XqXs.s.s.s.s.a.q.t.a.s.a.a.s.i.i.i.u.u.a.a.t.5.:.Q -.5.s.a.u.a.a.a.u.u.t.4.:.-.5.y.t.a.t.t.t.t.y.5.-.=.7.y.4.4.4.i.t.4.4.y.y.4.4.t.u.u.t.4.t.u.t.4.t.t.t.i.t.4.*.4.4.4.4.t.p.u.t.t.t.t.t.p.t.t.t.a.a.a.a.a.s.s.a.s.s.s.a.a.a.s.s.s.s.s.s.s.s.s.s.s.s.i.s.s.a.a.a.a.s.a.a.s.s.a.a.s.a.a.a.s.qXs.s.s.eXs.s.eXeXs._.qX0XqXqXs.s.s.s.qXs.s.s.s.eXeXrXqXqXrXrXrXrXrXrXrXrXrXrXrXrXrXrXrXrXrXrXrXrXrXrXyXyXyXyXrXrXrXrXrXrXrXrXrXrXrXrXs.s.s.s.s.s.s.a.a.s.a.a.a.a.s._.eXs.eXeX_.s.s.s.s.s.s.qXs.s.s.p.s._.s.s.s.s.s.s.a.p.a.s.0X0X0X0Xs.s.s.qXqXa.a.s.s.s.a.s.s.s.s.p.a.a.a.a.s.a.p.t.a.a.a.a.s.s.s.u.u.s.s.u.4.4.4.4.4.t.t.u.p.u.t.t.t.t.t.4.4.t.4.:.5.5.t.t.y.y.y.5.5.5.5.2.2.2.2.-.:.5.5.y.i.i.u.u.p.u.i.s.s.i.u.i.i.y.y.u.u.s.s.s.a.a.s.i.i.s.s.eXs.qXeXs.s.s.s.s.s.s.s.s.s.s.qXs.s.s.s.s.s.s.s.s.s.s.qXqXs.u.u.s.s.s.a.s.s.s.s.s.s.a.s.s.s.s.s.s.i.s.a.u.a.a.u.t.t.t.t.a.s.t.4.t.t.t.q.q.q.t.t.t.t.t.t.t.t.4.4.:.=.=.=.:.*.%.R %.*.7.4.4.7.i.i.s.a.u.t.t.0 o , j j j 5 * > #.q.4.t.%X*X%Xu.s.s.t.4.*.R J P ",
"g i W G A o.@.,.4.4.7.7.7.t.4.4.4.] X X X o X X X X # ] i.4.4.q.q.p.y.U.5.5.5.5.4.4.4.4.5.y.y.y.y.y.y.t.u.t.t.4.4.4.t.t.t.4.4.4.t.4.4.t.s.a.a.s.s.s.s.s.s.s.s.s.s.s.0X0XqXeXs.s.s.s.eXs.s.s.s.s.s.s.s.s.s.a.s.s.a.a.a.a.a.a.u.s.s.s.s.s.a.a.s.s.s.a.t.u.a.s.a.u.t.u.i.y.i.s.s.u.t.5.=.R =.5.i.u.u.a.a.u.u.u.u.4.=.W *.4.t.u.u.u.t.t.5.5.:.=.y.y.4.4.4.y.i.i.y.y.y.t.t.t.u.u.4.4.t.y.u.u.u.u.u.u.4.4.4.4.4.4.t.t.t.p.t.t.t.t.t.p.u.t.p.a.a.a.u.s.s.s.s.s.s.s.a.a.a.qXeXs.s.s.a.s.s.a.a.s.s.u.s.s.s.a.a.s.a.a.a.s.s.a.a.a.a.a.s.s.s.s.s._.qXqXs.qXs.s.s.qX0X0XqXs.s.s.s.s.s.s.s.s.s.s.eXrXrXrXrXrXrXrXrXrXrXrXeXeXeXrXrXrXrXrXrXyXtXrXrXyXyXrXrXrXrXrXrXrXeXeXs.s._.eXqXs.s.s.s.s.s.s.a.a.s.s.s.s.s.s.eXeXqXrX_._.s.s.s.s.s.s.s.s.s.s.a.s._.s.s.s.s.s.qXs.a.a.s.s.0X0X0X0Xs.s.eXs.a.a.s.s.s.s.s.s.s.s.s.a.a.a.0X0X0Xa.a.a.s.s.s.s.s.s.u.a.s.s.u.4.4.t.4.t.t.t.u.u.t.t.u.t.4.4.4.4.4.4.4.5.5.y.y.y.i.y.y.y.y.y.4.5.2.2.2.5.5.4.5.i.i.u.u.a.a.a.i.i.i.y.y.5.5.y.y.u.p.a.a.a.s.t.4.;.t.s.s.s.eXeXqXqXqXqXqXqXs.s.s.a.s.qXqXs.s.s.s.s.s.s.s.s._._.s.s.s.s.s.s.a.a.s.s.s.s.a.a.a.s.s.s.a.a.u.t.u.a.u.u.a.a.s.y.t.u.a.a.t.q.t.t.t.t.t.t.t.t.u.u.t.t.u.t.4.;.:.=.=.*.:.*.%.%.%.%.4.;.5.7.y.i.i.u.u.t.4.0 . . $ $ % . o 4 +.t.4.t.%X*X=Xi.s.s.t.4.*.$.J W ",
"g i W J A o.@.4.t.y.4.1.4.t.4.4.4.#.> * ; ; # # > > 4 [ y.4.4.q.q.q.t.5.-.:.:.*.*.;.4.*.4.5.5.5.5.y.t.u.u.t.4.4.4.4.t.t.u.t.u.t.t.t.t.u.s.s.s.s.s.s.s.s.s.a.a.s.s.s.s.0Xs.s.qXqXqXqXqXs.s.s.s.s.s.s.a.s.s.0X0Xs.s.a.a.a.s.a.a.s.s.s.s.s.u.u.a.a.a.s.a.a.a.s.a.u.t.s.s.s.s.s.i.t.4.y.5.=.1.4.u.u.u.u.u.u.u.u.y.y.4.=.4.t.t.u.p.u.4.4.5.5.7.:.y.i.y.5.4.u.i.i.y.4.4.t.t.t.u.t.;.4.4.t.u.u.u.u.u.u.t.t.4.t.t.t.t.t.u.t.t.t.t.p.t.p.u.t.t.p.a.p.p.s.s.s.s.s.s.a.p.a.s.qXeXs.a.a.s.s.s.u.a.s.s.u.u.s.s.u.u.s.a.a.p.a.s.a.a.t.u.a.a.s.s.qXs.s.a.s.0X0X0XeXs.s.s.0XqXs.s.s.s.s.s.s.s.s.s.s.s.rXeXeXeXrXrXrXs.rXrXrX_.s._.eXrXrXrXrXrXyXrXrXrXrXrXrXrXrXrXrXrXs.s.rXs.s.s.qXqXs.s.s.a.a.a.a.a.a.a.s.s.s.s.s.eXeXrXrXs.i.s.s.s.s.a.a.s.s.s.s.a.s.s.a.s.s.s.s.s.s.a.a.s.s.s.0X0XqXqXs.eXqXa.a.s.s.s.s.s.a.a.a.s.s.s.s.0X0X0Xs.s.s.s.s.a.s.s.s.s.a.u.s.u.t.t.t.u.u.i.t.t.u.t.t.4.4.4.4.4.4.t.t.4.5.5.5.5.5.y.y.y.y.i.i.u.5.2.-.5.i.i.:.5.5.y.u.u.s.s.s.u.i.i.i.y.1.5.i.i.u.p.s.a.s.s.t.4.4.i.s.s.s.s.s.s.s.qXqXqXs.s.s.s.a.s.s.s.s.s.s.s.s.0X0Xs.s.s.s.0X0Xs.s.s.s.qXs.a.a.s.s.a.a.s.s.s.s.s.a.u.t.u.a.s.s.u.a.s.i.u.u.a.a.t.q.4.t.t.t.t.t.t.t.p.p.t.t.u.u.4.;.*.=.=.=.*.*.*.*.%.%.*.X.5.6.u.u.u.u.t.t.t.] 5 , , , , 5 l ] 4.4.u.y.Q.Q.i.s.s.s.t.4.*.$.J W ",
"g i =.J [ #.@.t.i.y.4.1.4.t.t.4.4.4.[  .S  . .#.o.o.o.4.y.t.t.t.t.t.4.*.R W =.*.:.:.4.*.:.:.:.5.4.4.t.u.t.4.;.;.*.4.t.u.p.u.u.u.u.y.u.s.s.s.a.a.a.s.s.s.a.a.a.s.s.a.a.s.s.s.s.qXqXqXs.s.a.s.s.s.a.a.a.s.s.s.s.s.s.s.a.a.s.a.u.s.s.a.s.s.t.p.s.a.a.s.s.s.s.s.a.a.u.a.a.a.s.s.u.t.t.u.y.5.4.4.t.t.4.4.t.u.u.u.i.u.y.5.t.u.t.t.t.t.4.*.:.5.i.y.i.s.i.y.t.p.u.t.4.:.:.4.4.t.u.4.;.:.4.;.t.u.t.t.t.t.t.y.u.t.t.t.4.4.t.t.q.q.q.q.t.t.t.t.t.p.p.p.p.a.s.a.a.a.a.a.a.p.a.qXqXs.a.a.a.a.a.u.u.s.s.t.u.s.u.t.t.s.a.a.a.a.a.a.u.t.t.u.a.a.s.s.s.u.t.s.s.s.0Xs.s.s.s.s.s.a.s.s.s.a.s.s.s.i.i.s.s.s.s.s.s.s.s.s.s.s._.s.s.s.s._.rXrXrXrXrXrXrXrXrXrXrXrXrXrXrXrXs.s.s.s.s.s.s.s.s.s.s.s.a.u.t.u.p.u.a.a.s.s.s.s.eXrXrXs.y.4.i.s.s.s.a.a.s.s.s.a.a.s.s.a.s.s.s.s.a.a.a.s.a.s.s.s.qXqXqXs.s.s.s.a.s.s.s.s.a.a.a.a.s.s.s.a.a.s.qX0Xs.qXs.a.u.a.a.s.s.u.u.i.i.t.y.u.u.i.i.4.;.t.y.4.;.4.4.4.4.u.i.4.4.1.*.*.*.2.5.4.4.u.s._.s.y.2.-.5.i.i.5.=.*.4.i.u.a.a.s.i.y.y.y.y.*.5.y.i.a.a.0Xs.s.a.u.u.s.s.s.i.i.s.s.s.s.s.qXqXa.a.s.s.a.a.a.a.s.s.s.s.s.s.eXs.a.p.a.0XqXs.a.a.s.qXs.a.a.s.s.p.a.s.s.a.a.a.a.s.u.u.u.s.s.u.t.t.u.u.p.a.a.p.t.,.q.t.p.t.t.t.u.p.u.t.t.t.t.4.;.=.=.W =.%.*.4.*.=.%.%.J 1.6.u.u.u.t.t.4.t.4.o.o.o.*.;.*.;.;.4.u.i.%Xi.7.y.s.s.s.u.4.;.$.J W ",
"g g *.G A [ @.;.t.t.4.1.4.4.4.4.@.4.*.4.4.4.4.4.4.4.y.5.4.5.5.4.t.t.4.=.P R =.*.5.4.4.4.:.=.=.:.:.5.4.t.y.4.*.=.=.*.4.u.p.t.t.u.u.t.s.s.s.a.a.a.a.a.a.a.a.a.a.s.a.a.s.s.s.s.s.s.s.a.a.a.a.s.s.s.a.a.a.s.s.s.s.s.s.s.s.s.s.a.u.i.s.a.s.s.a.a.s.s.a.s.s.s.0X0Xs.a.u.u.u.u.u.i.u.u.u.i.u.i.i.y.t.5.*.;.4.t.i.u.t.t.t.y.u.t.p.u.t.t.5.5.:.5.7.i.s.i.u.4.4.u.t.4.:.:.*.&.:.4.t.4.*.*.:.*.;.t.t.4.4.4.t.y.4.t.y.y.4.4.<.4.t.t.t.t.t.4.4.t.t.u.u.t.t.t.a.u.u.i.u.u.u.u.s.s.s.s.a.a.u.u.u.t.u.i.i.t.t.i.t.4.t.s.u.u.u.u.u.u.t.;.4.t.u.a.a.a.u.t.t.i.s.a.s.a.a.a.a.u.u.u.a.a.a.u.u.i.i.y.5.y.s.s.s.s.s.i.s.i.i.i.s.s.u.s.s.s.s.s.qXrX_.rXs.qXrXyX=Xs.s.s.s.s.s.u.t.t.i.y.i.s.s.s.s.s.i.4.;.4.t.t.t.y.y.y.i.s._.eXqXs.t.4.y.s.s.i.s.s.s.s.s.a.a.s.s.u.y.s.s.s.u.u.u.s.s.s.a.a.s.qXs.a.s.s.s.s.s.s.s.s.i.u.u.s.s.s.a.t.t.a.s.s.s.s.s.s.a.a.a.a.s.u.t.y.t.4.t.i.u.u.u.4.;.;.*.*.*.4.*.*.5.y.y.4.:.2.*.=.*.2.5.4.:.4.y.i.s.y.5.5.W.Q.i.5.%.%.:.y.i.u.u.s.y.5.5.i.i.5.5.5.y.s.s.0Xa.s.s.a.s.s.s.s.y.t.u.s.s.s.s.s.s.a.a.s.s.s.a.s.s.s.s.s.s.a.a.s.s.u.4.t.s.s.s.u.i.s.s.s.s.s.s.a.p.p.a.i.a.u.u.a.i.u.t.u.i.i.t.4.4.t.u.a.a.a.t.t.,.t.t.t.t.t.t.t.t.4.,.4.t.t.4.*.=.W W =.%.&.*.5.*.R R J 2.7.i.i.t.4.4.4.;.4.4.4.4.4.t.4.4.*.4.i.=X%Xi.5.4.u.p.p.u.4.*.{ J W ",
"g g 5.G A [ o.@.4.t.4.4.4.4.4.4.@.*.=.4.4.4.4.4.4.4.5.5.4.*.*.*.4.4.*.Q P E =.*.5.4.4.y.5.=.E -.:.5.4.t.y.:.%.=.-.=.:.t.u.t.t.t.t.t.s.s.s.a.a.u.a.a.a.a.a.s.s.s.s.s.u.u.u.i.a.a.a.u.u.u.u.s.s.i.u.u.u.s.s.s.s.s.i.i.i.s.s.u.t.i.i.y.u.y.u.i.s.u.u.u.s.s.s.s.u.i.t.t.t.y.i.i.u.i.s.s.i.i.i.i.5.:.=.*.4.y.y.y.t.t.4.y.y.u.y.5.4.5.5.5.5.*.2.i.i.t.4.5.5.y.4.1.:.:.=.R =.5.5.=.E -.*.*.;.4.4.4.4.4.:.:.&.*.5.5.5.4.<.;.4.t.i.t.;.o.;.4.t.t.t.t.4.t.u.t.4.y.t.t.t.t.t.i.s.s.u.u.u.i.y.t.t.y.y.4.4.4.4.;.4.i.t.t.t.t.t.4.:.*.:.4.t.t.u.u.t.4.4.t.u.t.t.u.u.u.t.4.4.t.u.u.u.t.4.5.7.5.=.:.4.y.i.u.t.4.i.y.y.y.y.y.t.i.s.s.s.s.s.s.s.s.s.s.rX_.s.i.i.i.i.i.i.y.4.4.5.4.4.t.s.s.i.i.y.4.*.*.;.;.4.y.t.t.y.i.s.s.s.s.t.4.4.y.i.i.y.y.u.u.u.s.s.s.y.4.t.i.i.y.u.u.t.t.t.u.u.a.s.s.u.u.u.i.u.u.u.u.i.s.i.t.t.i.s.i.t.t.t.u.s.s.s.a.s.s.y.u.u.a.i.t.t.5.4.;.4.i.y.t.t.t.4.*.=.=.*.*.=.=.:.5.5.5.5.5.2.=.:.5.5.:.*.:.5.5.5.5.P.W.Q.Q.i.5.*.*.:.4.t.u.i.i.y.5.5.i.Q.i.5.4.4.y.s.s.a.a.i.i.i.s.s.i.y.4.t.s.s.s.s.s.s.i.u.i.i.i.u.i.i.i.u.s.s.s.s.s.i.t.t.t.4.4.4.y.y.y.i.i.i.i.i.i.t.t.t.y.u.u.u.i.y.t.4.t.y.y.4.;.:.4.t.u.u.u.t.t.4.4.t.4.4.4.;.;.*.o.*.4.5.5.:.-.-.E E =.:.;.*.4.:.R R J -.3.5.5.4.;.*.:.:.4.;.;.;.;.4.t.4.o.o.5.=X%Xi.4.4.t.u.p.y.t.o.G z W ",
"j g 5.G A [ #.;.4.0.4.;.@.@.@.4.;.X.S %.*.4.;.@.;.;.*.*.*.%.R R &.:.:.-.P E =.*.:.5.5.t.5.-.E Q -.:.4.y.5.*.=.=.-.W =.4.4.4.4.4.4.4.y.s.s.a.a.u.a.a.a.a.a.s.s.s.s.y.t.4.t.u.u.u.u.u.u.u.s.s.s.u.t.t.t.t.y.s.s.i.u.t.i.i.u.t.4.y.y.4.4.:.5.y.y.t.t.4.i.i.i.y.y.5.7.5.5.y.i.i.y.y.y.i.i.i.y.5.*.=.-.:.5.5.y.y.y.*.=.5.5.5.5.*.5.5.5.5.:.:.-.5.y.5.5.5.5.4.4.*.:.:.-.E =.:.:.E P W -.:.:.5.5.5.1.2.:.=.-.-.-.:.=.*.*.*.;.4.t.4.;.X.&.;.;.4.4.;.4.t.t.4.;.4.5.4.4.4.4.t.i.u.t.t.t.t.t.4.4.;.*.*.4.4.:.;.4.4.t.t.t.t.t.4.*.*.:.4.4.t.t.t.t.4.4.4.4.4.;.4.u.y.4.;.;.4.t.t.4.@.o.:.:.=.R $.*.4.y.4.;.;.5.5.:.:.4.4.4.t.s.s.u.a.s.s.s.a.a.s.s.s.i.t.t.i.i.i.i.i.t.4.5.:.&.:.i.s.u.y.y.4.%.R :.:.4.4.4.4.t.u.s.s.a.s.t.;.:.y.u.u.u.t.t.t.u.s.s.s.t.;.4.i.y.y.i.y.t.4.4.4.t.t.u.u.t.t.t.t.t.4.4.t.t.i.i.4.4.t.i.y.y.y.y.y.y.i.a.s.s.i.t.t.u.s.t.4.4.4.:.*.4.4.y.y.4.4.:.*.:.=.=.=.=.=.*.:.:.:.5.7.2.=.*.:.*.*.:.5.2.:.:.P.U.Q.W.7.7.4.5.5.:.4.4.i.y.i.5.=.:.7.y.i.5.*.*.4.y.t.t.t.4.5.y.i.y.y.5.4.y.i.s.qXqXs.s.y.t.t.y.t.t.i.i.u.t.u.i.s.s.u.4.t.y.y.;.4.5.5.5.5.5.5.5.5.5.7.5.4.4.4.y.y.y.y.y.4.4.4.4.4.;.&.*.;.4.y.u.u.t.4.4.4.4.:.*.*.&.=.%.$.%.2.5.:.=.-.W P E *.5.4.4.:.:.$.R P R m.H.-.=.&.=.*.:.;.o.;.4.4.4.4.4.o.o.4.i.7.5.4.4.t.t.t.u.4.o.{ z =.",
"g , 5.G G G X.#.o.<.4.4.4.4.<.4.4.o.X.%.*.*.:.:.:.*.:.*.=.Q W W -.-.Q I P W W =.=.5.5.5.:.Q R R P W *.5.*.R R E R R R R W W %.=.*.4.5.y.t.t.y.y.y.t.4.4.4.y.i.y.y.4.*.&.%.%.*.4.5.4.:.5.y.y.5.5.4.*.=.&.:.5.5.5.*.=.-.:.*.*.:.:.:.-.E =.:.:.:.:.:.:.7.5.:.:.:.:.:.:.=.=.5.2.*.:.y.i.y.5.*.=.=.=.R W =.2.5.5.5.:.=.=.-.-.=.E E =.-.-.-.-.-.2.2.:.:.:.:.:.=.W W W R R E -.Q P R -.:.:.$.R E =.=.=.W W E E E E $.-.$.R %.*.*.&.$.$.R R $.=.*.*.*.4.:.*.&.%.&.=.&.&.:.5.y.5.;.*.:.5.5.=.R R P =.=.:.=.=.R R :.:.:.:.=.R R E =.*.:.5.:.&.%.%.%.%.%.=.=.=.=.%.$.$.=.=.&.$.$.$.R R R R P P P -.:.:.$.W =.=.R R R R %.:.i.i.5.4.4.4.4.:.:.5.5.:.*.-.-.:.5.5.5.5.5.:.:.=.$.=.:.5.:.*.*.:.W R $.=.=.%.R $.:.:.5.y.y.y.:.%.$.=.:.:.%.X.*.4.5.5.5.5.=.$.%.4.4.4.4.y.5.*.G %.*.5.5.5.:.;.;.;.;.;.&.o.*.4.y.5.4.4.4.:.:.:.4.5.5.5.5.i.i.4.;.;.4.4.=.=.=.=.=.=.=.:.5.5.5.=.$.E E E R P P E Q -.-.-.-.-.-.-.-.-.-.-.=.-.:.:.-.H.P.P.5.-.=.*.*.*.*.*.4.5.5.:.*.=.=.*.:.*.*.*.*.:.5.5.4.4.*.*.5.5.5.*.*.*.*.5.i.W.i.5.5.5.5.5.*.=.;.y.y.4.*.5.7.7.5.*.=.=.:.=.=.=.=.-.:.:.:.:.-.=.:.U.W.:.%.W *.5.5.5.:.:.:.:.*.*.*.=.=.$.=.5.5.5.:.*.=.=.E =.=.=.$.R R R %.E E R R E W R P %.:.5.:.=.%.%.R J k P E Q -.-.:.2.*.:.4.4.4.4.4.4.4.;.4.4.5.:.5.5.4.t.t.t.t.@.o.S J *.",
"g g 5.J J J J { &.&.&.o.&.o.o.o.;.[ l l l A A S G G G R R R R R R R R P R E =.=.=.=.:.$.E W -.-.:.5.:.*.*.-.Q -.-.Q Q W W W -.:.5.5.7.5.4.:.4.5.5.5.4.4.5.5.7.5.5.5.:.:.=.=.*.2.5.2.5.5.7.5.5.5.5.5.:.:.:.:.:.-.-.-.-.:.2.2.2.2.:.-.=.=.:.:.2.2.5.5.5.5.2.2.2.5.5.2.:.-.H.2.2.5.U.W.7.5.5.2.5.:.-.-.-.:.:.:.2.:.:.-.-.-.-.Q E Q -.-.-.-.:.2.:.:.-.-.=.=.W E W Q Q Q Q Q Q W -.2.5.:.=.E Q Q Q Q Q -.:.-.-.:.:.:.5.=.-.:.2.:.:.:.=.=.=.=.*.*.*.*.=.%.%.%.%.=.=.*.:.5.5.5.*.&.*.*.:.:.-.=.-.-.:.5.5.:.:.:.=.*.:.:.-.=.=.-.:.:.2.2.:.=.%.=.=.-.:.-.=.W =.-.-.-.:.=.R R %.=.-.-.-.Q -.-.-.-.:.-.=.E =.:.:.-.-.-.=.=.2.5.5.:.:.-.-.:.5.2.:.:.:.:.:.-.:.:.:.:.:.-.-.-.:.:.2.:.-.-.-.-.Q P =.=.=.=.=.-.:.2.2.:.*.*.=.E =.-.-.=.=.=.5.5.:.=.:.5.:.=.=.=.:.:.:.5.5.*.:.:.2.5.5.:.:.*.=.=.*.*.*.*.*.:.5.5.5.5.5.:.:.:.2.5.5.5.5.y.y.5.:.:.:.:.=.-.-.-.-.:.:.:.:.:.-.-.Q Q Q Q Q Q Q -.-.-.-.-.-.-.-.-.-.Q -.-.2.H.H.H.-.H.H.H.:.-.-.=.=.=.=.=.:.5.2.2.2.2.2.:.2.*.*.*.*.:.5.5.5.2.:.2.2.2.2.:.:.2.:.2.5.7.5.5.P.P.5.2.:.*.:.5.5.2.:.:.5.:.:.-.-.:.:.2.:.-.-.Q -.-.-.2.:.:.5.U.U.P.2.*.2.2.2.:.:.:.=.=.=.=.*.*.=.=.*.5.4.4.:.:.-.-.-.:.:.:.-.W R =.=.-.-.-.-.-.:.-.E R %.=.%.%.*.*.R Z k s x P k k Z Z J J G G G G { A A { { R R W =.=.&.&.*.;.;.&.{ A l =.",
"g g :.J l j l z z J J z J z l l A j 5 , , , 5 j l l l l z k J J J G P P G %.=.=.=.=.=.:.:.:.5.U.W.y.7.5.5.5.5.P.5.H.2.-.-.:.2.P.U.U.U.7.5.5.5.7.U.U.U.7.U.U.U.P.P.P.P.5.5.2.U.U.U.U.U.W.U.U.U.U.Q.U.U.P.P.P.2.H.P.P.P.P.U.U.U.P.5.2.2.5.5.5.5.7.U.U.P.P.5.P.P.U.U.U.U.P.P.P.U.U.U.5.2.:.:.2.5.5.2.:.:.2.5.5.5.5.5.:.:.-.-.-.-.-.:.H.P.P.P.P.P.P.5.2.:.:.:.-.-.:.2.2.:.:.:.2.P.U.U.5.2.:.2.:.:.:.F.P.P.2.:.:.5.5.7.5.5.5.5.5.5.5.5.5.5.5.5.7.7.5.5.5.5.5.5.5.7.7.7.7.7.5.5.5.7.7.5.7.P.5.:.:.5.P.U.P.5.5.7.U.U.U.U.U.U.P.P.P.P.5.5.5.:.5.5.P.U.P.:.:.:.:.:.5.5.5.:.:.:.5.P.P.P.P.H.H.2.:.:.:.:.:.5.U.U.U.U.P.P.:.5.P.U.U.P.:.:.5.P.2.2.2.H.P.2.5.5.5.U.7.5.5.5.P.U.U.U.5.P.P.U.U.P.5.5.:.:.:.5.P.P.P.P.5.2.2.2.2.:.:.-.:.:.5.5.5.5.:.5.5.5.5.5.5.5.P.U.U.U.U.U.U.P.5.5.7.7.7.5.7.U.U.W.W.P.U.P.U.U.W.U.U.U.U.U.U.U.U.U.W.W.Q.U.U.U.U.P.P.P.P.U.U.U.P.P.P.H.H.H.H.H.H.2.5.P.P.U.P.P.P.3.5.P.P.P.P.P.P.U.P.P.H.P.P.P.H.H.H.2.P.P.P.P.P.P.P.3.P.P.U.5.5.5.5.5.5.5.7.U.U.U.P.P.U.U.U.P.P.P.P.P.P.U.U.P.P.P.P.P.P.P.P.P.P.P.P.3.2.P.P.P.P.P.P.U.U.U.P.5.P.P.P.P.P.P.P.U.U.W.U.U.U.U.U.U.U.U.U.5.5.5.5.5.5.5.5.5.5.7.U.U.U.5.P.P.U.U.P.5.:.:.2.5.5.5.5.U.P.P.2.2.5.:.*.%.*.*.&.$.R R k k k z z z z k g g j j j l j l z J J J J F F F J J J J z l j j R ",
"g 5 :.J J J J z J J J J J G G %.{ S A A A A A [ o.{ { G G J G %.%.%.%.%.*.:.:.=.=.5.U.7.7.7.7.7.5.&.{ A A G { G G G F J J J J G R G R G G G G $.%.%.R R G G G G G J J J J J S S S S G G G G G G G G J A A A J J R R R R G G J J J A A z z J J J J J J J J J J A A J J z z z J J J J l l l l l j j j j j j l l l l l l l l l j j j l z z z k z z l l l l l l j j l l l l l l A J J J z J Z J J J A A J J l l l z A l l l J A A A A A A A A [ [ A A G { { { { { { X.{ { { { [ [ { { { { J A A J J { { { { A A J J A J J J J J J J G G A A J J J J z l z z z z A A J J A J J J J J J G A A A { { G G { { { $.$.{ J A G $.%.{ G G $.%.%.{ G G R G G $.%.&.&.{ G G G { { { G G R R R { { $.{ { { { { { J J J A J J J J A z z J A S A J A J A J A G { { { { { { { R $.%.X.%.%.%.$.$.$.$.&.&.%.$.$.{ { $.$.{ J J J G G G { J J J J G G J J G A J G R R R J J J J G J J J J J J J G G S A J J J J J J J J J G G J J J J J J z z J J J J J J J J Z J J J J J J A J J J J J J J J F G G F J J J G G G G G J P P P G G G D J J J F J J J J F J J J G A J J J J J J J J J J J J J A G { G G G R R G G J A S G G G J A S G { { G G G G R R G G J J A G G G G G J R =.7.W.i.5.*.*.&.&.&.%.W R G G R { G G J k k P $.{ o.{ G J J R %.%.%.%.%.R R R R R k k k E ",
"j 5 :.$.=.=.W G R R R G G %.=.%.%.{ o.&.&.%.%.*.;.;.o.%.%.$.&.:.:.:.*.*.4.5.*.R =.U.Q.i.5.&.A l j 5 * % % % * * * * * * * * * * * * * * % % * * * * * * * * * * * % % % # # # % * * * * * % * # # # o o o # o o % % % % % # o o o o o o o o % % % % % % % o o o o # # o o o o o o X X X X X X X X X X X X X X X X X X X X . . . X o o o o % o o o o # # o o X X X X X o o o X o # o o o o # # # # # # # o o o X X X # # # # o X # # # # # # # # # # # # # * * * * * # # # # # # # # % % % # % # # # % * * * % % % % % % % % % % * * # # * % % % o o o o # o * * * % % * % * * * * * * * * * > > * * * > > > * * * * > > > * * * > > * * * * * * * * * * * * * * * % * * * * * * > * * * * * * * * % % % % % % % % % o o o o o % % % % * * * # # # # # # # # % % * * * * * * * * * * * % % % % % % % % % % % % % % # o o o o o o o o o o o o % o o # # % % % # # # o o o * * # o o o o X X o X X X o o o o o X o o o o o o o o o o o o o o % % % % % o o o % # % % % o o o o o o o o o o * * % % % % % % * # # # o o % * % o % % % % % * * o o o % % % % % % o o o o o o o % % % % * * * * * * * % * * % % % * * * * * * * * * * * * * * * * * * * % , j J :.y.W.7.5.:.&.=.=.%.=.%.%.&.*.%.%.%.G G %.*.;.@.;.*.%.G K *.4.4.;.&.%.E E =.$.R v k Q ",
"5 , :.$.=.:.=.W R R R F G X.%.%.X.X.;.:.*.&.&.;.4.4.*.*.*.%.*.4.4.4.:.:.y.5.*.%.:.7.7.;.A 5 * o o # o X X X . . X X X X X X X X X   X . X X X X X X X X X . X X X X . . X X X X X X . . . . . X X X X X X X X X . . . X X X X X X X X X X X X X X X X + + X X + + + + + X X X X X X X X X X X X X X X X X X X X X X X X X X X X X X X + X X X X X X X X X X X X . X X . . . . . X X X X X + + + + X + + + + + + + @ + + X + # o # # # # # + X X + + + # # # # # # # o X X X X o X . . . . . o X X . . o . . . . . . . X X . . . . . X X . . . . . . . . . . . . . . . . . . . . . X X X o o X . . o o o o o . . X X o o X X X X X X o X X o o X X . o o X o o o X X X X o o $ o o o . . . o . . . . X o X X . . . . . . . . . o . . . X X . . . X   . . . X . . . . . . o # o X X X X X X X X X X X X X X X X X X X X + X X X X X + X X X X O X X   X X X X . X . . . . . . X X X X X X X X X X X X . X . X X X X X X X X X X X X X X X   . X X X X X X X X X X X . X X X X X X X X X X X X X X X X X X X X X X X X X X X . X . . X . X X X X X X o X o X X X X X X X X X X X X X . X X X . . X X X X X X X X X X X X X X X . . X X X X o o o o o X o o o > A *.U.W.7.*.=.%.=.=.=.*.*.o.o.&.;.o.X.%.*.;.@.@.@.%.R G o.t.t.;.X.$.R E =.=.R R k Q ",
"7 , :.$.=.*.=.R R E W R G G %.&.*.*.*.*.*.%.%.;.t.4.4.4.5.:.:.4.4.4.4.;.4.5.2.2.5.*.S 5 * o X o # * 4 6 7 5 4 4 4 > > > ; ; ; ; > > 4 4 4 > > 4 4 4 4 > 4 4 4 4 4 4 > > > > > 4 > > > > > * 4 8 0 6 7 5 5 , > > , 7 5 4 6 6 9 6 8 6 9 9 6 6 4 4 4 4 6 6 6 6 6 6 9 b 0 9 9 9 6 6 6 6 6 6 6 6 9 9 9 6 6 6 9 0 9 0 9 6 4 4 6 0 0 9 9 9 0 0 0 5 5 5 4 4 4 4 4 4 > > , , , % % % * * > 4 4 4 4 4 4 4 5 4 4 6 6 6 6 6 6 9 6 5 > > > > > > > > > > * # * * * * * * * * * * * * % % % * % % % % % % % % % % o o % % % o o o o X o % % % * * * * # * * * % % % % % % % % % % % % * * % o o % * * * * * % % * * % % $ % % % % % % % % % % % $ % o $ % % % o o o o o o lXo o o X X % * % $ $ o % % % % % % % . o % % % o o % % % o o % % % % % % % % % % % % $ $ % % $ % * * > * * * > > > > > > > > * > > 4 4 4 4 4 4 4 4 4 4 4 4 4 6 6 6 6 6 9 9 9 9 9 6 6 > 4 > > > > > > > , , , > > 6 9 6 6 6 6 6 9 0 6 7 7 7 4 > 4 4 4 4 4 4 4 6 4 4 4 4 4 4 > 4 6 6 6 6 6 9 9 9 6 6 6 6 4 6 6 6 6 4 6 6 6 6 6 4 4 4 6 4 4 4 4 6 6 9 6 6 8 5 5 5 > , 7 5 5 5 5 6 6 0 6 7 5 6 6 6 6 6 6 5 4 4 4 4 4 > > > > 4 > > 4 4 4 4 4 4 4 > > > > 4 > > > > > > 4 6 6 6 4 4 4 > > # X X X . % , J 5.W.7.*.%.R W =.*.;.o.o.;.4.:.*.%.*.4.4.@.;.*.=.%.*.t.t.4.%.$.E W =.=.E R k Q ",
"7 , :.G R Q E P E E W E R J J R %.%.*.*.%.%.o.4.i.t.4.4.5.5.4.4.y.5.*.X.=.=.-.2.%.j * + + X * > > 4 A ;. .A A  .[ #.#.o.o.o.A A #.@.#.#.#.] #.+.+.+.....+.+...+.+.+.+...] A +.4.4.@.o.S l 0  .4.<.o.#.S X.K C C 4.4.o.#.+.+.@.+.+.+.@.@.@.+.+.+.] ` ] ] ..] ] ] +.@.+.+.+.+.#.......+.+.#...#.@.q.q.+.+.@.@.#.#.+.+.....@.q.q.@.@.@.9.q.q.+.#.@.+.#.@.9.+.@.@.+.;.*.R a y k D D ] #.#.] ] ] ] ] A 0 ) ] ` ` ` O.O.O.O.] 6 * * * > > > * * * > * # * > * * * > * * * * * * * * * * * * * * * * * * * * * * * * * * * * * , , , , , 5 5 , , 5 5 5 , , , , , , , , , , , , , , lX= , , , , , , , : , , , , , & , , , , , , lXlXlXlXlXlXlXlXlXlXlXlXlXlXlXlXlXlXlXlXlXlXlXlXlXlXlXlXlXlXlXlX, , , , , ; ; , , lXlXlXlXlXlXlXlXlXlXlX> > lXlXlXlXlXlXlXlXlXlXlXlXlXlX, 5 , , 5 5 5 5 5 5 5 7 7 7 6 7 7 7 7 6 6 0 9 0 0 0 0 0 A ] ] ] ] ] @.+.+.+.+.@.+.` ] ..#.A l A S X.D D S A ] +.,.@.+.+.#.,.s.s.i.4.4.@.] ] ..............+.+.#.#.#.#...A ] #.#.+.+.+.@.,.+...+.#...] ....#.#.+.+.+.@.+.#.+.+.+.+.#.#.#.#.#.@.@.@.@.+.+.<.#.A [ [ #.#.] ..+.#.#.#.#...] ............] ....+.O...] ] ] ] A ] ..] ] ..#.+.@.+.......#.#.#.#.@.#...#.#.#.@...0 7 0 7 5 > > * # + X % j :.W.5.%.W W =.*.*.*.;.4.4.t.4.;.;.4.t.t.;.&.=.=.%.*.;.*.%.%.=.W Q -.=.R x R ",
"5 , :.F P E R P R E -.R R R F G %.X.*.&.=.*.4.t.4.;.4.4.4.4.4.y.y.5.*.J %.=.=.J , % + # > 6 0 0 6 6 A *.o.o.o.o.#.@.4.4.4.t.#.] @.t.,.@.+.#.@.q.q.q.@.+.+.@.+.q.q.q.q.,.o.#.t.i.i.y.4.;.X.A X.4.4.4.;.X.K =.o.1.i.y.@.+.@.q.q.@.+.@.@.@.@.@.@.@.#.] ..#.+.+.O.O.+.@.@.+.+.@.+.] ] +.@.@.+.+.@.q.q.q.@.@.q.,.+.#.+.#.+.+.+.q.,.@.@.@.@.@.+.+.@.@.+.+.@.q.,.q.q.@.4.4.=.Z Z F W  .[ ........#.@.#.....O.#.#.+.+.+.@.q.q.+.9 X . X X X X X X X X X . X . X X X o o o o o X o o . o X X X . lXlXlXlXlXlXlXlXlXlXlXlXlXlXlXlXlXlXlXlXlXlXo o o o o o o o o o o o o o o lXlXlXlXlXlXlXlXX o o o o o . o o o o o . lXlXlXlXlXlXlXlXlXlXlXlXlXlXlXlXlXlXlXlXlXlXlXlXlXlXlXlXlXlXlXlXlXlXlXlXlXlXlXlXlXlXlXlXlXlXlXlXlXlXlXlXlXlXlXlXlXlXlXlXlXlXlXlXlXlXlXlXlXlXlXlXlXlXlXlXlXlX* > > > > > > > > > > 4 6 6 6 6 8 4 8 6 4 6 0 0 ] ..O.+.+.9.q.q.q.q.q.8.+.] ] #.o.[ A S A S l l A l A @.q.q.q.q.@.q._.yXs.t.t.@.] ] #.+.+.+...] A ..#.+...#.#...] ] +.+.O.+...+.@.@.#.@.@.#...#.+.@.#.+.+.+.@.@.@.#.....+.+.#.#.#.#.+.@.@.+.+.+.+.#.A ] #.#.#.] ] #.#.#.#.....] ..+.+.+.#.#.....+.#.#.#...] ] ] ] #.#.#.....@.@.t.,.+.#.+.@.@.@.t.u.t.@.;.t.t.t.4.#.[ A 7 7 5 5 5 5 > * o o * A 5.5.=.R E =.*.;.;.t.t.u.t.t.t.t.u.u.;.;.*.=.%.%.=.=.%.=.%.W W =.=.R x R ",
"5 5 4.R P P R R R R -.W F R %.%.X.*.*.&.*.4.t.t.4.4.t.t.4.t.y.y.5.2.=.W :.=.J , . X # 0 0 0 6 6 0 0 A o.<.o.o.o.o.4.6.y.y.y.4.o.,.@.@.@.+.+.+.@.4.,.@.+.@.@.+.@.,.q.,.@.o.#.o.;.4.4.4.4.4.X.G X.;.@.X.S S S K  .1.o.#.o.+.+.+.+...#.+.#.+...#.#.#.] ] ..#.#.+.] O.+.+.+.+.+.+.+.] +.+.+.+.O.+.@.@.@.+.+.@.@.+.#.#.......#.+.o.#.#.#.#.#...........] ] ] ......] ] [ S A C D S A A b b b b A A A A A A ] ] ] A ] ] ] A 0 > X         . . . . . . X +                     lXlXlXlXlXlXlXlXlXlXlXlXlXlXlXlXlXlXlXlXlXlXlXlXlXlXlXlXlXlXlXlXlXlXlXlX            lXlXlXlXlXlXlXlXlXlXlXlXlXlXlXlXlXlXlXlXlXlXlXlXlXlXlXlXlXlXlXlXlXlXlXlXlXlXlXlXlXlXlXlXlXlXlXlXlXlXlXlXlXlXlXlXlXlXlXlXlXlXlXlXlXlXlXlXlXlXlXlXlXlXlXlXlXlXlXlXlXlXlXlXlXlXlXlXlXlXlXlXlXlXlXlXlXlXlXlXlXlX              X . > 6 5 5 5 4 4 4 4 6 6 6 4 4 4 q 9 9 9 ) ` ' O.+.' ' ' ' A A A A A A A A l 0 l [ ] ] ] +.+.@.q.@.@.u.s.y.4.4.@...] ] ..+.+...] ] ] ....................] ......#.@.,.4.4.@.@.#.@.#.#.........+.#.#.......#.#.#.....#.#.@.@.@.@.o.o.[ ] [  .#.] ] ] #.#.#.....#.#.+.+.+.+.+...] ....#.#.#.#.#.#.#.@.@.@.#.#.@.t.t.t.4.t.t.4.@.@.t.u.t.t.4.t.t.4.4.4.4.4...9 5 4 5 7 5 , * o . % A 5.7.-.W =.*.4.4.t.t.u.u.u.t.t.t.4.4.4.4.*.=.W R W =.:.*.%.%.=.%.R J J ",
"g 5 5.%.P P R R P P Q =.%.%.*.*.o.;.;.&.&.:.4.4.t.u.i.t.t.t.4.:.*.=.:.3.=.l > o # 4 0 l 7 7 6 6 0 7 7 C C C 7 7 7 7 7 7 7 j 7 7 0 0 0 0 0 6 6 0 0 0 6 6 0 0 0 6 0 0 0 7 7 7 , , , , , , 5 , > > > > ; % % % % # ; ; > > > > 4 4 > > 4 4 4 4 4 4 5 5 4 8 6 6 6 6 6 6 5 6 5 6 6 6 6 6 6 6 6 6 6 6 6 6 6 6 6 6 6 6 6 6 6 6 6 6 7 7 5 5 6 6 7 4 4 4 > > > 4 > > > > > > > , , , , 5 4 4 > > > > > 4 4 4 > 4 4 4 4 4 4 4 ; % o o . X X X . . . o # ; 4 6 X               X X lXlXlXlXlXlXlXlXlXlXlXlXlXlXlXlXlXlXlXlXlXlXlXlXlXlXlXlXlXlXlXlXlXlXlXlXlXlXlXlXlXlXlXlXlXlXlXlXlXlXlXlXlXlXlXlXlXlXlXlXlXlXlXlXlXlXlXlXlXlXlXlXlXlXlXlXlXlXlXlXlXlXlXlXlXlXlXlXlXlXlXlXlXlXlXlXlXlXlXlXlXlXlXlXlXlXlXlXlXlXlXlXlXlXlXlXlXlXlXlXlXlXlXlXlXlXlXlXlXlXlXlXlXlXlXlXlXlXlXlXlXlXlXlX                X 0 #.A 5 4 4 4 > > # # + X . o % * > > > > > > > > 4 4 4 4 4 4 > 4 4 - > > - > 5 5 6 4 6 0 0 0 0 0 0 0 0 6 7 6 7 6 6 6 9 0 6 6 6 4 6 8 4 6 6 6 4 > 4 4 4 4 > > > > > > 4 4 5 5 7 6 7 5 5 6 6 6 6 7 6 6 6 0 0 0 0 0 0 0 6 6 6 6 7 7 7 7 7 0 0 0 0 6 6 7 7 6 6 0 0 0 0 0 A 0 0 6 6 7 6 6 6 6 7 7 0 0 0 0 0 0 l A A A A A A A A A ] A A A A A A A l 7 l A ..q.q.+.0 4 5 7 5 4 # X * G Q.P.2.=.*.:.4.t.p.t.t.t.4.4.4.4.4.4.4.4.=.R R E =.*.1.4.4.4.&.G J F ",
"j 5 5.%.P P P P P P R W =.=.*.:.*.4.4.*.%.;.4.4.t.u.t.t.u.t.4.%.R :.5.1.g % . # 6 6 0 l 7 6 6 A A A 7 j g j g 7 5 , , , , , , , , , 5 7 5 5 , 7 7 5 5 5 5 5 5 5 5 7 5 5 , < i , , i g g l j j l 7 7 7 < < < 7 , 7 7 7 7 7 7 0 0 7 7 7 7 7 7 7 l l l l l l l l l 0 g 7 7 g g l l l l l l l l g 7 7 0 l A A A A A A A A l l A l l l l l A A A S S S A A S A A A S A S [ [ S S S { X.[ S J S { { { S S S S { { X.X.X.X.G J j > o X X X X X o * > , 0 0 +       + # X   o + lXlXlXlXlXlXlXlXlXlXlXlXlXlXlXlXlXlXlXlXlXlXlXlXlXlXlXlXlXlXlXlXlXlXlXlXlXlXlXlXlXlXlXlXlXlXlXlXlXlXlXlXlXlXlXlXlXlXlXlXlXlXlXlXlXlXlXlXlXlXlXlXlXlXlXlXlXlXlXlXlXlXlXlXlXlXlXlXlXlXlXlXlXlXlXlXlXlXlXlXlXlXlXlXlXlXlXlXlXlXlXlXlXlXlXlXlXlXlXlXlXlXlXlXlXlXlXlXlXlXlXlXlXlXlXlXlXlXlXlXlXlXlXlX    X + + X X   X A 4.A 5 > # + + X X   . , J R E =.:.2.5.:.=.W %.%.%.%.W R W R F F J J J J A A D D G J J J J J l l g j j j 7 7 7 7 5 5 7 7 7 7 7 7 7 7 7 0 0 0 l l l l l l l l l 7 l l l l 0 7 7 7 l l 7 7 7 7 j j j l j 7 l l l A A A A A A A C A A S A A A A A A A l l l A A A A A A A l l l l A l l l l A A l l 7 l l l l l l l l l 7 7 7 l 0 7 7 7 7 5 5 5 5 5 7 A ,.a.0Xa.q...9 5 7 7 6 # . , %.U.P.:.=.*.4.t.t.t.t.t.4.4.;.;.4.4.4.4.*.=.=.=.=.=.*.4.4.4.o.J J J ",
"g 5 4.%.P P P G =.W P P W W =.*.*.4.4.*.&.;.;.4.t.u.t.4.4.4.5.=.=.P.2.j o . o 4 9 0 0 7 7 0 A #. .A l l g l l l l j g l l l l l g l l J J J J J A A A A A A A A A J J J J F D J J G X.K G S K %.X.S S S S D A A A S S A S S S S S J A A J A S G G G F G F D D D J z l l z z z Z J J J J J J z l l A J J G G R R R R R G F J J J J J J G %.%.%.W G G G G J J F G G G G G G F G G G G J J F F G W %.%.{ X.%.%.%.%.%.W W %.%.{ l * X X . o * > 5 , 0 l #   X + # 4 #   o lXlXlXlXlXlXlXlXlXlXlXlXlXlXlXlXlXlXlXlXlXlXlXlXlXlXlXlXlXlXlXlXlXlXlXlXlXlXlXlXlXlXlXlXlXlXlXlXlXlXlXlXlXlXlXlXlXlXlXlXlXlXlXlXlXlXlXlXlXlXlXlXlXlXlXlXlXlXlXlXlXlXlXlXlXlXlXlXlXlXlXlXlXlXlXlXlXlXlXlXlXlXlXlXlXlXlXlXlXlXlXlXlXlXlXlXlXlXlXlXlXlXlXlXlXlXlXlXlXlXlXlXlXlXlXlXlXlXlXlXlXlXlXlXlX.   + * # # X   X ] 4.l 5 > X X X X   . 5 =.5.-.-.=.W =.=.W P P P R R P P P P P P P P P P R E W -.-.-.-.-.-.-.=.R R F F J J J J G A A A G G G G J J J G G G { { G { { { { G R G G J G { { { G S A G { G F J J J J J J J J J F R %.=.=.=.X.K W %.K K %.=.=.=.%.X.X.{ G J J A G { G G G G A A S S A A A A A S G X.{ { G G %.G G G G G G G G { X.X.X.{ S A A A A J A { { &.4.q.p.a.a.p.@.A 7 l A 0 * % 5 2.U.P.:.=.;.;.q.t.t.t.t.4.4.;.;.4.1.*.=.=.:.*.=.W =.*.:.o.{ J J F ",
"g 5 4.R R P P *.*.R Z k P P Z W =.1.;.*.*.;.;.4.t.i.u.4.4.4.*.-.P.U.G o X + > 0 A 0 7 7 A ] ] ] l , , , 5 j g g 5 , , , 5 , 5 5 , 7 g l g g g g j j j l j j g g j j j j j j g l l j l l l l l z z l j j j g g g g j l g g g j j g g g g g j l l l j j l l l l j j j g j j z z Z k J R z z k j j g j j j z z z J k z k z k j j j j k k z z z z k k k j j j k k k l z l j j k z z z j j j k k z J J J J J J J J J J J Z J G =.:.G * # . o > 5 5 5 l l # X # * 4 6 * . o lXlXlXlXlXlXlXlXlXlXlXlXlXlXlXlXlXlXlXlXlXlXlXlXlXlXlXlXlXlXlXlXlXlXlXlXlXlXlXlXlXlXlXlXlXlXlXlXlXlXlXlXlXlXlXlXlXlXlXlXlXlXlXlXlXlXlXlXlXlXlXlXlXlXlXlXlXlXlXlXlXlXlXlXlXlXlXlXlXlXlXlXlXlXlXlXlXlXlXlXlXlXlXlXlXlXlXlXlXlXlXlXlXlXlXlXlXlXlXlXlXlXlXlXlXlXlXlXlXlXlXlXlXlXlXlXlXlXlXlXlXlXlXlXlXo   # 4 > # # X X [ 4.l 5 > # X X   X 7 %.-.W =.=.$.G G G J Z Z J J J J J Z z z z z z k k k Z J J R P P R R P Z z z k k k k k z z l l z z z k z j j j j l l l l k k j j j j k j j j j j l l l j j l z k j j j z k k z k k k k k k R R J k k k k Z Z J J F F Z k j z l l j j z l l j l j g g g g g j j j g j l l z J z z Z z z z j j j j j l l l l l g g j l l l l J J { *.*.@.@.q.a.a.t.A 0 l ] 0 * * j 2.P.2.:.*.;.t.t.p.p.t.t.4.4.:.*.-.E P E :.5.*.W E =.%.{ G J J R ",
"7 5 4.R P P R 1.*.F Z k k k k R =.*.*.&.;.;.;.4.u.u.t.4.4.:.:.2.U.=.> X + 4 6 b A 7 0 ] ..] ] 0 , , 7 l A &.*.X.A A A A S S A S S [ X.[ [ A S G S { { G G G G J G G J J J J D D A S [ { G R R R G G G { G G G { { G X.K G G K G G S S G G { o.o.X.X.o.&.*.&.*.&.o.&.o.&.*.:.:.5.:.5.5.=.E R R R R R R R R R W -.Q -.=.W P R R G R R R R =.$.$.=.=.W R $.R =.=.%.%.&.{ { G R =.=.R G G G G %.&.*.*.*.:.*.X.S { o.;.*.&.{ J { =.5.o.5 . * > , 7 7 l l # X # > 4 8 4 . lXlXlXlXlXlXlXlXlXlXlXlXlXlXlXlXlXlXlXlXlXlXlXlXlXlXlXlXlXlXlXlXlXlXlXlXlXlXlXlXlXlXlXlXlXlXlXlXlXlXlXlXlXlXlXlXlXlXlXlXlXlXlXlXlXlXlXlXlXlXlXlXlXlXlXlXlXlXlXlXlXlXlXlXlXlXlXlXlXlXlXlXlXlXlXlXlXlXlXlXlXlXlXlXlXlXlXlXlXlXlXlXlXlXlXlXlXlXlXlXlXlXlXlXlXlXlXlXlXlXlXlXlXlXlXlXlXlXlXlXlXlXlXlXlXlX* X 4 4 4 * # X o [ *.A 5 5 > +   . j =.=.%.*.t.y.y.t.4.4.;.;.;.;.;.@.4.4.;.;.;.;.;.;.;.;.*.*.*.*.4.4.:.:.:.4.*.&.%.%.W X.$.$.%.%.R R R R $.R R R $.R R R %.$.%.R F J J J J R P P R $.&.%.&.&.=.*.*.=.=.=.=.=.=.-.=.=.R R W R =.-.=.W W =.E =.-.-.=.=.-.:.:.%.R %.&.&.%.%.%.%.%.=.*.=.=.$.J J G G G G G G G G %.%.W W %.%.R R R R $.{ { $.{ K K G S S S { S X.X.S A l j l S A 0 ] a.eXs.,.b 6 l A 4 * * J 5.P.:.=.:.t.u.a.a.p.t.t.4.4.*.W P Z P *.:.*.%.R $.$.G J R J R ",
"j 5 5.R P P R W G F P P Z k J W =.=.$.X.&.;.4.t.u.u.t.y.5.-.=.2.:.j o + 4 8 0 0 6 6 ] +.+.A 0 5 l A [ ;.4.4.5.*.%.&.*.&.o.;.&.X.*.&.*.*.o.o.;.*.;.;.:.:.*.*.=.*.*.*.*.*.*.*.=.&.&.&.;.:.*.*.*.*.*.*.:.4.4.1.1.1.1.2.2.5.5.5.5.5.5.1.4.*.;.4.t.t.y.y.t.y.y.y.y.t.t.t.t.t.y.y.y.y.7.5.5.:.=.=.-.*.*.*.*.=.=.:.:.-.-.:.:.:.W :.5.5.*.*.*.:.:.:.5.5.*.=.*.*.%.*.:.;.;.;.;.:.:.=.-.*.&.&.*.;.;.;.4.4.4.4.;.;.o.#.@.t.s.t.4.;.*.&.$.=.7.%., * > , 7 g l l # + # 4 6 9 8 % lXlXlXlXlXlXlXlXlXlXlXlXlXlXlXlXlXlXlXlXlXlXlXlXlXlXlXlXlXlXlXlXlXlXlXlXlXlXlXlXlXlXlXlXlXlXlXlXlXlXlXlXlXlXlXlXlXlXlXlXlXlXlXlXlXlXlXlXlXlXlXlXlXlXlXlXlXlXlXlXlXlXlXlXlXlXlXlXlXlXlXlXlXlXlXlXlXlXlXlXlXlXlXlXlXlXlXlXlXlXlXlXlXlXlXlXlXlXlXlXlXlXlXlXlXlXlXlXlXlXlXlXlXlXlXlXlXlXlXlXlXlXlXlXlXlX, o 4 8 4 4 > X * X.;.{ l 5 > X + g W =.{ &.t.u.s.s.s.u.u.a.u.u.u.t.u.u.u.u.u.u.u.t.t.t.t.t.t.4.4.5.y.4.4.4.4.4.4.4.4.4.4.4.4.4.4.*.=.:.*.:.:.:.:.*.*.=.*.:.5.5.5.*.=.*.*.*.*.=.=.%.:.4.4.4.4.4.5.5.5.2.2.2.:.:.5.5.*.=.=.*.*.*.*.=.=.:.%.=.:.:.:.*.:.:.:.:.*.*.4.4.:.:.*.*.*.*.4.5.5.5.:.%.%.&.*.*.*.;.;.*.*.5.*.&.=.*.*.&.*.%.*.*.*.*.:.:.4.4.*.*.;.4.4.4.4.4.4.4.;.S l j 7 0 0 @.s.rXu...6 7 A l 5 * , P H.H.=.*.t.u.a.p.t.t.t.4.4.*.=.E E =.-.:.*.=.%.%.$.G J R J E ",
"j 5 5.R P P P J F W =.R F J R =.=.G G { o.;.4.4.t.t.t.y.:.=.-.:.z % + # 9 6 l 7 4 b +.O.] 0 5 7 o.*.&.5.5.4.*.X.&.;.;.;.o.;.;.*.*.*.*.4.;.@.4.4.4.4.5.5.5.4.;.;.;.4.4.4.4.*.*.*.*.;.;.:.4.:.*.:.4.4.4.4.5.5.4.4.4.5.7.5.y.i.5.4.5.4.5.4.4.y.i.y.y.i.i.i.i.i.i.i.s.p.p.u.t.y.y.7.5.5.5.5.*.*.5.5.4.4.:.:.5.7.5.-.-.5.5.:.=.5.5.5.*.=.*.:.:.:.5.5.*.*.4.4.*.*.4.4.4.:.4.5.:.E R %.;.4.4.4.4.4.4.t.u.t.4.t.t.t.u.s.s.i.t.t.y.5.*.G *.y.z % * 5 7 g l A # + 4 6 9 0 7 * lXlXlXlXlXlXlXlXlXlXlXlXlXlXlXlXlXlXlXlXlXlXlXlXlXlXlXlXlXlXlXlXlXlXlXlXlXlXlXlXlXlXlXlXlXlXlXlXlXlXlXlXlXlXlXlXlXlXlXlXlXlXlXlXlXlXlXlXlXlXlXlXlXlXlXlXlXlXlXlXlXlXlXlXlXlXlXlXlXlXlXlXlXlXlXlXlXlXlXlXlXlXlXlXlXlXlXlXlXlXlXlXlXlXlXlXlXlXlXlXlXlXlXlXlXlXlXlXlXlXlXlXlXlXlXlXlXlXlXlXlXlXlXlXlX, j X 8 6 8 4 4 + * *.4.&.A 5 * X 5 R W %.;.4.y.s._.rXs.s.a.s.s.s.a.a.s.s.s.s.u.u.u.u.u.u.u.u.t.t.4.t.t.y.t.t.t.t.t.t.t.4.4.t.y.4.4.4.:.:.:.4.4.5.5.5.5.5.*.;.t.y.5.:.:.5.5.5.5.5.4.;.4.u.u.t.4.4.5.5.5.5.5.*.*.5.4.:.*.&.=.%.:.5.:.*.*.%.=.*.=.=.:.:.:.=.*.:.:.4.4.5.5.5.4.;.*.4.5.5.4.4.;.&.*.;.;.;.4.;.:.4.4.4.*.*.*.4.*.*.:.*.*.*.&.*.:.4.4.4.;.4.4.4.4.4.;.;.4.y.5.4.*.A 7 l l ] q.s.t.#.A 5 7 A 7 4 % , W P.-.-.4.t.u.t.t.t.u.t.4.:.*.*.:.:.=.=.*.4.4.*.*.$.R J k R ",
"j 5 5.E P P R F R %.W G G X.%.%.R G { o.;.4.<.4.t.t.y.5.=.-.:.=., . 4 6 9 0 l 8 0 O.' 0 0 8 l *.:.&.*.:.2.*.X.X.;.:.;.;.;.;.;.*.4.*.*.:.t.t.t.t.4.:.*.5.5.5.y.t.4.4.y.5.4.4.4.4.t.t.t.t.y.5.=.*.4.t.4.t.y.5.5.4.4.5.7.i.s.i.y.*.4.5.5.;.4.y.i.s.u.t.i.i.i.u.u.u.s.s.a.p.u.s.i.5.:.:.5.y.5.4.t.u.u.u.4.4.7.7.5.-.:.7.5.5.*.7.5.5.5.*.5.7.i.i.i.5.5.y.i.y.5.;.;.t.y.y.5.:.=.R G o.4.t.t.t.t.@.4.y.y.u.u.u.i.s.s.s.s.s.u.u.d.y.y.&.J 5.&.5 * , 5 5 l A # + 4 9 0 A l , lXlXlXlXlXlXlXlXlXlXlXlXlXlXlXlXlXlXlXlXlXlXlXlXlXlXlXlXlXlXlXlXlXlXlXlXlXlXlXlXlXlXlXlXlXlXlXlXlXlXlXlXlXlXlXlXlXlXlXlXlXlXlXlXlXlXlXlXlXlXlXlXlXlXlXlXlXlXlXlXlXlXlXlXlXlXlXlXlXlXlXlXlXlXlXlXlXlXlXlXlXlXlXlXlXlXlXlXlXlXlXlXlXlXlXlXlXlXlXlXlXlXlXlXlXlXlXlXlXlXlXlXlXlXlXlXlXlXlXlXlXlXlXlXlX5 l X 0 0 9 6 4 # * ;.4.S j , * * A %.$.5.s.i.s.s.rXrXeXqXqXqXqXs.s.qXqXrXqXs.u.t.t.u.s.s.a.a.u.u.t.t.y.y.i.i.i.t.t.t.t.t.t.t.t.4.4.4.y.4.t.4.4.4.4.4.4.4.;.4.i.s.4.t.t.t.t.y.Q.y.t.u.a.a.u.t.t.t.t.t.y.5.4.5.7.7.5.y.5.4.5.5.:.&.*.:.:.*.5.5.R =.5.2.=.R *.5.4.*.;.4.4.4.4.:.:.5.5.5.4.4.4.y.4.4.4.4.4.4.:.4.5.5.4.4.4.4.4.;.;.*.%.X.*.4.5.4.4.4.4.4.4.4.4.;.;.;.;.X.X.*.5.4.[ A l ] ....#.#.#.0 4 l 0 8 * % j :.:.-.=.*.4.t.u.u.t.t.t.4.4.4.4.:.*.=.*.*.*.4.*.R x k k P ",
"5 5 5.R x P R G R W R G %.*.%.W %.%.;.4.4.4.4.t.t.t.5.*.=.:.:.j o # 4 9 b A 0 0 ] ] ` A 6 7 X.5.=.*.5.2.:.*.&.o.;.4.4.;.;.;.o.*.5.=.G &.t.u.t.4.=.%.=.:.*.4.t.t.t.y.y.4.*.=.t.u.u.u.u.t.t.:.=.*.4.t.t.t.4.4.4.4.*.*.5.y.~.i.4.%.%.*.:.;.:.5.y.i.i.u.u.i.y.t.t.a.s.s.a.a.a.s.i.5.2.5.5.y.y.4.t.s.s.s.t.4.5.5.:.:.:.5.7.5.*.5.5.5.5.5.5.5.Q.~.y.5.5.y.y.y.y.4.4.t.y.4.:.:.:.:.*.4.t.u.u.a.t.@.;.y.s.u.a.u.u.u.s.s.qXs.a.s.s.s.y.;.$.:.5.l * , 5 5 A A # # 6 9 ] ] A , lXlXlXlXlXlXlXlXlXlXlXlXlXlXlXlXlXlXlXlXlXlXlXlXlXlXlXlXlXlXlXlXlXlXlXlXlXlXlXlXlXlXlXlXlXlXlXlXlXlXlXlXlXlXlXlXlXlXlXlXlXlXlXlXlXlXlXlXlXlXlXlXlXlXlXlXlXlXlXlXlXlXlXlXlXlXlXlXlXlXlXlXlXlXlXlXlXlXlXlXlXlXlXlXlXlXlXlXlXlXlXlXlXlXlXlXlXlXlXlXlXlXlXlXlXlXlXlXlXlXlXlXlXlXlXlXlXlXlXlXlXlXlXlXlX7 l * ] ..A 0 8 # > 4.4.l 5 , * 7 o.&.4.s.yXyXyXrXrXrXeXqXqXeXqXqXqXqXrXrXrXs.u.t.t.u.s.s.a.a.s.s.i.u.t.u.s.s.s.t.t.t.t.t.t.t.t.t.t.t.y.u.u.u.t.4.;.4.4.4.4.y.s.u.4.4.t.t.4.4.4.t.u.a.a.a.t.q.t.u.u.u.u.u.t.4.*.*.*.;.4.4.5.5.=.&.:.:.:.:.5.5.W W 2.2.=.W *.*.*.*.*.*.:.:.:.:.:.*.5.5.4.4.4.4.4.4.<.4.4.:.*.*.5.5.4.4.4.4.4.;.o.%.%.o.4.y.5.4.;.y.y.4.4.*.*.;.4.5.&.{ X.4.4.4.4.[ 0 ] ] ] +.+.#...4 5 A 6 4 o * R 2.Q W %.*.4.u.u.u.t.t.4.4.;.;.;.*.=.%.%.*.*.=.R k x k P ",
"4 5 5.R x P J F W =.%.W %.W W %.*.:.4.4.4.4.t.t.t.4.:.%.=.:.$.> o > 4 0 ] 0 6 A ] ] ] l 5 { :.*.=.5.2.=.*.:.;.4.;.;.4.4.;.&.X.%.*.R F X.4.t.4.4.W =.-.:.=.*.4.u.y.y.y.4.=.%.t.t.t.t.t.4.4.2.:.:.t.u.t.4.4.:.5.7.5.:.:.5.5.4.:.%.%.%.:.5.4.:.:.4.t.t.u.y.y.t.u.a.s.a.s.s.s.u.y.5.5.7.7.5.4.t.u.s.s.y.4.:.5.5.:.2.5.5.7.7.5.7.5.5.5.5.*.*.5.5.5.5.5.5.5.i.5.y.y.y.4.;.:.:.:.:.5.y.t.u.u.u.t.;.;.u.u.u.a.s.s.s.s.s.a.s.s.s.s.s.y.4.*.5.y.l * 5 j l X.A # # 6 0 ] ] A , lXlXlXlXlXlXlXlXlXlXlXlXlXlXlXlXlXlXlXlXlXlXlXlXlXlXlXlXlXlXlXlXlXlXlXlXlXlXlXlXlXlXlXlXlXlXlXlXlXlXlXlXlXlXlXlXlXlXlXlXlXlXlXlXlXlXlXlXlXlXlXlXlXlXlXlXlXlXlXlXlXlXlXlXlXlXlXlXlXlXlXlXlXlXlXlXlXlXlXlXlXlXlXlXlXlXlXlXlXlXlXlXlXlXlXlXlXlXlXlXlXlXlXlXlXlXlXlXlXlXlXlXlXlXlXlXlXlXlXlXlXlXlXlXlXl J 5 ;.@.] A 6 # > 4.y.A g , > A 4.*.y.yXrXyXyXyXrXrXeXrXrXrXrXqXqXqXqXqXqXs.a.a.a.a.a.a.a.a.s.s.s.u.t.p.s.qXs.a.u.u.u.t.t.t.t.t.t.y.u.u.p.a.u.u.t.y.y.y.y.y.t.4.4.4.t.u.t.4.*.4.y.u.u.t.q.t.p.p.u.u.u.s.s.t.*.*.:.4.5.5.7.5.5.5.5.5.5.5.4.5.:.-.-.-.:.:.:.*.:.5.5.*.:.:.4.5.:.&.*.5.5.5.5.5.4.4.4.t.y.5.=.W =.*.5.4.t.t.t.4.&.%.:.5.4.4.4.;.;.t.y.4.*.X.&.4.y.4.&.%.4.4.*.4.4.:.S A ] #.@.@.#.#.0 > l l 7 * * l 2.-.E =.*.;.t.u.a.t.t.4.4.*.&.:.:.*.*.*.2.:.W R k x k R ",
"4 5 5.R Z Z J J =.:.=.R P Z J W *.4.;.@.;.4.t.u.t.4.%.R -.:.l # # 4 6 A l 9 0 ] ] A A 8 l :.:.:.:.:.=.W %.4.4.4.4.*.4.4.&.X.%.R R R F K ;.4.4.*.W W Q -.=.=.4.4.t.5.5.5.-.=.4.4.4.:.*.*.=.-.-.*.4.t.t.4.;.*.5.7.5.=.W =.*.%.*.%.%.%.5.5.4.*.&.&.;.t.t.y.y.i.i.s.s.s.s.s.a.u.t.5.5.5.5.4.4.t.t.t.y.4.4.4.5.5.5.2.5.5.5.7.5.5.5.2.5.5.:.=.%.*.5.5.5.5.y.y.5.5.5.4.4.:.5.:.=.=.5.t.t.t.t.t.u.4.4.t.u.u.u.a.i.s.s.s.s.s.s.s.s.s.t.y.4.5.y.j * 5 J { 4.[ # # 9 0 ] ..S i lXlXlXlXlXlXlXlXlXlXlXlXlXlXlXlXlXlXlXlXlXlXlXlXlXlXlXlXlXlXlXlXlXlXlXlXlXlXlXlXlXlXlXlXlXlXlXlXlXlXlXlXlXlXlXlXlXlXlXlXlXlXlXlXlXlXlXlXlXlXlXlXlXlXlXlXlXlXlXlXlXlXlXlXlXlXlXlXlXlXlXlXlXlXlXlXlXlXlXlXlXlXlXlXlXlXlXlXlXlXlXlXlXlXlXlXlXlXlXlXlXlXlXlXlXlXlXlXlXlXlXlXlXlXlXlXlXlXlXlXlXlXlXlXlXJ F 5 4.4.[ A 6 # > i.Q.X.l 5 , [ y.4.i.yXrXpXyXyXrXeXeXrXrXrXrXqXs.s.s.s.s.a.a.a.a.a.a.a.a.a.a.s.s.u.u.a.qXs.s.a.u.u.u.t.t.t.t.t.t.u.u.t.t.t.u.t.t.t.t.y.y.4.4.4.4.4.y.y.y.5.5.5.5.t.t.t.q.t.u.p.p.p.s.s.s.y.*.*.:.:.:.5.5.5.5.5.5.4.5.7.4.:.:.-.Q -.:.:.:.:.2.2.5.*.*.*.5.5.*.=.=.:.5.5.5.5.5.4.4.4.5.5.-.E E =.:.4.t.u.t.4.*.%.:.5.4.4.4.4.*.4.4.;.o.o.;.4.4.;.%.*.4.4.*.*.*.5.*.[ ] @.q.q.@.+.] 4 5 S l 8 > , :.H.Q Q %.;.t.u.u.t.4.4.5.*.%.=.:.4.5.:.:.-.E R x P k R ",
", > 4.R P P J J W -.=.E P x J R :.;.o.o.;.4.t.t.t.4.$.W :.&., o # 4 6 A 7 0 ] ] A A l 5 &.:.W -.-.=.%.%.&.4.4.4.4.*.*.*.%.%.%.W G R W %.*.*.=.=.W W W Q =.=.4.4.4.4.1.2.=.W W %.%.W F P R W =.=.4.4.4.4.*.=.*.2.-.=.W W %.R %.G { K *.:.:.;.&.;.4.u.t.y.i.i.s.s.s.s.s.a.a.u.y.y.4.4.4.4.t.y.t.t.t.4.5.5.5.y.y.5.5.5.5.7.5.5.=.*.2.5.2.*.=.4.5.5.5.5.5.4.5.5.4.4.4.4.5.:.*.*.4.t.t.t.t.u.i.y.t.t.u.u.u.t.t.t.t.s.rXs.s.s.s.s.y.y.4.y.4.j , 5 J %.5.[ # - 9 A ..#.[ g lXlXlXlXlXlXlXlXlXlXlXlXlXlXlXlXlXlXlXlXlXlXlXlXlXlXlXlXlXlXlXlXlXlXlXlXlXlXlXlXlXlXlXlXlXlXlXlXlXlXlXlXlXlXlXlXlXlXlXlXlXlXlXlXlXlXlXlXlXlXlXlXlXlXlXlXlXlXlXlXlXlXlXlXlXlXlXlXlXlXlXlXlXlXlXlXlXlXlXlXlXlXlXlXlXlXlXlXlXlXlXlXlXlXlXlXlXlXlXlXlXlXlXlXlXlXlXlXlXlXlXlXlXlXlXlXlXlXlXlXlXlXlXlXlXA P 5 4.4.#.] 6 # > i.~.o.l j , A y.y.s.rXrXyXyXyXrXrXrXeXrXqXqXs.s.a.a.p.a.a.a.a.a.a.a.a.a.a.a.s.s.a.a.a.s.a.a.a.a.a.u.t.t.t.t.t.t.p.a.t.t.t.t.t.4.4.4.4.4.4.;.;.;.4.t.t.4.4.5.5.4.4.4.4.t.t.u.u.u.a.s.s.s.i.4.4.5.5.:.4.5.:.5.5.5.5.5.4.4.4.2.2.:.:.:.*.:.5.5.2.:.:.=.*.*.:.=.=.=.=.=.*.*.*.*.&.%.%.%.=.=.W E W *.4.4.4.4.*.*.%.&.:.4.4.5.4.*.4.*.o.o.o.*.4.4.*.*.:.5.4.*.X.%.5.5.X.] 4.t.t.t.@.#.0 * A A 7 > * J P.Q Q =.4.u.u.t.4.4.4.5.*.W =.*.4.4.:.=.E P P R R x R ",
", > :.$.P P P F W =.-.=.W R R =.:.;.*.*.4.t.t.t.4.;.%.%.:.A * # > 6 l 0 6 A ......A j 0 5.=.P E Q W =.*.&.*.4.5.4.%.R =.=.W W W W W =.=.=.=.W =.=.W W =.=.*.4.*.*.=.=.W W W P W W W W W W =.=.=.*.;.;.:.*.=.%.W W =.=.=.%.W X.X.S [ X.*.&.*.;.;.;.;.t.t.u.u.p.a.a.p.a.p.p.u.u.t.t.t.t.t.u.u.t.4.4.4.4.5.4.7.y.5.5.5.5.7.5.3.:.2.2.5.5.1.4.4.4.4.4.*.4.4.*.*.*.*.:.*.*.%.%.&.;.;.;.4.4.4.4.4.4.t.t.t.t.t.t.t.t.a.s.s.s.s.a.s.s.y.4.y.4.8 * 7 z G *.[ # > 9 ] #.#.[ g lXlXlXlXlXlXlXlXlXlXlXlXlXlXlXlXlXlXlXlXlXlXlXlXlXlXlXlXlXlXlXlXlXlXlXlXlXlXlXlXlXlXlXlXlXlXlXlXlXlXlXlXlXlXlXlXlXlXlXlXlXlXlXlXlXlXlXlXlXlXlXlXlXlXlXlXlXlXlXlXlXlXlXlXlXlXlXlXlXlXlXlXlXlXlXlXlXlXlXlXlXlXlXlXlXlXlXlXlXlXlXlXlXlXlXlXlXlXlXlXlXlXlXlXlXlXlXlXlXlXlXlXlXlXlXlXlXlXlXlXlXlXlXlXlXlXR 5 t.4.#.] 6 # > i.=Xo.l l , 7 t.i.s.yXrXrXyXyXrXrXrXeXrXeXs.a.u.t.t.t.t.t.t.t.u.u.u.u.t.t.u.u.u.u.u.u.u.t.t.t.t.t.t.4.4.t.4.,.t.t.t.t.t.t.t.t.4.4.4.4.4.4.;.4.4.4.4.4.*.;.4.4.4.;.t.q.t.q.q.q.q.t.t.t.t.t.4.;.4.4.4.4.4.4.4.4.4.t.4.4.@.t.4.4.4.4.4.4.4.4.4.4.:.4.*.*.*.1.1.*.*.*.:.*.*.=.%.%.%.W =.=.*.=.=.=.*.*.1.1.1.*.*.*.*.*.:.4.4.5.*.*.X.X.%.%.&.*.*.*.5.4.4.1.o.o.*.*.7.4.A @.u.t.a.t.q.] o 4 l 7 4 * g -.Q E =.t.u.t.t.4.4.y.7.2.=.=.*.4.5.5.*.R P P x P k R ",
", , 4.%.E E W W -.2.:.=.W -.=.=.:.4.4.4.t.u.t.t.@.o.{ %.:.j % # > 0 A 0 6 ] #.....A j A W.-.E E W W =.*.*.;.4.4.%.J z k j j j j j j j j j j j j j a a j j j j l j j j j a j j k j l j l l z k z C C C J J z z j j j j l j g 7 7 7 7 j g j l l l l l l l l A A A A A A A A A A A A A C A A A A A A A A C J J J Z Z k Z P Z Z Z z z l j l C l l l l j l l l l l l l l l g g g j 7 7 l l A A A A A S [ #.o.;.4.u.u.p.a.s.s.s.s.s.i.t.t.4.6 > 7 l G &.[ # > 0 ] #.#.#.j lXlXlXlXlXlXlXlXlXlXlXlXlXlXlXlXlXlXlXlXlXlXlXlXlXlXlXlXlXlXlXlXlXlXlXlXlXlXlXlXlXlXlXlXlXlXlXlXlXlXlXlXlXlXlXlXlXlXlXlXlXlXlXlXlXlXlXlXlXlXlXlXlXlXlXlXlXlXlXlXlXlXlXlXlXlXlXlXlXlXlXlXlXlXlXlXlXlXlXlXlXlXlXlXlXlXlXlXlXlXlXlXlXlXlXlXlXlXlXlXlXlXlXlXlXlXlXlXlXlXlXlXlXlXlXlXlXlXlXlXlXlXlXlXlXlXR 7 t.4.#.] 6 # > i.=X4.{ A > 5 t.s._.yXrXrXrXyXrXrXrXrXrXa.,.#.[ A A l 0 0 0 l l l l l l A A l l A A A A l l C A l l l j l A l l l j l 0 l l l A l C C l l j l j j g g 7 7 7 7 l l A b A 0 0 0 0 0 0 b A A C j l l l C C C A C A A A A 0 A A A S S S S C A A A A A A l l l l l A C l l l l l l l l C C J J Z Z z l l l l l l Z j j l Z Z C j l g i j j l J G %.5.5.4.*.*.;.*.*.5.5.S o.t.a.s.a.u.o.# o 5 5 > * * J Y P *.y.i.u.5.5.y.y.7.2.-.:.5.5.y.y.5.*.W R P P k R ",
", , 5.%.R R R W -.5.2.=.%.=.=.*.;.4.4.4.u.u.p.q.,.o.{ W *.j % o * 8 6 4 0 ..+...] A l X.W.2.=.W E W %.X.4.5.X.J j k k k z Z z z z z z l Z Z Z J D J F F F F Z J D F F F F F F F F F F F F P P F F F G W %.$.G F F F L F J Z J D G G F P P R W W W W R R R W W =.W Q Q W E E Y Y Y Y N U Q Q Y Q Q W W W =.1.=.W W W Q Q E Q =.=.*.*.*.*.*.%.X.X.X.X.X.o.&.X.X.X.o.X.[ [ [ S S S S [ [ [ S S S A A A [ [ [ o.4.4.a.t.a.s.eXeXs.i.t.t.4.7 > 7 l G &.[ # > 0 ] #.+.o.l lXlXlXlXlXlXlXlXlXlXlXlXlXlXlXlXlXlXlXlXlXlXlXlXlXlXlXlXlXlXlXlXlXlXlXlXlXlXlXlXlXlXlXlXlXlXlXlXlXlXlXlXlXlXlXlXlXlXlXlXlXlXlXlXlXlXlXlXlXlXlXlXlXlXlXlXlXlXlXlXlXlXlXlXlXlXlXlXlXlXlXlXlXlXlXlXlXlXlXlXlXlXlXlXlXlXlXlXlXlXlXlXlXlXlXlXlXlXlXlXlXlXlXlXlXlXlXlXlXlXlXlXlXlXlXlXlXlXlXlXlXlXlXlXlXlXlX7 t.@.#.] 6 # > i.uXy.o.A > 5 u._.rXyXpXrXrXrXrXrXrXqXa.+.S K =.%.G S S S S [ [ [ [ o.A A A A A A J A C C A D D A A A C A A A A J A C C A D F F J Z Z Z C C Z F F F D D D Z Z Z k Z Z L L Z Z Z L L U U Y ! m.Q Y U Y Y Y Q Y ^ ^ ! ^ ^ ! ! b.N.N.N.N.m.Y Y W =.=.%.G G G K W W R F F F K X.X.X.{ X. .X.X.K G J J J S G G G D Z Z D F D K D F J Z D F F J J Z G *.5.*.*.4.*.=.2.5.%.[ 4.u.a.a.a.@.> o , 5 * # % z Q E =.4.4.5.7.7.y.y.7.2.:.:.5.5.4.4.5.5.:.W P R k R ",
"g , 5.%.R P P R W -.2.*.*.:.*.*.4.4.4.4.t.p.p.t.t.;.G W :.l % % * 4 > # 0 +.+.+...] l { 7.5.:.=.W W *.X.5.%.l j J P W -.=.-.W R W %.=.=.*.*.*.4.1.1.5.5.5.5.5.=.2.3.2.2.2.2.1.1.1.5.7.5.7.7.5.7.5.5.5.5.5.5.4.5.5.P.H.H.2.H.H.2.2.H.H.2.2.3.P.U.U.U.K.{.}.}.}.&X&X*X&X&X&XXX X.X.X`.`..X@X+X+X+XXXY.K.U.%X%X=X=X=X=X=XQ.W.Q.y.y.i.i.s.s.s.s.i.i.i.i.i.i.i.i.u.a.s.i.u.u.t.t.i.y.i.i.u.y.y.y.5.5.y.i.5.=.%.;.;.#.u.p.a.s.eXrXs.u.t.t.4.7 > 7 A G :.o.# > 0 ] #.@.@.l lXlXlXlXlXlXlXlXlXlXlXlXlXlXlXlXlXlXlXlXlXlXlXlXlXlXlXlXlXlXlXlXlXlXlXlXlXlXlXlXlXlXlXlXlXlXlXlXlXlXlXlXlXlXlXlXlXlXlXlXlXlXlXlXlXlXlXlXlXlXlXlXlXlXlXlXlXlXlXlXlXlXlXlXlXlXlXlXlXlXlXlXlXlXlXlXlXlXlXlXlXlXlXlXlXlXlXlXlXlXlXlXlXlXlXlXlXlXlXlXlXlXlXlXlXlXlXlXlXlXlXlXlXlXlXlXlXlXlXlXlXlXlXlXlXlXlX0 t.@.+.] 6 # > y.uXy.;.A > 7 s._.rXrXpXrXrXrXqXeXs.t.@. .=.5.Q.U.5.5.5.4.5.5.y.y.i.i.s.s.s.s.s.s.s.s.i.s.i.i.i.s.i.s.i.s.s.s.i.s.i.i.y.y.y.y.i.%Xi.i.~.s._.=X=X=X~.i.Q.U.U.J.J.K.}.}.[.XXXXXXXX XL.L.[. X X XXXL.m.N.T.A. XT.T. X X XB.].`.6X8X6X@X@X.XA.N.m.H.P.2.-.-.-.2.2.-.W =.=.-.=.1.1.4.;.;.@.4.4.1.=.W =.1.1.1.1.4.1.1.4.4.4.4.5.4.4.4.1.1.*.*.=.2.R Z G *.*.*.4.:.=.-.5.*.X.4.t.t.t.u.4.> o 5 5 * # # J m.E E =.&.4.5.5.5.y.5.2.2.:.5.5.5.*.1.5.:.W P R Z E ",
"j , y.%.P P P P R -.2.4.4.4.*.*.4.4.4.;.4.t.t.t.4.*.J R :.l * * 5 4 > * 9 ,.q.q.+.] l A :.4.5.*.%.G %.=.*.k j Z P R E W R W J k k R =.=.=.%.%.*.%.K 4.5.5.5.5.3.H.H.^ Y W 1.K K 1.7.U.U.U.U.U.7.5.4.4.4.4.4.4.4.2.-.x.x.m.J.H.P P E x.Q Q 2.5.7.5.5.5.U.Q.Q.Q.Q.=Xs.s.s.~.Q.K.K.L. X X XXXOX,X>XXXI.5.5.i.s._._.yXyXyXs.5.4.4.t.t.u.s._._.s.s.s.s.i.i.s.i.i.s.s.qXs.s.a.a.s.s.i.i.u.t.t.4.;.;.4.y.y.5.*.*.5.4.A 4.t.t.a.s.s.a.t.t.t.t.l , j A X.5.;.* > 0 ] #.q.;.A lXlXlXlXlXlXlXlXlXlXlXlXlXlXlXlXlXlXlXlXlXlXlXlXlXlXlXlXlXlXlXlXlXlXlXlXlXlXlXlXlXlXlXlXlXlXlXlXlXlXlXlXlXlXlXlXlXlXlXlXlXlXlXlXlXlXlXlXlXlXlXlXlXlXlXlXlXlXlXlXlXlXlXlXlXlXlXlXlXlXlXlXlXlXlXlXlXlXlXlXlXlXlXlXlXlXlXlXlXlXlXlXlXlXlXlXlXlXlXlXlXlXlXlXlXlXlXlXlXlXlXlXlXlXlXlXlXlXlXlXlXlXlXlXlXlXK 0 t.,.#.] 8 # * t.=Xy.o.A > 0 s.qXqXrXpXrXrXrXeXs.t...o.5.-.2.5.=.R R k F G %.*.4.4.t.u.t.a.qXrXs._.rXrX_.i.t.u.a.a.a.a.p.s.s.i.i.s.=X~.y.t.i.s.i.i.s.s._._._._._._._.i.3.3.3.3.U.;X;X%XU.Q.%X%XU.3.2.3.3.3.3.U.2.R W 2.m.H.N.m.m.m.N.3.H.H.Y.}.Y.K.K.K.H.2.=.=.*.=.W W Q Q Q Q Q Q -.-.2.2.2.5.4.4.5.y.i.7.5.2.5.7.5.5.5.7.5.4.4.4.4.4.4.4.1.*.*.X.J A R :.=.J Z %.1.*.*.*.=.=.5.:.{ @.t.t.p.a.4.4 o 5 7 > * # A m.Q E =.*.4.5.5.y.y.5.5.4.4.4.4.4.5.5.2.-.P Z k k W ",
"l , 5.%.Z R P R E =.2.4.4.4.4.4.4.4.4.;.;.t.t.;.;.{ l P -.z * > 5 7 4 * 9 ,.q.t.,.#.A A :.4.5.4.*.W S K %.j k Z k P R Z z W =.R k x P P P Z Z P Z z =.:.=.-.-.2.2.Q Y U E W W W =.2.2.2.-.-.-.=.%.K X.o.@.4.4.*.F Z P I E H.Q P x P E P W *.4.;.@.4.t.y.i.Q.i.i.s.s.i.i.s.y.1.=.3.K.K.N.H.U.U.U.U.2.4.u.u.u.s._.rX_.=Xi.2.=.=.%.&.;.t.i.u.u.s.s.s.y.4.t.y.y.i.s.s.s.u.i.i.s.s.i.t.4.4.4.*.{ G =.*.{ R %.=.5.5.0 @.t.p.a.a.a.u.u.t.u.t.l 5 j A X.5.*.* > 9 ] +.t.;.l z lXlXlXlXlXlXlXlXlXlXlXlXlXlXlXlXlXlXlXlXlXlXlXlXlXlXlXlXlXlXlXlXlXlXlXlXlXlXlXlXlXlXlXlXlXlXlXlXlXlXlXlXlXlXlXlXlXlXlXlXlXlXlXlXlXlXlXlXlXlXlXlXlXlXlXlXlXlXlXlXlXlXlXlXlXlXlXlXlXlXlXlXlXlXlXlXlXlXlXlXlXlXlXlXlXlXlXlXlXlXlXlXlXlXlXlXlXlXlXlXlXlXlXlXlXlXlXlXlXlXlXlXlXlXlXlXlXlXlXlXlXlXlXlXlXK 0 t.q.#.` 6 # * 4.=Xy.o.l > 0 u.s.rXrXyXrXrXrXqXa.@.] 1.5.E Q W k J W Z k k J R *.4.4.4.4.t.i.s.i.i.s.s.i.5.4.4.t.t.u.t.t.s.u.4.5.7.Q.7.*.4.7.5.4.4.7.y.u.u.i.y.y.i.i.y.5.W E W 2.%X(.u.t.t.t.4.4.4.4.4.4.4.4.4.*.X.W W W 2.-.W W W =.5.*.=.:.5.5.1.W =.1.*.;.;.@.&.%.R R P P I E E E E E Q -.=.*.4.4.4.*.=.-.-.:.2.2.5.5.5.2.*.*.*.1.*.=.=.W W %.G j j z P R G A X.:.4.;.%.%.=.2.*.G @.t.s.s.s.t.4 X 5 7 > * % C H.Q -.:.4.u.i.y.y.y.y.5.4.4.4.t.t.4.5.2.-.R k z z =.",
"z , 5.%.J R P R R =.4.4.4.4.4.4.t.t.4.4.4.4.t.;.&.A j P 2.J * * 4 7 5 # 9 ,.q.t.q.#.] G 4.4.5.4.4.*. .S G k Z Z k P P k i G :.E k x x x x P P E k s P E P P P P I Y Y Y Q =.2.=.R P P P P P P P L F X.*.*.;.4.*.F Z P P P E R P P P P P R %.o.#.#.t.4.4.4.7.7.4.4.4.4.4.4.4.*.=.W Q Y E Q 2.2.*.%.o.t.a.u.t.u._._.s.i.5.=.Q =.$.=.:.5.y.t.t.t.i.t.;.o.%.5.5.i.i.s.y.4.4.5.5.5.4.:.;.4.*.%.J R =.J z =.=.=.5.5.l o.u.a.s.a.a.a.s.u.t.t.l 5 j A X.4.&.* > 0 ] +.q.@.j j lXlXlXlXlXlXlXlXlXlXlXlXlXlXlXlXlXlXlXlXlXlXlXlXlXlXlXlXlXlXlXlXlXlXlXlXlXlXlXlXlXlXlXlXlXlXlXlXlXlXlXlXlXlXlXlXlXlXlXlXlXlXlXlXlXlXlXlXlXlXlXlXlXlXlXlXlXlXlXlXlXlXlXlXlXlXlXlXlXlXlXlXlXlXlXlXlXlXlXlXlXlXlXlXlXlXlXlXlXlXlXlXlXlXlXlXlXlXlXlXlXlXlXlXlXlXlXlXlXlXlXlXlXlXlXlXlXlXlXlXlXlXlXlXX.W 0 t.t.#.] 6 # * 4.=Xy.o.l , 0 u.s._.rXrXrXrXrXs.a.@. .5.2.P Q E z Z =.W s k k P =.1.4.4.*.*.5.5.*.*.*.*.:.=.W =.=.1.4.4.4.y.4.W Q 2.2.E E -.5.2.W =.2.1.*.*.4.2.*.*.*.1.1.=.Y E W 2.4.4.4.;.*.*.*.*.:.*.*.*.*.%.W W W P P E E R R W W W E P W =.W W W =.W X.&.4.4.4.*.W R x P E Q E P P I E R W *.5.5.=.F P P R W -.-.:.:.:.Q W P W W W F R Z P =.J k z J J F W J S *.4.4.%.%.*.2.2.G o.u.rXrXs.t.6 + 5 7 > ; % Z H.E =.4.t.u.s.i.i.t.t.4.t.t.t.u.i.t.4.*.W J z z z R ",
"z 5 4.%.R E R R %.4.4.t.4.:.*.4.t.u.t.t.t.t.t.;.*.J k k 2.z * * 5 5 5 # 9 ,.t.q.@.#.] { 4.4.t.t.y.y.4.S J s P P x P P a , l *.:.x k d d d P P P Z k x P P m d d P I Y E Q =.1.W P Z n m P I P s k J W =.W =.=.W E R P P P P E W E P P P P R J A #.@.X.S X.;.;.X.{ #.;.4.*.=.=.W P Z Z J R =.*.%.R *.t.u.u.t.4.t.y.5.:.=.=.-.*.5.5.5.4.4.4.;.4.4.4.*.*.*.1.4.y.y.y.5.=.W W W R R E W W P F G *.*.j Z %.=.=.5.5.A #.s.s.a.a.a.s.d.t.t.t.l 5 j J F =.S * 4 9 ] @.t.o.g J l lXlXlXlXlXlXlXlXlXlXlXlXlXlXlXlXlXlXlXlXlXlXlXlXlXlXlXlXlXlXlXlXlXlXlXlXlXlXlXlXlXlXlXlXlXlXlXlXlXlXlXlXlXlXlXlXlXlXlXlXlXlXlXlXlXlXlXlXlXlXlXlXlXlXlXlXlXlXlXlXlXlXlXlXlXlXlXlXlXlXlXlXlXlXlXlXlXlXlXlXlXlXlXlXlXlXlXlXlXlXlXlXlXlXlXlXlXlXlXlXlXlXlXlXlXlXlXlXlXlXlXlXlXlXlXlXlXlXlXlXlXlXlXlXW l t.t.@...0 # * ;.-X5.{ l , l y.i.s.rXyXrXrXrXrXs.+. .5.W P P R J j J 2.R k k P P W =.*.%.=.=.W E P P P P R R E W %.*.4.5.5.=.R E I U P P Q -.E P R Q -.W W =.R R %.%.W W W E E E P P %.&.o.[ S X.%.%.W R $.$.J Z R R P k k Z P P R R F Z Z P E W E E R J J %.4.5.-.Q R P x P R Q R s d P I P P W 2.2.E P I I I I E E E Q Q Q E P Z Z Z Z Z k =.=.l J R P R J J J S @.t.t.4.;.*.2.2.G @.i.s.qXa.t.6 o , < > > % Z H.E R :.t.p.a.a.a.u.y.y.t.t.t.i.y.y.4.1.W P k z k R ",
"z 5 5.&.R E W =.*.5.4.4.4.*.*.;.t.u.u.u.t.t.t.4.4.R Z P 2.l * * 4 7 5 # 9 @.,.@.+.#.] { :.;.y.i.i.5.*.X.J k P P P P x a , l %.2.R x d f f d x P x x x x x x d f m I Y Y P P W R P Z d P U I U P Z Z P P P P R R P R E P P P R R R R P I P P z J X.X.A J S X.X.G S S %.*.=.-.Q P k k Z J R %.&.%.=.4.5.y.4.4.1.*.1.1.*.=.=.2.5.5.5.5.2.4.4.;.;.*.:.4.5.5.2.1.4.4.4.*.W E P P P P P P P J F %.5.*.j J R W %.2.5.A @.s.s.a.s.s.s.u.4.t.t.0 5 j l z R G * 4 9 ] ,.t.o.j F z lXlXlXlXlXlXlXlXlXlXlXlXlXlXlXlXlXlXlXlXlXlXlXlXlXlXlXlXlXlXlXlXlXlXlXlXlXlXlXlXlXlXlXlXlXlXlXlXlXlXlXlXlXlXlXlXlXlXlXlXlXlXlXlXlXlXlXlXlXlXlXlXlXlXlXlXlXlXlXlXlXlXlXlXlXlXlXlXlXlXlXlXlXlXlXlXlXlXlXlXlXlXlXlXlXlXlXlXlXlXlXlXlXlXlXlXlXlXlXlXlXlXlXlXlXlXlXlXlXlXlXlXlXlXlXlXlXlXlXlXlXlXlXlXR l ;.9.#.] 6 * * ;.=X4.{ A , 0 y.s.s.rXyXrXrXyXyXqX@. .2.W P P P J l l -.-.x s k P P P =.=.=.W R P P P P P P P P P P P W =.-.Q E E P P P P Q Q E P E E Q -.-.-.P P W %.W W W W Q E P P W X.X.G F G R P P P R R P Z P P P d s Z P P P P s k P P P P E Y I P P W =.=.W E E P P P R E P k P P E R P W *.*.W P I I P P P x x P P Q E P k k k x s E 5.G g J R R P P F J A @.t.i.t.4.1.5.2.G o.t.a.a.u.t.6 % , , > > * Z H.E R *.t.u.a.a.i.u.t.t.t.u.t.t.4.4.4.4.=.R k k z W ",
"z 5 5.&.R $.W %.:.5.4.4.4.4.4.4.t.u.a.t.t.t.4.;.:.R Z P H.l * * 4 7 7 # 9 @.@.+.#.#.A $.:.*.5.5.4.=. .X.z k P P Z k k a i i J :.-.P x x d d d d x P m d f d d d P I I P P P P R P P P P E E E R R E R R R E W R E W W E R R R W W E E W E P P R %.G G { X.%.&.&.%.%.%.%.=.-.W R P F G R %.*.*.*.*.4.4.4.4.1.*.=.=.*.*.*.:.2.5.2.2.2.2.*.1.4.*.&.*.4.4.4.2.1.1.*.*.=.W E R P P P P P P W =.5.y.X.5 J G J G *.5.A #.s.s.a.s.s.a.t.;.t.4.6 > g j z =.{ * > 9 ] @.q.o.l G A lXlXlXlXlXlXlXlXlXlXlXlXlXlXlXlXlXlXlXlXlXlXlXlXlXlXlXlXlXlXlXlXlXlXlXlXlXlXlXlXlXlXlXlXlXlXlXlXlXlXlXlXlXlXlXlXlXlXlXlXlXlXlXlXlXlXlXlXlXlXlXlXlXlXlXlXlXlXlXlXlXlXlXlXlXlXlXlXlXlXlXlXlXlXlXlXlXlXlXlXlXlXlXlXlXlXlXlXlXlXlXlXlXlXlXlXlXlXlXlXlXlXlXlXlXlXlXlXlXlXlXlXlXlXlXlXlXlXlXlXlXlXlXlXR 7 ;.t.@.] 6 # o o.~.:.{ J 5 l t.i.s.s.rXyXyXrXrXs.@.[ 1.W R P P S l 5 J -.R P P P P W -.-.-.W R P P P P P P P P P P P P W W Q E E Q E E W W =.=.E Q Q -.-.-.-.W W =.=.=.=.=.=.=.W R K %.=.=.%.W %.=.W W W Q E P P P E E U P E E R P P P P P P P P R R E P P E =.=.W W Q E E R E W P P P E W W W %.=.=.W R P P P P P x d P P R P x k s s x P 2.:.l g J J J R E R J A @.4.4.4.4.*.2.2.{  .@.,.t.t.t.8 * 5 , , > * Z H.E P =.4.t.t.u.i.y.4.4.t.u.u.4.:.4.t.4.*.R J k J =.",
"z 5 y.*.G R R %.:.5.4.4.4.t.4.t.t.a.p.t.t.t.4.@.&.J k P H.l * * 5 0 7 o 6 @.@.@.+...A G *.*.5.5.*.%.A [ j k P P Z k P k i , J :.-.=.P R R R R R P P P P P U P E W W W W %.=.W K W G G W W =.%.=.=.%.G G G G J J F R W %.%.&.*.*.*.*.=.&.&.&.X.o.o.X.X.&.&.&.&.*.*.:.;.*.*.*.%.=.*.*.*.%.&.*.;.4.4.4.4.4.4.4.:.*.*.*.*.:.*.*.*.*.*.*.*.*.*.*.&.X.o.;.4.;.:.:.4.4.4.*.=.=.=.=.W R %.%.%.=.*.5.4.l , A J z J *.5.A #.t.u.a.a.s.u.t.@.t.;.5 > g l R 2.%.* > 9 ] +.q.@.l J l lXlXlXlXlXlXlXlXlXlXlXlXlXlXlXlXlXlXlXlXlXlXlXlXlXlXlXlXlXlXlXlXlXlXlXlXlXlXlXlXlXlXlXlXlXlXlXlXlXlXlXlXlXlXlXlXlXlXlXlXlXlXlXlXlXlXlXlXlXlXlXlXlXlXlXlXlXlXlXlXlXlXlXlXlXlXlXlXlXlXlXlXlXlXlXlXlXlXlXlXlXlXlXlXlXlXlXlXlXlXlXlXlXlXlXlXlXlXlXlXlXlXlXlXlXlXlXlXlXlXlXlXlXlXlXlXlXlXlXlXlXlXlXlXP g y.s.@.] 6 * o o.=X5.{ A 5 l 4.t.i.s.yXrXs.s.s.u.#.S *.Q P P P G l 5 l :.W E R J W :.:.:.=.-.W W W R W =.=.=.=.=.-.=.=.=.=.=.-.-.:.*.:.*.*.*.*.*.*.*.*.*.5.5.5.:.:.:.4.4.4.4.4.:.*.*.*.*.*.&.X.%.%.%.%.=.=.=.W R W W W Q -.-.=.W W W W W R R R W =.=.W W %.=.*.*.=.=.=.=.W W %.%.W W W =.=.%.%.%.=.%.%.R P P P P R R R R W P E R Z k k Z =.5.%.g g J z R P E W A C o.o.;.*.*.*.*.*.G  .@.,.t.t.t.5 * 5 , , > * z F.E P W 4.4.4.t.i.y.4.4.t.p.u.t.4.t.t.t.:.%.J J J =.",
"z 5 y.:.{ R R R =.*.4.4.4.4.t.t.t.u.u.t.t.t.4.*.%.J k P H.l * * 5 7 7 o 6 ,.q.@.+...0 A :.:.5.*.=.=.S X.l k P P Z k P Z l l l l g 5 , , , , , , , , , , , , , , , , , > 4 4 , , 5 5 5 5 5 4 5 5 5 , > ; * * * % * ; > > > > 4 4 4 4 4 4 8 4 4 4 5 5 5 7 7 5 5 7 7 8 4 4 5 5 5 5 5 5 5 5 5 5 5 7 8 8 8 8 8 8 8 5 5 5 5 5 5 4 4 4 5 , , 4 4 > , > 4 4 4 4 5 5 7 7 7 7 7 7 7 7 7 7 5 5 5 7 7 l 7 , 7 { J $.=.:.:.l #.@.4.t.u.i.i.t.;.t.;.5 > j J =.7.&.# > 0 ] +.q.;.j Z l lXlXlXlXlXlXlXlXlXlXlXlXlXlXlXlXlXlXlXlXlXlXlXlXlXlXlXlXlXlXlXlXlXlXlXlXlXlXlXlXlXlXlXlXlXlXlXlXlXlXlXlXlXlXlXlXlXlXlXlXlXlXlXlXlXlXlXlXlXlXlXlXlXlXlXlXlXlXlXlXlXlXlXlXlXlXlXlXlXlXlXlXlXlXlXlXlXlXlXlXlXlXlXlXlXlXlXlXlXlXlXlXlXlXlXlXlXlXlXlXlXlXlXlXlXlXlXlXlXlXlXlXlXlXlXlXlXlXlXlXlXlXlXlXR g y.i.;.] 0 * # ;.uX7.{ l 5 0 4.t.s.=XyXs.s.a.a.t.#.S :.-.=.W R S l 5 7 J g , , , , 5 5 , , , , , , , , , 5 5 5 7 7 5 , > > 5 , 5 5 5 5 5 5 5 5 > > > > > 5 5 7 7 7 8 8 8 8 8 8 6 5 5 5 8 8 8 4 4 5 5 5 5 , , , > , , , , , , 5 5 , > > > > , , 5 5 5 , , , , 5 5 5 7 j g j j j 7 7 g g g 7 7 7 5 5 5 , , , 5 5 5 5 5 5 5 7 < 7 7 < < , 5 j l j , g z J E W =.W l A X.X.&.=.:.*.=.=.G o.t.u.t.q.@.6 * , , , > * l H.Q E W *.4.4.t.y.y.4.4.t.u.u.t.t.t.t.4.5.=.R J J =.",
"l 5 y.*.{ R R P R %.4.4.t.t.t.4.t.t.t.t.t.,.;.*.=.R k R P.l * > 5 7 5 o 9 t.t.q.@.#.0 [ :.*.2.=.=.=.o.X.l k P P Z k P z l l 5 % o o o X X o o o # # # + # # # . . . . . X X . . . . X . . X . X . X X . X X o o X X X # o # # # # + + + + X X X + # # o o # # # # # # # # # # # * * * * * * * * * 4 * * * * * > > > > > 4 4 4 4 > > * # * # # # # + # # # # # # # # # # # # # * # # # o o o o * l G =.5.U.5.:.l #.4.4.t.t.y.i.i.4.4.;.5 , l G =.5.&.o > 0 #.@.4.o.i Z Z lXlXlXlXlXlXlXlXlXlXlXlXlXlXlXlXlXlXlXlXlXlXlXlXlXlXlXlXlXlXlXlXlXlXlXlXlXlXlXlXlXlXlXlXlXlXlXlXlXlXlXlXlXlXlXlXlXlXlXlXlXlXlXlXlXlXlXlXlXlXlXlXlXlXlXlXlXlXlXlXlXlXlXlXlXlXlXlXlXlXlXlXlXlXlXlXlXlXlXlXlXlXlXlXlXlXlXlXlXlXlXlXlXlXlXlXlXlXlXlXlXlXlXlXlXlXlXlXlXlXlXlXlXlXlXlXlXlXlXlXlXlXlXlXP i 4.t.#.A 7 * * 4.iXy.{ l 5 l 4.y.s.=X=Xs.s.s.a.u.@.S :.2.2.-.=.S l 5 5 * o X X X X o # # # # # * * * > > > > # # # # * # # > * # * * * * * * * # * # # * * * % # # # # # o # + # # # # # # + # # # # X o # # + X X X o o # X X + X . X X o o X X . X X X X X o o X o o . . X X . . . . . . X . . . X . . . X X X X X X o o . o o o o o X X X ; 5 g l $.-.-.=.W l J =.X.R W =.W =.*.X.o.t.a.t.q.@.6 * , , > > * l P.-.E W *.4.5.u.u.y.y.4.4.t.u.t.t.y.4.:.=.=.R R Z =.",
"l 4 4.o.J R W Q W %.*.4.t.t.t.t.t.t.t.t.,.o.o.&.=.R k R P.J > > 5 , > o 9 t.t.q.@.#.0 { ;.%.*.*.*.1.o. .j p P P P P P a , 7 # X * > > > > 4 4 4 > > > > > > 4 > > > > > 4 4 > > 5 5 5 , , 5 7 7 5 7 l 7 6 6 7 7 7 6 0 l 7 7 0 0 9 6 9 0 0 0 0 0 7 7 0 9 0 0 0 0 0 0 A l 0 0 0 A 0 l l l l l l l l A A 0 0 0 9 9 0 0 0 0 0 0 0 0 0 0 9 0 0 0 0 0 0 0 0 A b b ] A 0 0 6 9 9 9 7 7 7 0 8 4 > > ; , J G =.5.U.U.5.l #.t.t.4.t.y.i.i.t.t.@.7 , j J W 5.o.o > 0 #.t.t.o.i P =.lXlXlXlXlXlXlXlXlXlXlXlXlXlXlXlXlXlXlXlXlXlXlXlXlXlXlXlXlXlXlXlXlXlXlXlXlXlXlXlXlXlXlXlXlXlXlXlXlXlXlXlXlXlXlXlXlXlXlXlXlXlXlXlXlXlXlXlXlXlXlXlXlXlXlXlXlXlXlXlXlXlXlXlXlXlXlXlXlXlXlXlXlXlXlXlXlXlXlXlXlXlXlXlXlXlXlXlXlXlXlXlXlXlXlXlXlXlXlXlXlXlXlXlXlXlXlXlXlXlXlXlXlXlXlXlXlXlXlXlXlXlXlXlXP i &.*.#.A 7 > * 4.uX5.S l 5 l y.i.s.s.s.s.s.s.s.u.@.S -.-.2.-.-.S 7 > o o + # 4 6 9 9 9 9 9 9 9 9 0 0 0 ) ` ] ] ] b A A A A A A 0 l ] _ _ ] ] ] ] ] A l l l l l 0 9 0 0 0 l 0 0 0 0 7 6 0 9 0 0 9 9 6 6 6 9 6 6 6 8 6 8 8 0 0 8 6 5 5 6 8 8 5 5 4 4 4 4 5 5 5 5 7 8 8 7 5 5 4 > 4 4 4 5 4 4 4 4 4 4 4 4 4 > 4 > 4 4 4 5 4 > 8 8 6 6 4 4 > # X > 7 g l R =.=.=.W l S 4.=.=.W W W W -.%.@.t.a.a.t.,.6 ; , , > > * l P.-.R E *.4.y.u.u.i.y.5.4.t.t.t.t.4.4.X.R E E R Z W ",
"j , 4.%.R W E I Q %.;.4.4.4.4.t.t.q.t.t.t.,.o.o.R R k R Y.J > > 5 5 > + 0 t.q.@.#.] 7 A &.*.*.1.1.*.;.o.l i x P Z P P s i g * o 4 5 7 7 g l l l j g g g j j j j j l l l l A A A l A A A l A A A A A A A A A A A A A A A A A ] ] ] ] ] ] ] ] A A A A A A [ [ ] ] [ #.#.o.[ A ] ..[ ] A A A ] A ]  .[ [ [ [ A [ [ [ ] ] ] ] ] ] ] ] ] ] A ] A A ] [ ] ] ..#.#.#.#.#.] A A A l l l l 0 0 9 6 5 4 > l R E =.:.P.:.A @.u.4.t.t.u.i.y.y.u.;.0 5 j j l *.[ o 4 0 [ @.t.[ , Y H.lXlXlXlXlXlXlXlXlXlXlXlXlXlXlXlXlXlXlXlXlXlXlXlXlXlXlXlXlXlXlXlXlXlXlXlXlXlXlXlXlXlXlXlXlXlXlXlXlXlXlXlXlXlXlXlXlXlXlXlXlXlXlXlXlXlXlXlXlXlXlXlXlXlXlXlXlXlXlXlXlXlXlXlXlXlXlXlXlXlXlXlXlXlXlXlXlXlXlXlXlXlXlXlXlXlXlXlXlXlXlXlXlXlXlXlXlXlXlXlXlXlXlXlXlXlXlXlXlXlXlXlXlXlXlXlXlXlXlXlXlXlXlXlXP i &.:.#.A 0 > * 5.Q.S S l 5 A y.i.s.s.s.s.s.s.s.s.@.G -.P P P P Z l 7 * * > 6 0 A A A A A A A A A A A [ #.#.] ] ] ] ] ] ] ] ] ] ] A A ] ] #.] #.........] ] ] [ ] ] ....#.#.#.#.#.#...] A ] ] ] ] A A A A A A A A C A A A [ [ ] ] A A ] A A A A A A A A A A A [ [ S A A A J l A A A A A A A A A A A A A 0 0 l j l A l l 0 l 7 7 7 7 7 5 5 > > o > j z J R R E F l o.5.5.5.W R R =.2.X.o.t.t.t.t.t.6 * , < , > % j H.E x E 1.4.y.i.s.a.s.i.t.t.t.t.t.4.=.E E Q E P R E ",
"l , 5.&.R W Q E -.*.4.4.4.<.4.t.t.t.u.u.t.t.4.*.W P k R U.J > > , 5 > # 0 t.q.,.@.] 6 A o.*.5.5.4.4.4.*.A a P P P P P s z R 7 % * > , , , 5 g 5 , g g g g 7 5 7 7 7 7 7 7 7 7 7 7 7 7 7 7 6 7 0 0 0 0 0 7 7 7 7 7 7 7 7 7 0 0 0 0 0 0 0 0 l l l 7 0 l l l l l l A A A A l l l A A A A A A A A A [ A [ A A A A A A A l A A A A A A l l A l l l l l 0 0 l l l l l l 7 7 7 7 7 5 5 7 5 5 4 , > > l l J =.=.=.-.=.A +.t.t.u.a.a.s.y.t.y.4.7 4 7 l J *.[ o 4 0 ] @.4.G i Q H.lXlXlXlXlXlXlXlXlXlXlXlXlXlXlXlXlXlXlXlXlXlXlXlXlXlXlXlXlXlXlXlXlXlXlXlXlXlXlXlXlXlXlXlXlXlXlXlXlXlXlXlXlXlXlXlXlXlXlXlXlXlXlXlXlXlXlXlXlXlXlXlXlXlXlXlXlXlXlXlXlXlXlXlXlXlXlXlXlXlXlXlXlXlXlXlXlXlXlXlXlXlXlXlXlXlXlXlXlXlXlXlXlXlXlXlXlXlXlXlXlXlXlXlXlXlXlXlXlXlXlXlXlXlXlXlXlXlXlXlXlXlXlXlXP i =.4.o.A 0 > * 4.=X*.G A 5 A y.i.s._.rXrXrXs.s.s.@.{ :.E R P P k l J , % > 5 6 7 7 7 0 0 l l l l l l A A [ A A A ] A A A A A A A A A ] ] ] A ] ] ] A A A A A l l l A l A A A A A A l l l 0 0 0 0 0 0 b 0 l 0 l l A l l l A A A l 0 0 l l l l 0 0 0 l 0 l l l A A 0 0 l A l 7 0 7 j l l l l l l l 0 7 7 7 7 , 5 5 7 7 5 5 5 5 5 5 > > > > * # * 5 j z J R P P J l { 5.5.5.:.=.=.:.2.X.#.t.t.p.t.t.6 * , 5 5 > % C H.E P Q 2.4.5.y.y.a.s.i.i.t.t.t.t.4.:.=.E E E P R W ",
"j , 7.*.R W Q Q 2.4.y.4.4.4.4.4.4.4.t.t.t.t.:.&.G J k W !.J > > , 5 > # 0 t.q.q.@.] 6 S &.*.5.5.5.4.1.4.J k E P k k P k k W R i % , , , , , , , , , , , , , , , 5 5 5 7 5 5 , , 5 5 , , , 5 5 5 5 5 5 5 , , 5 , , , 5 , , 5 5 7 5 5 5 5 5 7 7 7 5 5 5 7 7 5 5 7 7 0 l j j 7 7 7 7 7 7 j 7 7 7 7 j j l 7 7 7 l g g g g g j j g l g g g g 7 g g g 5 5 7 7 g g 7 7 7 7 g , , , , , 5 5 5 , , , 5 :.G Z R G J E =.A #.t.t.s.s.s.s.p.4.y.4.7 > 7 z %.y.o.# 4 0 ] o.4.R u x.Q lXlXlXlXlXlXlXlXlXlXlXlXlXlXlXlXlXlXlXlXlXlXlXlXlXlXlXlXlXlXlXlXlXlXlXlXlXlXlXlXlXlXlXlXlXlXlXlXlXlXlXlXlXlXlXlXlXlXlXlXlXlXlXlXlXlXlXlXlXlXlXlXlXlXlXlXlXlXlXlXlXlXlXlXlXlXlXlXlXlXlXlXlXlXlXlXlXlXlXlXlXlXlXlXlXlXlXlXlXlXlXlXlXlXlXlXlXlXlXlXlXlXlXlXlXlXlXlXlXlXlXlXlXlXlXlXlXlXlXlXlXlXlXlXlXi *.4.o.A 0 > * 4.uX5.X.A 5 l t.s.rXrXyXrXrXs.s.s.@.G -.R R P P k k R k : , > > , , , , 7 5 g , 5 5 , g 5 l 7 g 7 g g 7 7 7 7 7 5 6 6 0 7 7 7 l j j 7 5 5 5 7 , < , 5 5 5 5 , 7 7 7 7 7 7 5 5 5 5 7 7 7 7 7 8 7 5 7 5 5 5 7 7 7 7 7 7 7 7 7 7 5 5 7 7 5 5 7 7 7 7 7 5 7 7 , , , , , , < , 5 5 7 < , 5 5 5 5 , , , , , , 5 5 5 5 , , , , , , > l J l z J x k k F l { 5.1.4.5.5.5.4.4.[ #.t.p.p.p.t.6 * , 7 5 > % Z H.Q R -.2.4.5.5.y.s.s.i.i.u.t.t.t.t.4.-.E E E R R W ",
"7 , 7.*.R W -.-.5.y.i.t.4.4.4.4.4.*.4.t.t.t.*.$.F J k W Q.J > > , 5 5 # 9 q.q.q.q...0 { *.*.:.2.2.2.*.*.A a E P k k P k i Z :.P i i i i i i i g i i i i j j i i i i j z j g , g g g g g g g g g a j j a i g j j g g g g i g j l l g 7 7 j l l l l l g g g g g g g g l l j g g g g g g l J l l j l l l j l 7 l j j l z Z l j j z z j j j a j j j j g j j j j j j j j i i i a i i g g g i i i G i.J J R J J =.:.S #.t.u.s.s.qXs.p.;.y.4.7 > j J :.i.;.# 4 0 ] *.5.Q s I P lXlXlXlXlXlXlXlXlXlXlXlXlXlXlXlXlXlXlXlXlXlXlXlXlXlXlXlXlXlXlXlXlXlXlXlXlXlXlXlXlXlXlXlXlXlXlXlXlXlXlXlXlXlXlXlXlXlXlXlXlXlXlXlXlXlXlXlXlXlXlXlXlXlXlXlXlXlXlXlXlXlXlXlXlXlXlXlXlXlXlXlXlXlXlXlXlXlXlXlXlXlXlXlXlXlXlXlXlXlXlXlXlXlXlXlXlXlXlXlXlXlXlXlXlXlXlXlXlXlXlXlXlXlXlXlXlXlXlXlXlXlXlXlXlXi :.4.o.A 7 > * 4.uXy.{ A 7 l 4.s.rXyXpXrXeXs.s.a.@.{ -.R R P x P j k =.j , , , , i i i g j j i i j a a a z z z a i j l l j g g 7 7 g g j j j z k k k j j g g k j j j z l l j j l l l l i i g j g g j j g g 7 g , 7 , < , 7 g l j g g , , , 7 5 5 7 7 , , 7 g g g g 7 i i i i , i i i i i i g g i g 7 7 g , , , , , , 5 g l l j g g g g g , j *.R j k Z k k P R l J *.4.5.y.y.4.;.;.[ #.t.p.p.p.t.6 * , 7 5 > % Z P.Q R =.1.4.5.4.u.s.i.t.t.t.t.t.t.y.5.-.Q Q Q E P %.",
"0 5 y.:.R W -.2.i.i.i.4.4.4.4.4.4.&.:.4.t.4.%.R P P k W U.J > > , 5 5 + 6 @.q.q.q...0 %.5.-.R R Q -.=.%.l a P P P R Z j , j -.-.Z j j j k z z k k P P P x k k k s k P P P k z z z J J J Z P P k s x P P Z J F P P P G F J J G W W W P G %.*.*.*.%.%.W R P R E E W R W =.W P P R F J J %.:.*.W J G R =.%.R J R -.W -.-.-.W P W =.=.=.W R P R P P P P R R G R R W R J k k k Z k k k k k k k k 5.5.g J R R =.:.:.S #.t.u.s.a.s.s.u.;.4.;.7 > j J *.i.;.# > 0 [ *.5.-.s P Z lXlXlXlXlXlXlXlXlXlXlXlXlXlXlXlXlXlXlXlXlXlXlXlXlXlXlXlXlXlXlXlXlXlXlXlXlXlXlXlXlXlXlXlXlXlXlXlXlXlXlXlXlXlXlXlXlXlXlXlXlXlXlXlXlXlXlXlXlXlXlXlXlXlXlXlXlXlXlXlXlXlXlXlXlXlXlXlXlXlXlXlXlXlXlXlXlXlXlXlXlXlXlXlXlXlXlXlXlXlXlXlXlXlXlXlXlXlXlXlXlXlXlXlXlXlXlXlXlXlXlXlXlXlXlXlXlXlXlXlXlXlXlXlXlXi :.t.o.A 6 * > 4.uX5.[ A g j ;.i._.rXrXrXqXs.s.a.#.X.2.E E P P R j i -.P k a k z k R Z P R E P P P P P x R R E P Z P W W P Z Z Z Z k P P E I P P E E E P P P R P R P W W W P P P W W P Z P P R P P E E L Z P E P P Z L Z L F %.%.%.W J Z Z J Z Z Z C a a s Z Z F Z L P m m m k k s s Z P P L Z Z J J J z z j k k j j Z G %.Z z l j j j g a R :.J i k P P P R R l A *.5.5.4.4.*.&.;. .#.t.t.p.p.t.4 * 5 5 , > > J K.Q R =.:.4.y.y.s.i.4.;.4.t.t.t.u.i.y.:.-.Q W R R =.",
"0 5 y.:.R E =.2.i.i.u.4.4.4.4.t.4.*.:.4.t.;.%.R P P Z W U.J > > , 7 5 + 6 ,.q.q.,...0 W :.=.P P R Q W G g a P P E R k a , i P -.P j k k k k k P P P R P P x P x k x P P P P J J P P P P P P P P d P I P P P R E E W =.=.W R =.:.-.-.-.=.:.5.5.2.2.2.2.-.E Q m.2.2.Q Q -.Q Q Q -.-.=.=.2.5.2.W F W %.2.:.-.W Q H.H.H.H.2.2.-.2.5.5.5.-.Q Q E R Q -.-.=.=.*.*.5.5.:.Q E R E Q R P P P P P P P W.X.7 G W %.=.-.-.{ #.t.t.u.a.a.s.t.:.4.;.7 > j J *.i.;.o > 0 ] o.4.*.i k k lXlXlXlXlXlXlXlXlXlXlXlXlXlXlXlXlXlXlXlXlXlXlXlXlXlXlXlXlXlXlXlXlXlXlXlXlXlXlXlXlXlXlXlXlXlXlXlXlXlXlXlXlXlXlXlXlXlXlXlXlXlXlXlXlXlXlXlXlXlXlXlXlXlXlXlXlXlXlXlXlXlXlXlXlXlXlXlXlXlXlXlXlXlXlXlXlXlXlXlXlXlXlXlXlXlXlXlXlXlXlXlXlXlXlXlXlXlXlXlXlXlXlXlXlXlXlXlXlXlXlXlXlXlXlXlXlXlXlXlXlXlXlXlXlXi :.y.o.A 6 * > y.iX5.G J g j ;.i.s.qXrXrXeXeXs.a.#.X.P.Q Q E P R l , R Q k k k P P E R Q Q Q E E I Q E I E E E P P E Q Q R P P R E P I Y x.Q Y E Q Q Q Y E E R R E Q Q Q Q W E W Q E P E I Y Q I Y Q x.Y E Q N.b.z.Y Q Y E W 2.5.2.-.P P P W W Q E U U U U P P R P U Y Y B I I P P P P E Q R Z Z R W W W P P P P P Z P W =.J Z Z Z k z j k *.%.g i P R P P E E l J 1.4.4.4.*.*.X.&.S #.t.t.t.p.t.4 # 7 7 5 > > F K.Q R %.;.t.u.s.s.u.4.*.;.t.u.t.t.t.y.5.-.E R R R =.",
"0 , 7.*.R R W W 5.t.t.4.4.4.q.p.t.;.4.5.t.4.=.%.R P k P P.l * > , 7 5 + 9 q.t.q.q.] 0 D =.-.Q R P P P Z g j P P P P k j , , z =.R k k k k k k k P R R P k x P P P P E P k P Z P R R P P P P P P P I I P R P R E E R W W W W -.2.Q E -.2.5.5.2.:.2.2.P.H.Q x.m.H.H.Q Q Q Q Q Q Q -.-.-.5.5.-.W W =.W =.W Q E Q ^ H.H.2.2.2.2.1.1.5.2.Q E Q x.E Q 2.:.=.=.4.5.7.2.W E Q E E Q R P P P P P R E W.A l G G G G P -.%.#.4.t.y.u.u.i.y.:.5.4.7 > j A *.i.o.X > 0 A o.4.X., j C lXlXlXlXlXlXlXlXlXlXlXlXlXlXlXlXlXlXlXlXlXlXlXlXlXlXlXlXlXlXlXlXlXlXlXlXlXlXlXlXlXlXlXlXlXlXlXlXlXlXlXlXlXlXlXlXlXlXlXlXlXlXlXlXlXlXlXlXlXlXlXlXlXlXlXlXlXlXlXlXlXlXlXlXlXlXlXlXlXlXlXlXlXlXlXlXlXlXlXlXlXlXlXlXlXlXlXlXlXlXlXlXlXlXlXlXlXlXlXlXlXlXlXlXlXlXlXlXlXlXlXlXlXlXlXlXlXlXlXlXlXlXlXlXlXi :.y.o.A 6 * > i.jXi.%.J g g :.i.s.s.rXrXrXs.qXa.@.%.P.Q P k Z Z A 5 J -.P k k P P P E Q E E P P P I I I Q E Q I Y Q Q E P P R E E I I I z.Y E W -.-.-.-.-.-.P E Q -.Q Q Q -.Q Q Q I P Y Y Y Q Y E m.H.Q Q m.M.v.l.l.b.b.Q Q 3.P.2.Q Q E R E Q Q Y b.m.b.b.m.Y E P Q b.z.M M Y E P P E Q Q R Z P R W W Q R x d P P P R W W P J Z Z Z k j J 2.J , j Z P x P E W l A *.*.4.4.5.5.*.%.S  .t.t.t.t.t.> # 7 7 5 > * J U.W P &.4.u.a.s.a.u.5.1.:.t.t.4.4.4.5.5.-.E R J F =.",
"l , 5.%.J G %.W *.t.u.t.4.4.y.u.4.4.t.t.t.t.t.:.o.S j J 2.l * * > 5 , + 9 t.a.t.@.] 0 J =.-.-.W R P P J j i Z P s a a j , , z W E k k Z P k k P P P P P x x P x P I P P P P P E Q P P P P P P P P P P P P R P P P W R P P W Q Q W W Q 2.2.2.:.:.2.:.H.Q Q Q H.H.m.H.Q E E E Q Q Q -.:.:.-.=.W W W W W W Q Q ^ ^ 2.2.2.3.2.2.2.2.2.2.2.Q Y I Q H.-.-.=.=.*.2.2.=.W Q Q E E P P R E Q E R P :.y.j i R W =.W =.5.{ [ 4.4.y.u.s.i.5.=.5.5.7 > g J W 5.A . > 6 A +.4.o.7 J $.lXlXlXlXlXlXlXlXlXlXlXlXlXlXlXlXlXlXlXlXlXlXlXlXlXlXlXlXlXlXlXlXlXlXlXlXlXlXlXlXlXlXlXlXlXlXlXlXlXlXlXlXlXlXlXlXlXlXlXlXlXlXlXlXlXlXlXlXlXlXlXlXlXlXlXlXlXlXlXlXlXlXlXlXlXlXlXlXlXlXlXlXlXlXlXlXlXlXlXlXlXlXlXlXlXlXlXlXlXlXlXlXlXlXlXlXlXlXlXlXlXlXlXlXlXlXlXlXlXlXlXlXlXlXlXlXlXlXlXlXlXlXlXlXP i =.:.[ ] l * > i.gXW.$.z , 5 *.7.y.s.pXpXrXs.s.p.#.[ 5.E R Z z A l , l Q R P Z P P E E E E E E I I I I I Y I P P E Q Q E E E E E I Q x.x.x.x.x.Q -.2.H.H.-.Q P E Q 2.2.2.2.:.-.-.Q P P I Y Q Y Y Y Q ^ 2.Q Q Y Y Y Y Y Q ^ 2.2.2.=.W W E P P E Q Y z.C.`.'.b.U L P x.M.z.M M I I I Y Y E U P P Z P E E R P P s d P P R R E P P P P k k P W %., , j k x x P P Z k J =.%.5.7.5.5.4.%.A #.,.q.q.t.,.- * g j 5 > % E P.E R o.4.y.i.t.t.t.t.4.;.4.t.4.=.:.:.:.-.W R R J *.",
"l , 7.&.J G %.*.4.t.u.u.t.5.4.4.@.4.t.t.t.t.t.t.;.X.z R 2.z * * > 5 5 + 9 t.u.q.@...0 J =.W -.:.Q E R P j i Z k s k k i , , J W J l j j j g l J z z z z z z z z z J Z Z Z J J R G J Z z z z Z J J J F F F G G G G W $.G G R %.W R W %.%.%.%.%.&.*.*.-.=.W =.=.=.-.=.=.W W %.=.=.%.%.%.&.%.%.$.$.$.$.%.%.=.=.-.=.=.=.*.*.*.*.4.*.*.*.*.=.=.R W %.%.{ { { X.&.&.{ { $.R G G F F G G { J R G G X.7 l R =.=.=.5.7.%.[ 4.4.5.y.i.i.5.:.5.5.7 > g J R 5.A . 4 0 ] ,.t.@.j G %.lXlXlXlXlXlXlXlXlXlXlXlXlXlXlXlXlXlXlXlXlXlXlXlXlXlXlXlXlXlXlXlXlXlXlXlXlXlXlXlXlXlXlXlXlXlXlXlXlXlXlXlXlXlXlXlXlXlXlXlXlXlXlXlXlXlXlXlXlXlXlXlXlXlXlXlXlXlXlXlXlXlXlXlXlXlXlXlXlXlXlXlXlXlXlXlXlXlXlXlXlXlXlXlXlXlXlXlXlXlXlXlXlXlXlXlXlXlXlXlXlXlXlXlXlXlXlXlXlXlXlXlXlXlXlXlXlXlXlXlXlXlXlXlXP i %.:.#.] l * > y.iX7.%.J 7 7 *.5.y._.aXpXrXs.s.p...S 5.Q Q W J l l 7 J =.G J l J J G G G F F J J J k Z J R Z J Z J J R P F R R R P R W W W W -.%.%.=.=.*.:.-.R W =.=.=.*.*.*.*.*.=.=.=.=.W R W W W %.=.=.%.W W Q -.2.-.E W %.%.=.=.%.G G J J R W E Q N.N.N.Y K S J P Q Y P P R P P P R E P J J Z J J F J J J z z Z J G G G G G F Z l l z G J , , j Z P P P P k k J =.=.5.7.5.5.5.*.G @.t.t.t.t.@.# * 7 g 5 > % E Y.Q P %.;.4.t.u.t.t.y.t.4.4.t.4.*.2.5.:.=.W R R G *.",
"l , 5.%.J G *.5.5.t.u.u.4.*.4.4.4.4.u.u.t.t.4.t.;.&.J R 5.z * * > 7 , + 9 t.t.@.@.#.0 R =.=.2.5.-.E P F j g k k k k k j , > 5 > % o X . . X # * % o o o o % o * * * * * * * * * * % % * % % % * * * * * * * * * * > > * * * * * * * > * > > > , , , 5 5 5 5 5 5 5 5 4 > > 4 4 5 5 5 , > > > , 5 5 > > > > , , , , 5 5 5 5 5 4 4 5 5 5 5 5 4 4 4 > > > 4 * * * * * > > * * * * * * * * * > * > > S W R =.*.5.7.X.[ 5.5.5.i.i.i.5.=.:.:.5 > 7 l G 5.A X 4 A #.,.u.;.j G %.lXlXlXlXlXlXlXlXlXlXlXlXlXlXlXlXlXlXlXlXlXlXlXlXlXlXlXlXlXlXlXlXlXlXlXlXlXlXlXlXlXlXlXlXlXlXlXlXlXlXlXlXlXlXlXlXlXlXlXlXlXlXlXlXlXlXlXlXlXlXlXlXlXlXlXlXlXlXlXlXlXlXlXlXlXlXlXlXlXlXlXlXlXlXlXlXlXlXlXlXlXlXlXlXlXlXlXlXlXlXlXlXlXlXlXlXlXlXlXlXlXlXlXlXlXlXlXlXlXlXlXlXlXlXlXlXlXlXlXlXlXlX& R P i :.y.o.[ l * * 4.-X5.{ A 7 g :.5.5.s.dXdX=Xs.s.a...A P.Q R P J J l > 4 5 * o o o # # * * * * * * * * * * > * * * * # # # * * * * * * > > > > , > > > > , 5 5 , , 5 , > > 4 > > * > > > > * * > > > > > > > > > , , , > , > > 4 4 > > 4 > > 4 5 5 7 , 5 , , , > > * * ; : ; > * * * , , , > * * * * * * * * * > * * > > > > > > * * * * * * > * 5 z P P P x k z l A =.*.5.5.2.2.2.*.S o.t.u.a.u.@.# * 5 g 5 , % E Y.P Z %.;.4.u.u.s.u.u.t.4.4.t.4.4.5.5.5.=.W R R G *.",
"l , 5.=.G %.*.5.y.u.u.i.4.%.*.4.4.t.u.t.t.t.@.;.o.{ z R P.z * * > 5 , + 6 t.t.@.@...0 R =.=.5.5.=.P P G g i k P k k Z z , o X     X X X X o # # % o o # % % o # * o o o o o X X o o o o o o o o o o o o X X X X X o o o o # # * * # # # # * * * * * * * > > > 4 4 > > * * * * * * * # # # * * * % # # # # # # * * * > > > > # # * * * 4 * > > > > * * * # * * * * > > * * * * * * * # # X X X * A W W =.:.5.7.X.] 5.2.5.7.i.y.5.=.=.&.5 > 7 A %.7.{ X 4 A #.q.t.;.j J G lXlXlXlXlXlXlXlXlXlXlXlXlXlXlXlXlXlXlXlXlXlXlXlXlXlXlXlXlXlXlXlXlXlXlXlXlXlXlXlXlXlXlXlXlXlXlXlXlXlXlXlXlXlXlXlXlXlXlXlXlXlXlXlXlXlXlXlXlXlXlXlXlXlXlXlXlXlXlXlXlXlXlXlXlXlXlXlXlXlXlXlXlXlXlXlXlXlXlXlXlXlXlXlXlXlXlXlXlXlXlXlXlXlXlXlXlXlXlXlXlXlXlXlXlXlXlXlXlXlXlXlXlXlXlXlXlXlXlXlXlXlX& P P i 5.i.;.] 0 * * 4.=X:.S A 5 j :.7.7.i.yX=X_.s.rXs...S P.-.R Z J A 7 # X X . X X # # # # # # # # # # # # # # # + + + + + + # # # # * * * > > > > > > * * > > > > > > > > 4 4 # # + + # # # # # # # # # # # # # o % # # # # # # # # o o o X X # # o % o o # # o X X + X . X X o # # o o # # # # # # # # + + # # o # # # + + + o o X X X X X . o o 5 z P P x s s z l A *.2.5.2.-.-.2.=.J A @.t.u.p.,.4 * 5 g 5 5 * E J.I Z G ;.4.u.a.s.p.u.u.4.4.t.4.4.4.4.:.=.W G G G *.",
"l , 5.*.R %.*.4.4.u.u.u.4.%.%.4.4.t.t.t.t.t.t.;.o.S z R H.z * * > 5 > X 6 ,.t.q.@.] 0 J W W P.5.=.R R G g i P P R P P k % . . X # # * * > , 5 , , , , , 5 5 , 5 5 , , , 5 5 > > , 5 , , , 5 5 5 5 5 5 5 5 , , 5 5 5 5 5 5 7 7 7 7 7 5 6 6 7 7 7 7 7 0 0 0 0 0 0 0 0 7 7 0 0 0 0 6 6 6 7 0 0 0 7 5 5 7 6 7 7 7 7 l 0 0 0 0 0 7 0 l l l l l 0 0 0 0 0 7 7 7 7 7 7 7 7 7 7 5 8 8 7 7 7 8 6 > > o * l G %.=.:.:.5. .[ 5.:.-.5.5.y.y.:.:.*., > 7 A %.W.o.X 4 0 #.,.t.;.g J J lXlXlXlXlXlXlXlXlXlXlXlXlXlXlXlXlXlXlXlXlXlXlXlXlXlXlXlXlXlXlXlXlXlXlXlXlXlXlXlXlXlXlXlXlXlXlXlXlXlXlXlXlXlXlXlXlXlXlXlXlXlXlXlXlXlXlXlXlXlXlXlXlXlXlXlXlXlXlXlXlXlXlXlXlXlXlXlXlXlXlXlXlXlXlXlXlXlXlXlXlXlXlXlXlXlXlXlXlXlXlXlXlXlXlXlXlXlXlXlXlXlXlXlXlXlXlXlXlXlXlXlXlXlXlXlXlXlXlXlXlXlX& R P , :.i.o.] 7 * # ;.=X:.J l 5 j 5.Q.Q.Q.s.s.s.rXrXs.#.S 5.-.E R E J 5 # X o o * > 5 6 5 5 6 7 6 6 6 6 7 7 0 7 7 6 6 6 5 5 6 7 7 0 7 7 7 7 7 7 l 7 7 7 7 j j j j 7 7 0 0 0 9 6 6 5 5 5 7 7 7 7 7 5 7 6 7 7 6 8 5 7 7 7 7 7 7 6 7 7 7 7 7 5 5 5 7 5 5 7 5 5 8 5 5 , , 4 > > , > 5 5 5 5 5 5 5 5 5 5 > 4 4 4 4 4 > , 5 5 5 5 4 > , , , > > > > * * % , j P I P x k J l J =.2.5.H.F.-.2.=.A A #.9.t.t.@.# * , g 7 5 * E I.E P F *.t.u.u.a.a.s.u.4.4.t.t.4.4.t.4.*.W F G G *.",
"l > 5.=.R R %.*.4.t.t.u.4.%.%.4.4.q.t.p.t.t.t.@.#.J l P H.J * * 5 5 > + 6 q.t.t.,...0 J W Q 2.2.-.=.W { j i P E R P P s = * % . o % % % % > , , > * * * = , , , , , , , , , > > , , , > > > , , , , , > , , , , , , , , , 5 7 7 5 , , 5 5 5 5 5 5 7 7 7 7 7 7 7 5 5 5 5 5 5 7 7 7 5 5 7 7 7 6 5 5 5 5 5 5 5 5 5 5 7 7 7 7 7 5 7 7 7 7 7 7 7 7 7 7 7 7 5 7 5 7 5 7 7 7 5 5 5 5 5 5 5 5 4 > , * 5 z F %.=.=.=.:.[  .5.*.*.:.4.y.i.:.:.:., > 7 A %.Q.o.. > 0 ..,.t.*.j Z J lXlXlXlXlXlXlXlXlXlXlXlXlXlXlXlXlXlXlXlXlXlXlXlXlXlXlXlXlXlXlXlXlXlXlXlXlXlXlXlXlXlXlXlXlXlXlXlXlXlXlXlXlXlXlXlXlXlXlXlXlXlXlXlXlXlXlXlXlXlXlXlXlXlXlXlXlXlXlXlXlXlXlXlXlXlXlXlXlXlXlXlXlXlXlXlXlXlXlXlXlXlXlXlXlXlXlXlXlXlXlXlXlXlXlXlXlXlXlXlXlXlXlXlXlXlXlXlXlXlXlXlXlXlXlXlXlXlXlXlXlXlXlXP P i 5.y.o.A 6 # # ;.=X:.A g , g 5.Q.Q.Q.s.s._.rXrXs.#.[ 5.Q R R E Z , > o o * * > 5 5 5 > > 5 5 5 5 5 5 5 5 5 5 5 5 5 5 , 5 5 5 5 5 5 5 5 5 5 5 5 5 5 5 5 5 5 , 5 5 7 7 7 5 5 4 > > 5 5 5 5 5 , 5 5 , 5 5 5 5 , , , 5 5 5 , 5 7 5 5 5 7 5 , 5 5 5 , 5 5 5 5 , > > , , , , , , , , , , , , , , , > > > > > > , , > , , , , , , , , > > * % % % % * , g k R E E E W z J W =.-.-.H.F.2.*.A ] @.q.q.t.#.# % , g 7 , % W Y.Q P F *.4.u.u.p.a.s.a.4.;.t.t.4.t.u.5.*.W F G G :.",
"A > 5.=.R G $.&.4.u.t.t.4.*.=.4.,.q.p.p.t.t.,.@.[ A z E P.J * * 5 7 , # 6 t.u.t.t.@.b G -.E Q -.:.-.%.{ l k P P k P P s a j , $ % o o * * * * * * * * * * * > * * > * * * * > * * * * * ; * * * > > > * > > * > > > > , , , , , , , , , , , , , , , , , , , , , > > > > , , , 5 , , , , , , > > , > > * * = = = = > , , , > > , , , , , , , , , , , , , , , , , 5 5 5 5 > > > > > * * * % % , { G Z %.$.E =.:.[ [ y.5.5.7.y.y.y.*.:.;.5 > 7 J =.Q.o.. 4 A #.,.t.&.a k J lXlXlXlXlXlXlXlXlXlXlXlXlXlXlXlXlXlXlXlXlXlXlXlXlXlXlXlXlXlXlXlXlXlXlXlXlXlXlXlXlXlXlXlXlXlXlXlXlXlXlXlXlXlXlXlXlXlXlXlXlXlXlXlXlXlXlXlXlXlXlXlXlXlXlXlXlXlXlXlXlXlXlXlXlXlXlXlXlXlXlXlXlXlXlXlXlXlXlXlXlXlXlXlXlXlXlXlXlXlXlXlXlXlXlXlXlXlXlXlXlXlXlXlXlXlXlXlXlXlXlXlXlXlXlXlXlXlXlXlXlXlXlXP x , :.5. .A 6 # # 4.=X4.A l , j 5.U.Q.Q.s.rXyXrXrXs.+.[ :.P k k R k l l > o o * * * > > > > 4 4 > , , , 5 , , , , , , , , , , , , , , , , , , , , , , , , , , > > > > > > > > > > > > > , , > > > > > > > > > > , , , , , , , , , , , > , , , , , , , , , > > > > > > > > * * , , , > > > > * * * > > * * * * * % * * * % % % * * * * % % % % % , J j k R E Q Q W z J %.W W -.H.F.2.*.A ..9.q.q.t.#.> o , j 7 , % W Y.-.R P %.4.u.a.a.a.a.u.@.;.t.t.t.t.u.4.%.G F G G :.",
"l * 5.=.G { &.:.4.t.t.t.4.;.&.*.;.t.p.p.t.t.t.@.o.A z Q P.J * > 5 j 5 # 6 4.t.t.t.@.A F 2.-.W W W W =.G g j R k k k P s a R k $ % % , , , , , i i , , , , , 5 5 5 5 , , , , , , 5 5 5 5 5 5 5 5 5 5 5 g j 7 5 , , g g g g g g i , , i , , , , , i i g g g g 5 5 7 7 7 7 7 g g g g g g g , , , , , , , g g g j 7 5 , , , , 5 , , , 5 i i i g , , , , , , 5 5 5 5 5 5 g 5 5 5 5 7 7 , , , , , l ;.A J =.R F =.5.[ A y.y.i.s.a.u.t.&.:.*.5 > 7 J %.W.o.. > A #.;.4.%.a k k lXlXlXlXlXlXlXlXlXlXlXlXlXlXlXlXlXlXlXlXlXlXlXlXlXlXlXlXlXlXlXlXlXlXlXlXlXlXlXlXlXlXlXlXlXlXlXlXlXlXlXlXlXlXlXlXlXlXlXlXlXlXlXlXlXlXlXlXlXlXlXlXlXlXlXlXlXlXlXlXlXlXlXlXlXlXlXlXlXlXlXlXlXlXlXlXlXlXlXlXlXlXlXlXlXlXlXlXlXlXlXlXlXlXlXlXlXlXlXlXlXlXlXlXlXlXlXlXlXlXlXlXlXlXlXlXlXlXlXlXlXlX% x k , *.4.] A 0 * > t.uX:.{ A g j 5.W.Q.i._.rXrXrXeXa...{ :.R z k Z z z %.l * * , , , , , 7 7 j j j g g 5 5 5 7 7 7 g g g i 5 g g j j j j 7 j j j l l j g i g g g j j j l l l l l g 5 5 i g g g g g l l l g g g g i g j l j j g j j i g , g 7 7 7 7 7 g j g g 7 7 7 7 0 0 7 5 5 , 5 5 , , , 5 g 5 , , i g , i , , i i , , i i : i , , , i , , , , l %.l j Z P P P R l J %.=.-.-.:.2.5.:.A ] q.q.t.t.#.# # 5 j 7 > % =.R.x.P R W &.4.a.a.a.a.u.4.;.4.t.t.u.t.;.%.R J G J *.",
"l = 5.:.{ %.*.;.4.t.t.t.t.4.X.X.4.t.t.t.t.t.t.t.@.[ z Q P.J * > 5 7 5 # 6 t.u.t.,.#.A =.2.-.=.%.P W %.F g j R x P k k a , P R , , , i j j j j k x P P P R R E P R P P P P P P Z Z J J J R P F Z Z J F G G J l Z J G X.X.X.%.%.W G $.$.F J A S { X.%.%.&.&.&.&.o.o.#.@.o.;.:.&.&.&.&.&.&.%.%.G G G G G { X.X.&.o.X.%.K G { X.%.%.{ G %.%.%.%.%.*.*.*.*.%.W W W G J F R R R E R P F Z Z z k l S ;.A J =.=.%.:.7.{ ] y.i.s.a.a.u.u.*.:.&.5 > 7 A %.7.[ X > 0 #.;.5.%.p d s lXlXlXlXlXlXlXlXlXlXlXlXlXlXlXlXlXlXlXlXlXlXlXlXlXlXlXlXlXlXlXlXlXlXlXlXlXlXlXlXlXlXlXlXlXlXlXlXlXlXlXlXlXlXlXlXlXlXlXlXlXlXlXlXlXlXlXlXlXlXlXlXlXlXlXlXlXlXlXlXlXlXlXlXlXlXlXlXlXlXlXlXlXlXlXlXlXlXlXlXlXlXlXlXlXlXlXlXlXlXlXlXlXlXlXlXlXlXlXlXlXlXlXlXlXlXlXlXlXlXlXlXlXlXlXlXlXlXlXlXlXlX% k k , { ;.] A 0 > 4 y.iX5.*.%.l l 5.W.y.y._.rXrXeXqXa...{ 2.E R k P J l { G g g j z Z Z J k k z k Z J J J Z k Z Z Z R P P P Z F G G K =.=.K F F W W $.R G G %.=.=.$.*.*.1.*.*.o.*.&.{ X.o.*.*.*.&.&.*.:.:.*.%.%.%.%.%.%.%.%.&.&.=.%.G G R P P R J J R P R J J J J J G R W F Z P P P Z Z Z F P W G F G G J J J F J Z Z k k J z z J G J J l j z k j *.*.l z Z x x x k l J *.2.5.5.5.7.7.4.S ..q.q.p.t.@.> # , g 5 > % W :Xx.P W %.;.t.p.a.a.a.u.t.4.4.t.t.u.t.;.*.%.R R G :.",
"A * 5.:.X.X.&.;.4.t.t.p.u.t.;.o.4.t.p.t.t.p.t.t.;.[ l W P.J > > 4 7 4 # 4 4.u.,.+.] A %.2.2.5.4.X.G G K j j R P P x k i , Z R s i i j k k k z k x P P P R Q -.Q E P I E E Q Q R R R R R =.-.W L L P W =.W G F R %.*.4.4.4.5.5.5.5.5.5.2.*.*.4.4.y.i.y.y.5.5.4.4.t.t.t.t.y.y.y.y.y.y.y.i.7.5.5.2.5.5.:.5.5.4.4.5.5.5.*.4.5.5.4.5.5.*.5.7.7.7.7.7.7.7.7.7.5.5.5.5.*.1.2.5.5.2.:.2.-.E R k k z o.;.l J =.:.5.5.7.{ A y.y.s.s.a.a.u.*.:.&.5 > j A %.5.A X > 0 [ o.:.$.p c k lXlXlXlXlXlXlXlXlXlXlXlXlXlXlXlXlXlXlXlXlXlXlXlXlXlXlXlXlXlXlXlXlXlXlXlXlXlXlXlXlXlXlXlXlXlXlXlXlXlXlXlXlXlXlXlXlXlXlXlXlXlXlXlXlXlXlXlXlXlXlXlXlXlXlXlXlXlXlXlXlXlXlXlXlXlXlXlXlXlXlXlXlXlXlXlXlXlXlXlXlXlXlXlXlXlXlXlXlXlXlXlXlXlXlXlXlXlXlXlXlXlXlXlXlXlXlXlXlXlXlXlXlXlXlXlXlXlXlXlXlXlXlXk k , [ ;.] A 0 * * t.iX5.*.%.j l 5.i.y.y.rXrXrXqXs.a.#.{ :.Q R x P J g l $.k z k Z R R P W W -.-.-.2.5.P.H.2.-.-.2.H.H.H.H.-.-.2.5.5.5.5.2.W W 2.2.W W W =.*.=.=.:.5.i.5.5.4.y.5.4.4.;.4.y.y.4.4.4.y.y.y.5.4.*.*.5.5.4.4.4.4.5.5.:.*.%.*.Q -.-.=.W -.-.-.Q E E Q 2.2.2.H.2.Q Q m.m.Q Y Q Q 2.-.=.W R %.%.R G R R E E R R R J G G %.G z j j k k z :.J g z J k x P J l S :.5.U.U.U.7.5.*.A ..@.q.q.q.#.> # 5 g 5 > % W :XF.P *.4.t.t.a.a.a.a.a.u.4.4.t.u.u.t.t.4.&.%.$.G 5.",
"A * 5.:.X.X.o.@.t.t.t.t.u.u.t.t.q.t.p.p.p.p.q.q.@.S l W P.J > > 4 5 > o 4 4.t.,.+.] A G 5.2.5.y.4.X.X.X.l k R I P P k g > g E P p k x P P P P P P R P Z R :.P.-.E R R E Q Q -.E R %.R %.:.H.-.E P W -.-.-.R R Q -.-.2.5.U.U.2.:.2.3.2.2.=.1.5.5.y.i.Q.W.7.5.4.5.y.i.y.4.5.7.U.W.W.W.W.U.5.2.2.2.2.2.5.7.5.5.5.U.U.2.=.:.5.U.5.5.5.:.2.5.U.W.U.U.5.5.5.U.7.7.y.7.5.5.5.W.i.7.7.7.5.=.E R P R 4.o.l J G =.5.U.7.{ A 5.y.i.s.s.s.u.*.*.&.5 > j A %.5.[ X > 0 ] #.*.E t l.P lXlXlXlXlXlXlXlXlXlXlXlXlXlXlXlXlXlXlXlXlXlXlXlXlXlXlXlXlXlXlXlXlXlXlXlXlXlXlXlXlXlXlXlXlXlXlXlXlXlXlXlXlXlXlXlXlXlXlXlXlXlXlXlXlXlXlXlXlXlXlXlXlXlXlXlXlXlXlXlXlXlXlXlXlXlXlXlXlXlXlXlXlXlXlXlXlXlXlXlXlXlXlXlXlXlXlXlXlXlXlXlXlXlXlXlXlXlXlXlXlXlXlXlXlXlXlXlXlXlXlXlXlXlXlXlXlXlXlXlXlXlXlXk k , [ @.] A 8 # * 4.uX5.%.J , g 5.Q.i.s.dXyXrXqXs.s.#.$.:.E x x P k , 5 z x k k P R R E -.2.5.5.5.7.W.U.P.5.2.2.2.P.P.I.P.F.:.:.5.U.P.P.P.-.H.I.H.E E Q 2.H.-.=.:.W.W.7.:.5.Q.i.7.5.5.y.i.i.7.7.y.i.i.i.i.5.-.-.5.7.5.7.i.i.W.2.P.U.2.2.=.:.:.:.:.:.2.m.Q E E Y ^ 3.2.2.^ Y Q Q m.H.x.F.F.2.2.:.-.W -.:.-.=.W Q Q Q -.-.-.R =.=.=.J k k k k Z -.5.l g z k k x P R l S :.P.U.U.U.5.*.&.A ] @.9.9.9.#.# # 7 g 7 , % W /.F.=.5.u.a.a.s.qXa.t.u.u.4.t.u.a.a.t.t.4.*.%.%.G 5.",
"A > 4.:.X.X.o.@.t.t.t.t.t.u.u.u.t.t.t.q.t.t.t.,.o.J l W U.J > > 4 5 > # 4 @.,.@.+.#.A W 2.1.5.i.5.4.%.%.C k E I I P k g > , P R s s x x x d x x d P P s x E -.E I P I I I E E P P P R P R Q E P P I E E E P P P E W -.5.P.2.-.W Q 2.Q Q W =.=.*.5.7.Q.U.2.-.=.5.7.7.5.*.*.5.P.P.P.U.U.P.-.Q -.-.-.-.-.5.2.=.-.P.P.:.W -.2.5.2.2.2.2.-.-.H.U.P.P.2.2.H.P.P.5.P.P.P.5.2.2.5.P.P.-.W E E R R =.4.A A G J R :.2.7.X.] y.i.i.i.i.y.t.=.*.&.5 > j J X.i.o.+ * 9 A ] &.R t v.P . lXlXlXlXlXlXlXlXlXlXlXlXlXlXlXlXlXlXlXlXlXlXlXlXlXlXlXlXlXlXlXlXlXlXlXlXlXlXlXlXlXlXlXlXlXlXlXlXlXlXlXlXlXlXlXlXlXlXlXlXlXlXlXlXlXlXlXlXlXlXlXlXlXlXlXlXlXlXlXlXlXlXlXlXlXlXlXlXlXlXlXlXlXlXlXlXlXlXlXlXlXlXlXlXlXlXlXlXlXlXlXlXlXlXlXlXlXlXlXlXlXlXlXlXlXlXlXlXlXlXlXlXlXlXlXlXlXlXlXlXlXlXv k 5 { ;.] 0 4 o * 4.uX4.X.J 5 g 4.~.=XyXaXyXrXqXqXs.#.$.-.E v x x k , = z x k s k x P R R E Q Q -.-.:.-.Q Q Q Q Q Q x.x.Q E E Q Q -.-.F.F.Q H.J.x.P P I Q Q Q E :.U.U.5.-.:.U.5.5.5.5.7.5.5.5.5.7.7.7.7.U.2.Q Q -.2.2.5.5.U.5.-.H.H.-.-.Q Q Q Q Q E E I x.J.c.I Y Q Q Q Y m.x.Y z.x.x.Q Q Q Q Q E P W W W E E E I I E Q R P E W P k s s s d Z 5.=.g j k J R R R R l D 2.P.P.:.:.-.W %.A ..@.q.q.q.#.# # 7 l 7 , % R /.F.=.4.t.p.0XqXqXa.t.t.t.4.t.u.a.a.t.t.4.&.%.%.$.5.",
"A > 4.;.[ o.@.@.4.t.t.t.u.u.t.t.t.a.t.t.t.t.t.;.X.J z =.U.R > > 5 7 5 # 6 @.t.,.,.#.A G 1.5.i.i.*.=.=.%.z k P x P x x g > , k R p p s d x x x P m I I P P I E E I I I I I Y E I R E R P I Y Y P U P P P R P P P R W :.5.2.:.W W -.-.-.2.-.=.=.*.5.W.U.U.5.2.*.*.4.5.4.*.:.5.P.P.U.U.U.P.:.-.:.-.-.-.:.5.:.=.-.P.P.2.-.-.-.:.2.:.2.2.-.-.2.P.P.5.2.2.5.5.2.2.3.H.P.H.2.H.H.H.H.F.Q E R J R :.;.l A J J F =.:.5.o.A y.i.i.y.5.4.:.=.*.&.5 > j J o.i.@.# * 6 A A o.R t l.P . lXlXlXlXlXlXlXlXlXlXlXlXlXlXlXlXlXlXlXlXlXlXlXlXlXlXlXlXlXlXlXlXlXlXlXlXlXlXlXlXlXlXlXlXlXlXlXlXlXlXlXlXlXlXlXlXlXlXlXlXlXlXlXlXlXlXlXlXlXlXlXlXlXlXlXlXlXlXlXlXlXlXlXlXlXlXlXlXlXlXlXlXlXlXlXlXlXlXlXlXlXlXlXlXlXlXlXlXlXlXlXlXlXlXlXlXlXlXlXlXlXlXlXlXlXlXlXlXlXlXlXlXlXlXlXlXlXlXlXlXlXlXv k 5 { ;.] l 4 o # t.uX4.o.A g j 4.~.yXyXaXyXrXqXqXa.#.{ -.E P s k z , * z P k k k x P E Q Q x.x.Q Q F.x.x.x.x.x.x.x.Q Q Q E Q Q Q Q Q Q Q Q H.m.x.Q E E Q Q Q -.:.P.U.5.:.:.5.5.5.7.5.5.5.5.5.5.7.7.7.7.5.2.Q W -.2.5.5.5.7.5.2.2.-.-.-.Q Q Q Q Q Q I m c.T.Z.l.M Y z.b.M.J.x.I z.m.m.Q Q Q Q Y E R W -.-.-.Q E P R R Q Q P W E W R P k k P W 5.g , j k Z Q -.E P l J 2.2.-.Q Q E W %.A ] ,.t.t.t.#.# # 7 j 7 5 * G /.:.%.;.t.t.s.0Xs.a.u.t.t.t.t.t.u.a.u.4.:.&.&.&.%.5.",
"A > 5.:.[ o.;.;.4.t.u.u.u.t.t.t.t.t.u.u.u.t.4.&.%.J z =.U.J * > 5 7 5 # 6 4.u.t.t.@.] G 1.4.5.5.=.E W W z k P x x P P g 5 5 z R j i i i i i i i a s a a a j z j k j a a j j j j g g l z z k j j j j g i , 5 g g j l A J z l l l l l J J J l l l S %.%.G G J l l l 0 l l l J J R W W R G z z z l l z l z l l l A G J z j g l l A J J z z z J J J z z l l l l A J J J J J J J J J J l j g J &.{ 5 J F F R :.:.5.o.A y.Q.Q.y.:.:.:.*.4.*.5 > j A @.i.o.+ * 5 A  .o.J p I P . lXlXlXlXlXlXlXlXlXlXlXlXlXlXlXlXlXlXlXlXlXlXlXlXlXlXlXlXlXlXlXlXlXlXlXlXlXlXlXlXlXlXlXlXlXlXlXlXlXlXlXlXlXlXlXlXlXlXlXlXlXlXlXlXlXlXlXlXlXlXlXlXlXlXlXlXlXlXlXlXlXlXlXlXlXlXlXlXlXlXlXlXlXlXlXlXlXlXlXlXlXlXlXlXlXlXlXlXlXlXlXlXlXlXlXlXlXlXlXlXlXlXlXlXlXlXlXlXlXlXlXlXlXlXlXlXlXlXlXlXlXlXx s , o.4.#.A 6 # # t.uX4.o.[ 7 j 4.=XyXrXyXrXrXrXqXs.#.G Q I P s x z 5 5 j k j i i a j z J J J J z z J J J z z z k j j l z l J J J J J J J J Z z Z z l l z Z Z J J J G J z l l l J S S J J J J G G S S J z l j j l l J J G A J J J l l l z l l l j k k a k P P s i i a k Z Z z j z J Z Z z z z k j j g l J z z k j l z z J z z z z z z l j j J G , 7 g z Z E Q E R z F -.2.H.Q W W =.=.D ] ,.t.t.t.#.# # 5 5 5 > * F Y.-.R ;.4.t.u.a.a.s.u.t.t.u.t.t.u.a.t.;.:.=.&.%.$.5.",
"A > 5.;.[ X.o.o.@.4.t.t.t.t.t.t.u.t.t.u.u.t.;.$.R J k E P.J * > 5 7 5 # 8 t.s.a.u.4.#.G 2.2.=.-.=.W W R Z k R x x x Z j 5 5 j 5 * o o o o . o o o o o o o * * * % % o o o + X X X + # # # * * # # # # + o X # # # * * * * * * # # * * * # # # * > > > > > ; * # # # # # * > > > 4 4 4 4 * * * * * * * * * * > > > > * # # # # * * * * * * > > > > > * # * * > 4 4 4 4 4 4 4 4 > * # # # * 5 5 5 J G G *.5.y.y.o.A y.i.i.i.5.:.*.*.5.&.5 > j J o.t.#.X # 5 A #.o.J i P k o lXlXlXlXlXlXlXlXlXlXlXlXlXlXlXlXlXlXlXlXlXlXlXlXlXlXlXlXlXlXlXlXlXlXlXlXlXlXlXlXlXlXlXlXlXlXlXlXlXlXlXlXlXlXlXlXlXlXlXlXlXlXlXlXlXlXlXlXlXlXlXlXlXlXlXlXlXlXlXlXlXlXlXlXlXlXlXlXlXlXlXlXlXlXlXlXlXlXlXlXlXlXlXlXlXlXlXlXlXlXlXlXlXlXlXlXlXlXlXlXlXlXlXlXlXlXlXlXlXlXlXlXlXlXlXlXlXlXlXlXlX% k s , o.4.#.] 6 # * t.uXy.&.{ j j 4.~.=X_.rXrXyXs.qXs.o.{ F.E P k k z j , > * % o o o o o # # * * * * * 4 4 * * # # # # # # # * * * * * > * * * # * * * * * * * > 4 > > > * * * * * > > > > > > > > > > * * * * * * * * > > > ; ; * % o o # # # o o o % * * * o o X X o o o # # # # * * % o # # % o # o # # * * * * * * * * * * % * % % * o o * * > l g j J Z P P R z J =.2.2.2.2.1.2.*.J ] @.t.q.,.#.# * 5 , 5 > * J I.E P *.;.t.t.a.a.s.s.t.4.y.t.u.i.t.4.*.:.=.=.%.R 5.",
"A > 5.*.[ X.o.#.@.4.t.t.t.t.t.t.a.u.t.u.u.t.;.&.R k k R 5.J > > 5 7 5 # 6 4.s.s.u.4.#.G 5.-.-.-.-.Q W P k a E P R P k g * % * o X o # # # # * * > ; > > > > > 5 5 4 4 4 4 4 4 4 4 4 4 4 4 4 4 4 4 4 4 2 > > > 4 4 4 4 5 5 5 4 4 4 4 4 4 4 4 4 5 8 7 6 6 6 6 8 4 4 4 4 4 4 6 6 9 0 0 0 9 8 8 8 6 4 4 6 6 6 6 6 6 6 6 4 4 4 4 4 4 4 4 4 4 6 8 6 6 6 6 6 6 6 6 6 6 6 6 6 6 6 6 6 6 4 4 4 # X X o , l G %.5.i.~.~.o.A t.4.5.y.i.y.:.*.5.&.5 , 7 J  .4.#.X # 4 A #.*.J a P J o lXlXlXlXlXlXlXlXlXlXlXlXlXlXlXlXlXlXlXlXlXlXlXlXlXlXlXlXlXlXlXlXlXlXlXlXlXlXlXlXlXlXlXlXlXlXlXlXlXlXlXlXlXlXlXlXlXlXlXlXlXlXlXlXlXlXlXlXlXlXlXlXlXlXlXlXlXlXlXlXlXlXlXlXlXlXlXlXlXlXlXlXlXlXlXlXlXlXlXlXlXlXlXlXlXlXlXlXlXlXlXlXlXlXlXlXlXlXlXlXlXlXlXlXlXlXlXlXlXlXlXlXlXlXlXlXlXlXlXlXlXlXk s , &.4.#.] 6 # * 4.uX4.&.{ j j 5.Q.Q.s.yXrXyXs.s.s.#.J Q I P x k j , o X . X + # # # # 4 4 4 4 6 6 6 6 8 6 6 4 4 4 4 4 4 4 4 8 6 6 5 5 6 6 4 4 4 6 6 4 4 4 8 6 7 6 6 8 8 8 8 5 5 4 4 4 4 5 5 6 8 8 6 8 4 4 4 4 4 4 4 4 4 6 4 4 4 4 4 4 * * > * * > > > > * * * * * * # # # * * * > > ; * * * * * > * * * > > > > > > > > # # * * * * * * * # * > l j j J Z Z R $.J F 1.2.2.5.5.5.5.*.A ] t.q.q.@.#.# # 5 5 5 , * z I.E J &.4.t.u.u.u.s.s.u.4.4.t.u.i.5.*.=.=.=.W R R 5.",
"l > 4.;. .o.o.@.4.4.4.4.t.u.t.p.a.a.a.t.t.t.t.;.%.z z J 5.J > > 8 l 7 # 4 ;.u.t.,.@.#.W 5.2.2.2.:.=.=.W Z i P R E Q R j * % % o # # * * * * * > > > * > * > > > > > > > > > > > > > > > > > , > > * * * * * * # * * > > > , 4 > > > > * > > > > 5 5 5 5 5 > > > > > > > > 4 5 7 7 g j 7 7 8 8 5 5 5 5 5 5 6 6 7 7 5 5 5 , , > > > > > 4 4 8 4 4 4 4 4 4 > > > > > > > 4 5 4 4 4 4 4 4 > * * * 5 l X.%.7.~.=X~.o.A t.4.t.i.i.i.5.*.5.o.5 > 7 A o.y.@.+ # 4 A  .o.J i R J % lXlXlXlXlXlXlXlXlXlXlXlXlXlXlXlXlXlXlXlXlXlXlXlXlXlXlXlXlXlXlXlXlXlXlXlXlXlXlXlXlXlXlXlXlXlXlXlXlXlXlXlXlXlXlXlXlXlXlXlXlXlXlXlXlXlXlXlXlXlXlXlXlXlXlXlXlXlXlXlXlXlXlXlXlXlXlXlXlXlXlXlXlXlXlXlXlXlXlXlXlXlXlXlXlXlXlXlXlXlXlXlXlXlXlXlXlXlXlXlXlXlXlXlXlXlXlXlXlXlXlXlXlXlXlXlXlXlXlXlXlX% Z s , &.;.#.A 8 o # 4.yX4.o.{ l l :.7.5.i.rXrX_.s.a.t.] A W x x k P z , % X # > 4 4 6 6 6 0 0 0 0 0 0 0 l l j j j 7 7 7 7 5 5 5 7 7 7 7 7 7 5 5 5 5 4 4 > > > 4 4 5 > > > > > > > > > * * * > > > > * * * * * * * * * > > > 4 > > > > > * * * * > > > > > > > > > * * * % % * * ; > > , , * * * * * * * * * ; > , 4 5 5 5 4 > > > > > > > 4 5 > 4 * , g z P P P R %.J G 1.1.4.5.y.5.5.:.J S 4.,.+.@.#.# # 5 5 7 , % l Y.Q J *.t.y.s.s.s.s.s.u.t.4.4.y.i.5.*.=.=.R R P G 5.",
"l > 5.;.o.o.o.4.t.t.4.4.t.u.u.a.a.a.t.t.t.t.u.4.;.S z J 5.J > > 7 l 7 # 6 @.t.,...] ] G 5.5.U.W.5.=.*.*.J i F R P E P j 5 5 * % > % * % % o o o # o # # % * * * * % % % o o % % % % % * * * * * * o o o % % % * * * % % * * * * * * % * * * * * * * > > * % % % % o % % * * * > = = = = * * * * * * * * ; > > , , > * * * * * > > > > > * * * * * * * * * > > > > > > , , > * * * * * * * > > j l X.%.5.W.Q.Q.{ A t.4.t.i.s.s.y.*.4.o.4 > 7 A o.i.@.+ # 4 A [ X.z i R J % lXlXlXlXlXlXlXlXlXlXlXlXlXlXlXlXlXlXlXlXlXlXlXlXlXlXlXlXlXlXlXlXlXlXlXlXlXlXlXlXlXlXlXlXlXlXlXlXlXlXlXlXlXlXlXlXlXlXlXlXlXlXlXlXlXlXlXlXlXlXlXlXlXlXlXlXlXlXlXlXlXlXlXlXlXlXlXlXlXlXlXlXlXlXlXlXlXlXlXlXlXlXlXlXlXlXlXlXlXlXlXlXlXlXlXlXlXlXlXlXlXlXlXlXlXlXlXlXlXlXlXlXlXlXlXlXlXlXlXlXlX% k s 5 &.4.#.A 8 o # 4.uX4.{ A j j =.5.*.t._.rX_.s.s.t.] S :.P k k R J l 5 ; * > > > > > > 5 5 5 5 5 5 5 5 5 5 , > > * > > > * * * > > , , * * * * * ; > * * * * ; > > > > > > > % * * * * * ; > , , , > * * * * * * * > > > * , , * * * o * * * * * * > > > > > > * * % ; % % * * * * * * * * * * * % * > > > > > > > > > > > 5 > > > > > > > 4 > * g j z E R R E %.A S 1.4.4.4.y.y.5.*.J J o.@.#.+.#.# # 5 5 7 , * l Y.E J ;.t.s.s.s.s.a.a.s.u.4.4.y.i.5.*.*.=.=.R R G 7.",
"l > y.4.o.o.@.4.t.u.t.t.u.u.t.u.p.p.p.p.t.p.t.t.4.o.J F 5.G > 4 7 l 8 + 4 @.t.,.#.] A G 5.5.7.7.5.*.*.o.A g G R J P x i j l = $ , , , , , , , , , , 5 5 5 5 5 5 g g , , , , i i , , i g g g g g 5 , , , , 5 5 , , 5 5 g g g 5 5 7 g 5 5 7 7 g g j j j j 7 7 7 < < 5 7 g g g j j j g g 7 , < < , 5 5 7 7 g j j 7 5 5 5 5 5 7 7 7 7 g 7 7 5 7 7 j 7 7 7 g j j j j g g g g g 5 5 5 5 , , , , * > A l X.*.=.*.5.y.{ [ t.t.t.a.s.s.4.*.4.[ > > j J o.i.@.X # 6 A  .o.l r P k $ lXlXlXlXlXlXlXlXlXlXlXlXlXlXlXlXlXlXlXlXlXlXlXlXlXlXlXlXlXlXlXlXlXlXlXlXlXlXlXlXlXlXlXlXlXlXlXlXlXlXlXlXlXlXlXlXlXlXlXlXlXlXlXlXlXlXlXlXlXlXlXlXlXlXlXlXlXlXlXlXlXlXlXlXlXlXlXlXlXlXlXlXlXlXlXlXlXlXlXlXlXlXlXlXlXlXlXlXlXlXlXlXlXlXlXlXlXlXlXlXlXlXlXlXlXlXlXlXlXlXlXlXlXlXlXlXlXlXlXlX. % Z s , *.4. .A 5 # # 4.uX4.G l 5 5 =.5.5.i.yXyXyXrXs.p.]  .5.P k Z R J z l , * > > > , , , 5 5 5 5 5 5 5 7 7 7 5 , , 5 7 7 7 7 5 5 j j 7 7 7 5 5 5 7 7 g g g g 7 7 7 7 7 g g g g g g g j l l l j j l l j 7 7 g g g j j j j j j l j i , , , 5 5 5 5 5 g g j j j g g 5 , 5 5 5 5 5 5 5 7 7 5 5 5 7 5 5 7 7 g 5 5 5 5 , 5 , , , , 5 5 , , , > > > > > , G z k -.-.Q -.%.l A 1.4.4.4.y.5.5.*.Z j A #.@.@.#.> # , , 7 > * z !.-.J :.t.a.a.a.0Xa.a.a.a.t.4.4.t.6.4.4.4.*.R G G 7.",
"l > y.4.o.o.@.,.t.u.t.u.u.t.@.;.t.p.t.p.t.t.t.t.4.o.J P P.G , 4 7 l 8 # > @.u.u.4.#.A J 5.2.5.4.*.*.*.o.A i F Z k x x i g J , % , , i g i i g j j j j j j j j l l k k a j j k k j j j l l l l l k k k j j j j i i g l J J z l l z z z l l z J J J J A A J J J J J J J Z A J J A J J J z l l l l z z J J J A A A l l l l l l l l l l l A l l z z l l l J J z l l l l l l l l j j j g g g g , 7 o.l S *.%.R :.7.{ [ t.u.u.a.s.y.4.*.4.[ > > l S o.y.@.X # 6 A #.o.l r x z . lXlXlXlXlXlXlXlXlXlXlXlXlXlXlXlXlXlXlXlXlXlXlXlXlXlXlXlXlXlXlXlXlXlXlXlXlXlXlXlXlXlXlXlXlXlXlXlXlXlXlXlXlXlXlXlXlXlXlXlXlXlXlXlXlXlXlXlXlXlXlXlXlXlXlXlXlXlXlXlXlXlXlXlXlXlXlXlXlXlXlXlXlXlXlXlXlXlXlXlXlXlXlXlXlXlXlXlXlXlXlXlXlXlXlXlXlXlXlXlXlXlXlXlXlXlXlXlXlXlXlXlXlXlXlXlXlXlXlXlX. % P d , W *.J l 5 o # 4.uX5.G l , 5 =.7.7.s.yXrXyXrXeXa.] [ 2.R k R P z i z l * , 5 g g g g g g j l l l l l l l j 7 j l l l l z l l z z J J l l l J J l l z J J J J A J J J J J J Z Z J J J J A A A S S S A A J J l l A J J J J J z k k z z l j g g g g g g g j l l g g g g j j j j l j l l l l l l l l g g g g g g g g g , , , , , , , , , , , , , l =.z j =.-.Q =.{ l A *.4.4.4.4.5.5.*.Z 7 l ] @.@.#.> # , , 7 > * z /.-.R :.4.t.a.a.0Xa.a.a.a.t.4.4.t.t.u.y.4.;.$.G $.7.",
"l , y.4.o.o.@.,.t.t.p.a.u.4.X.*.t.u.t.t.t.t.p.t.;.{ J P P.G , 4 8 l 7 # > @.u.u.t.@.A J 2.2.5.*.*.*.*.X.A , R P k d x a , J z , , i g j j a p a k k k k k z k z k k k k k k z z Z Z J G G G F J z J R R Z k k k Z J J G R W W F F R E W W W W W %.%.&.=.&.*.=.=.=.=.%.$.%.%.=.%.$.R %.$.J J J J P R R $.$.=.=.%.G G G R R R G G { %.*.&.o.{ &.=.W R R =.$.$.$.$.$.R F R %.&.{ A l l z j g 7 [ 4.l A %.R =.5.5.G A y.i.u.a.s.s.y.*.4.[ > , l A o.y.@.X # 6 A #.o.l i P k lXlXlXlXlXlXlXlXlXlXlXlXlXlXlXlXlXlXlXlXlXlXlXlXlXlXlXlXlXlXlXlXlXlXlXlXlXlXlXlXlXlXlXlXlXlXlXlXlXlXlXlXlXlXlXlXlXlXlXlXlXlXlXlXlXlXlXlXlXlXlXlXlXlXlXlXlXlXlXlXlXlXlXlXlXlXlXlXlXlXlXlXlXlXlXlXlXlXlXlXlXlXlXlXlXlXlXlXlXlXlXlXlXlXlXlXlXlXlXlXlXlXlXlXlXlXlXlXlXlXlXlXlXlXlXlXlXlXlXlXlX. & P P r P R k j 5 o # t.uX5.$.z 5 5 &.5.7.~.yXrXtXrXeXa.] [ :.R Z Z R k , z { , , g j j k z z J J J G G G G D J J J Z z J J G R J J J J R J J J J R R G G R $.%.%.%.{ X.%.%.%.$.R R W W %.%.$.$.{ { { X.&.&.%.%.%.{ { &.&.&.%.G R J R E =.%.F Z z z z J J l l J Z Z l l l l C A l l l l l J J l l J A A z l z z z l j z j j g g l g , , g i , , , g R =.i j G P R %.G l A 4.4.4.4.5.5.5.*.J l A #.@.@.#.> # 5 5 7 > % l !.-.%.4.4.t.a.a.a.a.a.a.u.4.4.t.4.4.t.y.t.;.%.G $.y.",
"l > y.4.o.o.@.4.t.a.a.a.u.4.o.4.t.u.t.t.p.p.p.t.@.{ J R H.J , > 8 l 7 * 4 4.i.u.4.o.A k 5.3.5.*.*.*.X.X.l , P P x d d a , l P j i g j k k k k k k k k k P P P R k k x P P P k R R P R =.2.=.W P P P R R P P P P W W R R %.:.2.-.R E -.2.2.2.2.2.:.=.5.7.U.5.5.5.5.5.5.5.5.W.7.5.:.:.5.5.:.-.-.:.:.:.:.:.5.5.5.5.5.:.-.-.-.-.W =.:.5.y.5.4.*.5.5.:.=.=.2.:.*.:.7.7.2.=.:.7.U.5.%.J J J z j l *.;.j A R P =.5.P.J A y.i.i.s.s.s.i.5.5.{ > , l J &.y.4.X # 6 A [ X.z i R k lXlXlXlXlXlXlXlXlXlXlXlXlXlXlXlXlXlXlXlXlXlXlXlXlXlXlXlXlXlXlXlXlXlXlXlXlXlXlXlXlXlXlXlXlXlXlXlXlXlXlXlXlXlXlXlXlXlXlXlXlXlXlXlXlXlXlXlXlXlXlXlXlXlXlXlXlXlXlXlXlXlXlXlXlXlXlXlXlXlXlXlXlXlXlXlXlXlXlXlXlXlXlXlXlXlXlXlXlXlXlXlXlXlXlXlXlXlXlXlXlXlXlXlXlXlXlXlXlXlXlXlXlXlXlXlXlXlXlXlXlXlX& P P t x P s j , % * t.uX5.$.J 5 7 *.5.7.s.yXrXtXrXeXa.] S 2.E P P P z , j =.z j j z J R R W W =.=.*.*.:.=.W W W -.Q R R W :.2.-.-.=.-.:.-.-.E Q -.-.-.-.:.5.5.5.:.*.5.U.U.U.:.W W -.2.2.2.:.:.*.:.:.5.5.:.:.:.*.*.:.:.5.5.*.%.R P R -.2.2.R R R W W -.2.*.%.W W W R P U R W R R G J z J R R J z J R J J R %.$.R J J Z z k k Z J k k k k k j g i z =.W , j G J P W G l A *.5.7.5.:.2.2.=.J A #.@.q.q.#.* # 7 7 7 > % j Y.-.W 4.t.t.s.s.s.s.s.u.t.t.t.t.4.4.t.y.t.;.%.$.R 7.",
"j , y.4.G %.;.4.t.a.p.p.t.t.4.t.u.t.t.t.t.p.p.t.o.A J R H.J , * 5 l 7 * 4 4.u.4.@.[ A J 5.H.-.-.=.X. .X.j i P I I I x s = g R P i a k k k k k k P P P P R E I R k k x P P P P R Q W W -.2.-.W P P P R R E R P R Q Q E R =.:.5.:.R P Q H.H.H.P.P.:.=.2.Y.Y.H.-.:.5.U.5.5.U.Q.U.:.-.H.P.P.:.-.-.-.H.2.2.P.P.P.2.2.P.H.-.-.Q Q -.:.5.5.y.7.7.:.5.5.2.-.-.:.:.-.2.U.U.5.2.:.5.U.5.=.W R J k k R 5.[ 7 Z G J R :.P.J A 4.t.u.s.s.s.i.5.7.&.> , l J %.5.@.+ # 6 l A R z i E z lXlXlXlXlXlXlXlXlXlXlXlXlXlXlXlXlXlXlXlXlXlXlXlXlXlXlXlXlXlXlXlXlXlXlXlXlXlXlXlXlXlXlXlXlXlXlXlXlXlXlXlXlXlXlXlXlXlXlXlXlXlXlXlXlXlXlXlXlXlXlXlXlXlXlXlXlXlXlXlXlXlXlXlXlXlXlXlXlXlXlXlXlXlXlXlXlXlXlXlXlXlXlXlXlXlXlXlXlXlXlXlXlXlXlXlXlXlXlXlXlXlXlXlXlXlXlXlXlXlXlXlXlXlXlXlXlXlXlXlXlXlX& P d r x I x j , o # t.iX5.$.J 5 5 *.5.5.i.rXrXrXrXeXp.] [ 2.E R P Z z , , E P k j k Z R R P W -.:.2.2.:.W R E Q -.Q R P Q I.I.H.H.H.H.H.H.x.Q Q Q Q 2.2.H.P.K.P.-.2.U.Y.Y.P.F.E E F.I.I.H.H.H.P.5.5.U.P.=.-.:.:.:.:.5.U.U.2.=.W W E Q :.:.E Q Q Q 2.H.I.2.-.Q m.! z.b.! Y E W W E R R P Q Q P P P R P P R -.-.E E k k k k k x k x k k k k s a j R 2.J , l G J R W G l A *.2.5.2.Q :.2.=.J  .4.q.q.q.@.# * 7 7 6 4 * j Y.Q P :.t.p.s.qXs.a.s.4.4.t.t.t.4.4.t.i.t.;.&.$.R 5.",
"j , y.:.G %.o.;.4.t.t.t.t.4.4.4.t.u.t.t.t.t.t.4.&.J z R H.G > > 4 0 7 * 4 4.t.,.+.] l R 2.-.W -.-.W G G j a E I E I x s , , G R i r p s s s s s s x k k P P P k k k k P P s k P R R P W =.R R R E P P P P P R E E E E E -.-.2.-.E E Q x.F.H.H.H.-.Q H.P.P.H.-.-.-.2.2.P.P.P.H.H.F.H.H.H.-.Q E E Q -.H.H.H.-.Q Q -.I.H.E P I Q -.:.:.5.5.5.:.-.-.-.Q Q -.W W -.P.P.H.2.-.-.:.-.-.-.W R k Z =.:.l 7 D J k R -.5.G A 4.t.u.s.s.s.i.5.7.&., , j J F 4.o.+ # 6 l J R k r E lXlXlXlXlXlXlXlXlXlXlXlXlXlXlXlXlXlXlXlXlXlXlXlXlXlXlXlXlXlXlXlXlXlXlXlXlXlXlXlXlXlXlXlXlXlXlXlXlXlXlXlXlXlXlXlXlXlXlXlXlXlXlXlXlXlXlXlXlXlXlXlXlXlXlXlXlXlXlXlXlXlXlXlXlXlXlXlXlXlXlXlXlXlXlXlXlXlXlXlXlXlXlXlXlXlXlXlXlXlXlXlXlXlXlXlXlXlXlXlXlXlXlXlXlXlXlXlXlXlXlXlXlXlXlXlXlXlXlXlXlXlXlX: P d r d I k j 5 o # t.iX5.G J , 5 *.5.5.t.s.s.rXrXs.a.] S :.R Z k k z , , Z P k s s k P P P R Q -.H.-.-.E R P E Q Q E P E x.F.Q F.H.x.Y Y x.x.Y U Y Y -.H.I.H.H.-.H.P.P.H.H.Q E Y Q H.H.H.F.-.:.:.2.P.2.Q Q -.-.-.-.-.H.H.-.-.E E E E -.-.Q E I Q x.H.m.U Q b.n.h.j.j.h.U Y P P P P P I E I I P P P P P P E Q E R x k x v x P v P P x d s u p k :.-.j , z J Z P W { l A *.-.2.-.Q -.2.W J [ 4.t.q.q.#.# * 7 7 7 4 * j R.Q Z %.4.u.s.s.s.a.t.4.4.4.t.t.t.u.a.u.4.:.%.$.R 5.",
"z = 5.*.F R X.o.;.t.t.u.t.4.4.4.4.t.t.t.t.t.4.*.R J z R 5.G > > 4 6 6 * 4 4.u.,.+.] l P -.Q R Q -.=.F F j p E U P P x z , > J R a i i s s k k k d P P P I I I P P P I I I d m P I I E Q -.E E Q Q E I Y E E Q Q Q Q Q Q -.F.2.:.Q Q -.-.-.-.-.:.:.:.2.P.P.5.:.:.:.2.2.P.U.P.P.P.H.H.P.P.H.2.2.-.-.H.P.P.H.2.2.2.H.U.P.-.Q F.Q -.-.:.5.P.U.5.2.2.2.2.2.:.:.:.2.P.P.5.2.:.H.2.:.2.2.:.=.E W 2.*.0 5 J J k R :.5.S A 4.t.u.s.s.i.i.5.7.*., > g z J :.o.# # 5 l z R k r R k lXlXlXlXlXlXlXlXlXlXlXlXlXlXlXlXlXlXlXlXlXlXlXlXlXlXlXlXlXlXlXlXlXlXlXlXlXlXlXlXlXlXlXlXlXlXlXlXlXlXlXlXlXlXlXlXlXlXlXlXlXlXlXlXlXlXlXlXlXlXlXlXlXlXlXlXlXlXlXlXlXlXlXlXlXlXlXlXlXlXlXlXlXlXlXlXlXlXlXlXlXlXlXlXlXlXlXlXlXlXlXlXlXlXlXlXlXlXlXlXlXlXlXlXlXlXlXlXlXlXlXlXlXlXlXlXlXlXlXlXlXlX& P x r d I k j 5 o # t.iX5.G z , 5 &.5.5.y.s.s.s.s.s.u.A A =.P z k Z z , , J Q P k Z P E Q Q Q Q -.-.-.-.Q R R Q m.m.Q E Q -.2.2.H.H.H.^ Q H.I.H.Q 2.2.H.P.P.P.P.P.P.U.U.P.I.H.H.-.H.I.P.P.P.P.P.U.U.U.P.5.5.2.2.:.-.-.-.-.Q Q E Q Q Q H.H.m.Q Y m.N.N.N.m.K.L. X'.'.'.b.Q Q Q Q E E E E Q Q Q Q E E E R R E Q Q R k k P P P P E P P P x k s s E 5.W , g z z k R W %.l A =.:.2.-.W -.-.=.J ] @.q.q.q.#.# * 7 j 7 4 * j R.Q P =.:.4.i.s.s.s.y.4.4.4.t.t.u.s.a.t.:.*.%.R R 5.",
"z = 5.*.P R R %.;.y.y.u.t.t.4.4.4.t.t.p.p.t.*.G R z z P 5.G > > 4 6 6 # 4 t.u.,.+.] l P -.-.W W -.-.W R j s E P k x k z , , J %.J z z l z k k k s s k k k k k k k s s s s s s s s s k Z Z k j j s s s s Z k Z Z Z L F F R R F G J J J J G G G G X.%.%.&.&.$.G G J G R $.R G G R R J J J J J J J J J J J J J J J D G G J Z Z J G G { %.*.*.=.%.%.W %.%.X.X.X.$.{ %.%.{ G $.%.%.&.=.=.%.R =.:.*.A l Z R E -.5.7.[ A u.u.a.s.s.i.5.5.7.;., > g z J :.*.* * 5 l z E x r P p lXlXlXlXlXlXlXlXlXlXlXlXlXlXlXlXlXlXlXlXlXlXlXlXlXlXlXlXlXlXlXlXlXlXlXlXlXlXlXlXlXlXlXlXlXlXlXlXlXlXlXlXlXlXlXlXlXlXlXlXlXlXlXlXlXlXlXlXlXlXlXlXlXlXlXlXlXlXlXlXlXlXlXlXlXlXlXlXlXlXlXlXlXlXlXlXlXlXlXlXlXlXlXlXlXlXlXlXlXlXlXlXlXlXlXlXlXlXlXlXlXlXlXlXlXlXlXlXlXlXlXlXlXlXlXlXlXlXlXlXlX$ & P c t x I k i , o # 4.uX:.J z & 5 &.5.7.i.s.s.i.i.y.t.A A -.R J k k z 5 j %.R J l j l z Z R G F J J J J Z j a k Z Z Z k z J J J J J J Z z z J J J J F G G G J J S J J J J F F D J J F G G G G A A G A A A J J J J J J J G F Z Z Z Z P W E P Z Z Z L L n i j a Z Z Z n n j j j l z z z z z z z Z z k J J k Z J J z i i j Z Z Z Z Z Z Z k z z Z W *.l , 7 l l z P =.%.l A =.2.5.:.=.=.:.=.J A @.q.p.p.@.# > l l 7 4 * l Y.Q P W &.4.y.s.s.s.i.5.4.4.t.t.a.eXa.;.%.%.$.R R 5.",
"A > 5.2.P R %.%.*.4.4.4.t.u.u.t.t.t.a.p.p.t.&.F J v R P 5.X.4 > 4 6 6 # 4 t.u.q.#.] 0 Z 2.5.*.=.W Q -.E k p E P P P Z z 5 , j 5 % o o . . . . . . . X X X . . X X     . . . . . . . . X X   . . X . . . . . . . . . . . . . . . . . . . . . X X o o o o o X . . . . . . . . . . . o . . . . . . . . X . . . . . . . . o o X . o o X o o o X . . . . . . . .     . . . X . X o o o # * % % , 7 0 J J R =.5.U.7.[ A a.a.a.s.i.y.:.:.7.&.> > j z J *.o.* * 5 j z E P r x i $ lXlXlXlXlXlXlXlXlXlXlXlXlXlXlXlXlXlXlXlXlXlXlXlXlXlXlXlXlXlXlXlXlXlXlXlXlXlXlXlXlXlXlXlXlXlXlXlXlXlXlXlXlXlXlXlXlXlXlXlXlXlXlXlXlXlXlXlXlXlXlXlXlXlXlXlXlXlXlXlXlXlXlXlXlXlXlXlXlXlXlXlXlXlXlXlXlXlXlXlXlXlXlXlXlXlXlXlXlXlXlXlXlXlXlXlXlXlXlXlXlXlXlXlXlXlXlXlXlXlXlXlXlXlXlXlXlXlXlXlX$ : I I t I I k 7 , % # 4.;X=.J z & , &.5.y.s._.s.i.y.t.t.A G 5.Q F Z Z J 7 5 j * o X . . o o . . . . . . . X X . X X o X . . . . . . . .         . . . X X X X . . . . . . . . . . . . . . . . . X X X X . . . . X   . . . . . X . . . . o o o o o o . .         .   . . . . . X . . . . . . . . . . . . . . . . .       . o o o . . . . . . . o ; > * , l Z J R E -.%.l A 2.P.5.5.2.1.:.=.J ] @.t.p.a.@.# > l l 7 4 * l Y.Q k R %.4.y.s.s.s.s.y.5.y.t.t.a.s.u.;.%.%.R R E U.",
"A > y.5.R R %.=.*.4.4.4.u.a.a.u.p.p.p.p.t.t.;.%.R v k P 5.X.5 4 5 6 8 1 6 t.a.q.+.] 0 R 5.5.5.1.W W W R j a Q E E P Z Z g * o .   . . o o o o o X X + # + o X X + + + + # # X # # # # # + # # # * # # # * 4 4 > 4 2 2 # * * # # * * * * * * * * * * * * * * * * * > > > * > > > > > > > > > > > > > > > > > * * * * * > > > > > > > > > > * > > > * * > > > * > > > > ; * * * * * * # o . . o * g k J =.5.U.y.[ A s.s.s.s.y.5.:.5.y.o.> > g l J :.o.% * 5 j J $.x w x a $ lXlXlXlXlXlXlXlXlXlXlXlXlXlXlXlXlXlXlXlXlXlXlXlXlXlXlXlXlXlXlXlXlXlXlXlXlXlXlXlXlXlXlXlXlXlXlXlXlXlXlXlXlXlXlXlXlXlXlXlXlXlXlXlXlXlXlXlXlXlXlXlXlXlXlXlXlXlXlXlXlXlXlXlXlXlXlXlXlXlXlXlXlXlXlXlXlXlXlXlXlXlXlXlXlXlXlXlXlXlXlXlXlXlXlXlXlXlXlXlXlXlXlXlXlXlXlXlXlXlXlXlXlXlXlXlXlXlXlXlX$ r E l.d I P k j 5 o # 4.iX*.J l , , { 4.i.s.yXs.s.y.y.y.[ { 2.Q W R P J 5 o X . . X X X o o * * * # # # # # # * * * * * * * * * * * * * # # # * * * ; * * * * > * * * # * * * * > > > > > > > > > * * # * * * > > > * * * * * * * 2 * 4 4 * * 2 * * * * * # * * ; * * # # # * # o o o o o o X o o o o % o o o o o o # # # # # o o o o . o o o X X   # 5 z Z v P E W G l A -.2.2.5.5.5.5.*.J ] @.t.p.p.@.# > l j 6 4 * Z !.Q Z %.:.t.i.i.s.s.i.y.y.s.s.u.t.u.t.4.*.%.R R R U.",
"A > y.5.R W %.*.4.4.4.t.u.a.a.p.p.p.a.a.t.t.4.=.E R z P U.%.5 4 5 7 6 * 6 u.a.t.@...0 J :.5.y.5.=.R F F j i Q W E P R J 5 % o * > > , , 5 5 , 5 , , , 5 , , , , , , 5 5 5 5 , , , , , 5 5 5 5 5 4 4 > 5 5 , 5 5 4 4 4 4 4 4 4 4 5 5 5 5 5 5 8 7 7 7 7 7 5 5 5 5 5 7 5 5 5 5 5 5 4 4 4 5 8 8 5 8 7 8 5 5 5 5 8 5 5 5 8 7 7 7 8 7 7 6 6 7 7 8 5 7 7 7 7 7 6 6 7 7 7 8 6 7 6 6 6 7 7 6 6 6 4 5 > 4 j J J R 5.W.i.[ A i.s.s.i.t.5.5.W.Q.;.> > 5 j J *.o.# > 7 z G $.k r P k $ lXlXlXlXlXlXlXlXlXlXlXlXlXlXlXlXlXlXlXlXlXlXlXlXlXlXlXlXlXlXlXlXlXlXlXlXlXlXlXlXlXlXlXlXlXlXlXlXlXlXlXlXlXlXlXlXlXlXlXlXlXlXlXlXlXlXlXlXlXlXlXlXlXlXlXlXlXlXlXlXlXlXlXlXlXlXlXlXlXlXlXlXlXlXlXlXlXlXlXlXlXlXlXlXlXlXlXlXlXlXlXlXlXlXlXlXlXlXlXlXlXlXlXlXlXlXlXlXlXlXlXlXlXlXlXlXlXlXlXlX$ r Q l.f I P z l 7 o # t.iX4.G l , > [ 4.y.s.yXs.i.5.y.t.S G 2.Q W W E J , o . * * > 4 4 5 5 5 5 , , > > 5 > , 5 5 5 7 7 5 5 5 8 8 5 5 5 4 4 5 7 5 5 5 5 5 5 5 5 5 5 4 4 4 5 8 8 8 5 5 5 5 5 5 5 4 4 > > 4 5 5 , 5 5 5 5 5 5 > > > , 5 7 7 7 7 7 < , , , > > > > , > > > > > 4 > > > > > > > > , 5 5 5 , , , , > > , , , , , , , > , > > > > > * * * % 5 j k x x R R F l J W W :.5.y.y.5.*.A ] q.p.p.p.@.# > l 7 6 4 > J !.Q J *.5.y.i.u.a.s.s.u.u.s.s.i.t.t.5.5.*.=.E E P 5.",
"G > y.5.R %.&.4.t.t.t.t.t.p.p.p.p.t.u.u.u.t.4.&.$.J J F U.o.4 4 5 7 6 2 6 u.s.t.,.#.l z :.5.7.2.W E P J g , -.E R P W z , o % * * ; > , , , , , , , 5 5 5 , , 4 4 > , 5 5 5 , , , 5 5 , > > > > > > > # # * > * # * * # # # # * * > > > * > > > 4 4 > 4 4 4 4 > > > > * * * * * * * * > > > 4 4 > > > > > > > > > > > > > > 5 5 4 > > > > > > > > > 4 4 4 4 4 4 4 4 4 > 4 4 4 4 4 5 4 4 > 5 > 7 l J J G :.5.i.[ A s.s.s.u.4.5.5.U.W.&.> * 5 j k :.o.o * j J R E k r P k $ lXlXlXlXlXlXlXlXlXlXlXlXlXlXlXlXlXlXlXlXlXlXlXlXlXlXlXlXlXlXlXlXlXlXlXlXlXlXlXlXlXlXlXlXlXlXlXlXlXlXlXlXlXlXlXlXlXlXlXlXlXlXlXlXlXlXlXlXlXlXlXlXlXlXlXlXlXlXlXlXlXlXlXlXlXlXlXlXlXlXlXlXlXlXlXlXlXlXlXlXlXlXlXlXlXlXlXlXlXlXlXlXlXlXlXlXlXlXlXlXlXlXlXlXlXlXlXlXlXlXlXlXlXlXlXlXlXlXlXlXlXr E l.t P $.] l 5 o % y.iXy.{ l = , o.4.y.s.=Xs.y.4.5.4.S D 2.Q P R E z 5 > X # * > > > > > , > > > > > > > * > > > > > > > * > > > * * * * > > > > * * * * * * * * * * # # * > * > * * * * * * * * # # # * ; * * * * * * * * * * * * > > 5 > > > > > ; * * * * * * * * # # # * % % % * * # * > * * * > > * * * * > * * > , > > > = * > * * * * o * o , j k x x x k z l J W I Q 5.i.y.5.*.A ] t.p.e.t.#.# > l 7 7 4 > Z !.E J %.4.t.u.a.s.s.a.a.a.a.s.s.i.i.t.4.=.W R x Z 2.",
"G > y.5.W &.;.t.y.i.t.4.t.t.t.t.p.a.u.u.t.t.t.*.%.{ J R U.X.> * 8 l 6 * 6 a.s.t.t.o.A R 5.:.-.Q R R P J g , =.R P R W j , , . . o o o * * * * * * * * * * # # # # # # * * * % % * * * * * * * * * * * # * * * % # # # o o # # o % * * * * * # # # # * * * # # * * * * # o # # # # o o # # * * * * > * * * * * * * * * * * * * > > * * * * * * * * * * * * * * * * * * * * * * * * * * * * * , l j J G G *.y.i.o.A i.i.i.i.y.5.:.P.7.o.> * , l R 5.o.# * j z R E k t P k $ lXlXlXlXlXlXlXlXlXlXlXlXlXlXlXlXlXlXlXlXlXlXlXlXlXlXlXlXlXlXlXlXlXlXlXlXlXlXlXlXlXlXlXlXlXlXlXlXlXlXlXlXlXlXlXlXlXlXlXlXlXlXlXlXlXlXlXlXlXlXlXlXlXlXlXlXlXlXlXlXlXlXlXlXlXlXlXlXlXlXlXlXlXlXlXlXlXlXlXlXlXlXlXlXlXlXlXlXlXlXlXlXlXlXlXlXlXlXlXlXlXlXlXlXlXlXlXlXlXlXlXlXlXlXlXlXlXlXlXlXlX, E I f R *.#.A 8 # * t.iXy.o.l * > o.4.t.i.~.i.5.5.:.&.A S 2.Q Z J R l g j * o o o # * * * * > > * # # # # # # # # * * * * * > ; * * * * # # * * * * * * * * * % * o o o o # * * * * * * * * * * * % % * * % % % * * * * % % o % * * * * * > > * * ; * * * % # * * * * * * % o o % % * # o o # # * * * * * * # o # # # # # # # # * % o o % o o o . % g k x P k s s Z l J Q Q Q :.5.7.5.:.J A ,.t.p.p.+.# > l j 6 > * z !.E J W *.4.u.a.a.s.s.s.s.a.i.i.u.u.t.4.4.=.R k k *.",
"{ > y.5.%.*.4.t.i.i.4.4.t.u.u.p.p.a.u.t.t.u.u.4.o.{ { $.W.o.* 2 7 l 6 * 8 t.p.t.q.#.0 J :.-.Q E E P P P g i =.W P R W z g { , % > > > 5 5 5 5 5 , , , > > 4 4 4 4 4 5 5 5 5 , , 5 5 5 7 7 7 7 7 j j 7 7 g g g 7 5 5 7 5 5 7 7 j j j l j l l l l l 0 7 l 0 0 7 j l g l j 7 7 7 7 5 5 5 5 7 l l j j l j g 7 7 7 7 j l l l l j j j j j j 7 7 7 7 7 7 7 7 7 l j 7 5 7 7 7 5 7 7 7 7 7 5 5 5 , , l %.j A G { :.i.~.#.l i.i.i.i.i.5.=.:.5.o.> # 5 A %.5.o.# > 5 l J R k i P k $ lXlXlXlXlXlXlXlXlXlXlXlXlXlXlXlXlXlXlXlXlXlXlXlXlXlXlXlXlXlXlXlXlXlXlXlXlXlXlXlXlXlXlXlXlXlXlXlXlXlXlXlXlXlXlXlXlXlXlXlXlXlXlXlXlXlXlXlXlXlXlXlXlXlXlXlXlXlXlXlXlXlXlXlXlXlXlXlXlXlXlXlXlXlXlXlXlXlXlXlXlXlXlXlXlXlXlXlXlXlXlXlXlXlXlXlXlXlXlXlXlXlXlXlXlXlXlXlXlXlXlXlXlXlXlXlXlXlXlXlXlXlXE I p >.:.o.] 6 X * u.iXi.o.l * 4 o.4.t.y.y.5.:.-.%.{ A S 5.W Z J R z j A j > * > , 5 5 5 5 7 j g 7 7 6 6 8 8 7 0 l l l l l l l 7 j j 7 7 l l l j l l l l l l l l j 7 7 7 7 l l l l l l l 7 7 5 5 j l l g 7 7 j j g 7 7 7 7 7 7 7 j j j j l l l j g , , 5 , , , 5 5 5 5 5 5 5 , , 5 5 5 5 5 5 5 5 5 5 5 5 5 , > 5 4 4 4 4 5 5 5 5 , > > > * * * % j J k k P x k P R z z Q x.x.-.-.-.-.-.J A @.t.q.t.#.> > l l 6 4 * Z !.W J W *.4.u.a.a.a.s.s.s.s.t.t.u.u.u.y.5.*.R J k *.",
"{ > y.5.%.*.4.t.i.t.4.4.y.i.p.p.a.a.a.t.t.u.a.4.o.{ { R U.%.* * 8 7 6 * 4 t.u.t.@...0 j -.Q x.l.I I P R l g =.E P E E Z g :.l , g g g l z j z J R z z j j l l z z l l J J J J J G G G G G R R R %.G J J F P R P P J J A G { %.%.%.%.*.*.*.:.5.5.4.*.X.&.*.*.*.*.=.W W W W %.%.G G { S A G { %.%.$.%.R G G K G G %.*.&.&.%.%.$.=.=.=.$.%.X.{ { X.X.X.X.%.&.&.%.%.{ G G { $.%.{ S A z l j j j =.=.g l G %.5.Q.~.[ l i.s.s.s.i.5.$.:.5.o.; * 7 A =.5.o.# > 5 l A $.k i R k $ lXlXlXlXlXlXlXlXlXlXlXlXlXlXlXlXlXlXlXlXlXlXlXlXlXlXlXlXlXlXlXlXlXlXlXlXlXlXlXlXlXlXlXlXlXlXlXlXlXlXlXlXlXlXlXlXlXlXlXlXlXlXlXlXlXlXlXlXlXlXlXlXlXlXlXlXlXlXlXlXlXlXlXlXlXlXlXlXlXlXlXlXlXlXlXlXlXlXlXlXlXlXlXlXlXlXlXlXlXlXlXlXlXlXlXlXlXlXlXlXlXlXlXlXlXlXlXlXlXlXlXlXlXlXlXlXlXlXlXlXlXlXR c k -.t.o.] 6 o * u.dXs.o.j > 4 o.t.y.5.5.=.-.W E $.A S 5.-.R J R z g J G g , < l A A J J R R R E W K { { $.%.=.=.W =.=.=.%.%.%.R G G G %.%.%.%.*.=.%.%.=.%.%.%.$.{ G { { { %.*.*.*.*.*.X.J J J %.%.W G G %.%.%.%.%.%.%.%.%.R R $.%.&.*.*.*.&.%.W F Z Z Z Z j l l J J J J l l l l z z z J J z z z J z z J J J J l l l l l l l j j i i i i i , , R F a k P x P R W z J Q x.x.Q E E Q Q J ] o.9.9.q.#.> > l l 7 4 * J !.W J %.;.t.a.a.a.u.i.s.s.a.u.t.i.s.u.y.4.;.X.J J :.",
"$.> y.5.W %.;.4.t.t.4.4.y.u.u.p.a.s.a.t.u.a.a.4.@.{ J R U.%.> * 5 7 4 # 6 t.u.t.@.] 0 l -.E I I I I P R j g W R R Q W z , %.G a a k k k k k P P P P P x k Z k P P Z P P P P J P R R R R W Q Q -.=.W E E Q Q Q Q Q E P R :.:.:.-.=.=.2.:.2.5.7.7.5.5.*.5.5.*.*.=.=.Q Q Q -.2.-.=.*.*.=.=.=.=.:.:.:.-.-.=.=.=.:.:.2.*.&.%.*.-.*.:.H.F.:.*.4.5.5.:.&.%.*.5.5.5.5.5.5.5.*.:.:.:.*.%.G J z z k Z 5.R , l { W *.U.W.A A t.i.s.i.i.5.%.:.7.o.* * 7 A %.y.o.# > 6 l S { k r P k $ lXlXlXlXlXlXlXlXlXlXlXlXlXlXlXlXlXlXlXlXlXlXlXlXlXlXlXlXlXlXlXlXlXlXlXlXlXlXlXlXlXlXlXlXlXlXlXlXlXlXlXlXlXlXlXlXlXlXlXlXlXlXlXlXlXlXlXlXlXlXlXlXlXlXlXlXlXlXlXlXlXlXlXlXlXlXlXlXlXlXlXlXlXlXlXlXlXlXlXlXlXlXlXlXlXlXlXlXlXlXlXlXlXlXlXlXlXlXlXlXlXlXlXlXlXlXlXlXlXlXlXlXlXlXlXlXlXlXlXlXlX: E I x =.;.] A 5 # * t.dXi.[ 7 > 4 o.y.y.5.*.E E R E $.l S 5.-.R P R z , l %.k i i j J P P P Q x.x.Q Q -.-.-.Q Q Q Q H.H.-.-.2.5.:.-.-.:.-.=.=.=.:.:.2.:.:.:.:.:.-.:.:.*.*.=.=.:.5.5.5.5.5.=.J J E =.=.R R =.=.*.*.=.=.=.=.=.=.W W %.=.*.*.1.4.*.%.R E Y Y m.^ P s Z W W P P J k z z z R R z z R R R P P P E Q R P Z J J J k k k P k s s s u i i k =.z , z P x P Q W z J Q Q x.Q E E Q W J ] #.@.@.@.+.* > l l 0 4 * J !.W J =.4.u.s.a.u.u.i.s.s.a.u.i.s.s.s.t.4.o.X.J J 2.",
"R > 5.5.R R &.:.4.t.4.4.u.u.u.u.a.a.a.p.a.p.t.4.o.{ J R P.K > * 5 0 6 # 6 t.u.q.@.] 0 J :.E P I I I P R j i W E E Q Y z , A =.k s s k k k k P P x P I I I E P P P P P P P P P E Q x.x.x.Q Q x.Q E E E E E Q x.m.x.E R W :.:.:.-.W W 2.2.5.P.U.U.P.5.U.U.5.5.:.-.W I Q F.H.2.=.=.:.:.:.5.:.-.:.2.:.-.2.H.2.2.2.P.5.=.%.=.:.:.2.H.H.H.H.5.W.W.7.:.=.=.:.5.5.5.2.5.U.U.:.:.2.5.:.=.R J z k z P :.j , l G G R 5.U.J A t.t.t.i.i.5.4.:.5.X.* * j J %.y.;.o > 7 A [ o.z r P k $ lXlXlXlXlXlXlXlXlXlXlXlXlXlXlXlXlXlXlXlXlXlXlXlXlXlXlXlXlXlXlXlXlXlXlXlXlXlXlXlXlXlXlXlXlXlXlXlXlXlXlXlXlXlXlXlXlXlXlXlXlXlXlXlXlXlXlXlXlXlXlXlXlXlXlXlXlXlXlXlXlXlXlXlXlXlXlXlXlXlXlXlXlXlXlXlXlXlXlXlXlXlXlXlXlXlXlXlXlXlXlXlXlXlXlXlXlXlXlXlXlXlXlXlXlXlXlXlXlXlXlXlXlXlXlXlXlXlXlXlXlX: R I k %.o.] l 5 # # 4.dXt.A j * > o.y.y.5.=.E E R R J l S 5.-.-.=.R z , l %.k a i j J R P P Y v.c.z.Q H.H.-.E E Q m.J.J.Q Q -.2.2.-.H.F.-.Q Q -.2.2.2.2.H.F.-.-.:.-.-.-.W P P W :.2.5.5.:.-.R P R E E E W =.-.-.-.-.-.Q -.-.-.W =.=.*.*.*.5.5.:.W P E ^ h.C.V.B N Y Q E R P P R J Z R R R J Z R P R P P P E Q I P P P P P P x x E P x s s s i a R %.g , j Z P P E E z J -.Q Q Q Q Q Q E l ] @.q.q.q.+.# > l l 0 4 * J !.E J %.4.i.s.s.u.t.u.s.a.s.u.u.u.s.u.t.4.*.G J J 2.",
"G * 5.5.R R &.*.4.y.y.4.t.a.u.u.a.u.p.p.p.t.t.@.o.G J P P.%., > 7 A 9 # 4 t.u.q.@...0 J :.R P I E E E R g , Q E E Q P k g z -.k s k k k k k P P x P I I d P P k Z P P P P P m I l.l.l.l.z.I I I P E x.x.I I x.x.x.E R Q -.-.-.Q R E -.-.-.2.2.2.:.-.2.5.5.:.2.-.Q P P -.P.:.%.*.:.:.:.5.-.P E -.Q E -.H.-.Q -.:.-.R W =.:.-.2.Q Q E Q 2.Q.W.7.:.=.=.:.2.5.2.2.2.5.2.:.-.:.5.:.W R k z k k R -., , A R P P P.!.G A 4.4.4.y.i.i.i.*.:.S * * j A &.W.;.X > 0 [ o.o.z r P k $ lXlXlXlXlXlXlXlXlXlXlXlXlXlXlXlXlXlXlXlXlXlXlXlXlXlXlXlXlXlXlXlXlXlXlXlXlXlXlXlXlXlXlXlXlXlXlXlXlXlXlXlXlXlXlXlXlXlXlXlXlXlXlXlXlXlXlXlXlXlXlXlXlXlXlXlXlXlXlXlXlXlXlXlXlXlXlXlXlXlXlXlXlXlXlXlXlXlXlXlXlXlXlXlXlXlXlXlXlXlXlXlXlXlXlXlXlXlXlXlXlXlXlXlXlXlXlXlXlXlXlXlXlXlXlXlXlXlXlXlX. & R I k =.;.o.[ 7 # > t.dXt.[ l 5 5 &.5.5.5.=.E -.Q E R A X.U.H.-.=.R z , g G k j i j R E I m m l.v.l.Q H.P.2.E E Y Q N.L.m.E Q -.Q E Q Q E E E ^ 2.Y E Q -.Q E E Q E E E E P P P R Q :.=.W R R P P R E -.-.W W Q Q Q E E E Q E W W =.=.=.=.*.2.=.P P U ! k.C.j.f.b.N.b.P P P P P Z P P Z J Z Z Z J R P R P E E I P P P P P P x x x d s s s i i k P G , , j Z P P E E Z J -.-.2.:.-.Q Q $.J ] 9.p.r.q.+.4 > l l 0 4 * J !.W Z R ;.u.s.s.u.t.u.s.a.s.a.t.t.p.u.t.4.*.G J R 2.",
"$.* 5.5.R %.*.*.:.5.4.4.u.a.a.a.t.t.u.a.u.t.4.;.o.%.J P J.-., > 7 l 7 * 6 t.t.@.#...0 A W E I E I I P R j i Q Y Q E P k , Z =.P s p s s x x P P d I I I I I I x P P P P I I I M g.g.v.g.g.g.I I I Y z.z.l.I I I I I I I I I I I I I I Y Q Q Q E Q Q H.H.H.H.F.Q E P I Q F.Q W =.:.:.-.-.Q E E Q x.x.x.x.x.E E Q E Q W Q -.-.Q E I I E -.P.5.2.:.-.-.-.-.H.H.H.H.Q Q -.-.-.-.-.Q P Z k k k E R i , G E J Q P.U.J A 4.4.t.y.i.i.i.*.:.A * * 7 l &.i.@.# 4 0 ] #.;.J : R z   lXlXlXlXlXlXlXlXlXlXlXlXlXlXlXlXlXlXlXlXlXlXlXlXlXlXlXlXlXlXlXlXlXlXlXlXlXlXlXlXlXlXlXlXlXlXlXlXlXlXlXlXlXlXlXlXlXlXlXlXlXlXlXlXlXlXlXlXlXlXlXlXlXlXlXlXlXlXlXlXlXlXlXlXlXlXlXlXlXlXlXlXlXlXlXlXlXlXlXlXlXlXlXlXlXlXlXlXlXlXlXlXlXlXlXlXlXlXlXlXlXlXlXlXlXlXlXlXlXlXlXlXlXlXlXlXlXlXlXlX. & P c k -.5.;.[ 7 o # t.iXs. .7 > 5 *.5.2.4.*.R -.-.R J J %.P.H.=.P R A > 5 J s s a k k P m m U Y Y Y Q Q H.Q E Q Q x.z.z.z.x.Q Q Y Y z.Y Y Q Q Q Q Q Q Q Q Q I I E E I P P P P P U Y E P P m m P m P I I Q E Y Y Y Q I P P P R R E E E W E P W =.R P Y b.k.k.k.k.k.k.f.I U P P P P x x x k Z P P P P P P P I P I I d x P P P x x x d d s p p p P R J , , a Z P I E W J A :.5.W.7.*.E =.=.l ] @.q.q.q.O.2 > l l 6 4 * J Y.W J R =.:.y.s.s.s.a.a.s.s.a.u.t.t.t.4.4.4.%.J Z :.",
"$.* 7.5.R %.%.:.:.:.;.4.u.a.a.a.a.t.t.a.a.t.t.;.o.X.J R I.-., > 5 l 7 # 4 q.t.@.+...0 J E E E Q Q I P R j i x.Y I P P Z , l =.E k j j k z z z z k k k k k Z Z z Z Z Z Z P P P P m m U I I P P P P P P P P Z Z Z Z Z Z P P P P P Z R P P P P R P P E Q Q -.-.-.E P P P P P P J G R R R R P R P P R Q Q Q E P P P P P R R W =.R P P P P %.%.%.%.%.W W W W -.:.:.-.=.-.-.=.=.=.W R G J Z z J E R g g J R E :.I.P.J A 4.4.t.y.y.y.y.*.:.[ * * g l { 5.o.# > 0 [ o.o.J i R J . lXlXlXlXlXlXlXlXlXlXlXlXlXlXlXlXlXlXlXlXlXlXlXlXlXlXlXlXlXlXlXlXlXlXlXlXlXlXlXlXlXlXlXlXlXlXlXlXlXlXlXlXlXlXlXlXlXlXlXlXlXlXlXlXlXlXlXlXlXlXlXlXlXlXlXlXlXlXlXlXlXlXlXlXlXlXlXlXlXlXlXlXlXlXlXlXlXlXlXlXlXlXlXlXlXlXlXlXlXlXlXlXlXlXlXlXlXlXlXlXlXlXlXlXlXlXlXlXlXlXlXlXlXlXlXlXlXlXlXlXo & P x k =.5.;.{ 7 # # 4.iXs.o.l , > o.5.*.*.:.E R P P G J W 2.Q W P R l , g G Z l l l l l j z Z Z P P P W W K R W W P P P R E R R P P R R R R E R P P P P P R Z J J z z z z z z Z Z Z F J Z k k k k k P R E R P P W R R J J J R J J F J J J k Z J L U U ! h.h.B ( h.( m Z Z k k z z z k k z z z z z k Z Z Z k Z P P k k k k k k k k s s s y a s P W Z , , j P P E Q W J S 5.5.y.5.*.=.=.%.l ] @.9.q.q.@.4 > 7 7 6 4 > J R.Q J R =.*.t.s.s.s.s.a.s.a.a.u.u.u.u.t.;.%.G J k -.",
"$.> i.7.$.%.%.*.:.4.4.t.u.a.a.a.a.t.t.u.a.a.u.;.X.S z R P.=., > 4 7 5 # 4 ,.t.q.#.] 9 l R E x.x.Q I P E j j x.I Y R P Z g l G l , * * * % * % % o o o o o o o o o o o o % % % $ o $ % % % $ % % % % % % % % % % % % % % % % % % % % % % % % % * % % % * , , , * * > % % % * * > * * * * * % ; % % = = = % % % % * , > > , , > > > , > > > > , , , , , , , , , , , , , , , , , , , > > , 5 l z g l R W -.2.P.P.G [ 4.4.t.t.y.5.4.*.5.X.> * g l G 5.o.# > 0 [ o.&.J i R P lXlXlXlXlXlXlXlXlXlXlXlXlXlXlXlXlXlXlXlXlXlXlXlXlXlXlXlXlXlXlXlXlXlXlXlXlXlXlXlXlXlXlXlXlXlXlXlXlXlXlXlXlXlXlXlXlXlXlXlXlXlXlXlXlXlXlXlXlXlXlXlXlXlXlXlXlXlXlXlXlXlXlXlXlXlXlXlXlXlXlXlXlXlXlXlXlXlXlXlXlXlXlXlXlXlXlXlXlXlXlXlXlXlXlXlXlXlXlXlXlXlXlXlXlXlXlXlXlXlXlXlXlXlXlXlXlXlXlXlXlX% & P x k %.4.;.{ 7 # # ;.yXy. .l , > { :.*.*.5.-.R P P G J R -.E E P P J j g j , , * * * o o o o % % % * * * ; ; > > * % % % % * * % % % = = * * * * * % o % % % % % % % % % % % % % % % % % % % % % % * * * * * * * * * % # % * * * * * * * % % % % ; : : : & & & & % % % o o o % % % % % % % % % % % % % % % % % % % % * * * * * % % % % % * , j Z l , , j Z P E Q W z S :.:.:.*.=.=.=.%.A ] @.9.q.t.@.* > 7 7 4 4 > R !.-.F %.=.:.y.s.s.s.s.a.a.a.a.a.u.a.s.t.&.G G J k -.",
"{ > i.5.$.%.&.*.;.t.i.a.a.a.a.a.a.a.u.u.a.s.u.;.{ S l P I.=.5 4 4 7 5 # 6 t.u.t.@.] 0 l R E l.x.Q E R R l a Q I E Q W J g , * % . o o o o o o o # o o # # # o o # # # o o o o o o o o o # # # o o o o o o o o o o # # * * * % * * * * * * * * * * % * * * * * * * # o o # * * * * * * * * * * * # # % % o # # * * * * # # # o o % % * * * * * > > * * * * * * * * * * * * * * * # # o X o o * , z =.2.5.5.H.P.G ] t.t.t.4.4.5.=.=.5.%., * g z R 5.X.* > 0 A  .*.J i P P lXlXlXlXlXlXlXlXlXlXlXlXlXlXlXlXlXlXlXlXlXlXlXlXlXlXlXlXlXlXlXlXlXlXlXlXlXlXlXlXlXlXlXlXlXlXlXlXlXlXlXlXlXlXlXlXlXlXlXlXlXlXlXlXlXlXlXlXlXlXlXlXlXlXlXlXlXlXlXlXlXlXlXlXlXlXlXlXlXlXlXlXlXlXlXlXlXlXlXlXlXlXlXlXlXlXlXlXlXlXlXlXlXlXlXlXlXlXlXlXlXlXlXlXlXlXlXlXlXlXlXlXlXlXlXlXlXlXlXlXlX$ & x x j %.;.o.[ 7 # * ;.~.4.A l , > [ 5.2.*.5.-.E R E G J F -.Q R R R R j > % $ $ o o # o # # # o o # # # # % # * # # # # # # * # # * * * * * # # # # # * * * % % * * * * * * o o o o o o # # % % % % * * # o o # # * * * # * * * * * * # o # # # o * % % * % % # o X + X o o o o o o % % % o o o o o # # # + + + + o o o o o o o # # o o o o # % % * 5 g k P I Q Q R l A =.=.=.=.:.:.=.%.l ` +.q.p.q.@.* > 0 7 6 4 > R !.-.R %.=.:.y.s.s.a.a.a.a.a.a.a.a.a.s.t.*.W G J J :.",
"{ , y.5.G %.&.%.;.t.s.a.a.a.a.a.a.a.u.u.u.a.u.4.o.[ l P I.=.5 4 4 7 5 # 6 t.t.q.@.] 0 Z Q l.I E Q Q E E g a Q I R E E J , % o * * * * > > > > > > > > 5 5 5 5 5 5 5 5 5 5 5 , , , 7 7 7 5 5 5 5 5 5 5 5 5 5 5 5 5 5 5 5 , , , , 5 5 5 5 5 5 7 7 7 7 7 7 7 8 5 5 4 > 4 5 5 5 5 5 5 5 7 8 8 7 8 5 4 5 5 5 5 4 5 5 5 5 4 4 4 4 5 5 5 5 5 5 5 5 7 7 7 7 7 7 7 7 7 7 7 0 0 7 7 7 7 6 6 4 4 > * o % , l W 2.5.5.P.P.G A t.t.t.t.y.:.=.-.5.&., , j J %.5.X.* > 7 A [ o.P p P k lXlXlXlXlXlXlXlXlXlXlXlXlXlXlXlXlXlXlXlXlXlXlXlXlXlXlXlXlXlXlXlXlXlXlXlXlXlXlXlXlXlXlXlXlXlXlXlXlXlXlXlXlXlXlXlXlXlXlXlXlXlXlXlXlXlXlXlXlXlXlXlXlXlXlXlXlXlXlXlXlXlXlXlXlXlXlXlXlXlXlXlXlXlXlXlXlXlXlXlXlXlXlXlXlXlXlXlXlXlXlXlXlXlXlXlXlXlXlXlXlXlXlXlXlXlXlXlXlXlXlXlXlXlXlXlXlXlXlXlXlX$ & Z k j X.;.#.A 7 * * 4.=X4.A j , > X.5.2.=.=.E R E W R J R H.Q W E Q J , % $ % % * > > > > > 4 > 4 5 5 5 5 7 7 7 7 8 5 5 7 7 7 7 7 7 7 7 6 5 4 4 4 4 5 5 5 5 5 5 5 , 5 5 5 5 , , > > 4 5 5 5 5 5 7 7 7 6 7 4 4 5 6 7 7 7 7 7 0 0 7 7 5 5 4 > > , , , 5 5 < , , , , > > > > > > > , , , , , , , > > > , , > , , , 5 5 5 5 5 5 , , , , , , , , , ; * * , , k R E E E P l J =.E -.-.:.-.=.R A ] +.q.p.q.@.4 > l l 6 4 > R !.:.R %.=.:.y.a.a.a.a.u.p.a.a.a.p.a.p.t.4.%.G F F 5.",
"{ > y.4.J $.&.&.:.t.a.a.a.a.a.a.a.a.u.u.t.u.u.4.o.[ A P I.=.5 4 8 l 6 # 6 4.q.@.#.] 0 J Q x.I I E Q Q E j a Q I R E P k : $ o # o % * * * * * * * * * * > > * > > > > > > > * > 4 > 4 > > > > , > > > > > > > > > > > > > > > > > > > * > > > , , , , , , , , > > ; > > > > , , , > > , > > > > > > > , > > > > > > > > > > > > > , , , , > , , 5 5 5 5 , , , , , , 5 5 5 5 8 8 8 5 5 4 4 * > g z F %.:.2.P.U.X.] u.y.s.i.y.5.-.:.5.:.5 , j J %.5.X.* > 7 A [ o.J p P k lXlXlXlXlXlXlXlXlXlXlXlXlXlXlXlXlXlXlXlXlXlXlXlXlXlXlXlXlXlXlXlXlXlXlXlXlXlXlXlXlXlXlXlXlXlXlXlXlXlXlXlXlXlXlXlXlXlXlXlXlXlXlXlXlXlXlXlXlXlXlXlXlXlXlXlXlXlXlXlXlXlXlXlXlXlXlXlXlXlXlXlXlXlXlXlXlXlXlXlXlXlXlXlXlXlXlXlXlXlXlXlXlXlXlXlXlXlXlXlXlXlXlXlXlXlXlXlXlXlXlXlXlXlXlXlXlXlXlXlXlX$ & Z k j o.4.#.A 5 * > 4.uX5.S j > > o.5.:.=.=.P P P E R Z R I.H.-.E E Z g , % % % % % % % * % * * * * ; > > > > > > > * * > > , , > > > 5 5 > > > > > > > > * * * * > * > , > * * % * > > > > > > > > > > > ; ; > > > > > > > , , , , , > > ; ; ; ; ; > > , , , > > > > > > > > * * * > > > > > > > > ; > > > > , , , , , , , * * ; ; > , , : ; ; * % , , k P P P P P j Z R R E E Q E >.R l ] +.9.q.q.@.4 4 A A 0 4 > R !.:.R $.=.:.t.a.a.a.a.a.p.p.a.a.u.t.u.u.4.*.K G F 5.",
"{ > y.*.J G X.=.:.t.s.s.a.p.a.a.a.a.a.u.u.t.t.4.*.o.J Z H.=.7 6 8 l 7 # 4 t.t.@.+...l F Q x.I I E E Q =.l s Q P W Q E L l , o X . . . X X X o o o o o o o o % o o o o % o o % % % o o o o o o % % % % o # * * * * * % * * % % % % % % % % % % % % % % % % * * % % & $ $ $ % * * * % % * * * % % % % % % % % o o % % % % # % # # * % * * * % % % % % % % * * * * * * * * * * * * * * * * * % 5 A W =.=.:.5.P.K.W ] u.i.s.i.5.:.-.:.7.:.5 5 j l R 5.o.* > 7 A o.@.R p x k lXlXlXlXlXlXlXlXlXlXlXlXlXlXlXlXlXlXlXlXlXlXlXlXlXlXlXlXlXlXlXlXlXlXlXlXlXlXlXlXlXlXlXlXlXlXlXlXlXlXlXlXlXlXlXlXlXlXlXlXlXlXlXlXlXlXlXlXlXlXlXlXlXlXlXlXlXlXlXlXlXlXlXlXlXlXlXlXlXlXlXlXlXlXlXlXlXlXlXlXlXlXlXlXlXlXlXlXlXlXlXlXlXlXlXlXlXlXlXlXlXlXlXlXlXlXlXlXlXlXlXlXlXlXlXlXlXlXlXlXlX$ & s k g o.t.o.A 5 # 4 t.iXy.S j , > ;.7.:.:.:.W P x E J l P H.H.H.Q E P J A , . o o o X o # # # * * * * * * * * * * * * # # % % * * * * % * * * * * * * % % % * * % * * * % % % % o % % * % % * * * * * * * * * # * * * * ; * * * * * * % % % % % % % % % % * * % * * % % * * * * * * % % * * * * % % # # # % % % * % * * * * % * # * % % * * % % % = J J z P P I P P j l E R P P E Q -.-.J A #.q.q.p.@.4 4 A A 0 8 , R !.=.J $.*.5.t.a.a.a.s.a.p.p.a.a.a.t.t.u.t.4.X.G J 5.",
"$., 7.*.G { %.X.;.y.i.u.t.a.a.a.a.s.s.s.a.u.t.4.o.] z J P.%.7 8 6 0 6 # 4 4.t.,.+...l J -.Q Q E E E E R l g E P P E E k k J & . % % % * % % % * % % % % % % % % % % % % * * % * * * * = = * * > > > > , , , , , 5 7 5 5 5 5 , , , , , , , 5 5 5 5 5 5 5 , 5 , , , , , , , , , , 5 5 5 g , , , , > , 5 5 5 > > > > > > > > > > > * * , , 5 , , 5 , , 5 5 > > , > > , , , > > > > * * > * * * 7 *.*.A =.2.2.H.I.R ] t.y.y.4.4.:.-.=.U.:., > j j P 5.o.# > 0 #.4.,.[ a x k lXlXlXlXlXlXlXlXlXlXlXlXlXlXlXlXlXlXlXlXlXlXlXlXlXlXlXlXlXlXlXlXlXlXlXlXlXlXlXlXlXlXlXlXlXlXlXlXlXlXlXlXlXlXlXlXlXlXlXlXlXlXlXlXlXlXlXlXlXlXlXlXlXlXlXlXlXlXlXlXlXlXlXlXlXlXlXlXlXlXlXlXlXlXlXlXlXlXlXlXlXlXlXlXlXlXlXlXlXlXlXlXlXlXlXlXlXlXlXlXlXlXlXlXlXlXlXlXlXlXlXlXlXlXlXlXlXlXlXlXlX$ & k k g &.4.@.] 6 % 5 y.=X5. .l , , *.5.=.*.i.5.:.E J A l Z H.m.Q E E Z g A G * $ o * * o * * * * * * * * * * * > > * * * % * * * , = * > , , > > 5 > > > > > > > > , * * * * * * % % * > > , > > > > , 5 5 5 5 5 5 7 5 5 8 5 5 7 5 , , 5 > > , , > > * * * * , , , > 5 , , > > > > , 5 , , , 5 > > > > > > > * * > , * * * * > > * * > , , , , , = k 2.R Z P P x.M.E g l L P I R E E Q -.A A @.q.p.p.@.4 4 A A 0 7 > J Y.Q J W =.5.t.p.a.s.s.a.a.a.a.a.u.u.t.4.4.=.R J J *.",
"$., y.4.G %.&.*.4.y.y.u.u.a.a.a.a.s.s.s.s.a.u.4.#.A l R P.%.5 8 6 0 6 + 5 t.u.t.+.] 0 z -.x.F.Q E I P z j i E U P W E a i Z i & , , 5 g g 7 j j j g g g j j j j z z z J J J z z z l J J z z J J J J G G G G J S G { G G G J J J G G G G { [ [ [ { { S { { { J G S J J J J J G { [ [ { { G G [ A A A S A A J A A A A A A A A l l l J J G G A A A S S { { { { S G %.G G G { { { J l l l j g 7 J *.S j G =.W Q I.W [ 4.y.y.5.5.5.:.*.5.*., > j z E 5.o.# > l @.t.,. .g x Z lXlXlXlXlXlXlXlXlXlXlXlXlXlXlXlXlXlXlXlXlXlXlXlXlXlXlXlXlXlXlXlXlXlXlXlXlXlXlXlXlXlXlXlXlXlXlXlXlXlXlXlXlXlXlXlXlXlXlXlXlXlXlXlXlXlXlXlXlXlXlXlXlXlXlXlXlXlXlXlXlXlXlXlXlXlXlXlXlXlXlXlXlXlXlXlXlXlXlXlXlXlXlXlXlXlXlXlXlXlXlXlXlXlXlXlXlXlXlXlXlXlXlXlXlXlXlXlXlXlXlXlXlXlXlXlXlXlXlXlXlX$ & Z Z g o.;.#...7 * 5 y.=X5.[ l , , %.:.=.5.i.7.5.=.G A l J I.x.E I I Z , l { j , , , g g j j j l z z l l l j j l l l l j j j l l l z z z A A A A A J J J J J J J J l j j l l l l l A l A A A G G G R G G R G G A S G G %.X.X.X.%.G G D S A A A l A A A A z J J J J J J J J A l l J A J l l A A J J A l l l J J J J J z l l l l J J l j g j a a g i Z :.Z k E P Y x.E g l R P P R Q E Q =.J A @.q.t.p.+.3 4 A A 0 6 , P I.Q P %.=.4.t.p.a.s.s.a.a.a.s.a.u.t.t.4.4.%.$.G J 2.",
"{ , y.4.G %.&.:.5.t.4.t.u.a.a.s.s.s.s.s.s.a.u.4. .l l R P.%.5 8 9 l 6 + 6 t.u.t.#.] 0 l -.x.F.Q E P P R j i Q I P E E i , J Z i , i i g j j z z j j k z k k k z J J P P P R R R J J G R F J R R E W W =.W P P %.*.*.&.%.%.=.W E R =.=.=.%.%.&.&.=.%.*.5.*.&.$.=.*.=.E R R $.&.;.;.:.:.&.&.*.&.%.%.%.=.$.G $.=.=.=.$.R %.=.%.=.W -.:.H.P.5.5.5.5.5.5.5.7.5.5.=.:.5.:.W =.:.2.=.J J J J Z z z %.*.l g %.*.Q m.J.=.A 4.4.5.5.y.5.:.:.5.=., > l z W 5.[ # > l #.4.,.#.g x Z lXlXlXlXlXlXlXlXlXlXlXlXlXlXlXlXlXlXlXlXlXlXlXlXlXlXlXlXlXlXlXlXlXlXlXlXlXlXlXlXlXlXlXlXlXlXlXlXlXlXlXlXlXlXlXlXlXlXlXlXlXlXlXlXlXlXlXlXlXlXlXlXlXlXlXlXlXlXlXlXlXlXlXlXlXlXlXlXlXlXlXlXlXlXlXlXlXlXlXlXlXlXlXlXlXlXlXlXlXlXlXlXlXlXlXlXlXlXlXlXlXlXlXlXlXlXlXlXlXlXlXlXlXlXlXlXlXlXlXlXlX$ & P P g { o.#.] 0 * > 4.=X4.[ l , , A %.*.y.y.5.7.=.o.[ j P I.m.P I Q P , 7 { J j , i z J J J R =.-.=.E W W W W W =.=.-.Q R R W =.W W -.=.-.-.:.:.:.-.P R W =.=.=.=.%.R R W W %.%.=.=.%.=.*.:.5.2.2.2.2.2.H.P.5.2.2.5.P.P.5.5.2.-.-.=.=.=.*.*.%.{ &.&.{ G R W E Z R W W E P J F R R R J Z Z J R R R R J J J P =.-.E R R R R R R R W R k s j a a i a Q E i k R P P I P g l W R R E -.E Q =.J A @.t.p.a.@.3 4 l A 0 6 , P Y.-.R =.=.4.t.p.a.a.a.a.a.a.a.a.a.t.p.t.4.*.X.{ G 5.",
"{ , y.:.{ %.&.;.4.4.;.4.u.i.a.a.s.s.s.s.s.p.t.;.o.A z J 5.%.5 8 0 A 6 + 6 t.t.@...] 0 l -.Q x.Q E E E E j a x.Y E E R a = z R j , i i i j k z z a k k x x x k k k P R R R R P P J P W W P Z P P R Q Q Q E P P -.2.:.*.=.=.-.Q W R W W =.=.%.=.*.=.=.-.5.:.E E -.-.Q E P R E =.:.5.5.:.=.=.:.=.=.=.=.=.W P W :.-.=.E E -.-.=.W Q Q F.H.H.H.2.5.5.5.5.5.5.2.2.=.-.P.-.E -.:.:.E P R R x k k J *.G 7 l &.:.2.L.R.W [ 4.4.4.y.y.y.5.:.5.=., 4 l J W 5.[ # > 0 ] @.,.] a x Z lXlXlXlXlXlXlXlXlXlXlXlXlXlXlXlXlXlXlXlXlXlXlXlXlXlXlXlXlXlXlXlXlXlXlXlXlXlXlXlXlXlXlXlXlXlXlXlXlXlXlXlXlXlXlXlXlXlXlXlXlXlXlXlXlXlXlXlXlXlXlXlXlXlXlXlXlXlXlXlXlXlXlXlXlXlXlXlXlXlXlXlXlXlXlXlXlXlXlXlXlXlXlXlXlXlXlXlXlXlXlXlXlXlXlXlXlXlXlXlXlXlXlXlXlXlXlXlXlXlXlXlXlXlXlXlXlXlXlXlXlX$ & P P i G { A A 7 * > 4.=X4.[ l 5 , J W 5.i.t.t.y.;.o.] 7 G Y.H.E Y Q P , 5 S R z i i k P P R R R Q R P R R R R E W W Q E P P R Q W E Q Q Q Q Q -.-.-.R R Q -.-.:.:.=.W R W W W W W =.=.=.:.-.-.-.Q Q -.-.H.H.H.2.H.H.H.H.H.H.H.Q Q 2.2.:.5.*.=.=.*.=.F J R Q R P R Q Q R P P R Q -.E R k k P Q Q E P R R Z P Q Q R P P P P P R E E P s s s s a a k 2.J , z R E I I P l A %.E R E E E E W l l o.t.a.a.@.3 > l A b 6 , R Y.-.R =.*.4.u.a.a.a.a.a.a.a.a.a.p.t.p.t.4.;.o.o.[ 5.",
"{ , y.4.{ X.&.*.5.4.;.4.t.u.u.u.s.s.s.s.a.p.t.@. .l z J P.%.5 8 0 A 6 X 4 4.4.@.#.] 0 l Q E Q E Q Q Q =.j a x.Y E P P j = j R J a i i i k z k z a k x P x x P k k P P P k k x P Z R E W R Z k P P E E E P P P Q :.-.=.W E E E R R P E =.W W %.=.=.-.E -.-.E R R R I I I P R W :.2.:.-.R R Q W R R E E P J R =.=.W R R =.=.R R Q Q Q Q -.-.-.-.:.:.:.-.-.=.=.W Q -.W E -.-.-.E R R v x k k =.2.l , A %.%.-.L.L.W [ 4.4.y.y.i.y.y.:.5.&., 4 l z W 5.[ # 4 l ] #.+.] a x z lXlXlXlXlXlXlXlXlXlXlXlXlXlXlXlXlXlXlXlXlXlXlXlXlXlXlXlXlXlXlXlXlXlXlXlXlXlXlXlXlXlXlXlXlXlXlXlXlXlXlXlXlXlXlXlXlXlXlXlXlXlXlXlXlXlXlXlXlXlXlXlXlXlXlXlXlXlXlXlXlXlXlXlXlXlXlXlXlXlXlXlXlXlXlXlXlXlXlXlXlXlXlXlXlXlXlXlXlXlXlXlXlXlXlXlXlXlXlXlXlXlXlXlXlXlXlXlXlXlXlXlXlXlXlXlXlXlXlXlXlX. & Z P a J J l l 5 o * 4.~.4.[ l 5 , z =.5.i.i.y.y.;.o...7 G !.H.E I E P 7 5 J R k j a k R R P P R E E R W E R R R E W W P x P R E R P R R R R R Q Q Q P P R Q Q -.-.E P P R R R E W W W =.*.-.E Q Q Q Q Q -.H.-.-.H.H.-.Q -.H.x.E Q F.2.:.*.%.%.%.%.R J P P R R P P E E P P P P E Q R x k k R E R P P x k k x E E P k x P P P P P P x s s p s s k E 5.j , k P E I I P l A =.=.=.R E P E E l A o.,.t.p.+.# 4 A A A 6 > P Y.Q R =.:.y.i.a.a.a.a.a.a.a.p.a.t.t.t.t.;.X.[ { { 5.",
"A > y.4.{ { o.*.5.5.4.4.t.t.t.u.a.s.s.a.a.a.t.@.[ l z G U.%.5 8 0 l 6 X 4 @.t.t.@.] 7 l W E Q Q Q E Q =.l a x.I R P W l , g J P k a i a k k Z Z k P P P P P P P R E Q R P v P P R R =.-.W R P R E E Q E R P R Q -.-.-.W W W Q Q Q W Q -.=.=.=.*.:.-.Q -.-.-.Q Q W E E E E Q -.:.5.2.-.Q Q Q -.=.=.-.-.=.E =.-.-.=.=.-.:.:.-.-.-.-.-.-.:.H.:.:.:.:.:.:.:.-.-.-.-.-.-.-.-.-.-.-.-.-.E R P P :.*.g , A *.%.-.L.L.W #.t.t.t.i.i.i.y.:.5.$., > j z W 5.[ # > l ] @.@.[ i x k $ lXlXlXlXlXlXlXlXlXlXlXlXlXlXlXlXlXlXlXlXlXlXlXlXlXlXlXlXlXlXlXlXlXlXlXlXlXlXlXlXlXlXlXlXlXlXlXlXlXlXlXlXlXlXlXlXlXlXlXlXlXlXlXlXlXlXlXlXlXlXlXlXlXlXlXlXlXlXlXlXlXlXlXlXlXlXlXlXlXlXlXlXlXlXlXlXlXlXlXlXlXlXlXlXlXlXlXlXlXlXlXlXlXlXlXlXlXlXlXlXlXlXlXlXlXlXlXlXlXlXlXlXlXlXlXlXlXlXlXlX. & Z P a P J z l 5 o > 4.=X4.G l 5 > J *.7.i.s.i.5.;.o.#.0 D U.H.-.Q E R g 5 l J J z z R E W W W W Q Q Q -.-.Q W W =.-.-.W R R W =.W W W W W W W Q Q Q R R W Q -.-.-.=.W W Q Q Q -.-.:.*.*.5.:.:.:.H.P.H.2.2.H.P.P.P.P.H.-.H.H.F.Q Q H.2.:.:.*.*.%.W R R W R R W E W R R R P P R E E R R P R R E E R R P R P P R R R P P R R P R R P P P x k k k R 5.:.g g Z I Y Y z.E C A 1.*.*.%.E P P R l A @.q.q.q...* 4 A A A 6 > F Y.Q J =.*.4.u.a.a.a.a.a.p.p.p.p.t.t.t.4.%.J A A A 5.",
"z * y.4.{ &.&.&.4.5.5.4.4.t.t.u.a.a.s.s.a.a.t.@.[ l z G U.%.5 8 0 l 6 X 4 @.t.u.@.] 0 l Q E Q Q Q Q Q :.l a x.I P E W J 5 5 Z P k a i i a k k k k k k k k k k k k k Z k k k k k k z J R R J J x P P P k k k k k Z P P P R P P P P P P R F F G G F J J R R R J J J Z Z P P P P R R F J J J J J J R P R J J Z J J J J F F F F P R R P E E E E R P R J J J J J J Z Z J J J J J R R J J k k R :.G , 7 S 4.5.H.L.XX=.#.a.a.s.s.s.s.i.:.:.G * * j z W 5.[ # 4 l #.;.t.o.a x k $ lXlXlXlXlXlXlXlXlXlXlXlXlXlXlXlXlXlXlXlXlXlXlXlXlXlXlXlXlXlXlXlXlXlXlXlXlXlXlXlXlXlXlXlXlXlXlXlXlXlXlXlXlXlXlXlXlXlXlXlXlXlXlXlXlXlXlXlXlXlXlXlXlXlXlXlXlXlXlXlXlXlXlXlXlXlXlXlXlXlXlXlXlXlXlXlXlXlXlXlXlXlXlXlXlXlXlXlXlXlXlXlXlXlXlXlXlXlXlXlXlXlXlXlXlXlXlXlXlXlXlXlXlXlXlXlXlXlXlXlXo & P P p P P z z 7 # > 4.=X5.G l 5 , J =.7.i.i.y.4.*.&.[ l J 3.H.5.2.-.%.j 5 l z j j j z k Z Z J Z Z Z Z Z J Z Z Z Z Z Z Z k z z z k k z z Z Z Z Z R P P k k Z P P Z Z Z Z Z k k J J R G G R G P R P R R F R R W W E R P P E R R R R P F S X.G G J J J Z J R Z Z J Z k Z P k k k k k k k k k k k k k k z k z k k Z P P P k Z Z k k k k k k s s s J -.J , g P Y z.M.M.x.A A ;.*.4.*.-.P P R l ] q.p.e.q...> 5 A A A 6 > J I.Q R :.*.4.t.u.u.a.a.s.a.p.p.t.t.t.4.;.R Z J J J :.",
"z * 5.4.{ o.o.*.*.*.4.y.t.t.t.u.a.a.a.a.s.a.t.@.S z k R U.&.5 5 0 0 6 o 8 ;.4.,.#.A j J -.Q Q Q -.Q Q W z a Q P P R W J 7 7 5 , * % % o o o o o o o o o X X o o o o o o X X o o o o # * * * * % % % % # o o o o o * * * # * * * * * % % * * * * % % # # # # # * * % % * * * * * * * * * * * * * * > > * % * * * # # * * * ; > ; ; > > > > > > > * # # # * * * * # * > > * ; > > > > > > 5 l l , 7 X.4.5.I.XXXX=.@.s.a.s.qXyX_.i.:.=.G * > j z =.5.[ # 4 A o.4.t.*.i x k $ . lXlXlXlXlXlXlXlXlXlXlXlXlXlXlXlXlXlXlXlXlXlXlXlXlXlXlXlXlXlXlXlXlXlXlXlXlXlXlXlXlXlXlXlXlXlXlXlXlXlXlXlXlXlXlXlXlXlXlXlXlXlXlXlXlXlXlXlXlXlXlXlXlXlXlXlXlXlXlXlXlXlXlXlXlXlXlXlXlXlXlXlXlXlXlXlXlXlXlXlXlXlXlXlXlXlXlXlXlXlXlXlXlXlXlXlXlXlXlXlXlXlXlXlXlXlXlXlXlXlXlXlXlXlXlXlXlXlXlX. % P P s x x k z 7 # > 4.=X:.{ A 5 , G :.-.=.:.5.5.:.:.o.l C 2.3.7.7.4.*.A , 5 * % % o % % % # # # o o o o # # # # # # # # # # # # # # # # * * * * * * * * * * > > * * * * * * * # * * * * * * * * * * * * 2 4 > # * > > * * * * * * * * # - * * # # # # # # # # # # # # * # o o o # # o o o o # # o o o o # # # # * * * * * * * * * * # # # # # * > * , l P Y M.6X6XM.Z ] o.*.2.:.=.P P P l A @.p.p.e.+.* 5 A A A 6 > R Y.E E :.:.*.4.t.u.a.a.a.a.a.t.t.t.t.4.%.R Z Z R J :.",
"z = 5.5.{ o.o.&.*.*.4.t.t.t.u.u.u.a.a.s.d.u.4.*.J z k R U.&.5 5 6 0 7 # 6 @.,.+.#.A l J H.Q E E Q Q Q -.z a Q E W W W J j > . . . . o o o o X X o o o o o o o o o X X X X X X X X X o o o o o o # # # o o o o o o # # # # o o # # # # o # # # # # # # # # # # # # o o # # # * * * * * * > > > > 4 4 > > * > > > > > > > > > 4 4 4 4 5 4 4 > > > # # # # > > * # # # # # * > > > * # o o * * * > j o.4.5.K.oXXXW +.s.a.a.s.s.s.y.:.:.G * > j z $.5.o.# 4 A o.4.t.*.a I x $ . lXlXlXlXlXlXlXlXlXlXlXlXlXlXlXlXlXlXlXlXlXlXlXlXlXlXlXlXlXlXlXlXlXlXlXlXlXlXlXlXlXlXlXlXlXlXlXlXlXlXlXlXlXlXlXlXlXlXlXlXlXlXlXlXlXlXlXlXlXlXlXlXlXlXlXlXlXlXlXlXlXlXlXlXlXlXlXlXlXlXlXlXlXlXlXlXlXlXlXlXlXlXlXlXlXlXlXlXlXlXlXlXlXlXlXlXlXlXlXlXlXlXlXlXlXlXlXlXlXlXlXlXlXlXlXlXlXlXlX. % P m p d c x z 7 # > t.uX4.{ A 5 , G :.-.R -.5.7.2.:.&.l J 5.3.7.i.4.;.A > o o o o * * # * # # # # # # # # # # # # # # # # # # # # # # # # # # # # * # # # # # # * # # # # # + + X + # # # # # # # # # # * 2 4 4 4 4 4 4 > > > > > > > > > * * * * * # # # # # o o # # * * * * * * * # # # # o o o o o o o X X X o # # # # # # # * * * * * * # X # # > l P Y z.A.A.x.J ] *.%.=.=.=.P E =.A A @.p.e.e.+.> > l A A 6 % J Y.E E :.*.*.4.t.u.a.a.a.a.p.t.t.t.t.;.%.P P R R R :.",
"A , 7.5.X.&.;.o.;.4.t.t.4.t.u.u.u.u.u.t.t.:.%.P J k z G U.&.5 4 6 0 6 * 5 @.4.@.#.A 0 G P.x.E R E Q Q Q J a ^ Q W =.W J j * . o * * > > > > 4 4 5 5 5 5 7 7 7 7 7 5 5 5 5 5 5 5 5 7 7 7 5 7 j j 5 5 5 5 5 5 5 5 5 5 5 7 7 6 7 7 6 6 6 7 7 6 6 6 6 6 0 7 7 7 7 7 0 7 7 0 0 0 0 0 7 0 0 0 0 0 0 0 0 0 0 0 0 0 A 0 0 0 0 A A A ] ] ] ] ] ] A ] ] ] A 0 0 0 0 l 0 0 0 A A 0 l A A l 0 9 8 5 > * % * 7 X.4.5.H.oXoX=.+.s.a.s.s.s.y.y.:.:.$.> > j l R 5.o.o 4 l #.@.4.&.a E x $ . lXlXlXlXlXlXlXlXlXlXlXlXlXlXlXlXlXlXlXlXlXlXlXlXlXlXlXlXlXlXlXlXlXlXlXlXlXlXlXlXlXlXlXlXlXlXlXlXlXlXlXlXlXlXlXlXlXlXlXlXlXlXlXlXlXlXlXlXlXlXlXlXlXlXlXlXlXlXlXlXlXlXlXlXlXlXlXlXlXlXlXlXlXlXlXlXlXlXlXlXlXlXlXlXlXlXlXlXlXlXlXlXlXlXlXlXlXlXlXlXlXlXlXlXlXlXlXlXlXlXlXlXlXlXlXlXlXlXlX. $ P M t f c x z 7 * > t.uX4.S l , , G :.-.E =.:.7.5.5.;.l D U.2.1.4.*.[ 0 > * > 4 5 6 0 0 0 0 0 0 0 0 0 0 A A A A A A A l l l l l l l l l 0 0 0 0 0 0 0 0 0 0 0 0 0 0 0 0 0 9 6 6 6 6 6 6 7 0 0 7 0 0 0 l A A A A ] ] A A l l l l l l l l l l l l l l l l 7 7 7 7 7 7 7 l j 7 7 7 7 7 7 7 7 7 7 5 5 5 7 7 7 7 7 7 7 7 7 7 7 7 7 5 5 5 5 7 5 5 5 * * * 5 z P P E z.c.x.G  .*.W W W >.E -.:.A A @.e.p.e.#.4 > l A A 6 % R Y.E E =.*.;.4.u.u.u.a.a.a.t.,.4.t.t.4.=.R P R R J -.",
"[ , 7.5.X.;.;.4.4.t.s.i.t.4.t.u.u.u.u.t.4.=.P P x x z G 7.*.5 > 6 0 6 # 4 @.t.t.@.] 7 G P.H.Q Q Q x.Q Q J s H.Q W =.W l , * # * * * * > > > > > > > , , 5 , 5 5 5 5 5 > > > > , 5 5 5 5 5 5 5 5 5 5 > > > > > > > , 5 5 5 5 5 5 5 5 5 5 7 6 8 5 5 6 7 7 8 6 6 6 6 5 6 6 9 6 6 6 0 0 0 0 0 0 9 0 0 0 0 0 0 0 0 0 0 l A A A A A A A A A A A A ] A A l 0 0 0 0 0 0 0 A A A A A A A A l l 7 5 7 , ; 7 S *.*.H. XXXW +.s.s.s.s.i.y.:.:.5.%.> > j j J :.o.X * l #.@.4.*.a P s . . lXlXlXlXlXlXlXlXlXlXlXlXlXlXlXlXlXlXlXlXlXlXlXlXlXlXlXlXlXlXlXlXlXlXlXlXlXlXlXlXlXlXlXlXlXlXlXlXlXlXlXlXlXlXlXlXlXlXlXlXlXlXlXlXlXlXlXlXlXlXlXlXlXlXlXlXlXlXlXlXlXlXlXlXlXlXlXlXlXlXlXlXlXlXlXlXlXlXlXlXlXlXlXlXlXlXlXlXlXlXlXlXlXlXlXlXlXlXlXlXlXlXlXlXlXlXlXlXlXlXlXlXlXlXlXlXlXlXlX. $ P M t f d s j 5 * > 5.-X*.J j , , G :.2.Q =.:.5.:.:.&.l R !.2.=.%.X.A , * > * > > 4 5 8 6 9 9 9 9 9 9 0 0 0 l l 0 0 0 0 0 7 7 7 7 7 7 7 7 7 7 6 6 6 5 7 7 6 8 5 5 6 7 7 7 6 6 6 5 5 5 6 6 6 6 6 7 7 7 0 0 0 0 7 7 7 7 6 7 7 7 7 7 7 5 6 7 7 6 6 6 7 5 5 8 7 7 5 5 5 5 5 5 5 5 5 5 5 5 5 5 5 5 5 , > 4 5 5 5 5 8 7 7 7 7 7 7 5 5 , , 5 5 5 5 , 4 > # > l L P Y v.n.M.P X.1.=.W R -.E -.=.A A @.q.e.e.#.- > l l A 6 % P I.R R R *.t.u.a.a.a.u.u.u.t.4.4.t.y.y.*.W P R R J -.",
"A , y.4.X.*.;.4.t.u.s.s.t.4.4.t.t.t.u.y.5.=.P P x x z F 7.&., > 8 0 6 o 4 @.t.4.@.] 0 G P.F.Q Q Q Q Q Q J k H.Q Q *.W j , * o o o o o o o o % % o o o o o o o # # # o # # # % o # * * * * * * * * * * * # o o o % % * % % * * # * * * % * * * # # # * * * * * * * o * * * * ; > > > > > > > > > > > > > > > > > > > > > > > > 5 5 5 5 5 5 5 5 5 5 4 4 4 5 5 5 4 4 > > 4 4 5 5 5 4 > > > > > > , l S *.*.H.XXXX=.#.s.s.s.s.y.:.*.:.:.%.> * j j J :.o.X * l [ @.4.*.a P s . . lXlXlXlXlXlXlXlXlXlXlXlXlXlXlXlXlXlXlXlXlXlXlXlXlXlXlXlXlXlXlXlXlXlXlXlXlXlXlXlXlXlXlXlXlXlXlXlXlXlXlXlXlXlXlXlXlXlXlXlXlXlXlXlXlXlXlXlXlXlXlXlXlXlXlXlXlXlXlXlXlXlXlXlXlXlXlXlXlXlXlXlXlXlXlXlXlXlXlXlXlXlXlXlXlXlXlXlXlXlXlXlXlXlXlXlXlXlXlXlXlXlXlXlXlXlXlXlXlXlXlXlXlXlXlXlXlXlXlX. $ P M t f d p g 5 % > 5.-X:.J j , , G :.P.:.:.:.5.:.=.&.j =.,XH.*.=.=.G g , % o o o % o # * * > > > * * * * * > > > > > > * > * * * * * * * > * * * * * * * * * * * # * * * * * * * * * * * * * * * * * * * * * * * > * * * * * * ; * * * > > > > > > > > * * * * * * * * * * * * * * * * * * * * # # o # * * * * * > > > > * * * * * * * * * * % o o , l P P Y n.S.Z.P  .;.*.&.=.-.E Q $.l A +.q.e.p.#.> , l l l 8 % R I.R R $.:.t.a.a.a.s.u.t.u.t.t.4.t.t.y.4.W P J J J -.",
"A , y.5.X.*.;.4.y.i.s.s.t.4.,.4.t.t.t.t.4.*.P P k k k J 5.&., > 8 0 6 o 4 @.@.@.+.] l $.P.F.Q -.Q Q Q Q J k H.^ 2.2.W l l l % o * % * * * * = , > > > > > * * > > > > > , , , , , , > > > > > , , , > > > > > , , , > > > , , , , , , , , , , , > , 4 4 , , , , , , , , > > * * * * * * * * * * * * * * * * * * > > > > , , , , , , , , , , , , , , > > , , , , 5 5 , , , > > > > * * % % % * l S A 4.5.P.>X>X*.+.rXs.s.s.y.4.*.:.:.R > * j z J 5.#.X * 7 [ @.4.*.i P k . . lXlXlXlXlXlXlXlXlXlXlXlXlXlXlXlXlXlXlXlXlXlXlXlXlXlXlXlXlXlXlXlXlXlXlXlXlXlXlXlXlXlXlXlXlXlXlXlXlXlXlXlXlXlXlXlXlXlXlXlXlXlXlXlXlXlXlXlXlXlXlXlXlXlXlXlXlXlXlXlXlXlXlXlXlXlXlXlXlXlXlXlXlXlXlXlXlXlXlXlXlXlXlXlXlXlXlXlXlXlXlXlXlXlXlXlXlXlXlXlXlXlXlXlXlXlXlXlXlXlXlXlXlXlXlXlXlXlXlX. $ P M s d x k j 5 % * y.uX7.$.z , , G 2.P.5.5.5.4.*.=.{ j =.,XK.2.:.=.R J G , % % % % % % * * > > , > > > > > > , , , > > , , , > > > > , , , , , , , , , , , , , , > > , , , , , 5 5 5 , , , 5 , , 5 5 , , , , , , , , , , , , , , , , , , , , 5 , , , > > , , , , , , , , , , > > > > > > > , , > > , , 5 , , , , , , , , , , , , , , , , > * * * g z Z R E Y Z.6XA.P  .4.;.:.=.-.P R { l A +.9.e.p.@.4 , A l 0 5 * R I.E P %.4.u.a.a.a.s.u.t.t.t.u.t.t.4.4.*.%.R G J J :.",
"z * y.5.o.o.;.*.5.i.a.a.u.t.t.t.t.q.t.t.4.;.&.G Z z j J 5.&.5 , 8 0 6 # 4 +.@.@.#.] l G P.H.2.-.Q E P E J a ^ Q -.=.W l z =.j , , , g j j j j j j z l j j j j l l l l l z z z z z J Z z l l Z z z z z z l z z J J z z l C J J J J J J z J J J J J S A A J J J J J J J J J z l l l l l j j l z z z z z z l l l A A J J A J J J J J A A A l J J J J J A A J J J J J A J A A J A l j g g , , , 7 X.S l 4.5.5.XX:X*.q.rXs.s.s.i.t.4.:.:.R , * j J $.5.#.+ * 7 [ ;.t.*.g Q R %   lXlXlXlXlXlXlXlXlXlXlXlXlXlXlXlXlXlXlXlXlXlXlXlXlXlXlXlXlXlXlXlXlXlXlXlXlXlXlXlXlXlXlXlXlXlXlXlXlXlXlXlXlXlXlXlXlXlXlXlXlXlXlXlXlXlXlXlXlXlXlXlXlXlXlXlXlXlXlXlXlXlXlXlXlXlXlXlXlXlXlXlXlXlXlXlXlXlXlXlXlXlXlXlXlXlXlXlXlXlXlXlXlXlXlXlXlXlXlXlXlXlXlXlXlXlXlXlXlXlXlXlXlXlXlXlXlXlXlX. $ P m i k P A ] 6 % > i.gXQ.X.l , , S 5.5.5.y.5.:.*.*.X.l W Y.H.Q W Q P k =.=.i , , i g j j j l Z J Z l l J J J J J J J Z Z J J z z z Z J J A J G G G J G G G G S S S S S G F R F G G G J J J J J J J J F F F F J J J J J J J Z z z J J J J z z z z z z z j j l z z z z z J J l l l l j j l l l z z l l z J J z z z z z z z z z z Z k j j j g i g g =.-.Z R ^ W b.S.L.F [ 4.4.4.:.=.P P { A b ..+.q.p.,.4 5 A A 7 8 , P I.R P &.4.u.a.s.a.u.4.4.t.u.t.t.t.t.4.4.:.*.%.G J :.",
"A = y.5.o.*.*.*.4.t.u.a.u.t.t.u.t.t.t.t.t.t.;.o.{ J z J 7.&.5 > 8 0 6 # 4 +.@.@.+...A G 5.2.P.2.Q E R R z j Q E R F W j i R R i , i j z z z z z k J J Z k z k Z J J J J R R P R R R P R R R R E E W W E E E W W -.-.E R W =.=.-.=.W =.=.=.W -.-.=.=.*.*.*.:.=.=.-.Q -.-.-.-.=.=.=.%.R W =.-.-.-.-.=.=.=.=.*.*.*.*.*.*.*.:.2.:.=.=.=.%.%.=.%.=.:.2.*.*.*.:.:.*.*.*.%.%.W %.=.%.G J k z j g , J *.j 7 @.4.*.5.Q.*.@._.s.s.s.i.i.y.:.:.G > > j k $.5.#.X * l X.;.t.o.7 :.W o   lXlXlXlXlXlXlXlXlXlXlXlXlXlXlXlXlXlXlXlXlXlXlXlXlXlXlXlXlXlXlXlXlXlXlXlXlXlXlXlXlXlXlXlXlXlXlXlXlXlXlXlXlXlXlXlXlXlXlXlXlXlXlXlXlXlXlXlXlXlXlXlXlXlXlXlXlXlXlXlXlXlXlXlXlXlXlXlXlXlXlXlXlXlXlXlXlXlXlXlXlXlXlXlXlXlXlXlXlXlXlXlXlXlXlXlXlXlXlXlXlXlXlXlXlXlXlXlXlXlXlXlXlXlXlXlXlXlXlX. $ k m i k J [ ] 7 * > i.gX~.o.l , , S :.5.7.y.y.4.*.*.%.z P H.Q W R W F i Z 2.k j j J J G R %.W =.-.=.W P W W =.=.=.W W W Q Q Q Q E P =.=.=.*.:.:.:.:.:.:.:.:.:.*.*.4.4.*.*.-.=.=.:.-.-.Q Q P W =.=.=.:.:.-.-.=.*.*.*.=.%.R R R P P =.=.W R R R R P R k k P P P P W W R R R R R P J J P Z k Z R R P R J J R R P P P Z k k Z R R P R J k z k k k g z :.R j W 2.W Q N.^ S #.4.t.t.4.=.R E $.l 0 ..+.9.t.,.4 , A A 0 5 , R Y.R J %.4.u.s.s.s.t.4.t.u.t.t.t.p.t.t.4.4.*.%.G J *.",
"{ , y.5.o.*.*.;.4.y.y.u.t.t.t.t.t.4.t.t.t.t.4.o.o.A l J 7.*.5 > 8 9 4 X 4 @.t.t.@.#.A G 5.5.P.2.-.Q -.%.A j Q E P W W z , J $.k i i j z z z l l z R R k k Z R J J J J P E E R R E E E P $.=.-.=.E -.-.Q W W -.-.2.-.W W 2.2.=.:.:.-.-.:.:.:.2.:.=.%.4.4.5.5.:.-.Q Q Q Q -.-.-.-.=.W W %.2.5.2.-.-.:.:.:.:.2.2.5.2.*.5.7.7.5.:.:.2.5.2.2.2.:.5.7.7.7.5.7.7.7.7.U.7.5.%.%.*.5.*.G J J k z j j R %.> 0 @.@.4.5.Q.o.+.s.s.s.s.i.i.y.:.:.G > * g k R 5. .X * l o.4.t.o.7 2.=.o   lXlXlXlXlXlXlXlXlXlXlXlXlXlXlXlXlXlXlXlXlXlXlXlXlXlXlXlXlXlXlXlXlXlXlXlXlXlXlXlXlXlXlXlXlXlXlXlXlXlXlXlXlXlXlXlXlXlXlXlXlXlXlXlXlXlXlXlXlXlXlXlXlXlXlXlXlXlXlXlXlXlXlXlXlXlXlXlXlXlXlXlXlXlXlXlXlXlXlXlXlXlXlXlXlXlXlXlXlXlXlXlXlXlXlXlXlXlXlXlXlXlXlXlXlXlXlXlXlXlXlXlXlXlXlXlXlXlXlX. $ k m i z { ] A 7 * 5 i.sX~.&.A , , G :.:.7.i.i.y.4.*.%.J R H.W =.=.=.G , g -.R k k P P E W -.:.2.2.-.E E Q Q -.-.-.=.P P Q Q -.-.W R =.2.*.:.2.2.2.-.:.:.2.2.5.5.4.y.5.2.2.2.:.*.:.:.2.H.Q W =.5.5.5.2.:.2.2.:.*.2.5.:.-.W Q R P E =.=.E P R R W Q E P x P P P P E E P E E =.=.P Z R R P k J W W R J J R E E R P P P Z Z R P P R P R R Z k k k h R Q k j W 2.Q 2.^ W S #.t.u.y.y.5.E =.%.l 0 #.9.q.t.,.4 , A A l 8 , Z !.R P %.:.4.i.i.i.t.4.y.u.p.p.p.p.t.t.4.:.*.%.G J =.",
"{ = y.y.o.;.:.4.5.i.y.t.t.u.t.t.@.@.4.t.t.t.4.o.{ l j J U.&., * 4 6 4 o 4 @.t.t.@.#.0 J 5.2.2.-.2.H.2.*.A g Q E -.=.W Z , g R J j g j z z z j j z R k a k J P J J z z R W Q R P P Q E J R :.:.R R Q -.Q R E Q :.-.P P -.H.2.W %.2.:.=.E -.:.2.=.%.*.y.i.5.*.-.-.Q P I E Q Q E R R F F R -.2.:.-.W =.:.:.=.=.:.5.:.%.=.7.U.:.-.:.5.5.5.5.5.2.2.2.5.5.5.5.5.5.7.U.7.5.%.%.*.4.%.J z z z k j Z =.J * l @.@.t.y.Q.@.#.s.u.s.s.i.i.5.-.:.G , * 5 z R 5.[ o > l &.4.4.o.5 2.=.o   lXlXlXlXlXlXlXlXlXlXlXlXlXlXlXlXlXlXlXlXlXlXlXlXlXlXlXlXlXlXlXlXlXlXlXlXlXlXlXlXlXlXlXlXlXlXlXlXlXlXlXlXlXlXlXlXlXlXlXlXlXlXlXlXlXlXlXlXlXlXlXlXlXlXlXlXlXlXlXlXlXlXlXlXlXlXlXlXlXlXlXlXlXlXlXlXlXlXlXlXlXlXlXlXlXlXlXlXlXlXlXlXlXlXlXlXlXlXlXlXlXlXlXlXlXlXlXlXlXlXlXlXlXlXlXlXlXlXlX. $ Z I u z o.] A 7 * 5 i.sX~.&.z , , J -.W 5.i.s.i.5.;.o.A G 5.W W =.=.G , , E W k k k P R R R Q -.-.R P Q Q E E W -.W P P R Q -.Q R P =.:.W E -.:.-.W -.-.:.-.=.*.5.7.5.=.=.:.=.W W -.2.:.E R *.5.5.2.=.W 2.-.W W -.2.-.Y Y P x P P Q Q R R P R E Q E P d P P Z Z P R P P P W R Z k P R P k k R R R k z R W R P P P P Z Z J J J P R P P Z j a a s P R i l W ^ H.3.^ ~ S #.4.y.i.i.7.-.=.%.l 0 @.t.t.t.@.6 , C l j 7 , Z !.W P W %.*.t.u.i.t.t.i.u.a.a.a.a.t.t.4.4.*.G J J =.",
"J = y.y.*.:.4.7.7.4.;.4.t.u.t.4.@.@.4.t.t.t.;.o.{ l j J U.%., * 5 7 5 # 6 @.q.@.#.#.0 F 5.-.E E Q H.3.:.A i Q -.2.:.=.z , , F R j a j z z z z k k x s p s k P Z Z z k P E E P x P P P Z R Q Q P k E Q Q E R E Q E P R -.2.-.P P -.-.Q E Q Q -.=.=.7.5.7.:.=.-.-.Q P I E Q Q E R P P P P W -.-.Q W R =.=.E W -.:.-.R W 5.P.-.-.-.-.-.-.-.-.Q W W W W =.1.2.*.=.=.=.%.G W =.*.W z k z z k z R %.5 * A @.@.y.Q.Q.;.+.u.u.i.i.i.y.*.=.:.R , * g z E 5.S o > l X.;.4.o.g 2.=..   lXlXlXlXlXlXlXlXlXlXlXlXlXlXlXlXlXlXlXlXlXlXlXlXlXlXlXlXlXlXlXlXlXlXlXlXlXlXlXlXlXlXlXlXlXlXlXlXlXlXlXlXlXlXlXlXlXlXlXlXlXlXlXlXlXlXlXlXlXlXlXlXlXlXlXlXlXlXlXlXlXlXlXlXlXlXlXlXlXlXlXlXlXlXlXlXlXlXlXlXlXlXlXlXlXlXlXlXlXlXlXlXlXlXlXlXlXlXlXlXlXlXlXlXlXlXlXlXlXlXlXlXlXlXlXlXlXlXlX. $ P Y a G &.[ A 6 o > i.sXs.{ j , , J W R 2.i.s.i.4.o.[ l G 7.2.%.R R G 5 , J E x k k P I E R Q Q E P P E Q I P R E Q E R E Q Q E R W -.-.W W -.2.H.-.-.H.-.Q =.2.7.5.2.W W -.-.-.-.-.F.Q R E :.5.P.2.Q Q -.-.Q Q -.H.H.Q Y U P U E E E R R P P P P P d d d x d P P P R P R E R x s P P k s k P P P P P R R x s P P x k Z k z z J P P k s i a j k -.R , l W ^ H.^ m.3.D  .4.5.i.y.5.-.-.%.l 0 #.t.p.t.@.4 > l l j 7 , R Y.W P R G &.4.u.u.u.i.u.u.p.a.a.a.s.i.y.5.%.J J J =.",
"A = y.y.*.:.:.5.:.*.*.4.t.t.t.4.t.t.t.t.t.4.;.o.X.Z l J U.=.= * > 8 5 # 6 @.t.@.#.#.l J :.Q E I Q H.H.5.A , -.H.H.:.=.z , , J %.J z k Z P R P P P P s s s x P P P R P R Q Q E E E E E E Q E E P P E Q Q Q -.Q E E P E Q Q Q Q Q -.-.H.H.F.Q Q Q -.5.5.5.:.-.-.-.Q Q Q -.F.-.-.-.-.=.-.W Q -.2.H.:.-.-.-.W -.H.:.-.-.-.2.P.P.H.H.-.-.H.H.H.Q Q W Q -.2.5.5.2.-.=.-.-.=.=.:.=.W P R R P R =.*.G , * A @.;.y.Q.~.;...i.u.s.i.i.5.%.=.:.R , * j Z E 5.S o > j A o.4.o.g 2.W .   lXlXlXlXlXlXlXlXlXlXlXlXlXlXlXlXlXlXlXlXlXlXlXlXlXlXlXlXlXlXlXlXlXlXlXlXlXlXlXlXlXlXlXlXlXlXlXlXlXlXlXlXlXlXlXlXlXlXlXlXlXlXlXlXlXlXlXlXlXlXlXlXlXlXlXlXlXlXlXlXlXlXlXlXlXlXlXlXlXlXlXlXlXlXlXlXlXlXlXlXlXlXlXlXlXlXlXlXlXlXlXlXlXlXlXlXlXlXlXlXlXlXlXlXlXlXlXlXlXlXlXlXlXlXlXlXlXlXlX. $ P x.k =.:.#.A 7 o * y.uXi.{ l , , J -.W 5.i.i.t.4.o.] l K U.3.5.W W G 5 , J -.P P P R Q Q Q Q Q E P P E Q E P P E Q Q Q Q Q E E E Q -.Q Q W -.-.H.H.F.-.Q W W :.5.2.-.W W Q Q -.-.-.Q Q R E -.:.-.-.Q Q Q Q E W -.-.Q E P P P P W W W Q Q W E R P P P P P P P P P P P R P P P x x P P P P Z P P R R R R P P P P P P P R R J J R E E R k k k z Z =.z , l K ^ Y v.M.m.J o.y.5.5.:.=.E -.=.l 0 ..q.t.p.9.6 > l l l 7 , R !.W P R =.4.y.u.a.s.s.u.t.t.t.t.u.i.i.5.*.{ z z J =.",
"A = y.5.&.*.*.%.=.*.*.4.t.t.t.4.t.u.t.t.t.@.#.[ G Z z R U.=., * > 5 4 o 4 @.t.@.#.] 0 z -.E E I Q F.3.2.A , H.H.2.-.W J g , l J j , i i i i i a i i i i i i i i i i i j j s k k k j j l k a a i i a j k k z k a a a i i a j j z z z J Z k k j j g j l j j z j j k j j j j j j j g g j j j z J J J z z z j z z z z l l Z J J J J J J J J J z z l j l J J J Z l l l z l j j j j g g i , g l l g * 5 [ ;.4.y.W.%X;...i.i.s.s.i.y.*.=.:.G > ; j Z =.U.[ X > j A o.4.&.g H.W . lXlXlXlXlXlXlXlXlXlXlXlXlXlXlXlXlXlXlXlXlXlXlXlXlXlXlXlXlXlXlXlXlXlXlXlXlXlXlXlXlXlXlXlXlXlXlXlXlXlXlXlXlXlXlXlXlXlXlXlXlXlXlXlXlXlXlXlXlXlXlXlXlXlXlXlXlXlXlXlXlXlXlXlXlXlXlXlXlXlXlXlXlXlXlXlXlXlXlXlXlXlXlXlXlXlXlXlXlXlXlXlXlXlXlXlXlXlXlXlXlXlXlXlXlXlXlXlXlXlXlXlXlXlXlXlXlXlXlXlX. $ P x.k *.:.[ A 7 # * ;.~.y.{ l , , J -.-.5.t.u.t.t.@.#.l X.&XU.W.2.=.R 5 5 G J j 5 , i j k k j a a i i i a a i g g j j j j a a a j i g i i i i i a j j j i i i g 7 i g i i i i i i i i i i i , , i i a a , , , , , , , , , , , , , g g l l j g i i i , i r i i i , , i , , , , , , , : , , , , , i a i i i i i i i i i a i i , i g i i , , , = > 5 * > 7 D Q M.S..XH.F o.y.4.4.:.=.-.:.=.l 0 ..@.q.p.@.4 > l z l g , R !.E R W 2.y.i.a.s.s.s.a.t.t.t.t.t.4.4.4.*.G J J J =.",
"A = y.5.&.&.=.%.=.*.*.:.4.t.t.4.t.t.p.t.t.@.o.S J Z Z R U.=., > 4 6 6 # 4 @.@.@.#.] 7 l =.Q x.E E 2.3.5.A , H.H.Q Q W Z g , , , % X X o o o % o o o o . . o o . o o o o o % o o o o o o o o % % # * % * * * * o * o o o o % * * * * * * * % % % o o % % % % % o % o o o o o o # o o o o * * ; ; * * * * * % % % * * > > > > * * * * * * * * * > * * * > * * * * * * # # # * * * % # o o % % % % 7 [ o.4.7.Q.&X*.] i.i.s.s.s.i.t.:.5.G > > j J =.W.o.X > l [ @.4.*.g 2.W o lXlXlXlXlXlXlXlXlXlXlXlXlXlXlXlXlXlXlXlXlXlXlXlXlXlXlXlXlXlXlXlXlXlXlXlXlXlXlXlXlXlXlXlXlXlXlXlXlXlXlXlXlXlXlXlXlXlXlXlXlXlXlXlXlXlXlXlXlXlXlXlXlXlXlXlXlXlXlXlXlXlXlXlXlXlXlXlXlXlXlXlXlXlXlXlXlXlXlXlXlXlXlXlXlXlXlXlXlXlXlXlXlXlXlXlXlXlXlXlXlXlXlXlXlXlXlXlXlXlXlXlXlXlXlXlXlXlXlXlX. $ P x.k :.:.[ A 7 * * 4.=Xy.{ j , , G :.:.5.u.u.p.u.t.o.l X.&XY.U.3.-.R 7 , g > o o o o % % # % % # # # # o o # # # # # # * * o * # o # # * * # # * * # * * * * # # # * * * * # # o # # # # # o # o # % # o # # o o # # o X X X X o o # # # * * o * % o o o o o # o o o o o o o % o X X X o # X X o o o o o o o o o o o % % % o o o o o # o o .   X . > 7 C E M.`.S.m.G o.t.4.t.4.:.-.:.*.l 0 #.q.q.t.@.> ; l J J j , R !.E R =.5.i.u.a.s.s.s.s.p.p.u.u.4.4.4.5.*.W J J J %.",
"J = y.5.&.&.&.%.=.=.=.*.4.t.t.4.t.t.t.t.t.0.;.X.G J J R U.%., > 5 0 0 > 4 o.@.@.#.A 7 A *.-.-.Q Q 2.3.5.[ , -.Q E Q W J j > % o o # # * * * * * * * * * # # # # # # # # * * * * * * * * * * * > > > > > 4 4 4 4 4 > * * * > 4 4 4 4 > > 4 > * > * * * * > > 2 4 4 4 4 4 * * > > > > > > > > > > > 4 > > > * # * > 4 4 4 6 4 4 4 4 4 > > > 4 4 4 4 4 4 4 4 4 4 4 4 > > ; > > 4 4 4 4 > > * # * > l X.*.5.7.W.Q.o.] t.u.s.s.s.i.i.4.:.[ > > l J =.Q.o.X 4 l #.4.t.*.j 2.W . lXlXlXlXlXlXlXlXlXlXlXlXlXlXlXlXlXlXlXlXlXlXlXlXlXlXlXlXlXlXlXlXlXlXlXlXlXlXlXlXlXlXlXlXlXlXlXlXlXlXlXlXlXlXlXlXlXlXlXlXlXlXlXlXlXlXlXlXlXlXlXlXlXlXlXlXlXlXlXlXlXlXlXlXlXlXlXlXlXlXlXlXlXlXlXlXlXlXlXlXlXlXlXlXlXlXlXlXlXlXlXlXlXlXlXlXlXlXlXlXlXlXlXlXlXlXlXlXlXlXlXlXlXlXlXlXlXlXlXlX. $ P Q k =.:.{ [ 7 * * y.iXi.{ j , 5 $.:.:.y.u.a.a.a.u.@.l W U.I.5.2.W G 7 * o o o * * > > > 4 4 6 4 4 4 4 4 4 4 4 4 4 6 6 6 6 4 4 4 4 4 4 4 4 4 4 4 4 4 4 6 6 4 4 > > 4 4 4 4 4 4 4 4 4 > > > > > > > > > > 4 > > 4 4 > > > > ; ; > > > 4 4 > > > 4 > * * > > > > 4 4 4 > > > > > > # # > > > 4 4 > 4 4 * * * * * * * * > 4 > > > 4 > > > > * # X X o , g j P z.n.b.Q G #.t.u.u.t.4.=.*.;.l b 9.p.t.p.@.> > A J J j , P !.W P =.5.i.i.s.s.s.s.s.p.p.a.u.t.4.4.5.*.%.J J J W ",
"R , y.5.*.:.4.1.*.*.*.;.4.t.4.4.t.u.t.t.t.t.;.*.%.z k E U.=., > 8 0 A > 4 o.@.#...A 6 A :.5.2.2.2.-.2.1.S , -.Q E E W J 7 > . # * * > > > , , , , , , , , > > > > > > > > > , , , , 5 , , > > 5 5 4 5 5 8 7 7 7 7 7 8 5 5 5 7 7 6 6 6 7 7 7 8 8 5 5 > 4 4 6 8 8 7 6 6 6 8 5 5 5 5 5 5 5 5 5 8 8 7 7 7 7 7 5 4 5 6 7 7 7 0 0 7 7 7 7 7 7 7 7 6 7 7 6 6 6 7 7 6 6 6 7 6 5 6 6 6 6 6 6 6 8 4 4 > > l G *.5.U.7.Q.o.] u.u.s.s.s.s.i.4.;.[ * * l A *.i.o.+ 4 0 #.;.t.*.k Q W . lXlXlXlXlXlXlXlXlXlXlXlXlXlXlXlXlXlXlXlXlXlXlXlXlXlXlXlXlXlXlXlXlXlXlXlXlXlXlXlXlXlXlXlXlXlXlXlXlXlXlXlXlXlXlXlXlXlXlXlXlXlXlXlXlXlXlXlXlXlXlXlXlXlXlXlXlXlXlXlXlXlXlXlXlXlXlXlXlXlXlXlXlXlXlXlXlXlXlXlXlXlXlXlXlXlXlXlXlXlXlXlXlXlXlXlXlXlXlXlXlXlXlXlXlXlXlXlXlXlXlXlXlXlXlXlXlXlXlXlX. $ P E a %.4.o.[ 7 * * y.jXi.&.l > , $.:.:.y.s.s.s.s.p.t.A W H.Q =.W R J 7 * X % > 5 5 5 6 5 8 8 6 6 6 5 4 6 7 6 6 6 6 6 0 0 0 0 7 6 8 8 7 7 6 7 7 6 6 7 7 7 7 7 6 7 6 8 7 7 5 5 7 8 8 8 8 5 4 4 5 5 5 5 5 5 5 5 5 5 5 5 > 5 5 , , 4 4 4 5 7 7 7 7 7 7 5 5 5 5 5 5 5 7 7 5 , , 5 5 , > > , , 5 5 5 5 5 5 4 4 5 5 5 5 > 5 5 5 5 5 5 5 5 5 5 5 > * * # o > g j R E Q m.2.X.+.i.i.i.u.4.=.:.:.A ` q.a.p.a.@.> > J J l j , P !.Q R =.4.5.i.s.s.qX0Xs.p.p.a.u.t.t.y.t.4.&.{ J J R ",
"J , y.5.*.:.4.5.4.;.4.4.4.t.4.4.t.u.t.u.p.t.t.*.R z k E U.&., > 8 0 ] > 4 #.+.+...A 7 A *.5.5.2.2.=.=.1.A , -.Q E Q -.l 7 g $ o o o # # # # # # * * * * * * * % * * * * * % * * * * * * * * * * > > > > > > > > 5 5 , > > > > 4 4 > > > > 5 5 > > * * * * > > > > > 5 5 4 > > > > > > > > > > > 4 , , , 5 , > > , 5 5 5 5 5 5 5 5 5 5 5 5 5 5 5 5 5 5 8 8 8 8 6 7 5 5 5 5 5 5 4 5 4 4 > > > * * j S %.:.5.5.Q.o.] u.u.s.s.s.s.u.;.;.[ * , l J &.i.#.X 4 0 #.,.u.;.j Q E . lXlXlXlXlXlXlXlXlXlXlXlXlXlXlXlXlXlXlXlXlXlXlXlXlXlXlXlXlXlXlXlXlXlXlXlXlXlXlXlXlXlXlXlXlXlXlXlXlXlXlXlXlXlXlXlXlXlXlXlXlXlXlXlXlXlXlXlXlXlXlXlXlXlXlXlXlXlXlXlXlXlXlXlXlXlXlXlXlXlXlXlXlXlXlXlXlXlXlXlXlXlXlXlXlXlXlXlXlXlXlXlXlXlXlXlXlXlXlXlXlXlXlXlXlXlXlXlXlXlXlXlXlXlXlXlXlXlXlXlX. $ P E a %.:.o.[ 7 % > y.gXi.&.l , , $.:.:.4.a.s.s.a.a.t.A W 3.Y P P W F g , . % * > > > > > > 5 5 5 5 4 > > 5 5 > > 4 5 5 5 5 4 4 > > > > 5 5 5 5 > > 5 5 5 , > > > > > , > > > > > , 5 5 , > > > > > > > > > , 5 , > > > > > > > > > > > > > > > > > > > ; > > > , , > > > > > * * * * * * ; ; ; ; * > * * > > > > * > > > > > > > > > > > * * # X . * < C W E Q m.3.{ #.s.i.i.i.5.:.2.:.A ] q.a.a.a.#.* > S F A g , P I.-.R W &.4.i.s.s.qXqX0Xa.p.a.u.u.u.i.y.4.&.{ J J R ",
"J , y.5.=.*.4.t.t.t.a.u.t.4.;.4.t.u.t.t.u.u.4.X.J k z E U.&., > 8 0 ] > > #.@.@.#.A 5 A X.4.5.2.2.-.=.1.S , -.Q E Q -.z j J , $ o o o o o o X X o o o o o o o . o o o o . . o o . o o o o o o % o o % o % * % % * * % % % % * * * * * % % % % % o o o o o o o o X o o o o o o o o o o o o o o o o o % % % % % $ $ % o o o o % % o % % % % % * * * % % * * # * * * * % o # % o o o # * o o % % 5 A { { W -.P.&X;.] s.a.s.s.s.y.4.o.;.[ * , l J o.y.#.o > 0 #.4.t.;.j R P . lXlXlXlXlXlXlXlXlXlXlXlXlXlXlXlXlXlXlXlXlXlXlXlXlXlXlXlXlXlXlXlXlXlXlXlXlXlXlXlXlXlXlXlXlXlXlXlXlXlXlXlXlXlXlXlXlXlXlXlXlXlXlXlXlXlXlXlXlXlXlXlXlXlXlXlXlXlXlXlXlXlXlXlXlXlXlXlXlXlXlXlXlXlXlXlXlXlXlXlXlXlXlXlXlXlXlXlXlXlXlXlXlXlXlXlXlXlXlXlXlXlXlXlXlXlXlXlXlXlXlXlXlXlXlXlXlXlXlXlX. $ P E i %.:.o.[ 7 % * 4.iXy.&.A , , $.:.=.@.t.p.a.p.p.t.A =.K.Q E E W J j j = $ % % % o o o o % % % % # # % % % * % * * * * * % % % o o % * * % % % % % % % * * * # % * % % % % * % % % * * % % * * % * * # # * % % o o o o o # % # * % # # % * # # # o % o % % % % % # o % % % % % % % o o o o o o o # o o % % % o o o o % % % * * * * * * % o X X o 5 j J K P Q ^ 2.[ #.u.i.i.y.y.5.5.*.A ] 9.p.p.t.#.* , G F l 7 , P I.-.R %.:.t.i.a.s.qXqXs.a.u.u.u.u.u.t.4.*.%.G J J R ",
"J 5 y.y.=.*.4.t.u.s.s.a.u.t.;.@.t.u.t.t.t.t.;.G J Z R R U.&., > 6 0 ] > > #.q.@.#.A 7 A X.*.5.2.5.2.=.1.S , -.Q E E W z g R z , = = = , , , , , > > > > > > * , 5 5 5 5 , , , , , , , , , , , , , , , , , , , , 5 5 5 , , , 5 5 7 7 5 7 7 j j g 7 5 7 5 , , , , > , , , , , , > , , 5 5 , , , , , , , , 5 5 5 , , , , , > > = , , , , , , , , , , , , , > * > > > > > > , , > > , , , , > , 5 { { { 5.:.:.U.-X;.] s.s.s.s.s.y.4.%.:.[ * > l J *.i.o.o > l #.,.t.*.a P R . lXlXlXlXlXlXlXlXlXlXlXlXlXlXlXlXlXlXlXlXlXlXlXlXlXlXlXlXlXlXlXlXlXlXlXlXlXlXlXlXlXlXlXlXlXlXlXlXlXlXlXlXlXlXlXlXlXlXlXlXlXlXlXlXlXlXlXlXlXlXlXlXlXlXlXlXlXlXlXlXlXlXlXlXlXlXlXlXlXlXlXlXlXlXlXlXlXlXlXlXlXlXlXlXlXlXlXlXlXlXlXlXlXlXlXlXlXlXlXlXlXlXlXlXlXlXlXlXlXlXlXlXlXlXlXlXlXlXlXlX. $ P I j $.&.A A 7 % * 4.=X4.{ A 5 , %.:.:.;.q.p.p.p.p.t.A -.L.N.Q E W Z z =.Z , % * , , , , , , , , = , > * , , 5 5 , , , 5 5 5 5 5 , , , 5 , 5 5 , , , 5 5 5 5 5 5 , , , , 5 5 5 5 , 5 , , , , , , , , , > > > , , , 5 , , > > , 5 5 5 5 5 5 5 5 5 5 , , , , , , , , , , , , , , , , , , , , , 5 5 5 5 > 5 , 5 , , , , , , , , > , , , , , , , * * j G J J F W -.2.5.[ #.t.t.t.y.Q.U.5.*.A ] @.t.p.p.#.* > J J l 7 , R Y.-.R *.y.i.i.a.s.s.s.a.a.u.u.u.u.u.t.;.&.$.{ G J W ",
"J 5 y.y.*.*.4.4.s.s.a.a.a.u.4.4.u.s.t.t.t.t.4.&.W P z J U.X.5 4 9 A ] * 4 +.q.@.#.] 0 A o.*.7.2.5.5.=.1.S i Q Q P R R j , J P j i g g g g g j j j j j j l l j j l l l l l l z z z z z z z l l z J F G G J J J J G G G G F G { { { G G [ { &.=.%.X.X.*.&.R J J J G { { G $.G G F G $.%.%.G G G G S G G %.%.&.*.*.*.&.X.{ G A [ { X.X.{ { { { { { { G A A J A A J J z l J J J J J J z l g j g A 5.A A 5.U.P.!.-Xo...s.s.s.s.s.i.4.%.4.[ * > j Z @.i.o.o > 0 #.@.t.*.a P R . lXlXlXlXlXlXlXlXlXlXlXlXlXlXlXlXlXlXlXlXlXlXlXlXlXlXlXlXlXlXlXlXlXlXlXlXlXlXlXlXlXlXlXlXlXlXlXlXlXlXlXlXlXlXlXlXlXlXlXlXlXlXlXlXlXlXlXlXlXlXlXlXlXlXlXlXlXlXlXlXlXlXlXlXlXlXlXlXlXlXlXlXlXlXlXlXlXlXlXlXlXlXlXlXlXlXlXlXlXlXlXlXlXlXlXlXlXlXlXlXlXlXlXlXlXlXlXlXlXlXlXlXlXlXlXlXlXlXlXlX. $ Z P j { o.l l 5 % * 4.uXy.$.A 5 > R 5.5.u.a.p.a.a.a.u.[ -.L.M.m.E P z j -.:.z g g l l l l l l l z z l l z z J G G G A J J G $.{ A A J S S S G J J J l J J J J A S S S G { { [ A A A [ G A J J J J J J z J l A A { X.X.G G G J D F G G G A J S [ [ A J J J J J z z J J J J J J J J z z z l l z J J l l l l z z z z z z z z l l l l l l l j g g g g R -.J G %.*.5.3.5.[ ..t.4.7.i.Q.U.P.:.A ] q.a.a.p.#.# > A S A 7 , J I.-.=.5.y.s.s.a.s.s.a.a.i.u.t.u.a.a.t.4.:.=.%.R R W ",
"G 5 y.5.=.*.;.t.s.s.a.a.a.u.t.t.u.s.u.t.t.t.;.*.-.P k J W.X.5 5 0 ] ] * 4 @.q.9.@.] 6 A *.1.7.5.2.2.1.1.S < 2.Q R R R j , z R Z i , i a g g g g j l z j j j z j j k z z l z z Z J J J J J J J F R =.=.=.G J $.%.$.$.$.=.=.=.%.=.=.=.=.&.&.*.=.=.*.4.4.4.:.=.W =.=.%.=.:.:.=.W W :.5.:.*.=.%.%.=.%.=.=.=.*.5.y.y.y.5.5.4.*.=.*.:.5.:.*.*.*.4.*.*.*.*.*.%.%.%.%.=.=.W R R =.=.=.=.E R z j j j $.4.l l 4.7.P.!.-Xo.+.s.s.s.s.s.t.;.=.5.{ * > j J @.i.#.o > 0 ..,.t.;.j P P . lXlXlXlXlXlXlXlXlXlXlXlXlXlXlXlXlXlXlXlXlXlXlXlXlXlXlXlXlXlXlXlXlXlXlXlXlXlXlXlXlXlXlXlXlXlXlXlXlXlXlXlXlXlXlXlXlXlXlXlXlXlXlXlXlXlXlXlXlXlXlXlXlXlXlXlXlXlXlXlXlXlXlXlXlXlXlXlXlXlXlXlXlXlXlXlXlXlXlXlXlXlXlXlXlXlXlXlXlXlXlXlXlXlXlXlXlXlXlXlXlXlXlXlXlXlXlXlXlXlXlXlXlXlXlXlXlXlXlXlX. $ Z P j &.;.] l 8 % > t.jXQ.%.J 5 , R P.U.i.s.0X0Xs.s.u.S -.L.M.H.E P z g W 2.E z l J G J S S S G R R P R R W =.=.=.%.G G %.=.=.$.G G %.%.%.%.%.$.F Z G $.=.%.G %.%.=.*.*.:.:.&.{ o.;.:.*.%.G R W =.=.=.E W X.S [ &.*.%.R R %.=.=.=.=.W R G %.&.&.o.{ J J R E E R J J J J G R R F J J J J J J J J J J J z z J J J Z J R R J J J Z J J Z k k j a i k E E l %.4.4.5.5.5.....t.4.y.Q.Q.P.2.:.A ] t.s.a.p.#.# 4 S [ A 6 , J U.=.%.4.u.s.s.s.s.s.s.s.i.t.t.u.a.a.u.4.:.=.=.%.R W ",
"$.5 i.y.*.*.;.4.u.s.s.a.a.u.u.t.t.u.t.t.t.t.:.%.E x k R U.&.5 5 0 ] ] * 4 #.q.q.@.] 7 l :.1.U.3.1.=.1.1.D i 2.H.Q R Z g , z W R z , i j k j g g k k z k g k k k k k k Z J k k k R R R R R F F R W -.=.W R R =.:.=.R %.=.2.:.:.*.*.2.5.4.:.:.*.*.5.i.y.7.5.:.-.-.*.=.:.2.:.-.E Q 2.5.5.5.=.=.=.:.:.-.=.=.*.5.i.~.i.i.y.7.5.5.:.5.5.5.*.:.5.5.5.5.7.7.5.*.*.*.:.:.:.-.=.=.=.=.-.:.-.R J l l z =.*.7 A :.5.2.Q.-Xo.] s.s.qXs.s.t.o.*.5.{ > > j J ;.i.#.o > 0 #.t.u.;.j P P . lXlXlXlXlXlXlXlXlXlXlXlXlXlXlXlXlXlXlXlXlXlXlXlXlXlXlXlXlXlXlXlXlXlXlXlXlXlXlXlXlXlXlXlXlXlXlXlXlXlXlXlXlXlXlXlXlXlXlXlXlXlXlXlXlXlXlXlXlXlXlXlXlXlXlXlXlXlXlXlXlXlXlXlXlXlXlXlXlXlXlXlXlXlXlXlXlXlXlXlXlXlXlXlXlXlXlXlXlXlXlXlXlXlXlXlXlXlXlXlXlXlXlXlXlXlXlXlXlXlXlXlXlXlXlXlXlXlXlXlX. $ k x j *.:.#.A 7 * > y.jX=X=.A 7 > G 2.5.t.s.eXeXs.s.u.A W L.B.m.R R J g F 2.=.Z z F %.%.%.&.&.%.W W Q Q -.=.=.*.*.=.R R =.:.:.R G %.*.*.*.*.:.=.R Z =.:.:.*.=.=.:.*.*.5.5.5.;.o.o.4.5.4.*.W %.=.-.-.-.-.=.%.X.X.*.*.%.R =.-.:.-.Q W E F R :.:.*.$.{ R R R E E R R Z J P W =.W P J R P R J J G G F J z J z J R R R P P R R J J J J J J z k a i a z =.F g o.t.4.7.U.7.] +.u.y.i.i.7.:.:.:.A ] t.a.a.t...> 4 #.#.A 6 , J P.R J :.u.a.a.s.s.s.s.s.i.4.t.u.a.a.u.t.:.=.$.E R =.",
"$.7 i.y.;.*.4.4.4.u.a.a.u.u.u.t.@.;.t.t.t.4.*.R P k k R U.=.5 5 6 b A # 4 o.q.q.#.A 6 A *.-.H.I.H.Q W W D < 2.H.E P Z j , j J R k g a g k g a a k x P k a k k k k Z P P P k s k P P P P P P R R E W W P R P =.-.W R E W =.-.=.=.=.2.5.5.-.=.*.5.7.y.i.7.:.:.-.-.=.Q -.-.-.E R E :.5.5.5.W R Q H.-.Q W =.*.5.i.~.Q.y.7.5.5.5.=.5.5.5.:.:.5.5.5.7.7.5.2.:.=.*.2.:.=.R R E E E -.-.=.P Z z z F 1.S 7 A ;.*.2.U.=X;...s.s.qXs.u.4.&.-.5.{ > 5 l A ;.i.] X 4 0 #.t.a.4.l P R o lXlXlXlXlXlXlXlXlXlXlXlXlXlXlXlXlXlXlXlXlXlXlXlXlXlXlXlXlXlXlXlXlXlXlXlXlXlXlXlXlXlXlXlXlXlXlXlXlXlXlXlXlXlXlXlXlXlXlXlXlXlXlXlXlXlXlXlXlXlXlXlXlXlXlXlXlXlXlXlXlXlXlXlXlXlXlXlXlXlXlXlXlXlXlXlXlXlXlXlXlXlXlXlXlXlXlXlXlXlXlXlXlXlXlXlXlXlXlXlXlXlXlXlXlXlXlXlXlXlXlXlXlXlXlXlXlXlXlXlX. o z x j &.;.#.A 7 * * y.gX~.*.A 7 , A :.:.y.s.eXrXqXa.t.] W L.M.m.E W A , z -.-.J z J R %.=.%.$.R R P R R W W W W =.W P P Q -.Q J J R =.=.=.=.-.W R Z Q -.:.-.=.-.-.:.=.:.5.5.*.&.*.4.5.4.*.=.=.-.Q R Q -.-.=.=.=.=.W R W -.-.H.E R E R Z W :.:.=.G G R P P P I P x k Z P W W R R Z P P P Z Z P P Z k z z z k P R R Z s k Z J k Z z Z k k a a j k R =.l 7 [ 4.5.W.5.7.] ..u.y.i.7.1.=.2.:.l ] @.q.p.t...* 5 #.o.] 0 , J H.E J &.4.t.u.s.s.s.s.s.u.4.t.i.s.s.u.t.4.=.P R R -.",
"{ 7 i.5.*.*.;.;.4.i.s.a.a.a.u.t.t.u.u.u.t.4.*.R J k k R U.%.5 5 6 A ] > 8 @.@.@.#.A 6 J =.Q H.H.H.m.E R F g -.E P P P k , i k R Z k k k k k k k x P x k k k k k x P R R P k x P P P P P E E R R R E E E R R E -.-.Q Q Q W -.-.:.:.5.P.2.-.:.:.5.7.U.7.5.:.:.-.-.-.-.-.-.-.-.Q Q -.:.5.:.E R Q H.Q E Q Q 2.U.Q.Q.W.7.5.5.5.:.:.2.2.-.:.:.2.P.P.P.2.2.-.Q Q -.H.2.Q R W E E W -.W E P Z J F =.2.l 5 A *.*.7.Q.=X@...s.s.qXs.u.t.*.-.:.{ > 5 l G ;.i.[ X 4 0 #.t.a.4.l R J . lXlXlXlXlXlXlXlXlXlXlXlXlXlXlXlXlXlXlXlXlXlXlXlXlXlXlXlXlXlXlXlXlXlXlXlXlXlXlXlXlXlXlXlXlXlXlXlXlXlXlXlXlXlXlXlXlXlXlXlXlXlXlXlXlXlXlXlXlXlXlXlXlXlXlXlXlXlXlXlXlXlXlXlXlXlXlXlXlXlXlXlXlXlXlXlXlXlXlXlXlXlXlXlXlXlXlXlXlXlXlXlXlXlXlXlXlXlXlXlXlXlXlXlXlXlXlXlXlXlXlXlXlXlXlXlXlXlXlXlX. o k m j &.;.#.] 0 * * y.sXi.o.A 7 5 A :.:.i.eXrXrXs.u.t.] W L.b.Q P W J , j W -.P J P W %.=.=.W R R W Q -.Q Q E W Q -.E E E E R P P R W W Q Q Q E P P Q Q -.Q Q -.-.-.-.-.2.2.=.=.*.:.:.-.-.-.Q Q E E Q -.-.-.-.-.-.W Q Q -.-.Q R R W R R -.-.-.=.E W Q E R E E E I P R R E E R R R R P P P P E P k k k x x x P P P k k k k x k Z k k k k a k k R E $.g 5 A &.*.U.5.7.] ..u.u.i.4.4.*.*.*.l A @.q.p.q...* 4 o.o.] 7 , J U.E J %.4.t.u.a.a.s.s.s.s.a.u.s.a.u.u.y.5.*.R R P -.",
"J 5 y.4.%.=.&.*.4.i.s.a.a.a.p.p.a.a.a.u.t.@.o.o.%.J z R W.&.5 5 9 ] ] > 8 @.@.+...A 7 z :.2.H.^ Q m.Q =.G g W R W Q E k , g Z Z z l j z z z z z k k k k k k k k z Z Z Z x k k k k k k k R P R R R R R P R R R R E E R P R W %.=.=.=.=.W W %.=.*.5.5.:.*.*.:.-.=.=.:.=.=.=.=.=.=.=.=.=.=.R R -.-.Q R R W :.7.W.W.y.7.7.5.5.5.:.:.-.=.-.-.:.5.5.5.2.2.:.:.:.5.P.2.-.=.=.=.:.:.=.=.R J J G R *.%., , [ o.4.Q.&X-X@...a.s.s.s.u.t.:.=.:.[ * 5 l J *.i.[ o 4 0 #.t.t.@.l J z . lXlXlXlXlXlXlXlXlXlXlXlXlXlXlXlXlXlXlXlXlXlXlXlXlXlXlXlXlXlXlXlXlXlXlXlXlXlXlXlXlXlXlXlXlXlXlXlXlXlXlXlXlXlXlXlXlXlXlXlXlXlXlXlXlXlXlXlXlXlXlXlXlXlXlXlXlXlXlXlXlXlXlXlXlXlXlXlXlXlXlXlXlXlXlXlXlXlXlXlXlXlXlXlXlXlXlXlXlXlXlXlXlXlXlXlXlXlXlXlXlXlXlXlXlXlXlXlXlXlXlXlXlXlXlXlXlXlXlXlX. $ k m g o.;.#.] 0 * * t.iXy.[ l 7 5 J -.:.i.rXrXqXs.u.t.] W K.m.H.W W G j l %.R J z J J G G G F J J G R R E E R R R $.=.W R R P P R P P P P R P P R R R R R E P R R P W W -.=.W W %.=.=.W =.-.Q W P P E W W W W R J J P W W W P R J J J J R P J J J R P R P P P P P Z Z k k k k Z P k k k k Z Z k k s k k k k k k k k k k z k z z z z k k j j j z R z 5 7 J %.%.5.U.7.A ..u.u.u.t.4.:.*.%.l 0 +.q.t.q.] * 4 o.o.] 8 > J U.=.J &.4.t.u.a.a.s.a.s.s.a.a.a.u.t.t.y.5.=.R P P :.",
"z , 4.*.G %.%.:.y.i.u.u.a.a.a.a.s.a.a.t.t.t.@.@.;.{ J $.Q.&.5 5 0 ..] # 4 @.@.#...A 5 l *.1.2.-.-.2.-.=.S < %.W =.2.W Z 5 7 7 , * * * % % % % % % % % % * * % % * * * * * % % % % % % * > * % % % % % % % % % % * * * * * > > > > > * * * > > , , 5 4 > , , , , , 5 , , , , , , 5 , , , , , , , , , , , 5 7 7 7 7 5 7 7 5 5 5 5 , , , , , 5 5 5 5 , , , 5 5 5 5 5 5 5 7 5 5 5 , , , , 5 5 7 5 * 5 o.;.5.Q.&X-X4.] p.a.s.a.u.u.5.=.:.A * > l J *.Q.[ o 4 0 #.q.t.@.l J z . lXlXlXlXlXlXlXlXlXlXlXlXlXlXlXlXlXlXlXlXlXlXlXlXlXlXlXlXlXlXlXlXlXlXlXlXlXlXlXlXlXlXlXlXlXlXlXlXlXlXlXlXlXlXlXlXlXlXlXlXlXlXlXlXlXlXlXlXlXlXlXlXlXlXlXlXlXlXlXlXlXlXlXlXlXlXlXlXlXlXlXlXlXlXlXlXlXlXlXlXlXlXlXlXlXlXlXlXlXlXlXlXlXlXlXlXlXlXlXlXlXlXlXlXlXlXlXlXlXlXlXlXlXlXlXlXlXlXlX. . $ k P i { @.#.] 0 > > 4.iXy.[ l 7 5 J -.-.y.s.qXqXs.t.t.] W L.H.K.-.=.%.j 5 5 > * * * * * * % % % % * * * * * * * * * > * * % * * * * * * * * * > * * * * * * * * ; * * > > > > > * * > , , , , > * * * > ; ; * * * * * > > > > * * * * * * * % * * * * * * % % % % % % % % % % * * % % * * % % % % % % % % % % % % % % % * * * * * % % % % % % % , > , l A %.=.5.U.7.A ..u.u.u.t.4.:.*.%.l b #.q.q.9.] * 4 o.o.A 8 > J U.W J &.4.t.y.u.a.s.a.0X0X0Xa.a.a.u.t.4.4.*.$.R F :.",
"z , 4.*.G %.%.*.4.4.t.u.a.a.a.p.s.a.a.a.a.t.t.t.@.[ S %.Q.&.5 5 0 ..] # 4 @.t.q.#.A 5 l *.X.*.4.5.5.=.=.A < =.2.1.-.=.J , * X X X X X . . . X X . . . . X X o X X X X X X X X X . X X X X + + # # # # + # # # # # # # # # # # # * # # # # # # # # # + # # % # # # # # # # # # # # # # o o o # # # # # # # # # # # # # # # # # # # # # # # # # # # # # # # # # # # 1 4 4 > # # # # # X X X X o * l ;.;.U.Q.Q.-X4.] p.u.u.i.i.i.y.*.:.A * , j J =.Q.{ o 4 0 ..@.t.o.j Z j . lXlXlXlXlXlXlXlXlXlXlXlXlXlXlXlXlXlXlXlXlXlXlXlXlXlXlXlXlXlXlXlXlXlXlXlXlXlXlXlXlXlXlXlXlXlXlXlXlXlXlXlXlXlXlXlXlXlXlXlXlXlXlXlXlXlXlXlXlXlXlXlXlXlXlXlXlXlXlXlXlXlXlXlXlXlXlXlXlXlXlXlXlXlXlXlXlXlXlXlXlXlXlXlXlXlXlXlXlXlXlXlXlXlXlXlXlXlXlXlXlXlXlXlXlXlXlXlXlXlXlXlXlXlXlXlXlXlXlX. . $ Z U l &.;.#.] 0 * > 4.iXy.{ l 7 5 z -.W 5.s.rXqXs.u.t.] =.{.K.U.2.=.%.7 o . X X . o o # # # # # # # # * * # # # # + + + X X + + + # # + + + + + + + + + + + + + + + + X X + + + + + + # + + + + + + # + + @ @ + + # # # # # # # # o X o o + + + # + + + # + X X X X X + X X X X X X X + + X X X X X + X X X X + + X X X X X X # # o o X X X X . o # 7 C C W W -.P.5.A #.u.i.i.4.4.*.*.=.A ] #.9.9.@.] > 5 o.o.A 5 , J P.R J &.4.4.y.t.a.a.a.0X0X0Xa.s.a.a.u.t.t.:.%.G G :.",
"J , 4.*.G $.%.%.*.:.t.u.u.u.a.p.a.a.p.a.p.p.p.q.o.] A R W.$.5 5 0 ....# 4 @.t.t.@.A 5 l *.=.*.4.4.4.1.*.A > *.3.2.2.W z , o X X X # # * ; > > > > > > > > > 5 5 4 5 4 4 5 5 5 5 5 5 4 4 4 4 6 8 6 6 6 4 4 4 4 4 4 4 6 6 6 6 8 5 5 6 6 7 6 6 6 6 6 6 6 6 7 7 6 8 6 8 8 8 8 8 8 5 6 6 6 5 5 5 8 8 6 6 8 5 5 5 5 8 6 6 5 4 4 5 6 6 6 6 6 6 9 6 0 0 0 0 l _ 0 0 0 0 0 0 ] ] A A 0 0 0 6 6 4 > > > 5 A :.5.W.U.Q.-Xo...u.t.y.s.=X~.5.*.:.A * 5 l J =.Q.o.o 4 0 ..@.4.o.j Z j . lXlXlXlXlXlXlXlXlXlXlXlXlXlXlXlXlXlXlXlXlXlXlXlXlXlXlXlXlXlXlXlXlXlXlXlXlXlXlXlXlXlXlXlXlXlXlXlXlXlXlXlXlXlXlXlXlXlXlXlXlXlXlXlXlXlXlXlXlXlXlXlXlXlXlXlXlXlXlXlXlXlXlXlXlXlXlXlXlXlXlXlXlXlXlXlXlXlXlXlXlXlXlXlXlXlXlXlXlXlXlXlXlXlXlXlXlXlXlXlXlXlXlXlXlXlXlXlXlXlXlXlXlXlXlXlXlXlXlXlX. % J Y Z *.;.#.] 0 * # 4.iXi.&.A 7 5 A =.W 7.=XyXwXs.y.t...o.K.K.U.1.=.X.7 o X # * > > > 4 4 5 8 8 6 7 6 6 9 9 9 6 6 7 4 5 5 5 5 5 5 8 7 6 9 9 9 9 9 6 8 8 6 6 6 6 6 8 8 4 4 6 6 8 8 5 5 5 4 4 4 4 6 6 8 6 4 4 4 4 4 5 4 4 6 6 6 6 6 6 5 6 7 6 6 6 5 5 4 4 4 4 4 4 4 4 4 6 4 4 4 4 4 6 6 6 8 7 4 4 4 4 4 4 > > > 4 5 5 5 5 5 6 6 6 7 7 5 5 5 > > * * > l J Z W Q Q H.2.A #.4.i.i.5.*.=.*.*.J ] #.@.@.@.] * 5 *.X.A 7 , J P.P Z %.5.4.4.4.u.a.a.a.s.a.a.a.a.a.a.s.p.t.&.{ G :.",
"G > 4.*.G R { %.*.4.y.s.a.a.a.a.s.s.a.a.t.t.t.q.@.[ A F 5.{ 5 8 0 ] ] 4 4 @.t.t.@.A 5 z 2.1.1.*.4.4.1.o.A 5 :.2.-.Q P k i , * o # ; > > > > > > , , , * , , , , , , , , , , , , , , , , 5 , , , 5 5 5 , 5 5 , , 5 5 5 5 5 8 5 5 5 5 7 7 5 5 7 7 7 5 5 5 5 5 5 5 7 7 7 5 5 5 5 5 5 5 5 , 5 5 8 5 5 7 5 7 g g g l l l 7 7 7 0 7 5 5 7 7 7 7 7 7 7 7 7 7 7 7 l l A A A [ A A A A A A l 0 7 5 5 , , z %.2.U.P.!.-X[ ..i.y.i.=X=X=X5.*.:.A * 5 l J *.%Xo.o 4 0 #.<.4.*.j P a . lXlXlXlXlXlXlXlXlXlXlXlXlXlXlXlXlXlXlXlXlXlXlXlXlXlXlXlXlXlXlXlXlXlXlXlXlXlXlXlXlXlXlXlXlXlXlXlXlXlXlXlXlXlXlXlXlXlXlXlXlXlXlXlXlXlXlXlXlXlXlXlXlXlXlXlXlXlXlXlXlXlXlXlXlXlXlXlXlXlXlXlXlXlXlXlXlXlXlXlXlXlXlXlXlXlXlXlXlXlXlXlXlXlXlXlXlXlXlXlXlXlXlXlXlXlXlXlXlXlXlXlXlXlXlXlXlXlXlXlX. % P Q j { o.#.] 0 * # 4.uXQ.&.A 7 5 J -.-.W.=Xs.s.i.i.p.O.X.3.2.7.2.*.%.j * * # * , , , 5 4 7 5 5 5 5 5 7 7 7 7 7 7 7 7 j g , , , , 7 7 7 7 7 7 5 5 5 7 7 7 5 7 7 7 5 7 7 7 5 5 5 g , , , 5 5 7 , 5 5 , , , , , , , , , , , , > > > > > > 5 > , , , , , > , , , , , , , , , , , , , , , , , , , > > , , , > * * > , , , , 5 5 5 , 5 , 5 , > > > * * > j l k Q 2.H.I.H.A  .;.*.*.=.W W :.:.z ] #.9.9.@.] * 5 X.X.A 5 , z H.P Z R *.:.:.t.u.s.s.0Xs.a.a.s.a.a.s.s.a.u.;.{ G :.",
"G , 5.:.G G R %.*.t.y.s.s.a.a.a.a.s.p.p.t.t.q.,.o.A A J 2.J 5 6 0 #.A * 5 o.@.@.#.A 5 Z 2.2.:.*.*.@.<.@.] 5 *.*.W W Q k i k , . o o o o % % o o o # o # % % % % % * * * * % * % % * * % * * * > * * * * * * * * * * > > ; ; > > > > > , , > > > > , , > > > > > > > * > > * * * * > > * * * * > 4 > > > > , 5 , , 5 > > > > 5 5 5 5 5 5 , , 5 5 , , 5 5 5 5 5 5 5 7 7 7 7 7 6 6 4 ; * * * * * , A G :.U.5.U.&XX.] i.i.Q.=X=Xi.5.:.4.A * , j z E U.%.o > A o.;.4.%.d v.s   lXlXlXlXlXlXlXlXlXlXlXlXlXlXlXlXlXlXlXlXlXlXlXlXlXlXlXlXlXlXlXlXlXlXlXlXlXlXlXlXlXlXlXlXlXlXlXlXlXlXlXlXlXlXlXlXlXlXlXlXlXlXlXlXlXlXlXlXlXlXlXlXlXlXlXlXlXlXlXlXlXlXlXlXlXlXlXlXlXlXlXlXlXlXlXlXlXlXlXlXlXlXlXlXlXlXlXlXlXlXlXlXlXlXlXlXlXlXlXlXlXlXlXlXlXlXlXlXlXlXlXlXlXlXlXlXlXlXlXlX  $ P z.s R ;.#.] 0 * * 4.uX7.&.{ 7 5 J -.:.7.s.i.i.y.y.u... .5.=.4.5.*.%.J g $ % % * * * * * * > > > > > > 4 > > > > > > > > > > > > , , > > > > > = > > > > > > * > > > * * * * * % % * * * * > * * > > * * * * * * > > ; * > > > > * * > > , > * % * * * * * * * * % % * * * * * * * * * * * * % % % * * * * * % % * * * * * * * * * * * # # # + # # 7 l l W H.J.H.^ S &.=.Q Q Q Q E -.=.J ] #.9.q.9.] * , J J l 7 , k P.E z P E *.4.a.a.s.s.s.s.a.0X0Xs.u.a.s.a.t.o.{ A *.",
"G , 5.5.%.%.=.=.:.t.u.s.a.s.a.a.a.a.p.t.t.t.t.;.o.A A J 2.J 5 4 0 #.] > 5 o.@.#.#.A 7 Z 2.:.:.=.*.4.@.@.] 5 *.=.R W W l g R j % * % * * % * > > , , > > , & , , , , , , , , , , , , , , , , , , 5 , , , , , > > , , , , , , , > > > > , , > > > , , , , > > > > > , , > * * * * * * * * * * * > * > > > > , , , , > > ; > > * * * * * * * * > , > > > > > > > > > > > , , , > > ; * * * % * > l $.J =.5.3.U.&XX.] i.i.i.i.i.y.5.:.4.[ * , j z J :.{ o > A o.;.;.G d Z.P . lXlXlXlXlXlXlXlXlXlXlXlXlXlXlXlXlXlXlXlXlXlXlXlXlXlXlXlXlXlXlXlXlXlXlXlXlXlXlXlXlXlXlXlXlXlXlXlXlXlXlXlXlXlXlXlXlXlXlXlXlXlXlXlXlXlXlXlXlXlXlXlXlXlXlXlXlXlXlXlXlXlXlXlXlXlXlXlXlXlXlXlXlXlXlXlXlXlXlXlXlXlXlXlXlXlXlXlXlXlXlXlXlXlXlXlXlXlXlXlXlXlXlXlXlXlXlXlXlXlXlXlXlXlXlXlXlXlXlXlX  $ Y n.P W :.o.[ 0 * # 4.uX:.{ { 7 5 R F.P.5.u.y.i.i.s.u.] X.5.=.*.5.*.G J J , % * * * * * * * * > > , > > , , > > > > > , , , , , , , , , , , , 5 , , 5 5 , , , , , , , , , > > > , , , > > , , , = * > * * * * * * * * * , , , , , > , > , , , > > > , , = , , , , * > , > > > > > , , , , , , > > > , > > > * , , , > > > > > > , , , , > > * * * , A J Z R -.-.2.3.X.o.*.:.:.-.Q W Q =.A ] @.t.p.q.] # > J G l 7 , J P.E z J E *.y.a.a.s.a.a.s.s.a.s.s.u.i.s.u.4.o.{ S *.",
"G , 5.5.$.%.*.*.:.4.u.a.u.u.a.a.a.a.p.q.t.t.t.;.X.A A J H.R 5 4 9 ] A * 5 o.@.#.#.A 7 k :.:.:.*.*.4.*.o.[ 5 =.=.W R P g , R J i , , i g i g l A l l j k k s k k z z z z l z j z z z z z k k k z J l l l l l l l z z z l z l l l l l l l l l A A J Z l J J J A A A J J l l l l l g j l l l l l l j j j z J J J J J J l l l l j j j j j j l j g j l l l l A A l l l l l l l A A A A l l j g g l %.=.J =.*.2.K.Y.X...s.i.i.y.t.4.5.4.5.[ * , j z Z :.{ o > l o.&.o.G d M.R   lXlXlXlXlXlXlXlXlXlXlXlXlXlXlXlXlXlXlXlXlXlXlXlXlXlXlXlXlXlXlXlXlXlXlXlXlXlXlXlXlXlXlXlXlXlXlXlXlXlXlXlXlXlXlXlXlXlXlXlXlXlXlXlXlXlXlXlXlXlXlXlXlXlXlXlXlXlXlXlXlXlXlXlXlXlXlXlXlXlXlXlXlXlXlXlXlXlXlXlXlXlXlXlXlXlXlXlXlXlXlXlXlXlXlXlXlXlXlXlXlXlXlXlXlXlXlXlXlXlXlXlXlXlXlXlXlXlXlXlX  $ Y n.m R =.[ A 0 * # 4.-X*.G S 7 5 R G.G.:.t.u.i.i.s.u.] X.5.-.%.%.%.J l G l , , , , 5 j l j j j l l z j g g l A A l A l z l z z z z J J J J J J J J J J J J J J l l l l l l l A l z l l l l j j j g l l l l l l g g g j j j j l l l l l l l l l l l j j j j l l l l l l l l l l z k j j z l l l l l j j j j j j j j l l l l l j l l l j j g a g i z $.J J A S W -.5.[ #.4.5.5.1.=.W =.%.l ] +.t.t.,.] # > G K A 7 > J P.E z R W *.t.a.a.a.a.a.s.s.s.s.s.i.t.t.5.:.X.G J *.",
"{ , 5.5.G G %.*.:.4.u.u.t.u.a.a.a.a.p.p.t.t.4.X.G A J J H.R 5 4 6 A 0 # 5 o.4.@.#.A 7 x -.-.:.2.5.5.4.;.A , =.=.W W G 5 , J P k a a a j j j J J Z Z Z P x d x k k J J J J k k P P P P P P x k Z J J J J J J J R R P P R R R R G G G G R $.%.%.%.W G G R %.%.%.&.&.=.=.=.=.*.=.W F F R W W G J J J Z J R E =.=.%.=.=.%.%.W R R R R G R R W P J G &.&.X.X.X.{ G G R R R R F R %.%.X.{ G J J Z J =.K C =.=.=.K.Y.X...s.i.y.t.t.4.4.4.5.{ * , g z J 2.%.o > 0 [ X.o.W d c.k   lXlXlXlXlXlXlXlXlXlXlXlXlXlXlXlXlXlXlXlXlXlXlXlXlXlXlXlXlXlXlXlXlXlXlXlXlXlXlXlXlXlXlXlXlXlXlXlXlXlXlXlXlXlXlXlXlXlXlXlXlXlXlXlXlXlXlXlXlXlXlXlXlXlXlXlXlXlXlXlXlXlXlXlXlXlXlXlXlXlXlXlXlXlXlXlXlXlXlXlXlXlXlXlXlXlXlXlXlXlXlXlXlXlXlXlXlXlXlXlXlXlXlXlXlXlXlXlXlXlXlXlXlXlXlXlXlXlXlXlX  $ U z.d P E J l 7 * # ;.-X*.G A 5 , R P.G.=.t.y.s.s.s.u.A S P.-.=.R R l g J G j i i j l J A G G G R E R R k Z R %.=.%.%.R R P P P E E E R R E R R R $.R =.=.%.%.%.%.R G G G G G X.R R R $.G F F Z Z G %.%.%.o.{ P J J J P P Z z J G { G G G A G G G F Z k k J J J J J G F F P P P R P k k Z J J J J J J J J J Z Z k k J F J J l l z z z k k h p a j W %.l J S S K 2.5.A #.u.i.y.4.*.%.=.W l A ..#.@.+.A # 5 X.%.l 5 > z P.E J $.%.*.4.a.a.a.a.p.a.s.s.s.s.s.t.4.4.*.$.G J =.",
"{ , 5.:.J J J %.;.4.t.t.p.a.a.a.s.p.p.p.t.u.;.{ S J J J H.R 5 4 6 0 6 # > #.@.#.#.A 7 R -.W =.5.7.7.5.;.A 5 :.-.W W G 7 > z R k s s s s k k J F Z Z P P x d x P P J J J R R x P P P P P P P P P P R R G J J P R P R R R P R E E R W R R R %.*.=.=.P R W =.-.=.*.*.=.=.=.:.2.:.Q R E W -.=.R F R E R P R E -.*.=.*.:.:.2.:.=.W =.=.=.=.W Q W R %.*.*.W R K R G R E E E R P R %.=.=.%.R F J J R %.J A *.%.-.Y.&X=.] s.i.i.s.a.t.:.:.5.[ * > g k J 5.X.* > 6 A { o.%.d c.k   lXlXlXlXlXlXlXlXlXlXlXlXlXlXlXlXlXlXlXlXlXlXlXlXlXlXlXlXlXlXlXlXlXlXlXlXlXlXlXlXlXlXlXlXlXlXlXlXlXlXlXlXlXlXlXlXlXlXlXlXlXlXlXlXlXlXlXlXlXlXlXlXlXlXlXlXlXlXlXlXlXlXlXlXlXlXlXlXlXlXlXlXlXlXlXlXlXlXlXlXlXlXlXlXlXlXlXlXlXlXlXlXlXlXlXlXlXlXlXlXlXlXlXlXlXlXlXlXlXlXlXlXlXlXlXlXlXlXlXlX  $ U f.t P E l 7 > o # ;.-X:.G z 5 > R P.:.&.t.u.i.s.s.t.A G H.Q -.R R J 5 j %.k a i k Z J G G G E -.Q E P P R =.*.*.=.W W Q Q W W E Q W E W Q Q Q Q =.E Q -.=.W =.-.%.W %.=.%.%.%.W W =.=.=.W R P P =.:.:.*.=.W P P R R E R P J R =.=.R G J F R E W R P P P R P P R R R P E W W R P P P P P R P R G J J J J R P P x k R P P J J J Z k z k k p p i k =.F g J X.%.=.H.3.A +.s.s.i.4.;.=.%.W l l ] ] +.#.A # , S S l 5 > z P.R J G %.*.4.u.a.a.a.a.a.s.s.s.s.s.t.4.4.=.R J k -.",
"{ , 5.*.J J J %.;.t.u.a.a.a.a.a.a.a.p.p.p.u.4.X.G J l z 2.%.5 6 8 0 6 * > #.#.#.#.] l R :.W =.4.5.y.4.@.A g 2.2.=.W G 7 > l E P k a a p k k k Z k k x x d f d x k k k Z R P P P P E P P P P P Z J R R R R R R R R R R P P P E E E R R R E =.:.-.W P E W -.-.=.=.=.W W -.:.2.-.E R Q Q -.W P P R R R P P E =.*.*.:.:.:.5.:.-.W -.-.-.=.E Q E W =.*.=.%.W W W E E E E E P R W =.=.R R J J J Z -.W l [ *.*.2.Y.&X=.] _.s.s.s.a.t.:.*.5.[ * * 5 j J 1.X.* > 7 A { o.X.s c.k     lXlXlXlXlXlXlXlXlXlXlXlXlXlXlXlXlXlXlXlXlXlXlXlXlXlXlXlXlXlXlXlXlXlXlXlXlXlXlXlXlXlXlXlXlXlXlXlXlXlXlXlXlXlXlXlXlXlXlXlXlXlXlXlXlXlXlXlXlXlXlXlXlXlXlXlXlXlXlXlXlXlXlXlXlXlXlXlXlXlXlXlXlXlXlXlXlXlXlXlXlXlXlXlXlXlXlXlXlXlXlXlXlXlXlXlXlXlXlXlXlXlXlXlXlXlXlXlXlXlXlXlXlXlXlXlXlXlXlX  $ P M p P R j , > o # ;.-X*.J l , * J :.:.&.t.t.i.s.s.t.A G P.Q Q P R A 5 5 R P k i k P P R R R E W E I P P P E =.=.=.E R Q Q Q Q E E Q =.Q Q x.Q Q Q Q Q -.Q -.-.-.=.%.*.5.2.=.W R W =.=.-.Q R P R -.:.:.:.=.P P R E E E I I R Q Q W P P R P R Q E E I P R R R R W W W R W -.Q Q E I I P P R R E R P R R R P P P x x x P Z Z k k k z k a a a i a k =.Z i J %.=.2.H.3.C o.s.i.y.4.4.*.*.%.l A ..#.@.@...# > l l 7 5 > z H.R l A X.*.4.u.u.u.a.a.s.0Xs.a.a.a.u.u.4.&.J z k E ",
"{ , 5.*.J J G X.:.t.u.a.a.a.a.a.a.a.p.t.t.u.t.o.{ A l z 5.=.5 8 8 0 6 * 4 #.@.@.o.[ l J :.=.1.4.4.y.4.@.[ j 2.-.W W R l > j R R k a a a p p s k k s p s t t s s s s k z k J P k x P x s s k k k z J P J k k k x x x x s s x P P P R R Z P E W R R Z P R W E P R J P W W -.Q P P P P P P Z k J R P P P P R W =.:.:.=.=.-.-.E R E W E E P P R E =.W R J Z J J P P P P x P P R R J k k k k k P :.%.l *.4.*.2.P.Y.=. ._.s.s.s.a.t.:.*.5.[ * > 5 j G 5.{ # * 0 #.o.@.[ u z.a     lXlXlXlXlXlXlXlXlXlXlXlXlXlXlXlXlXlXlXlXlXlXlXlXlXlXlXlXlXlXlXlXlXlXlXlXlXlXlXlXlXlXlXlXlXlXlXlXlXlXlXlXlXlXlXlXlXlXlXlXlXlXlXlXlXlXlXlXlXlXlXlXlXlXlXlXlXlXlXlXlXlXlXlXlXlXlXlXlXlXlXlXlXlXlXlXlXlXlXlXlXlXlXlXlXlXlXlXlXlXlXlXlXlXlXlXlXlXlXlXlXlXlXlXlXlXlXlXlXlXlXlXlXlXlXlXlXlXlX  . P I u k J j i , % # 4.-X%.z l , * D :.:.*.t.u.s.y.u.t.A K P.x.E R J A 5 , G W k i s k k k J Z Z k x s d d x Z P R R P P P R R P P P R -.E I I E I P P R R R E R R W F R =.-.R R J P E =.W P P x R R E -.E R P P P I P P m m P P P P k Z R Z P P P P d d d s k P P P Z k P P P P d d d d s s k Z k k k k k x d f f s s s k k k k k j a a a a a z Z W j g F W Q x.N.3.C #.i.y.y.4.4.:.*.%.l l #.,.t.t.] # , j g 5 5 > z 2.R A [ &.;.4.t.t.t.u.a.s.0Xa.a.p.a.s.a.t.&.J j j =.",
"X.> 5.*.G G G $.*.4.u.a.a.u.t.a.a.a.p.t.t.4.4.*.=.A g j H.=.5 5 5 0 7 * , o.;.@.@.o.l z -.Q 5.7.5.1.*.*.J z 2.Q P F F l , l *.W Z z k k z Z J R P P P x d d d x P P P P P P P P R Q E R P k Z R P P R E R P R R P R P P Z R P Z Z P R P P W R R R P P W Q E Z Z E Q -.Q Q Q E E R E E R R P R R R P R R W =.2.5.5.:.-.=.=.=.W Q -.=.E E E >.:.-.=.R R =.R R E E R R P E =.=.R J Z Z k k R 2.5.W J &.4.:.-.H.U.K  .s._.yXs.s.t.4.=.4.[ * > 5 l %.5.;.* * l [ @.;.A a -.k .   lXlXlXlXlXlXlXlXlXlXlXlXlXlXlXlXlXlXlXlXlXlXlXlXlXlXlXlXlXlXlXlXlXlXlXlXlXlXlXlXlXlXlXlXlXlXlXlXlXlXlXlXlXlXlXlXlXlXlXlXlXlXlXlXlXlXlXlXlXlXlXlXlXlXlXlXlXlXlXlXlXlXlXlXlXlXlXlXlXlXlXlXlXlXlXlXlXlXlXlXlXlXlXlXlXlXlXlXlXlXlXlXlXlXlXlXlXlXlXlXlXlXlXlXlXlXlXlXlXlXlXlXlXlXlXlXlXlXlX  . k M a Z J j g > # # 4.Q.&.l l > * J *.*.i.s.a.a.u.t.+.A J P.Q R P F J 5 , J -.P k k Z P E W E R R R R R P P P W =.-.-.-.E E Q -.Q W -.-.W R E Q F.F.-.E R =.:.:.-.=.:.=.=.W %.=.E E W W W Q E R R Q Q -.Q E P P E Y I I E E E P P R R E R I E E E E I I P P P E E E E P P P P P I I I P P P P P P R P P P P I I P x P P P P P P k k k k s k k P -.$., a F W R Y N.H.A ..4.4.4.4.;.*.*.&.l l ..@.q.q...# > j g 7 5 , z P.E A { %.*.4.@.@.4.t.s.s.a.p.a.p.a.s.s.t.o.J z k =.",
"&., 5.:.G { X.&.;.t.u.a.u.t.t.a.p.a.t.t.4.;.;.&.%.A l Z P.:.5 5 8 l 0 * 5 o.4.@.@.#.l J -.W 2.5.5.2.5.4.A l -.Q =.W W z 5 j A g , , , , , , , , , , , , , , , , , , , , , , 5 , , g g , , , , , 5 5 5 g i g 5 5 g g g i i g g 5 , 5 g g g g g 7 5 7 5 g j g 7 7 l l A J J J J z l l l l l j l l j j j j l A J l l l l l l l z z J J z z A z A A A l l l l l l l l l l l l A l l l l l A A { G l A :.4.5.P.Y.Y.X. .s.s.s.s.s.i.4.*.4.{ * > 7 A 5.i.*.o * 7 [ o.;.S k H.k .   lXlXlXlXlXlXlXlXlXlXlXlXlXlXlXlXlXlXlXlXlXlXlXlXlXlXlXlXlXlXlXlXlXlXlXlXlXlXlXlXlXlXlXlXlXlXlXlXlXlXlXlXlXlXlXlXlXlXlXlXlXlXlXlXlXlXlXlXlXlXlXlXlXlXlXlXlXlXlXlXlXlXlXlXlXlXlXlXlXlXlXlXlXlXlXlXlXlXlXlXlXlXlXlXlXlXlXlXlXlXlXlXlXlXlXlXlXlXlXlXlXlXlXlXlXlXlXlXlXlXlXlXlXlXlXlXlXlXlX  . s m a R R Z l , o # 4.~.:.A l > * J =.=.y.s.s.s.u.t.,.A A P.-.-.=.%.G j 5 A A l g , , , 5 g g 7 7 5 g 5 , , 5 7 7 j j g g g g g 5 5 7 , , , , i g i g 5 5 5 7 7 7 7 7 g 7 7 7 j g j j l l l j g g g j j g g g 5 g i i i g g g , , , 5 5 5 , , , , , , , , , , , , , , , , , , , , i i , , , , , , 5 5 5 5 g g i i i g 5 7 g g g i i i , , , , j J l , j Z P E ^ N.H.A ..4.4.4.4.4.*.2.=.l l #.q.q.,.] # , j j 7 5 , J P.W A { &.;.4.t.t.u.p.s.a.a.a.a.a.a.a.u.t.;.{ J k -.",
"&., 5.:.G X.X.;.4.u.a.a.a.u.a.a.p.a.t.t.4.;.:.&.%.A z R Y.:.5 4 6 l l # 5 @.t.t.#.] l J -.W -.:.5.5.7.4.A g Q -.-.2.-.J , * o . . . . . X . X X X X X . . X . . . . . X X X X X X X X X . . . X X X X X X . . . X o o . . o X X . X X X X X X X X X X X X + + X + + + + X o o # o X X o o o o o o o o o # # % o # # # # # # o # # # # # # * # # # # + + + + + + # # # + # # + X X # # o o * # # 0 ;.4.U.!.&X&XX...a.a.a.a.s.i.4.*.4.o.* * j G 5.U.&.o # 6 ] @.;.G Z I.k .   lXlXlXlXlXlXlXlXlXlXlXlXlXlXlXlXlXlXlXlXlXlXlXlXlXlXlXlXlXlXlXlXlXlXlXlXlXlXlXlXlXlXlXlXlXlXlXlXlXlXlXlXlXlXlXlXlXlXlXlXlXlXlXlXlXlXlXlXlXlXlXlXlXlXlXlXlXlXlXlXlXlXlXlXlXlXlXlXlXlXlXlXlXlXlXlXlXlXlXlXlXlXlXlXlXlXlXlXlXlXlXlXlXlXlXlXlXlXlXlXlXlXlXlXlXlXlXlXlXlXlXlXlXlXlXlXlXlXlX  . s d a P =.J l > o # ;.=X5.{ l > * J =.=.4.t.i.i.y.u.t.A S 7.2.5.5.:.{ 7 % * # X . X X X X o o X X X X X o X X X X X X X X X X X X X X X o o o o o o # # # X X X X X X X X X X X # # # # # # # # # # # # # # # # + + + + X X # X X X + + + X X X + X X X X X . . . X X X X X X X X X X X X X X X X X X X X + X X X X X X X X X X o o o X X X o X o # * a P Q H.N.B.N.C +.4.4.t.t.4.%.=.%.l A o.9.@.+...* , l j 7 5 > J I.E J o.;.4.u.a.a.a.a.a.a.a.a.p.a.a.a.a.t.;.{ z z -.",
"$., 5.:.G X.X.;.t.a.a.a.a.a.a.p.a.a.t.t.t.t.t.4.:.{ z J U.:.5 4 6 l l * 5 @.t.@.#.] 7 J :.R W :.5.U.i.y.S g Q 2.-.Q Q Z * o X X X # # # # # # # # # # # * * * * * * * * * # * # # # * * * # # * * * # # * * * * * * * * * > > > > > > > > # * > > > > * * > 4 4 4 4 4 4 4 > > > > > > 4 4 > > > > > > > > > > > > > > > > > 4 > > > 4 > > > 4 4 4 4 4 4 > > > > > > > > > > > * * * * * * * * * A :.5.W.&X*X&XX...a.a.a.a.a.u.4.=.:.{ * * j J -.5.&.# # 6 ] ;.;.G Z J.k .   lXlXlXlXlXlXlXlXlXlXlXlXlXlXlXlXlXlXlXlXlXlXlXlXlXlXlXlXlXlXlXlXlXlXlXlXlXlXlXlXlXlXlXlXlXlXlXlXlXlXlXlXlXlXlXlXlXlXlXlXlXlXlXlXlXlXlXlXlXlXlXlXlXlXlXlXlXlXlXlXlXlXlXlXlXlXlXlXlXlXlXlXlXlXlXlXlXlXlXlXlXlXlXlXlXlXlXlXlXlXlXlXlXlXlXlXlXlXlXlXlXlXlXlXlXlXlXlXlXlXlXlXlXlXlXlXlXlXlX  . s m a E :.F l > * * ;.uX5.&.j > * J =.W *.4.t.y.i.i.t.A A 7.5.5.5.:.[ 5 o o X X o # > > 4 > > > > > > > > 4 4 4 > > > > > > > 4 4 4 4 4 4 4 > > 4 4 4 4 4 4 > > > > > 4 4 4 4 4 4 4 4 4 4 4 4 5 8 8 8 8 6 4 4 6 4 4 4 4 4 4 4 4 4 4 4 6 6 4 4 4 4 4 4 > > > > ; > > > > > * - * * * * * > > > > > * * # # # # # # * * # # # # # * * * # # o # X + + > a Z E H.L.B.N.A +.t.u.i.u.4.G R R l l o.q.q.@...* 5 j j 7 5 > J P.R A o.:.t.u.a.a.a.a.a.a.a.p.u.a.a.a.s.u.4.{ J z -.",
"{ = 5.:.G X.X.;.t.u.u.p.p.a.a.p.a.u.t.u.u.t.u.4.:.{ A J U.=.5 4 6 l 0 * 5 @.4.@.@. .7 J :.W W *.7.U.i.i.[ g -.2.Q E E Z , % # # * > > > > > 5 5 , , , , , , , , , , , , , , , , , , , , , , , 5 5 , , , , , 5 5 5 5 5 , 5 5 5 7 7 7 7 7 6 5 7 7 7 7 7 7 7 7 7 7 7 7 7 7 7 7 7 7 7 7 7 7 7 7 7 7 7 7 7 7 j j j 7 7 j j 7 7 7 7 7 7 7 7 7 7 7 7 7 7 7 7 7 7 7 7 5 5 7 7 7 7 7 7 5 5 5 5 5 5 5 , , l =.5.i.Q.&X%X[ ..a.s.s.s.a.u.4.=.*.{ * * g j P :.&.* * 6 ] @.;.F Z J.s     lXlXlXlXlXlXlXlXlXlXlXlXlXlXlXlXlXlXlXlXlXlXlXlXlXlXlXlXlXlXlXlXlXlXlXlXlXlXlXlXlXlXlXlXlXlXlXlXlXlXlXlXlXlXlXlXlXlXlXlXlXlXlXlXlXlXlXlXlXlXlXlXlXlXlXlXlXlXlXlXlXlXlXlXlXlXlXlXlXlXlXlXlXlXlXlXlXlXlXlXlXlXlXlXlXlXlXlXlXlXlXlXlXlXlXlXlXlXlXlXlXlXlXlXlXlXlXlXlXlXlXlXlXlXlXlXlXlXlX  . k m i =.5.W C > * * 4.uX7.$.j > * A -.W :.4.t.i.s.s.t.] A 7.5.4.4.*.A 7 > * * * > , 5 7 0 0 0 j 7 7 7 7 7 l l l 7 7 7 7 7 7 7 7 7 7 7 7 7 7 7 7 7 7 7 7 7 7 7 7 7 7 7 l l 7 7 j j j 0 l l l l j j j j j 7 7 7 7 5 5 7 7 7 7 5 5 7 7 7 7 7 l 7 7 7 j 7 7 5 , , 5 5 5 5 , 5 , , , , , , , , , , , , , , , , , , , , , , , , , , , , , 5 5 , > > * * * , k Z K Q m.N.^ A 9.p.a.s.a.4.X.W %.l l #.q.q.t.#.# 4 l l 7 5 , z P.R A %.:.y.u.p.a.a.a.a.a.a.a.p.a.a.a.s.u.;.X.J k :.",
"{ > 5.:.G X.X.*.4.t.t.t.p.p.p.p.t.t.t.u.u.u.t.;.%.J z J P.=., 4 6 l 0 * 4 @.t.@.,.#.0 J *.W =.4.5.y.y.t.A g 2.H.2.-.W Z , * % o * * , , > , 5 5 , , , , , , , , , , , , , , , , , , , , , , , , , , , , , , , 5 5 5 5 , 5 5 5 g 7 7 7 7 7 7 7 7 7 j 7 7 7 7 , , 7 7 7 g g g 7 7 7 7 7 7 7 7 7 7 7 7 7 g j j j g l l j j 7 7 j 7 7 7 j j g 7 7 j j 7 7 7 j g g g 7 7 7 7 5 7 g g 7 5 5 5 5 5 > , l %.5.5.W.%X%X ...a.s._.s.s.u.4.=.*.{ * * g l P 2.&.* * 7 A o.@.G Z J.s .   lXlXlXlXlXlXlXlXlXlXlXlXlXlXlXlXlXlXlXlXlXlXlXlXlXlXlXlXlXlXlXlXlXlXlXlXlXlXlXlXlXlXlXlXlXlXlXlXlXlXlXlXlXlXlXlXlXlXlXlXlXlXlXlXlXlXlXlXlXlXlXlXlXlXlXlXlXlXlXlXlXlXlXlXlXlXlXlXlXlXlXlXlXlXlXlXlXlXlXlXlXlXlXlXlXlXlXlXlXlXlXlXlXlXlXlXlXlXlXlXlXlXlXlXlXlXlXlXlXlXlXlXlXlXlXlXlXlXlX  . k I a -.5.W C , * * 4.=X5.A j * * J -.Q 5.y.a.s.s.a.t.] S 7.5.*.:.=.J l 5 % * * > , 5 7 7 7 j j j j j j l l l l j j l l l l j g j j j 7 g j j j j g 7 7 7 7 g g 7 5 7 j j j j j g j 7 j l l j l l l g g l l j j g g g l l g 7 g g g j j l j j j j j g g g g g g g g 5 , , , , , , , , , i i 5 , , , , , , , , , , , , , , , , , , , 5 5 , , , * > * g k L K R Y N.3.] q.p.a.a.a.t.%.=.=.l A #.@.9.q.+.# 5 A A l 7 , z P.E J $.*.5.t.p.a.a.a.s.a.a.p.a.a.a.u.t.4.o.S z z =.",
"{ * 4.*.G { X.%.*.4.t.t.p.p.a.p.t.t.t.t.t.u.t.%.G J k P P.=., 4 0 ] l > 4 @.u.t.,.#.0 J 1.1.5.4.4.t.t.4.A j 5.U.U.U.2.Z , = $ o % % * * * > > > > > > > > , , 5 , > > > > > ; > > > > > > * > , , , , , , , > > > * = = , , , , , , , , 5 5 > , , , 5 5 5 , , > > > > > , > > > > > , , > > , 5 , , 5 , 5 5 5 5 5 7 5 5 5 5 5 5 5 5 , , 5 , , , 5 5 5 , , , , , 5 5 5 , 5 5 5 5 5 , , , > * o > J *.5.5.i.%X=X#.O.a.s.s.s.s.i.4.*.*.X.* * j J W 5.*.# > 0 A  .o.J x J.k .   lXlXlXlXlXlXlXlXlXlXlXlXlXlXlXlXlXlXlXlXlXlXlXlXlXlXlXlXlXlXlXlXlXlXlXlXlXlXlXlXlXlXlXlXlXlXlXlXlXlXlXlXlXlXlXlXlXlXlXlXlXlXlXlXlXlXlXlXlXlXlXlXlXlXlXlXlXlXlXlXlXlXlXlXlXlXlXlXlXlXlXlXlXlXlXlXlXlXlXlXlXlXlXlXlXlXlXlXlXlXlXlXlXlXlXlXlXlXlXlXlXlXlXlXlXlXlXlXlXlXlXlXlXlXlXlXlXlXlX  . k P a E -.J l , ; * 4.=X5.z j * > G -.-.5.i.s.s.a.a.t.A S 7.5.1.2.=.J z g % * * > > , 5 5 4 5 5 5 5 5 , 5 5 5 5 , , , , 5 5 , , 5 5 5 , , , , 5 , , > > , , , , > , , , , , , , , , > , 5 5 , 5 5 5 5 5 5 5 5 5 5 , , , , , , , 5 5 5 5 5 , , 5 5 , , , 5 , , , > > > > > > > > * * > , , , , > > > > > > > , , , , , , , , , > , , , , , > > ; ; % g k P 1.1.^ N.3.] q.a.a.s.a.t.*.=.W z ] @.t.t.t.#.# 7  .S l 5 , z P.W J R %.*.4.p.p.a.a.s.a.p.p.a.s.a.u.4.*.X.A z z =.",
"{ , *.*.G G X.G %.4.t.t.p.p.a.t.4.t.t.u.t.u.4.&.R z k P P.=., 5 l o...4 > @.u.p.q.+.0 S 5.2.5.y.t.4.,.@.A l P.K.U.5.W l i z & . o o % % % % % % % * * % % * * % % % % % % % % % % % * * % % % % % % % * % % % % % * % * * * * % * % * % % % % % % % % % % % % % $ % % % % * * > * * * % % * * * * > , > * * * = , , , , , , , , , = * * % * % * * * % * * % % % * % % % % % * * % $ % % o % o l [ o.y.5.i.=X=X#.#.a.s.a.a.s.i.y.:.:.G * * j z -.5.&.# > 7 A { o.F d Z.P .   lXlXlXlXlXlXlXlXlXlXlXlXlXlXlXlXlXlXlXlXlXlXlXlXlXlXlXlXlXlXlXlXlXlXlXlXlXlXlXlXlXlXlXlXlXlXlXlXlXlXlXlXlXlXlXlXlXlXlXlXlXlXlXlXlXlXlXlXlXlXlXlXlXlXlXlXlXlXlXlXlXlXlXlXlXlXlXlXlXlXlXlXlXlXlXlXlXlXlXlXlXlXlXlXlXlXlXlXlXlXlXlXlXlXlXlXlXlXlXlXlXlXlXlXlXlXlXlXlXlXlXlXlXlXlXlXlXlXlXlX. s P a R R z l 5 * * ;.~.:.J j * * J -.=.4.s.qXeXs.p.q.] ] i.5.5.4.*.J j J % % % % * * * * * * * * * * * * * * , = * * * % * > > > , , * * * % * * * * * * * > , * * * % * * * * > > * * * > > = * * * * * * * % * % % % % % % * * * * * * * > * * * * > * > * % % * * * * * * * * % % % * * * * * * % * * * % % % % % % * * % % $ % * % % % % % . , k k P 1.2.N.N.3.] ,.u.s.s.i.4.=.=.R J ] t.s.s.a.#.# 5 *.S l j , z P.R R E R %.4.t.p.a.a.s.a.t.t.a.s.a.t.t.;.{ J z z =.",
"{ , :.*.G G %.%.*.4.t.t.t.u.u.t.;.t.t.t.t.t.4.&.R J k P K.=.5 5 l o.#.4 > @.p.t.q...9 S 5.2.5.u.i.4.4.4.A J H.2.W W J j j E j % % * , , , g g g 5 5 5 5 5 5 g g g g g g g g g g g g g g g g g j j j j j j j j j l l l l j j l j l j j g j j g j j z z J l l l l l l l j l l l l A A z z l l J A A J J z Z Z z j l l l l l l l l l l j j j z l A A l l l l l l l g g l l g j j j 5 , , 5 , , , o.o.o.y.y.Q.-X=X#.#.a.a.a.s.s.i.i.:.:.{ > > j z -.5.&.# > 0 A { o.F d T.k .   lXlXlXlXlXlXlXlXlXlXlXlXlXlXlXlXlXlXlXlXlXlXlXlXlXlXlXlXlXlXlXlXlXlXlXlXlXlXlXlXlXlXlXlXlXlXlXlXlXlXlXlXlXlXlXlXlXlXlXlXlXlXlXlXlXlXlXlXlXlXlXlXlXlXlXlXlXlXlXlXlXlXlXlXlXlXlXlXlXlXlXlXlXlXlXlXlXlXlXlXlXlXlXlXlXlXlXlXlXlXlXlXlXlXlXlXlXlXlXlXlXlXlXlXlXlXlXlXlXlXlXlXlXlXlXlXlXlXlXlX. k P a J R J l j * * 4.=X4.A l , * G =.=.<.a.0Xs.a.t.,.] A 7.1.4.4.*.J l %.z , , , , , , , 7 j j j j j g g g j j j g j j g j j j j l l l l l l l l l z l l l J l j j l l l l l l l l l l A A J l l l l l l l j j j j j g g g l l l l l l l l l l A A l l z J J J A l l A A A A l l l l j j l l j 0 l l l j j g g g , , , , g g j i g 5 5 , , , , , z =.J P 1.-.m.M.2.] ,.u.s.u.t.;.%.=.W J #.t.p.p.t.#.* 7 *.S A j , J K.R P Q -.*.4.t.p.a.p.a.a.t.t.u.s.a.a.t.4.%.A z k =.",
"J = 5.*.G G %.=.5.y.t.t.t.t.t.t.t.4.t.t.u.t.:.%.G J k R P.%., 4 0 #.#.6 > @.t.q.,...0 D 2.2.4.4.y.y.y.y.S J I.Q Z P P l i =.E k i i j z J J R R R R R R R R E R R R R R R R R R R R R R R R J J J J J J J J J J R E R R $.$.%.$.%.{ %.%.=.=.=.=.:.2.:.*.*.*.=.=.5.5.2.*.*.:.:.*.*.*.*.*.*.*.*.*.=.=.=.=.-.-.-.-.5.5.5.:.:.5.*.*.*.:.:.:.-.E $.*.:.*.*.;.&.=.%.%.R R W G G %.&.%.G J z z z l A 5.A ] 5.5.Q.-X=X#.+.s.a.s.s.s.t.4.*.*.{ > > j z W 5.*.# > 0 [ &.*.G m M.k     lXlXlXlXlXlXlXlXlXlXlXlXlXlXlXlXlXlXlXlXlXlXlXlXlXlXlXlXlXlXlXlXlXlXlXlXlXlXlXlXlXlXlXlXlXlXlXlXlXlXlXlXlXlXlXlXlXlXlXlXlXlXlXlXlXlXlXlXlXlXlXlXlXlXlXlXlXlXlXlXlXlXlXlXlXlXlXlXlXlXlXlXlXlXlXlXlXlXlXlXlXlXlXlXlXlXlXlXlXlXlXlXlXlXlXlXlXlXlXlXlXlXlXlXlXlXlXlXlXlXlXlXlXlXlXlXlXlXlXlX. k P a Z F J l 7 * * 4.=X4.A l , * G *.=.4.s.s.a.p.p.t...S 7.=.=.*.*.J g E -.J z j z J J G %.=.*.4.4.*.*.*.4.5.4.4.4.5.5.5.5.5.4.1.5.5.5.5.2.5.5.5.5.:.=.%.=.*.=.R $.=.:.:.:.*.:.:.*.*.4.4.5.5.5.5.5.5.2.*.4.5.:.*.1.1.*.*.:.5.:.5.5.;.*.4.*.*.;.;.&.$.%.R W =.=.%.{ [ X.{ { $.G J R R G J G G G S S J J G J J J J R J J J G G G J J z l j j j j k =.-.Z F K W m.M.2.] ,.u.s.t.4.*.%.*.W J #.t.p.q.t.#.# 7 *.S A 7 , J K.R R E -.5.4.t.u.u.t.t.t.a.u.t.u.a.a.u.4.*.J z z =.",
"A = 5.*.G G G =.5.5.t.4.4.4.t.t.t.4.4.t.t.t.;.X.F J k P P.R , > 0 [ ..6 > +.t.q.q.#.b F 5.7.4.@.4.7.U.U.R P I.Q R P W l & R E k k k k R P P R J R R R P R P R R R R R R R R P P P P P P P R R k Z R R E R J J R W =.E R %.=.:.%.%.%.:.=.=.=.=.=.-.:.:.:.5.7.:.:.7.2.-.-.:.5.:.*.=.2.5.2.:.:.5.2.:.-.W Q -.-.Q -.5.7.5.4.:.5.5.5.2.:.:.-.-.E =.5.5.5.4.4.5.*.=.=.:.:.W R W *.5.:.%.G J R J J =.5.0 A *.4.W.-X=X..@.s.s.s.s.u.4.;.*.*.{ > * j z R 5.*.# > 0 [ &.;.%.d c.a     lXlXlXlXlXlXlXlXlXlXlXlXlXlXlXlXlXlXlXlXlXlXlXlXlXlXlXlXlXlXlXlXlXlXlXlXlXlXlXlXlXlXlXlXlXlXlXlXlXlXlXlXlXlXlXlXlXlXlXlXlXlXlXlXlXlXlXlXlXlXlXlXlXlXlXlXlXlXlXlXlXlXlXlXlXlXlXlXlXlXlXlXlXlXlXlXlXlXlXlXlXlXlXlXlXlXlXlXlXlXlXlXlXlXlXlXlXlXlXlXlXlXlXlXlXlXlXlXlXlXlXlXlXlXlXlXlXlXlXlX. k P i J R D A 7 # * 4.=X:.A l , * A 2.5.u.qX0Xs.a.a.p.#.S U.-.W %.=.z , k :.P Z z z Z J W %.%.*.5.5.*.=.*.1.5.*.1.5.5.5.5.5.5.:.:.:.2.5.2.-.2.2.5.5.:.-.=.2.2.-.=.$.=.:.:.:.:.5.2.*.5.7.7.5.2.5.5.2.2.-.=.:.2.:.2.2.:.:.:.:.:.:.5.5.4.4.4.5.4.4.5.*.$.=.Q -.-.=.%.*.;.*.%.X.%.W R P P R R P R W W R R $.%.$.R R E R R P P P J J F G J z k k k k P :.W k G =.W m.B.H.] ,.u.i.i.4.;.%.*.W J ] t.p.p.a.@.# 7 ;. .A 7 5 J K.R R P W 5.5.4.4.4.4.t.u.u.u.t.t.u.u.t.4.o.A z z =.",
"A , 5.*.J J G %.*.4.4.4.4.4.t.t.t.4.4.4.t.t.;.X.F k k Z P.G , 5 0 [ ] 4 > +.t.p.t.+.0 F 5.2.4.4.;.5.5.7.R Z H.Q E P P l = Z P k a s k k k k k k k P P x k k P x P R R R R R x x x P x x P k k k k P E E R Z Z P E E R Z E -.:.R R W :.=.=.W =.-.-.-.=.-.5.5.*.=.:.-.-.-.:.5.2.-.=.2.5.:.-.:.:.:.-.W R E Q Q Q -.:.2.:.*.:.4.:.:.:.-.-.-.-.E =.5.5.*.*.4.*.=.=.-.2.:.W W =.:.5.5.%.G J J z J =.o.7  .*.2.7.%X=X..,.s.s.eXrXs.t.;.:.5.%.> > 7 z =.7.4.* > 0 A o.t.:.d v.a     lXlXlXlXlXlXlXlXlXlXlXlXlXlXlXlXlXlXlXlXlXlXlXlXlXlXlXlXlXlXlXlXlXlXlXlXlXlXlXlXlXlXlXlXlXlXlXlXlXlXlXlXlXlXlXlXlXlXlXlXlXlXlXlXlXlXlXlXlXlXlXlXlXlXlXlXlXlXlXlXlXlXlXlXlXlXlXlXlXlXlXlXlXlXlXlXlXlXlXlXlXlXlXlXlXlXlXlXlXlXlXlXlXlXlXlXlXlXlXlXlXlXlXlXlXlXlXlXlXlXlXlXlXlXlXlXlXlXlXlX. k x , J %.K A 7 # * 4.-X7.&.A , * J 5.7.u.s.eXeXs.s.u...S U.2.=.R G z , a W R k k j k Z R R W %.:.5.*.=.=.=.%.%.*.5.2.:.-.:.:.:.=.=.-.:.-.-.-.:.:.5.-.W =.=.W W E =.:.:.-.-.:.2.=.=.*.7.7.:.:.2.2.-.Q -.-.=.*.*.2.:.:.=.W =.*.*.*.*.5.4.*.=.*.5.5.:.R R Q -.Q P R *.4.%.G G R R x x P P P P P W R P J P F J R x x x x P R R J Z Z J J k k k k s R -.k g G =.-.N.A.H.A +.u.s.i.i.5.;.*.R l ] q.p.p.a.@.> 7 @. .A 7 , A H.E R E W *.4.4.4.;.;.4.t.t.u.u.t.t.t.t.4.o.A z z =.",
"A > 5.*.J J G R %.4.4.4.4.4.4.t.t.4.4.;.@.;.;.X.G J z Z P.G 5 5 l A A 4 4 @.p.s.p.#.0 D 5.2.U.Q.5.5.5.7.G Z H.E P P W C , k R k j k k z k k k Z P R R P P P R x x x R R R R x x P P P P x k k Z R R R R R P R R E E R R R =.-.E E W =.W E W -.-.-.-.E =.2.5.*.%.=.W W =.:.5.5.:.=.:.5.:.=.-.:.:.-.-.W -.-.-.-.-.:.:.=.*.*.:.:.-.-.Q Q -.-.-.-.:.:.=.=.*.%.=.-.-.-.Q Q Q -.-.:.*.R J z z J =.5.A 5 [ *.2.5.Q.~...@.rXrXrXrXs.u.4.:.5.%.> * 7 J :.W.4.* 4 0 [ ;.u.4.d z.a     lXlXlXlXlXlXlXlXlXlXlXlXlXlXlXlXlXlXlXlXlXlXlXlXlXlXlXlXlXlXlXlXlXlXlXlXlXlXlXlXlXlXlXlXlXlXlXlXlXlXlXlXlXlXlXlXlXlXlXlXlXlXlXlXlXlXlXlXlXlXlXlXlXlXlXlXlXlXlXlXlXlXlXlXlXlXlXlXlXlXlXlXlXlXlXlXlXlXlXlXlXlXlXlXlXlXlXlXlXlXlXlXlXlXlXlXlXlXlXlXlXlXlXlXlXlXlXlXlXlXlXlXlXlXlXlXlXlXlXlX. k d i z G A l 5 # * t.iXQ.:.A , * A 5.7.u.s._.rX_._.a.#.S U.H.2.R G z , , G =.R z k z R =.%.=.=.:.5.5.*.*.=.%.=.:.5.2.:.-.-.:.:.:.:.-.:.:.:.-.-.:.2.:.2.2.-.=.W W :.-.-.W W =.:.=.=.2.5.7.5.2.:.-.-.-.:.:.*.=.-.2.2.:.:.:.-.=.=.*.:.:.:.%.%.*.5.7.5.=.=.Q -.Q P R =.%.%.R R P P x x P P P P P W E P J P R P R P P P P x k J J J Z P J z k k k k -.E i i D X.2.L. XK.] ,.i.s.s.s.y.4.*.G l ] t.a.a.a.@.> 7 *.X.l 7 , l H.P R E W *.4.t.t.4.:.5.y.t.t.t.t.t.t.t.4.;.{ z z =.",
"[ > 4.*.J J G G %.*.4.t.t.t.t.t.t.t.4.@.@.0.;.o.G J z Z H.G > 4 0 A l > 6 q.p.p.q.#.b C 2.H.}.Q.7.7.5.5.F Z H.Q W W W l * z R k z z z z z z k k Z Z Z Z P P P Z k k R R E P k k P R P P P k z z Z R R R R R P R P R R P R R W W =.E E W W W -.-.-.-.R R =.=.=.W =.-.-.=.:.2.2.-.=.:.:.-.$.=.=.=.=.E E W -.-.-.-.=.=.:.2.2.:.:.:.-.-.-.-.-.-.=.*.=.R $.%.W W -.-.Q Q E Q W E W $.J z z A $.5.:.j 7 X.*.2.5.W.~...@.rXrXrXqXs.u.t.:.5.%.> * 7 J 2.W.;.# 4 b @.t.s.;.s z.a     lXlXlXlXlXlXlXlXlXlXlXlXlXlXlXlXlXlXlXlXlXlXlXlXlXlXlXlXlXlXlXlXlXlXlXlXlXlXlXlXlXlXlXlXlXlXlXlXlXlXlXlXlXlXlXlXlXlXlXlXlXlXlXlXlXlXlXlXlXlXlXlXlXlXlXlXlXlXlXlXlXlXlXlXlXlXlXlXlXlXlXlXlXlXlXlXlXlXlXlXlXlXlXlXlXlXlXlXlXlXlXlXlXlXlXlXlXlXlXlXlXlXlXlXlXlXlXlXlXlXlXlXlXlXlXlXlXlXlXlX. z d i z G J l 7 * * t.iXi.X.l , * J 5.7.i.s.a.s._._.a.#.G K.H.2.R R J 5 , %.=.R z j j J R G W $.%.*.*.*.=.R R W =.-.-.-.-.W =.-.-.-.Q R =.-.-.=.=.=.5.5.2.:.=.-.-.:.-.W E P R W W =.*.2.5.5.2.-.W -.-.-.-.=.W W -.:.:.:.:.-.=.%.=.:.-.=.E W =.*.:.:.-.-.-.E P P P P R R R R P P P P x x x x P P P Z Z R P P P P x k k k k Z Z Z J J z z z z k J =.J , g S o.2.L. XK.A ,.i.s.s.s.t.@.*.%.J A q.a.a.a.@.4 7 *.K l 5 , l P.R R E =.*.4.t.y.y.:.=.:.5.t.t.t.4.4.t.t.4.&.J l =.",
"[ * 5.*.J G { X.o.4.t.t.t.4.4.4.4.4.4.4.t.t.;.o.G z k Z 2.G > 4 5 l l > 6 @.t.t.,. .l J -.H.K.3.1.4.4.4.G l 2.-.W W R l > 5 5 , > * * * * > * > > > > , , , , > > * * > > > * * * * * * * * % * * , , , , , , , , , , , , , , 5 5 , , , , , 5 5 5 , , , , , , 5 5 5 5 5 7 j 7 7 7 j j 5 5 5 5 5 5 5 5 5 5 5 7 5 5 7 7 l l l l l j j g g j 7 7 7 7 5 5 5 5 5 5 5 5 g g 7 7 5 7 5 5 5 5 8 6 0 7 , j X.:.:.2.W.Q.o.#.a.s.s.s.a.u.4.:.:.%.> > j J =.7.o.# 4 ] ,.u.a.@.a Y s .   lXlXlXlXlXlXlXlXlXlXlXlXlXlXlXlXlXlXlXlXlXlXlXlXlXlXlXlXlXlXlXlXlXlXlXlXlXlXlXlXlXlXlXlXlXlXlXlXlXlXlXlXlXlXlXlXlXlXlXlXlXlXlXlXlXlXlXlXlXlXlXlXlXlXlXlXlXlXlXlXlXlXlXlXlXlXlXlXlXlXlXlXlXlXlXlXlXlXlXlXlXlXlXlXlXlXlXlXlXlXlXlXlXlXlXlXlXlXlXlXlXlXlXlXlXlXlXlXlXlXlXlXlXlXlXlXlXlXlXlX. k d i R =.G J j * % 4.;X5.A j , * J 2.P.W.i.u.i.i.s.u. .F K.^ 2.W R J 7 > A 7 5 > % * > > * > > > 5 5 5 , , , 5 5 5 5 5 5 , , 5 7 5 , 5 5 7 5 , 5 5 j j 7 7 7 7 7 7 5 5 5 , , > > > > , 5 5 5 , , , , , 5 5 , , , 5 5 5 5 5 5 5 5 5 5 5 5 , 5 5 5 5 5 5 5 , > > > > , , , , > > , = * * * * > , , > * > , , = = = * * * * * * * > * * * * * * , 5 * * g F =.=.^ L.3.A +.u.s.s.t.@.o.;.*.J A +.q.q.t.@.4 7 %.S 7 5 > l U.E R R %.4.y.u.t.y.:.=.=.:.4.t.t.t.t.t.t.4.&.J z =.",
"[ * 5.*.G { o.o.;.t.t.t.t.@.@.@.;.4.t.u.u.u.t.#.S z k Z 2.G > > 5 l l > 6 ,.u.t.t.#.A J -.2.2.2.2.4.1.o.[ l 2.Q R F F l , * o o X o o o # o o X . X X o o o o X X X X . X X X X X X X X X X X o o o o o o o o # # # o o X o # # # # X # # # # # # # # # # # # # * # # o % * # # * * * # # o # # # # # # # # # # # * > > > > > > * * * * * # # # # # # + o o o o o o o X X + + + + + X o # o o * l R :.=.2.W.Q.o.#.p.a.s.s.a.u.t.&.=.G * * 5 z R 5. .# 4 ] ,.a.a.4.j x.P .   lXlXlXlXlXlXlXlXlXlXlXlXlXlXlXlXlXlXlXlXlXlXlXlXlXlXlXlXlXlXlXlXlXlXlXlXlXlXlXlXlXlXlXlXlXlXlXlXlXlXlXlXlXlXlXlXlXlXlXlXlXlXlXlXlXlXlXlXlXlXlXlXlXlXlXlXlXlXlXlXlXlXlXlXlXlXlXlXlXlXlXlXlXlXlXlXlXlXlXlXlXlXlXlXlXlXlXlXlXlXlXlXlXlXlXlXlXlXlXlXlXlXlXlXlXlXlXlXlXlXlXlXlXlXlXlXlXlXlXlXo k d i R W R J j * % :.;X5.A l , * z H.H.U.i.s.s.i.i.t.[ F 3.W W W R J 5 o # o o o # # # # # # # # # * * > > 4 4 > # # # # # # # * * * * * > ; > > * * * # # # # # * # # # # # # # # # # # # * * * * * * * * * # # # # # # # # # * * % # o # # # * * # # o o o o o o X X X o o o o o X . . . X . . X X X # o o o o o o o o # # o # # # # # # # # # o 5 l F =.-.Q m.2.A @.u.i.s.4.@.o.4.*.z A #.9.q.t.4.8 7 &.G 0 5 , Z U.E R J &.4.y.u.t.5.5.:.:.4.t.u.u.u.u.t.4.o.{ J z *.",
"[ * 5.:.G { o.;.4.u.p.t.q.@.@.o.@.4.u.u.p.p.t.o.S l j k 2.G > > 8 l 0 - 4 @.t.t.t.o.A J W W Q 3.5.4.*. .A l 2.E J J F C 5 # o * > > , , 5 , , 5 , , , , 5 5 7 7 l j 5 , > , > > > 4 5 5 5 5 5 5 7 7 5 5 4 5 6 8 8 5 5 5 6 6 6 7 6 6 6 0 0 7 7 0 7 7 0 7 7 7 5 5 5 7 5 5 4 5 6 6 0 0 9 7 6 6 6 6 6 6 9 9 9 9 9 9 0 0 0 0 0 0 0 0 0 0 0 7 7 6 6 6 6 6 6 6 8 8 8 6 6 4 4 4 8 8 8 8 8 8 5 , , > * , j G =.:.5.Q.Q.#...p.a.s.s.s.s.t.%.G J * * 5 z R 5.X.* 4 ] ,.u.a.4.Z J.E .   lXlXlXlXlXlXlXlXlXlXlXlXlXlXlXlXlXlXlXlXlXlXlXlXlXlXlXlXlXlXlXlXlXlXlXlXlXlXlXlXlXlXlXlXlXlXlXlXlXlXlXlXlXlXlXlXlXlXlXlXlXlXlXlXlXlXlXlXlXlXlXlXlXlXlXlXlXlXlXlXlXlXlXlXlXlXlXlXlXlXlXlXlXlXlXlXlXlXlXlXlXlXlXlXlXlXlXlXlXlXlXlXlXlXlXlXlXlXlXlXlXlXlXlXlXlXlXlXlXlXlXlXlXlXlXlXlXlXlXlXo z d r R R J J j * * 4.uXy.{ z 5 * z :.2.7.s._._.i.u.t.] S 5.W W W %.G 5 # X o > 5 7 5 5 6 7 6 7 7 6 7 0 A A ] A 0 9 9 9 9 6 6 6 0 0 0 0 0 0 0 0 0 0 0 0 0 0 0 0 0 7 0 0 0 0 7 6 6 7 0 0 0 0 7 7 0 0 0 0 0 0 0 0 0 0 0 0 0 7 7 7 7 7 7 7 7 7 5 5 5 5 5 5 , , 5 5 5 , > > > > > > , , , , , > > > > > > > > > > 4 5 , , 5 5 5 5 5 5 5 5 5 5 5 5 4 * * 7 J G =.2.Q m.2.A @.u.i.i.4.@.;.:.*.A l #.q.q.t.@.8 7 &.{ 0 7 , Z P.R R R &.;.t.u.u.t.5.5.5.t.u.u.a.a.s.t.4.o.{ J J *.",
"[ * 5.*.J { o.;.4.t.t.t.t.4.@.@.q.t.t.p.t.t.t.@.X.l j Z P.G , 4 6 A 0 # 4 @.t.t.q.#.l J W W W 3.U.5.*.X.A g -.W F R F l , * * > > > , 5 7 7 7 7 5 5 5 5 7 7 7 l l l 7 , > , 5 5 5 5 5 5 7 7 7 7 7 7 7 7 7 6 6 6 7 7 7 7 6 7 7 7 7 6 7 l l l l l l l l l l l l 7 7 7 7 7 6 6 7 0 0 0 0 0 0 0 0 0 0 l 0 0 0 0 0 A A A A A l l l l l l l l l l l l l l l l 0 0 0 7 7 7 7 0 0 0 0 0 0 0 7 7 7 5 , , l %.5.5.U.Q.Q.o.#.p.a.s.s.s.i.t.$.R J * * 5 z E W.o.> 4 ] @.t.u.@.Z J.Y .   lXlXlXlXlXlXlXlXlXlXlXlXlXlXlXlXlXlXlXlXlXlXlXlXlXlXlXlXlXlXlXlXlXlXlXlXlXlXlXlXlXlXlXlXlXlXlXlXlXlXlXlXlXlXlXlXlXlXlXlXlXlXlXlXlXlXlXlXlXlXlXlXlXlXlXlXlXlXlXlXlXlXlXlXlXlXlXlXlXlXlXlXlXlXlXlXlXlXlXlXlXlXlXlXlXlXlXlXlXlXlXlXlXlXlXlXlXlXlXlXlXlXlXlXlXlXlXlXlXlXlXlXlXlXlXlXlXlXlXlXo z d r E E J J 7 # # t.uXi.o.A 5 * l =.=.i.uXyX_.s.u.t.] S 5.W W W R J 5 * # * > 5 6 6 6 0 0 0 0 0 0 0 A A A A A A 0 0 0 0 0 6 0 0 l l l l l l l l l l l 0 b 0 0 l 7 0 l l l 0 7 7 0 0 l l 0 0 0 0 0 l l 0 7 0 0 0 0 0 0 0 0 0 0 l 0 7 7 6 7 7 7 7 7 7 7 7 7 7 7 7 5 5 5 5 , , , , 5 , , 5 5 5 5 , 5 5 5 5 5 5 5 5 5 5 5 7 7 7 7 7 5 5 7 5 5 5 6 > # 7 l K 1.2.Y H.P.A +.u.i.i.t.4.;.*.%.l 0 #.q.q.t.#.4 7 %.G l 7 , z P.R J %.;.;.t.t.t.t.4.4.4.t.t.a.a.a.a.u.4.*.{ J J :.",
"[ * 5.*.J G { o.@.t.t.t.t.4.4.4.t.t.t.t.t.q.@.@.o.l j Z P.R 5 5 7 A l # 4 @.t.t.q.#.0 J $.W W 5.7.7.4.4.S < =.W W W W l , * o o o # * > > > > > * * * * # # # # * * * # # # * * * * * * * * * * * * * * * * ; ; ; ; ; ; ; > > > > > > > > > , , , , , , > > > > > > > > > > > 4 4 4 , > > > > > 5 5 5 4 4 4 4 5 5 4 5 5 4 4 > 5 5 5 5 > > 5 > > > > > > > > > > > > > > > > > > > > > > > > > ; 0 &.7.7.U.Q.Q.o.] a.a.s.a.u.t.;.=.=.R * > j z W W.o.> 5 ] @.t.a.4.Z N.P .   lXlXlXlXlXlXlXlXlXlXlXlXlXlXlXlXlXlXlXlXlXlXlXlXlXlXlXlXlXlXlXlXlXlXlXlXlXlXlXlXlXlXlXlXlXlXlXlXlXlXlXlXlXlXlXlXlXlXlXlXlXlXlXlXlXlXlXlXlXlXlXlXlXlXlXlXlXlXlXlXlXlXlXlXlXlXlXlXlXlXlXlXlXlXlXlXlXlXlXlXlXlXlXlXlXlXlXlXlXlXlXlXlXlXlXlXlXlXlXlXlXlXlXlXlXlXlXlXlXlXlXlXlXlXlXlXlXlXlXlXo z u i -.2.P G j # # t.uXy.o.A 5 * l =.=.i.=XrXs.i.a.q.] [ 7.2.=.%.%.A 5 * . + # # > > 4 4 > > > > > 4 4 5 5 5 5 5 4 > 4 4 4 > > > > > 4 4 > > > > > > > > > > > > * > > 5 5 > > > > > > * * * > ; > > > > ; ; ; ; ; * * * * * * * * * * * * * > > > * * * * * * * * * * * * # * * * * * * * > > * * * > * * ; > > * ; ; > * * * > > > * * * * > # o > g W 2.Y Q H.K.A #.4.y.i.y.5.*.%.G l l #.q.q.q.#.4 7 &.G l 5 , l H.P J &.4.t.t.t.t.t.t.:.4.4.p.a.a.a.u.t.4.;.X.J k =.",
"] * :.=.J J G o.;.t.t.4.4.4.4.4.t.t.p.t.t.;.@.[ [ l z R P.=.5 5 7 A A # 4 @.t.t.q...l J %.o.o.4.5.7.5.4.X.g -.2.W W =.z , , % o o # * * * * * * * * * % # * * * * * * * * * * % % % % % % % o o % % % % % % % % % % % % % % % % % % % % % * % % % % % % % * * * * * * * * ; ; ; ; * * * * * * % % % % % % % % * * * * * * * * * * * * * * * * * * * * * * * * * * * * * * * * * * * * # * % % > l *.7.U.W.Q.Q.o.[ a.a.s.u.4.4.4.=.-.R * > j z E U.X.* 5 ] @.t.a.4.L N.P .   lXlXlXlXlXlXlXlXlXlXlXlXlXlXlXlXlXlXlXlXlXlXlXlXlXlXlXlXlXlXlXlXlXlXlXlXlXlXlXlXlXlXlXlXlXlXlXlXlXlXlXlXlXlXlXlXlXlXlXlXlXlXlXlXlXlXlXlXlXlXlXlXlXlXlXlXlXlXlXlXlXlXlXlXlXlXlXlXlXlXlXlXlXlXlXlXlXlXlXlXlXlXlXlXlXlXlXlXlXlXlXlXlXlXlXlXlXlXlXlXlXlXlXlXlXlXlXlXlXlXlXlXlXlXlXlXlXlXlXlXo Z d r Y Q L J 7 * # t.iXy.[ l , * z :.:.5.i.s.s.s.s.t.] [ W.3.5.2.*.J 5 j > # # # * * * * * * * * * * * * * * * * % % * * * * * * * * * * * * * * * * * * * * * * * * * * * * * * * * * * * * * % * * * * * * % % % % % % % * * * * * * * * * * * * * % % % % o o o % % % % o % % % % % % * * % % % % % * % % * * * * * * * # # % % % * * * * o % > g j W 2.^ m.M.P.[ @.4.4.y.y.5.=.R R l l O.@.9.9.#.4 7 &.G l 7 , l P.R R %.4.t.t.t.t.u.t.t.t.t.t.a.a.a.u.t.4.*.$.J z =.",
"] * :.=.J G G X.;.y.4.;.@.o.@.4.t.t.t.t.t.4.@.[ A l z P I.-., 5 7 S A - 4 @.p.t.9...l z %.1.1.4.4.4.5.4. .j 2.2.-.=.=.z j R j , , , , , , , 5 , , , , , , , , , , , , , > > , , , , , , , , , , , , , , , , , , , , , , , , , , , , , , , , , , , , 5 5 5 5 5 5 g 5 , , 5 5 5 5 5 5 , , , , , , , , , , , , , , , , , , 5 5 5 5 5 5 5 5 5 5 5 5 , 5 5 5 , , , , , , , > > > , , , , , , , , i G { G 5.5.5.7.y.o.o.u.u.s.u.4.4.4.-.-.R * > j Z W U.X.> 4 ] @.t.a.4.L L.U .   lXlXlXlXlXlXlXlXlXlXlXlXlXlXlXlXlXlXlXlXlXlXlXlXlXlXlXlXlXlXlXlXlXlXlXlXlXlXlXlXlXlXlXlXlXlXlXlXlXlXlXlXlXlXlXlXlXlXlXlXlXlXlXlXlXlXlXlXlXlXlXlXlXlXlXlXlXlXlXlXlXlXlXlXlXlXlXlXlXlXlXlXlXlXlXlXlXlXlXlXlXlXlXlXlXlXlXlXlXlXlXlXlXlXlXlXlXlXlXlXlXlXlXlXlXlXlXlXlXlXlXlXlXlXlXlXlXlXlXlXo E b.m Y U P J 0 # # t.sXy.[ l , * z H.2.5.4.i.s.s.s.u.]  .Q.U.7.:.%.z g { J > , , , , , g g g j g g g g g g g 5 , , g g g g < , , g g g 5 g i g j l l l l l j j g 7 7 5 , , 7 g 7 7 7 7 g 7 , , , , , < g g g i i 7 7 , , , , , , g i g g 7 g 7 5 5 g g , , , , , , , i i i , , , , , , , , , , , , , 5 , , , , i , 5 g 5 5 5 5 , , , , , , , , , J %.Z F 2.m.M.L.K.A +.4.;.5.7.5.=.E W z 0 +.9.q.q.+.4 6 &.R l 5 , l P.R R R *.4.y.y.u.t.t.y.t.t.u.a.u.u.u.t.4.&.G J k =.",
"A * :.*.J J G G &.:.4.;.o.o.@.,.t.t.t.4.4.4.;.X.A l l R I.W , 5 7 S A > 4 @.p.q.q...0 l =.4.4.4.4.4.4.*.A l 5.3.2.2.=.z j :.E j i g g j z z z k z k z z z z k j k z k k k k k k k k k k z z z J J J J J J Z J J J R R R G J z J J J J F F F F G G G { S G G G R R R R R K %.{ G G S G G G G G G R G G G D S G A J J F F G %.%.%.%.%.%.{ $.G G G G G { { G G G G G F F G F G X.X.X.G G G J k R U.$.J =.*.=.*.:.[ o.u.i.s.i.4.4.:.-.W J > > j J =.i.o.* 8 ] @.u.s.4.L T.Q .   lXlXlXlXlXlXlXlXlXlXlXlXlXlXlXlXlXlXlXlXlXlXlXlXlXlXlXlXlXlXlXlXlXlXlXlXlXlXlXlXlXlXlXlXlXlXlXlXlXlXlXlXlXlXlXlXlXlXlXlXlXlXlXlXlXlXlXlXlXlXlXlXlXlXlXlXlXlXlXlXlXlXlXlXlXlXlXlXlXlXlXlXlXlXlXlXlXlXlXlXlXlXlXlXlXlXlXlXlXlXlXlXlXlXlXlXlXlXlXlXlXlXlXlXlXlXlXlXlXlXlXlXlXlXlXlXlXlXlXlXo Y B.z.b.Y U D 7 # # 4.iX4.[ l 5 * J P.:.:.t.u.s.s.s.a.] X.U.5.2.=.R z g %.R j a a k k R R R =.=.=.=.=.=.=.=.R R R G G %.%.W P F G R %.%.G F P P W =.*.*.1.*.%.%.=.%.%.W R W W %.W W =.=.=.W W W R R R %.%.%.%.W W %.%.W G G F F F R W %.=.%.%.G F F R P x k k R J J F R R R Z k Z R R R J J J F P R R P F J Z Z P k k k z k k J z z z k j j j j j =.*.Z J 2.H.N.L.P.A #.4.4.5.5.-.W Q W z 0 @.q.e.t.@.4 7 G J l 5 , l P.R P R R *.5.5.4.t.t.y.u.t.t.u.u.t.;.&.=.%.R J z -.",
"A * 4.:.J J S { %.%.*.4.4.4.4.4.t.t.4.;.4.:.*.G J j l P H.R , 4 6 A A * 4 @.p.q.q...0 Z 2.5.5.2.*.*.o.o.l z 5.2.2.:.=.J , E Q k a g j z Z Z P R R R P R R P k k k P P P P P P P P P P P P P R J J R E R P P P R E =.*.*.%.J G =.=.-.-.-.-.:.2.2.:.*.:.:.*.=.E E W -.-.2.5.5.5.:.5.4.1.5.5.2.2.2.2.5.2.5.5.4.4.:.&.=.=.*.:.5.5.5.5.7.7.5.5.:.:.:.:.5.*.*.*.5.5.5.2.2.2.:.-.5.5.5.2.:.=.W P Z -.U.J A =.=.=.=.*.S #.t.i.s.i.t.4.4.Q W J , > j J %.y.o.# 4 A @.t.s.4.n  Xb..   lXlXlXlXlXlXlXlXlXlXlXlXlXlXlXlXlXlXlXlXlXlXlXlXlXlXlXlXlXlXlXlXlXlXlXlXlXlXlXlXlXlXlXlXlXlXlXlXlXlXlXlXlXlXlXlXlXlXlXlXlXlXlXlXlXlXlXlXlXlXlXlXlXlXlXlXlXlXlXlXlXlXlXlXlXlXlXlXlXlXlXlXlXlXlXlXlXlXlXlXlXlXlXlXlXlXlXlXlXlXlXlXlXlXlXlXlXlXlXlXlXlXlXlXlXlXlXlXlXlXlXlXlXlXlXlXlXlXlXlX. U b.f.C.B.U Z 7 * # ;.iX;.[ l 5 > A P.:.:.t.u.u.i.s.s.] [ U.2.:.W W A 5 G =.k k k Z R E =.:.P.5.5.5.5.2.2.2.-.-.-.=.=.-.:.-.Q -.=.*.5.5.=.=.-.-.W -.2.5.7.5.*.-.2.2.-.-.:.:.:.2.2.2.7.7.5.5.2.2.-.=.:.5.5.2.*.:.5.5.5.2.*.=.=.=.-.2.2.1.5.5.5.5.*.=.:.-.P R R Q =.W %.%.=.=.R P R E Q E P J R E E E W W W R R R P x k R R R P R P R R k k k k z k -.%.g Z =.-.N.N.5.A o.t.4.5.=.Q E Q W A b +.q.e.e.+.4 5 J z j 5 , j P.R P R E W -.*.4.4.t.u.u.t.p.u.y.4.*.%.W E R R k -.",
"[ * 4.:.J J G %.&.*.;.4.4.4.4.t.t.4.;.;.&.=.$.J z j l P H.R , 4 4 l l > 4 @.t.q.q...0 J 2.:.:.=.=.=.X.{ l A 5.-.=.=.=.G , Z E k a g j z k k R R R R P E P Z k k k P x x P P P P P P P P P W P Z J W W R P P E E E =.=.*.G J =.2.=.W -.-.-.:.5.5.:.%.:.y.5.=.E E Q =.:.5.5.1.*.:.5.5.5.*.*.5.5.2.2.5.5.7.5.4.5.5.5.5.2.5.5.*.:.5.7.7.7.5.7.U.5.5.5.5.:.*.*.5.7.7.5.5.5.2.:.5.5.5.5.:.=.W R R :.*.j [ :.*.-.2.7.[ ..t.t.i.i.5.4.*.R =.G 5 > j z G 5.o.* 4 A o.4.i.4.n B.z..     lXlXlXlXlXlXlXlXlXlXlXlXlXlXlXlXlXlXlXlXlXlXlXlXlXlXlXlXlXlXlXlXlXlXlXlXlXlXlXlXlXlXlXlXlXlXlXlXlXlXlXlXlXlXlXlXlXlXlXlXlXlXlXlXlXlXlXlXlXlXlXlXlXlXlXlXlXlXlXlXlXlXlXlXlXlXlXlXlXlXlXlXlXlXlXlXlXlXlXlXlXlXlXlXlXlXlXlXlXlXlXlXlXlXlXlXlXlXlXlXlXlXlXlXlXlXlXlXlXlXlXlXlXlXlXlXlXlXlX. P b.Y  X XU C 6 # # @.uX;.] l , * A P.:.:.y.y.i.y.s.i.] S P.-.-.W W J , l =.z j k Z R W W *.5.5.5.2.5.5.5.:.:.5.5.*.*.*.-.Q -.:.*.*.5.5.5.:.2.-.W W 3.5.5.*.=.-.-.-.-.-.-.-.-.2.-.2.5.Q.W.7.2.2.:.=.:.5.5.5.*.:.7.U.7.5.*.*.=.=.2.5.*.*.5.5.y.5.:.:.5.:.P R E -.-.R R %.=.-.R R P E Q W J Z R W E R R R R E E E I k k R P R k Z P P P x k k k k R -.R < A W Q Y Y 5.] +.t.t.4.1.=.-.-.=.A 0 O.8.q.q.+.> 5 J J j 5 , j H.P R P =.=.*.4.4.4.4.y.u.u.u.t.4.4.4.*.E E R R R -.",
"[ * 4.*.J F $.*.:.;.4.t.4.@.4.t.t.t.;.&.G J R x k k z R P.=.5 4 4 0 0 > 4 @.q.q.@.] 0 k -.E W W =.=.%.X.l A 5.=.W =.=.X., z R x a g j z z z k Z k k Z P P Z k k k x x k k k d d x k s Z L P J z Z R E P P P P R P P W W G J =.:.R P =.Q Q -.:.5.*.%.:.y.5.W R E Q -.2.2.2.=.*.:.5.7.5.=.%.5.2.*.=.%.*.5.*.%.*.:.:.=.=.:.:.%.=.2.2.5.5.:.:.W.5.:.:.5.2.:.=.*.5.5.5.2.2.2.:.5.y.5.5.:.=.R P R 5.*.l o.5.:.:.U.Q. .] y.t.t.y.5.*.%.R -.G , , j z G 5.*.> 4 l o.6.s.5.Z b.U .     lXlXlXlXlXlXlXlXlXlXlXlXlXlXlXlXlXlXlXlXlXlXlXlXlXlXlXlXlXlXlXlXlXlXlXlXlXlXlXlXlXlXlXlXlXlXlXlXlXlXlXlXlXlXlXlXlXlXlXlXlXlXlXlXlXlXlXlXlXlXlXlXlXlXlXlXlXlXlXlXlXlXlXlXlXlXlXlXlXlXlXlXlXlXlXlXlXlXlXlXlXlXlXlXlXlXlXlXlXlXlXlXlXlXlXlXlXlXlXlXlXlXlXlXlXlXlXlXlXlXlXlXlXlXlXlXlXlX  . P Y N L.L.E D 0 # + @.iX;.[ A 5 * J P.-.:.y.i.i.y.y.y.A F K.Q E W F z , g W R k z Z P P W %.:.:.*.*.:.5.*.W W 2.=.%.%.%.R P W =.=.W *.5.*.=.*.=.=.=.2.2.:.=.=.=.-.W W E Q Q W Q =.=.2.7.7.:.=.=.=.W =.:.2.-.W W -.2.-.W W W E E -.2.%.%.5.7.y.5.:.5.5.:.P R Q Q E P R R E R P P P R R P k k P R R R P P P P E P P k k P R Z k k k P x k s p s s R Q z 5 A K R U ! 5.] ..t.u.u.4.*.=.=.=.l 0 O.8.q.q.+.# 5 G J l 5 , j 2.P R R =.:.4.4.t.t.4.4.t.t.4.@.X.;.4.:.=.E E R R -.",
"[ * 4.*.J P $.:.4.t.t.t.t.@.@.@.@.t.4.:.%.P P x P z z R P.*.5 4 4 0 0 > 4 @.q.q.@.] l z =.P E =.=.%.*.%.l J 5.=.=.=.%.o.5 j P E z a a k k k x P P k P R R P k k x x k k k k x P P Z P P W R F J J R W P R I P E Q -.-.=.R P W W W W -.Q Q Q -.2.2.2.:.5.2.Q E E Q I.H.2.-.=.*.5.5.5.5.:.*.2.2.:.-.=.:.2.=.*.5.5.:.-.-.-.:.:.-.-.-.2.-.-.-.U.5.=.-.5.5.5.2.2.2.5.5.5.5.5.5.7.Q.Q.7.2.=.R P -.P.J g { 5.2.2.U.Q.[ ] t.4.4.4.4.=.R R -.G 5 , j z %.i.;.> 5 A *.5.=Xy.C Y m .     lXlXlXlXlXlXlXlXlXlXlXlXlXlXlXlXlXlXlXlXlXlXlXlXlXlXlXlXlXlXlXlXlXlXlXlXlXlXlXlXlXlXlXlXlXlXlXlXlXlXlXlXlXlXlXlXlXlXlXlXlXlXlXlXlXlXlXlXlXlXlXlXlXlXlXlXlXlXlXlXlXlXlXlXlXlXlXlXlXlXlXlXlXlXlXlXlXlXlXlXlXlXlXlXlXlXlXlXlXlXlXlXlXlXlXlXlXlXlXlXlXlXlXlXlXlXlXlXlXlXlXlXlXlXlXlXlXlX  o P U n ^ N.^ X.0 # # 4.sX4.[ A 5 * J H.-.%.4.y.y.y.4.;.l G Y.2.E P J l , , R E k k k P R W -.:.:.*.:.2.2.2.=.=.2.:.*.:.*.=.W =.:.*.*.5.5.:.=.=.=.-.2.5.2.:.*.*.=.-.-.-.-.-.-.-.:.2.2.5.U.5.:.-.:.-.:.:.2.:.-.-.Q -.-.Q W Q Q Q Q -.2.:.2.7.5.5.*.=.:.:.W P P E Q E R R R R R P P P R P P P P R Q E Q E R R E Q Q E P R E E R P P W R R Z k z k Z -.Q j g S K P Y N.7.] +.t.p.a.t.4.*.*.W l 0 ] 8.q.q...# 5 S F l 5 , l H.R R R :.5.y.u.s.i.4.4.;.4.4.;.&.4.y.4.=.E R J J -.",
"A * 4.*.R R R *.4.t.u.u.t.t.4.@.@.@.4.4.4.=.R P P x z P P.*.5 4 6 A 0 # 4 #.q.q.@.] 0 F =.R =.:.*.X.X.X.l J 5.-.=.-.W [ 5 7 J E J k k z J R R R J J R R W P P Z P R P P P Z k k z z Z J J J l l l J J J Z Z Z R W =.=.%.%.W R R =.:.2.-.-.-.:.2.5.5.5.2.2.-.Q Q -.2.2.-.:.:.5.5.5.:.*.*.%.W W G G G G G G G =.%.R R W W W %.=.=.=.=.=.:.5.5.2.*.*.5.5.5.5.5.5.5.5.7.7.7.5.y.i.y.5.5.2.:.5.!.!.Z g &.*.:.2.U.Q.A ] t.4.;.4.*.%.R R :.G , , j R :.i.;.* 5 A *.7.=Xi.C Y d .     lXlXlXlXlXlXlXlXlXlXlXlXlXlXlXlXlXlXlXlXlXlXlXlXlXlXlXlXlXlXlXlXlXlXlXlXlXlXlXlXlXlXlXlXlXlXlXlXlXlXlXlXlXlXlXlXlXlXlXlXlXlXlXlXlXlXlXlXlXlXlXlXlXlXlXlXlXlXlXlXlXlXlXlXlXlXlXlXlXlXlXlXlXlXlXlXlXlXlXlXlXlXlXlXlXlXlXlXlXlXlXlXlXlXlXlXlXlXlXlXlXlXlXlXlXlXlXlXlXlXlXlXlXlXlXlXlXlX  . Z U a 3.L.K.=.0 # + 4.jX4.[ A 5 * z 5.-.*.4.y.i.y.;.o.l G Y.H.-.R P G 5 * G :.E P R P =.:.:.2.:.:.2.:.:.=.W R R G G G { { A J $.&.&.:.*.*.=.=.=.=.2.4.4.4.5.1.1.*.%.%.$.R R %.%.%.%.%.%.%.R %.W R R W R R G R R R W W W W R R R P R %.=.=.%.%.G R =.W P R P P R R P E E R P R R R R J Z Z Z J J P R J Z Z P W W P R P R P R J R J z j j j j j l W P j l S W =.H.L.7.] +.p.p.p.t.4.@.&.R l 0 O.8.q.q.] - 5 S J l 5 , Z P.R R R &.:.y.u.i.y.4.4.4.t.t.t.4.4.y.4.=.R J J J =.",
"A * 4.*.J R R G *.4.t.u.t.t.t.4.@.@.4.4.4.*.W R R k k P P.*.5 4 6 A 0 # # +.q.9.@.] 0 J *.=.*.1.*.X.S  .l l 5.2.-.-.R A 5 5 g g , % % % % % % % % % % % > > > * * * * * * % % % % % % % % o o o o % % % % o % * > > > > > > * * * > > > > , , , 5 5 5 5 , , , > , , , 5 5 5 7 7 7 5 5 5 > * * * * > * > > > > * > > > * ; > > > > > > 5 5 5 5 5 5 5 5 5 7 7 7 7 7 7 7 7 7 5 8 4 4 5 5 5 7 G G 7 l X.%.:.2.Q.Q.A ] u.t.4.4.*.=.=.Q :.G , , g R 5.Q.;.* > A 1.i.=Xy.j Y m .     lXlXlXlXlXlXlXlXlXlXlXlXlXlXlXlXlXlXlXlXlXlXlXlXlXlXlXlXlXlXlXlXlXlXlXlXlXlXlXlXlXlXlXlXlXlXlXlXlXlXlXlXlXlXlXlXlXlXlXlXlXlXlXlXlXlXlXlXlXlXlXlXlXlXlXlXlXlXlXlXlXlXlXlXlXlXlXlXlXlXlXlXlXlXlXlXlXlXlXlXlXlXlXlXlXlXlXlXlXlXlXlXlXlXlXlXlXlXlXlXlXlXlXlXlXlXlXlXlXlXlXlXlXlXlXlXlXlX  . Z P < 3.}.K.1.0 # + t.jX4.o.[ 5 * z 5.5.y.s.s.s.t.;.@.l F K.H.-.P P G j * j J g , , , , 5 5 7 7 7 7 5 5 5 5 > * > > > 4 4 > * > > 4 4 4 5 , , , > 4 4 5 5 5 5 5 5 4 5 > > > > > > * * * > , , , * * > > > > > > > 5 5 5 , , 4 > > > > > > 4 > > > , , , , = * * * * * * * * * * * * * * * * * % % * * % % * , > > * * * * * % % * * * * * * * # , , , l J R -.H.L.2.A ..t.p.a.p.t.4.;.&.l 0 ] 8.q.9.] - 7 D J j 5 , Z P.R Z R %.&.4.t.u.t.4.4.t.t.t.t.4.4.t.y.=.R J J J =.",
"z * 4.:.J z J J %.4.t.t.t.4.t.t.4.4.4.t.4.;.%.J k z z P P.*.5 4 4 l 0 # * #.q.q.@.] l S 4.*.5.4.o. . . .l l 2.-.-.W F A 7 > * % o o o % # # # % # # # # # > * * * * * # # # o o o o % * * * * * * * * * * # # * * # * * 4 4 4 4 4 > > 4 4 4 6 6 4 4 > > > > > > 4 * * > > > > > > 4 4 > > 4 > > > > > 4 4 * * 4 4 > > 4 4 4 > 4 > 4 > > 4 4 4 4 6 6 6 6 8 8 8 8 8 8 8 5 4 4 4 4 4 > > # # o % 5 [ o.%.:.5.Q.Q.A A u.u.t.4.:.*.:.-.:.G , , g R 5.Q.;.* 5 A 1.Q.%X7.a U m .     lXlXlXlXlXlXlXlXlXlXlXlXlXlXlXlXlXlXlXlXlXlXlXlXlXlXlXlXlXlXlXlXlXlXlXlXlXlXlXlXlXlXlXlXlXlXlXlXlXlXlXlXlXlXlXlXlXlXlXlXlXlXlXlXlXlXlXlXlXlXlXlXlXlXlXlXlXlXlXlXlXlXlXlXlXlXlXlXlXlXlXlXlXlXlXlXlXlXlXlXlXlXlXlXlXlXlXlXlXlXlXlXlXlXlXlXlXlXlXlXlXlXlXlXlXlXlXlXlXlXlXlXlXlXlXlXlXlX  . Z n < 2.}.K.=.l # + t.sXt.o.[ 7 , J 7.7.i.s.a.a.u.t.@.l J P.Q Q W R J l > * * % o * > 5 8 8 6 9 6 6 6 6 6 6 6 4 6 6 6 9 9 4 > 4 4 4 4 6 6 6 4 4 4 6 4 4 4 4 4 4 4 4 4 4 > > > > 4 4 > > 4 4 4 4 4 4 4 4 4 4 4 4 4 6 6 6 8 6 6 6 6 4 4 4 4 4 4 4 4 4 4 5 8 8 4 4 4 4 4 * # * * # # # * > 4 2 2 * # * * * * * > 4 4 4 4 4 4 4 > > * * * * * * * # * % , S K W W Y ^ 2.A #.t.a.s.s.u.t.;.&.l 0 O.8.9.9.] - 6 D l j 5 , J I.R R R %.&.4.t.t.4.4.4.t.t.t.t.4.4.t.5.=.R R J k E ",
"z * :.*.J J G R *.4.t.t.t.4.t.u.t.@.;.4.4.o.J J z z z P P.:.7 4 4 7 6 # * #.t.@.+...l D *.=.5.:.*.4.o. .l g :.-.W F G l 7 * % % , , 4 > > * > > > > > > 5 5 5 5 5 5 5 , > > > * * > > > , 5 5 5 5 5 5 5 5 5 5 5 5 5 7 7 7 0 l 0 0 7 7 7 l l l l 0 0 0 0 0 0 0 7 7 6 6 6 6 7 7 7 7 0 0 7 0 l 7 5 4 8 9 9 6 8 8 6 6 9 9 9 9 0 0 9 6 0 0 0 0 0 0 0 l l 0 l 0 l l l l l l l l 0 0 0 0 0 7 6 4 > ; 7 S { =.=.=.7.i.[ l t.u.u.t.4.4.*.-.-.G > > 5 k =.5.&.; 4 l =.U.{.3.a U n .     lXlXlXlXlXlXlXlXlXlXlXlXlXlXlXlXlXlXlXlXlXlXlXlXlXlXlXlXlXlXlXlXlXlXlXlXlXlXlXlXlXlXlXlXlXlXlXlXlXlXlXlXlXlXlXlXlXlXlXlXlXlXlXlXlXlXlXlXlXlXlXlXlXlXlXlXlXlXlXlXlXlXlXlXlXlXlXlXlXlXlXlXlXlXlXlXlXlXlXlXlXlXlXlXlXlXlXlXlXlXlXlXlXlXlXlXlXlXlXlXlXlXlXlXlXlXlXlXlXlXlXlXlXlXlXlXlXlX  . P n < 3.{.K.%.0 # # ;.sXu.o.] 5 , z 5.5.y.s.a.a.t.t.o.A G 2.P P E J A 7 * o * > 5 6 6 0 l l A ] ` ] A l A l 0 l l 0 l ] l 9 6 9 7 7 0 0 0 0 0 0 0 9 9 9 9 0 0 0 0 0 0 0 7 6 6 6 6 4 8 7 7 8 6 7 7 7 7 7 7 7 7 7 7 7 7 0 l l 0 l 0 l 0 0 7 7 7 7 7 7 7 j j j 7 7 7 7 7 7 5 5 5 5 5 5 8 7 7 6 6 5 5 5 , 5 5 4 5 8 7 5 7 7 7 5 > > 5 , > > , , , > > * 5 A G W W R E W A ..q.t.a.a.a.t.;.&.l 0 ] O.+.q...# 7 A l j 5 , J I.-.R R W *.4.4.;.*.4.4.4.t.t.t.,.4.y.:.$.R J J k R ",
"l * *.*.J R %.&.:.t.t.u.t.4.t.y.4.*.;.4.;.o.{ J J z z R I.:.7 4 4 7 6 # * ..@.@.#...l J =.R =.*.4.4.1.o.l g :.-.W F P J 7 * * * > > > > > > * * > > > > 4 5 5 5 5 5 , > > * * * * * * * > > > > > > > > > > > , > , 5 5 5 7 5 5 5 5 7 7 7 7 7 0 7 6 6 7 7 7 7 6 5 5 4 5 5 6 7 7 7 7 7 7 7 7 6 4 4 4 8 8 5 5 5 8 5 8 6 6 6 6 6 6 6 7 0 0 0 7 l l l l A A A A A l l l l l l l l 0 0 l l 7 7 7 5 5 A X.%.%.*.5.y.[ l q.t.u.t.t.y.4.W -.G > > 5 k Z :.&.* 4 l R 3.{.3.i U n .     lXlXlXlXlXlXlXlXlXlXlXlXlXlXlXlXlXlXlXlXlXlXlXlXlXlXlXlXlXlXlXlXlXlXlXlXlXlXlXlXlXlXlXlXlXlXlXlXlXlXlXlXlXlXlXlXlXlXlXlXlXlXlXlXlXlXlXlXlXlXlXlXlXlXlXlXlXlXlXlXlXlXlXlXlXlXlXlXlXlXlXlXlXlXlXlXlXlXlXlXlXlXlXlXlXlXlXlXlXlXlXlXlXlXlXlXlXlXlXlXlXlXlXlXlXlXlXlXlXlXlXlXlXlXlXlXlXlX  . P Z < ~ N.Y W l # # ;.uX4.#.A g , z :.:.y.a.a.a.t.q.#.l J 2.E R R R A 5 % # * > 5 5 8 7 0 0 0 0 0 0 0 l l 7 7 0 0 0 0 0 6 8 8 8 5 8 8 8 6 6 6 6 6 8 5 8 8 6 6 6 7 7 7 7 5 5 5 4 4 > 4 5 , , 5 , 5 5 5 5 5 5 5 5 5 5 5 5 5 5 7 7 7 7 8 6 5 5 5 5 5 5 5 5 5 5 5 5 5 5 5 5 > > > > > 4 5 5 5 5 5 5 , , > > > > 5 5 8 5 5 5 5 5 > > > > > > > > * * * * 5 l G =.W P Y -.l ..t.a.a.a.u.4.;.%.l 0 ..+.+.q.] # 4 l g 7 5 , G !.:.R R %.4.t.4.4.;.4.t.t.t.4.4.4.4.4.*.$.R J J J W ",
"l * *.*.J R =.:.4.t.u.u.u.t.;.*.&.*.4.4.@.o.&.$.J z z P P.:.5 4 4 7 6 # * ..,.@.@...0 J =.G W *.5.4.4.4.l g :.2.-.E P l > o o o * % % * # # # # # # # # # * * * * * % o o . . . . . . o o % % % % o o o o o % % % % % * * * * * * * * * > > > > > > > > > > * * * * * * * > > * > > > > > * * # # * * * * * * * * * * * * > > > * > > > > > > > , 5 5 5 7 5 7 5 5 5 5 , , 5 5 > > 5 > > > > > , j X.*.5.5.5.i.[ l q.t.u.s.i.y.:.E -.G * > , s P 2.:.* * g L ! [.3.y U Z .     lXlXlXlXlXlXlXlXlXlXlXlXlXlXlXlXlXlXlXlXlXlXlXlXlXlXlXlXlXlXlXlXlXlXlXlXlXlXlXlXlXlXlXlXlXlXlXlXlXlXlXlXlXlXlXlXlXlXlXlXlXlXlXlXlXlXlXlXlXlXlXlXlXlXlXlXlXlXlXlXlXlXlXlXlXlXlXlXlXlXlXlXlXlXlXlXlXlXlXlXlXlXlXlXlXlXlXlXlXlXlXlXlXlXlXlXlXlXlXlXlXlXlXlXlXlXlXlXlXlXlXlXlXlXlXlXlXlX  . P Z < ^ N.Y R l # # ;.uX;.[ l g , k =.*.y.a.a.s.u.;.#.l J 2.Q R J G J , * o % % % * > > 4 , , 4 > > , , , , > > > > > > * * * > * * * * > > ; ; ; * * * * * * * > > * * * * % % o # % % % % % % * * * * * * * * * * * * * * * * * * * * > * > > > > > > > > > * * * * # o % % % o # % # # o o o o o o o o o % * * * * * * * o o o o o o o o o # # o , l W 5.2.Y x.H.l ..t.u.a.a.t.4.&.%.l 0 O.9.q.q.] # > l g 5 5 , G /.F.R R =.4.t.u.t.t.t.u.t.@.*.4.4.4.:.&.$.R J J J =.",
"l * ;.*.J R =.:.4.t.u.a.i.t.*.%.&.4.4.4.4.;.;.%.G J l Z P.-.5 4 4 0 7 # * ..q.q.@...0 J *.R %.*.5.y.7.4.l i :.2.2.:.W j , 5 * o * * > > > > * * * > * * * > > , , , > > * * * % % % % * * * * > > * * * * * = = = , , , , , , > * * * * , , , , 5 , 5 , , , > > > > > , , , , , , , , > > * * * * % * * * % * * * * * > > > , > > , > > > > > > > > , , , , , , , , , , , , > * > * * * % % , j l o.y.Q.Q.Q.Q.#.l ,.t.u.a.a.u.;.R =.J * > g k E H.*.* * i U N.[.K.y U k .     lXlXlXlXlXlXlXlXlXlXlXlXlXlXlXlXlXlXlXlXlXlXlXlXlXlXlXlXlXlXlXlXlXlXlXlXlXlXlXlXlXlXlXlXlXlXlXlXlXlXlXlXlXlXlXlXlXlXlXlXlXlXlXlXlXlXlXlXlXlXlXlXlXlXlXlXlXlXlXlXlXlXlXlXlXlXlXlXlXlXlXlXlXlXlXlXlXlXlXlXlXlXlXlXlXlXlXlXlXlXlXlXlXlXlXlXlXlXlXlXlXlXlXlXlXlXlXlXlXlXlXlXlXlXlXlXlXlX  . P L < H. Xb.R l # # ;.uX;.[ l 5 = j E =.i.s.s.s.u.@.#.l S 5.2.W J J J 7 j * % * * , , , 5 , , 5 5 5 , , , , , , , > > > * * * , > , , , , > > > , , , , , , , , 5 , , , , , > > * * * % * * , , , , * * > > , , , , , , , , = , , > * * * * * * * > > , , , , > , , > * * > > > * * * * * * * * * * * * * * * * > , > > > > > * * * * * * * * % % , J J =.K.H.b.M.I.l ..t.u.s.i.t.@.X.$.l 0 ] 9.q.q.] # > l g 7 , , G Y.-.R R *.4.y.u.u.a.u.u.t.#.&.4.4.4.:.*.=.$.G J J %.",
"l * 4.5.P R %.*.4.t.u.t.u.t.4.4.4.4.4.4.4.@.;.%.G J l Z P.:., > 4 l 7 # * ..q.q.@...0 J =.%.*.*.4.y.4.4.l g =.:.:.2.W j 7 S 5 * , 5 g g g 5 5 5 5 , 5 5 5 g j g j g g , 5 g , , , , , , 5 g 7 5 , 7 g g g g g j j l l j g g j g 5 5 5 g g j j g j l A A A A l l l A l l z z l l A l l l j j j l j g g j l l l l l l j j j j j j l l l l l g l l l l l l l l j l l l l l l l l j j j g 7 5 , l &.S X.i.Q.~.~.~.o.l 4.t.u.u.u.u.;.J F z % * g k Q H.%.# * g U N.[./ : U s .     lXlXlXlXlXlXlXlXlXlXlXlXlXlXlXlXlXlXlXlXlXlXlXlXlXlXlXlXlXlXlXlXlXlXlXlXlXlXlXlXlXlXlXlXlXlXlXlXlXlXlXlXlXlXlXlXlXlXlXlXlXlXlXlXlXlXlXlXlXlXlXlXlXlXlXlXlXlXlXlXlXlXlXlXlXlXlXlXlXlXlXlXlXlXlXlXlXlXlXlXlXlXlXlXlXlXlXlXlXlXlXlXlXlXlXlXlXlXlXlXlXlXlXlXlXlXlXlXlXlXlXlXlXlXlXlXlXlX  . P n , m.E.b.U 0 # # ;.iX5.o.l , = j E %.y.s.s.a.u.t.#.l S 5.2.=.R G J j { l 5 5 g l Z J z l l J A l l l Z Z z l l l A l j g g g g j j j l l j l l z l z l z z z z l l l l l l l j j j j j j l l l l g g l l l l l l l l l j g g j j j g g g g g 5 g g g g g g g j j j , , g g g g 5 5 g g g g g g g j j j j j j j l j g g g g g , , , g g i i , , z :.R Q H.H.b.N.P.A #.u.u.i.y.4.&.{ $.l 0 ] +.q.q.] # > l g 7 , , F I.Q R E :.5.y.u.u.a.p.a.u.@.;.4.4.4.4.:.=.=.G J J %.",
"A * 4.5.R R W %.*.4.t.p.u.u.u.t.t.t.t.t.@.o.o.%.G J l P I.2., > 4 l 0 # # ..q.q.@...0 J =.%.1.4.4.4.4.@.l j *.*.%.=.E j 5 %.A , , g j j j j g j k j k k k k k z z z j j j z j z j j l J J J Z j j z J J J J k Z P R G S G G F J Z Z J z z k k z Z R %.$.G G G G %.&.%.%.=.W R %.:.4.:.%.G $.%.$.G R R R =.*.4.4.4.4.*.*.=.=.R W =.=.=.=.%.&.:.:.*.%.{ $.%.%.W =.=.=.%.X.*.:.*.{ G J J J z j $.5.A S 5.W.W.Q.Q.X.A 4.t.u.u.a.u.t.G J l % > g P Q H.%.# > A W N.[.~ : U s .     lXlXlXlXlXlXlXlXlXlXlXlXlXlXlXlXlXlXlXlXlXlXlXlXlXlXlXlXlXlXlXlXlXlXlXlXlXlXlXlXlXlXlXlXlXlXlXlXlXlXlXlXlXlXlXlXlXlXlXlXlXlXlXlXlXlXlXlXlXlXlXlXlXlXlXlXlXlXlXlXlXlXlXlXlXlXlXlXlXlXlXlXlXlXlXlXlXlXlXlXlXlXlXlXlXlXlXlXlXlXlXlXlXlXlXlXlXlXlXlXlXlXlXlXlXlXlXlXlXlXlXlXlXlXlXlXlXlX  . Z n > Q A.b.U 0 # # 4.fXy.%.l , = z =.*.t.s.s.a.t.t.#.l S 5.2.*.=.%.A 5 X.&.j j j k P P F J G *.*.%.G G =.-.W R G %.&.&.X.G F P Z k J F G D J F W %.G G G R W R G F F F G G G G G S G $.R F G X.X.S J J F R R G G $.%.R G J J G $.%.$.R J F R G J F G J k z k J J J Z C Z k k x J k z z Z J J J J J J R R P x k k x k z k k k k k j j j j a a i k $.:.z P 2.m.N.N.H.A @.u.u.i.t.;.%.%.$.l 0 ] @.q.q.] # > A l g 5 , J I.Q R W -.5.7.t.u.a.a.p.a.u.t.t.t.4.4.;.*.%.G J J %.",
"A * 4.:.R R W W =.4.t.u.u.u.t.t.t.t.u.u.4.o.o.$.G J z P I.-., > 5 l l > * ..q.q.@...l R =.W 5.5.4.@.o.#.l l 5.5.%.R E z = { $.z i l z z R R R R R P R R P x k R P P k k k Z =.-.=.R R =.=.%.G Z z J R =.=.=.E W -.:.*.*.*.*.%.W R W W R P E E P W 5.7.2.%.W %.:.7.5.5.5.P.5.2.7.Q.Q.y.*.=.*.:.=.=.:.:.:.2.7.Q.Q.Q.W.7.5.5.5.5.U.U.U.U.7.5.i.Q.~.W.5.4.5.5.:.5.U.U.P.:.5.i.Q.i.:.=.=.%.G J J =.5.A C *.5.7.i.i.X.A 4.t.s.s.s.i.t.%.G A * > 5 P -.P.=.o > S 2.K.[.~ : Y k . . . lXlXlXlXlXlXlXlXlXlXlXlXlXlXlXlXlXlXlXlXlXlXlXlXlXlXlXlXlXlXlXlXlXlXlXlXlXlXlXlXlXlXlXlXlXlXlXlXlXlXlXlXlXlXlXlXlXlXlXlXlXlXlXlXlXlXlXlXlXlXlXlXlXlXlXlXlXlXlXlXlXlXlXlXlXlXlXlXlXlXlXlXlXlXlXlXlXlXlXlXlXlXlXlXlXlXlXlXlXlXlXlXlXlXlXlXlXlXlXlXlXlXlXlXlXlXlXlXlXlXlXlXlXlXlXlXlXlX  o P L < m.S.n.L 0 # # 4.hXW.%.l , = A 5.5.t.a.a.a.t.t.@.l S 7.2.2.=.%.J , { :.z j k k P R G G =.5.7.2.=.=.2.2.:.=.=.*.5.4.4.*.=.E P R R :.*.=.%.=.:.:.:.*.*.5.5.5.:.5.5.2.2.:.*.*.*.*.=.5.:.=.=.5.4.*.*.=.-.Q =.*.:.5.5.5.5.*.*.*.5.5.:.=.$.-.-.-.-.:.:.:.R R E -.-.-.E =.=.E R E E E R R W =.=.W R %.-.-.-.Q Q E E R P P P R R P P x k k k k k a R :.:.j J =.Q N.K.3.A @.u.i.y.;.&.%.=.$.l 0 #.q.q.q.] # 4 l l g 5 , J I.Q P R -.:.5.4.u.s.a.p.t.t.u.u.u.t.4.;.%.%.G J J =.",
"A % *.:.G %.=.%.%.4.y.t.t.u.u.p.p.t.t.t.t.t.@.o.{ A z P I.2., 4 5 A A * # ] @.+.#...0 R -.=.5.5.5.4.@.o.l j :.5.2.Q E k , l %.J g j z J J J R R E P P E E P v J R R k k k k E -.-.P F =.:.:.W J J A P E Q Q E E -.:.*.*.*.5.*.K R W =.=.=.W E =.5.Q.Q.5.*.X.%.4.i.Q.7.5.2.2.5.W.i.i.i.4.&.*.5.5.:.-.-.-.=.7.~.~.~.Q.5.:.:.P.U.U.P.P.P.W.Q.Q.Q.Q.y.:.:.5.:.:.:.2.2.2.P.U.W.W.5.*.=.=.W R J J :.{ l [ %.%.*.5.5.o.l t.u.s.s.s.u.t.@.4.{ > > g k P :.&.# 4 A =.2.U.1.i b.P . . . lXlXlXlXlXlXlXlXlXlXlXlXlXlXlXlXlXlXlXlXlXlXlXlXlXlXlXlXlXlXlXlXlXlXlXlXlXlXlXlXlXlXlXlXlXlXlXlXlXlXlXlXlXlXlXlXlXlXlXlXlXlXlXlXlXlXlXlXlXlXlXlXlXlXlXlXlXlXlXlXlXlXlXlXlXlXlXlXlXlXlXlXlXlXlXlXlXlXlXlXlXlXlXlXlXlXlXlXlXlXlXlXlXlXlXlXlXlXlXlXlXlXlXlXlXlXlXlXlXlXlXlXlXlXlXlXlXlX  . Z P , ! T.N.K 6 # % 4.gX7.A l , , G :.5.t.a.a.a.u.t.@.A S 5.=.W G F J , l *.J l j j z R R R =.:.:.:.:.-.=.W W %.W %.*.5.5.:.-.E Z Z W 5.5.*.W =.2.5.5.:.:.5.5.5.7.U.7.5.4.:.4.4.4.4.5.5.2.=.:.7.i.5.*.=.W E Q :.5.5.:.2.5.5.2.*.2.5.:.=.=.E Q Q -.:.H.-.R R E -.Q E P %.=.=.R R R E E E -.:.-.W W =.-.-.Q Q E E I I P x P R P P x x x k k s s s R 5.G , J =.Q m.H.2.A +.u.i.i.t.4.*.=.=.z l #.q.q.q.] + > l g 7 5 , J !.Q R R =.=.*.4.u.a.a.a.p.p.t.t.t.t.t.t.:.&.{ J z =.",
"A % *.5.K *.*.;.;.4.t.u.t.t.u.u.t.p.p.a.t.t.4.*.X.A Z R I.:., 4 5 l A > # ] @.+.+.] 0 J =.*.5.5.4.4.4.@.A j :.5.5.2.Q z , l %.R j g k z k k k x x x x I I x x k k s s s s s x P R P P R E Q P k Z J P P P P I P P Q =.=.-.:.%.F R E E R P P P R -.U.5.:.=.R R =.5.U.P.-.Q Q 2.U.U.7.5.=.R W -.:.-.Q Q Q =.5.W.W.W.7.:.-.-.H.Y.H.Q Q H.U.W.Q.W.U.2.-.-.2.H.-.-.-.-.2.P.P.5.5.2.:.-.W R P J R :.G l S %.$.%.*.5.o.l t.u.i.s.s.u.t.4.4.X.> * 5 j R :.&.# 4 A *.5.7.=.i Y x .   . lXlXlXlXlXlXlXlXlXlXlXlXlXlXlXlXlXlXlXlXlXlXlXlXlXlXlXlXlXlXlXlXlXlXlXlXlXlXlXlXlXlXlXlXlXlXlXlXlXlXlXlXlXlXlXlXlXlXlXlXlXlXlXlXlXlXlXlXlXlXlXlXlXlXlXlXlXlXlXlXlXlXlXlXlXlXlXlXlXlXlXlXlXlXlXlXlXlXlXlXlXlXlXlXlXlXlXlXlXlXlXlXlXlXlXlXlXlXlXlXlXlXlXlXlXlXlXlXlXlXlXlXlXlXlXlXlXlX  . Z P < ^ N.^ K 0 # # 4.fX5.A l , = J 2.5.t.s.s.a.a.t.@.A S 5.W F F F J , g %.k z z z k k R R E Q -.-.-.Q R R R R R R W =.=.=.Q R P P R -.-.W R W Q -.:.-.-.=.=.:.5.P.5.2.=.%.%.*.5.*.=.-.-.Q -.2.2.:.=.=.W P R Q -.-.=.-.2.2.-.-.-.:.-.W -.E R R Q -.F.Q P x P E E P P W -.W P P P P P P E Q Q R R W Q E E E Q Q I x x x x x x x x x s s a p s x R :.J , Z W E Q ^ 2.A +.u.s.i.i.i.4.*.=.J l ..9.q.q.] + > l g 7 5 , P /.-.E =.*.5.5.t.u.a.a.a.a.p.p.p.p.p.a.u.4.&.J J z %.",
"A % *.5.X.*.4.4.4.t.u.u.t.4.t.t.t.a.p.p.t.t.t.;.X.A Z P I.:., 4 5 l l > # 0 @.@.#.] 0 J =.%.5.5.4.4.t.4.l g 5.7.5.-.=.z , 7 G R z j k k k k P P x x x I I P P x x k s s d x x P P P P P E R R R R P R P P E E E P Q -.2.2.:.=.R P E R R R P P R -.P.2.2.-.=.=.-.2.2.P.H.Q -.5.7.5.5.:.=.W W W W -.Q E Q -.5.7.7.7.5.:.-.2.H.I.H.H.H.P.P.U.U.U.P.2.-.-.-.-.-.-.2.2.2.P.P.U.P.5.2.:.-.R F P =.:.J l G %.%.%.5.y.&.l t.t.t.u.u.u.p.t.4.{ > * 5 j R 5.&.# 4 A *.4.7.o.i Y s .     lXlXlXlXlXlXlXlXlXlXlXlXlXlXlXlXlXlXlXlXlXlXlXlXlXlXlXlXlXlXlXlXlXlXlXlXlXlXlXlXlXlXlXlXlXlXlXlXlXlXlXlXlXlXlXlXlXlXlXlXlXlXlXlXlXlXlXlXlXlXlXlXlXlXlXlXlXlXlXlXlXlXlXlXlXlXlXlXlXlXlXlXlXlXlXlXlXlXlXlXlXlXlXlXlXlXlXlXlXlXlXlXlXlXlXlXlXlXlXlXlXlXlXlXlXlXlXlXlXlXlXlXlXlXlXlXlXlX  . Z P < W H.Q X.0 # o :.fX5.{ A , = G 2.2.4.s.s.s.s.t.@.l S 5.E W W R G g g *.P R J k k k P R E -.-.-.-.-.Q R W W W W =.=.=.=.W R R R R E -.-.W Q Q Q :.:.-.-.-.2.P.P.2.:.-.=.=.:.5.:.-.-.-.-.-.2.2.2.2.:.-.Q Q Q -.-.W -.2.2.:.-.-.-.W =.-.E R R Q -.-.Q P P P E E R R E Q R P P R E R R E Q Q W W Q -.Q Q Q -.Q E P P R R P P x P P k k k k k P -.:.J , Z W E Q 2.2.A #.u.s.i.i.i.4.:.*.J l ..@.@.q.] # > l g 7 5 , R /.-.W *.5.y.i.i.a.a.a.p.u.p.u.u.u.a.u.u.4.&.J J J =.",
"A * 4.5.X.o.;.t.u.u.a.a.u.t.4.t.t.t.t.t.t.t.t.*.X.A Z P I.-., 4 8 l l > # ) ,.q.+.] 0 J =.%.5.5.y.y.t.4.l g 5.7.*.W $.z , 7 G G z g j j j l z k k k k k k k k k k k k s s k k k k z z z J Z z z z z Z Z k Z P k k J G G G G J l l z z k z k k z J G G G J J J J G R R E P P $.{ G S S S A J C J J J Z J G X.X.&.%.X.G G R W R W W W W %.=.*.*.*.=.%.R R R R R $.%.%.%.%.%.%.%.%.%.R J A G =.:.J l { *.*.5.W.Q.;.A t.t.t.t.u.u.u.4.4.[ > * 5 J =.7.;.* 4 ] ;.4.4.X.i Y s .   lXlXlXlXlXlXlXlXlXlXlXlXlXlXlXlXlXlXlXlXlXlXlXlXlXlXlXlXlXlXlXlXlXlXlXlXlXlXlXlXlXlXlXlXlXlXlXlXlXlXlXlXlXlXlXlXlXlXlXlXlXlXlXlXlXlXlXlXlXlXlXlXlXlXlXlXlXlXlXlXlXlXlXlXlXlXlXlXlXlXlXlXlXlXlXlXlXlXlXlXlXlXlXlXlXlXlXlXlXlXlXlXlXlXlXlXlXlXlXlXlXlXlXlXlXlXlXlXlXlXlXlXlXlXlXlXlXlXlX  . P P 7 *.P.*. .0 # o ;.fX7.o.{ , = G :.*.;.s.s.s.u.t.+.0 S P.2.=.=.W G g g &.%.G J l j l z z J J J J G F J J J J J J J J J J z z z z l J J J J J F J R R R R G F F G G J J J J G G G J F F F F F F G G G G J J J J J J G G G J J J z z J J z z z z J J Z k k k k k k k z z z k k z z z z k J J J J F G J J J F J z j j z j j j j j j j g g g j z J { l 5 D W W Q 2.5.A ..u.i.y.t.t.4.4.*.l l ..@.q.q.] + > A j 7 5 , G /.Q E =.4.u.s.s.a.a.a.u.u.u.p.u.u.a.u.t.4.&.G J J :.",
"A * 4.5.[ o.@.t.u.a.a.a.u.t.4.t.t.t.q.t.t.t.4.o.[ S J P I.-., 4 8 l l > # _ @.@.+.] l J =.%.5.7.4.4.4.;.l g 5.5.*.=.=.J 5 7 l 5 % o o o % % % o % % % % % % % % % % % % % % % $ % % % % % % % % % % % % % % % % % * * * % % % % % % o % % % % % % % * * * * * * * > > > > * * * ; * * * > > ; * * > > > > > > > > > > > > > > , , * * * * * > > > > > > > * * * * * * * * * * > > > > > , 7 j 5 l o.*.5.Q.~.Q.;.A y.t.y.u.u.u.t.4.4.{ > * 7 J =.7.;.* 4 A #.@.4. .g Q s .   lXlXlXlXlXlXlXlXlXlXlXlXlXlXlXlXlXlXlXlXlXlXlXlXlXlXlXlXlXlXlXlXlXlXlXlXlXlXlXlXlXlXlXlXlXlXlXlXlXlXlXlXlXlXlXlXlXlXlXlXlXlXlXlXlXlXlXlXlXlXlXlXlXlXlXlXlXlXlXlXlXlXlXlXlXlXlXlXlXlXlXlXlXlXlXlXlXlXlXlXlXlXlXlXlXlXlXlXlXlXlXlXlXlXlXlXlXlXlXlXlXlXlXlXlXlXlXlXlXlXlXlXlXlXlXlXlXlXlX  . P P j 5.W.:.#.0 # # ;.fX5.{ { 5 , G 5.:.4.i.a.u.t.t.+.0 S U.I.-.W R R l , 7 > * * * * * * * * * * * ; > * * * > * * * * * * * % * * * * * * * > > > , , > > > > * * > * * * * > ; ; > > > > * * * > > > ; * > > > * > > > > * > > * * * * * * * * * * * * % % % % % * * * * % % % % % % % % % % % * * * % o % o o o o % o o o % % % % o o % % % % * > 6 X.=.W 2.3.5.0 ..t.u.t.t.y.4.*.*.l l #.q.q.q.] # 5 A l 7 5 , J Y.Q P %.4.t.s.a.a.a.u.u.u.u.t.u.i.i.t.4.;.o.G J J 5.",
"{ , 5.5.S { o.;.t.a.a.p.a.t.t.t.t.t.t.t.t.t.;.o.X.G F R I.-.5 > 5 l l > # ] @.+.+.] l J =.%.5.5.*.*.o.o.l g :.5.*.=.%.J 5 > * . . X X o o o o # # # % % % # o o o o o o % % o o # o o o o o # * # # * * * * * * * * * # # * * * * > ; > > > * > > > > 4 4 4 4 4 4 4 4 4 4 > > 4 > > > 4 4 4 > > 4 4 4 4 > > > 4 4 4 > > > > > > > 4 4 > # * * > > > > > 4 4 4 4 4 4 > > > > > > * > > > * o o * l *.:.y.Q.Q.i.;.[ i.i.i.i.y.t.;.:.:.{ > * j J *.7.;.* 4 b ] o.4.X.j m.k     lXlXlXlXlXlXlXlXlXlXlXlXlXlXlXlXlXlXlXlXlXlXlXlXlXlXlXlXlXlXlXlXlXlXlXlXlXlXlXlXlXlXlXlXlXlXlXlXlXlXlXlXlXlXlXlXlXlXlXlXlXlXlXlXlXlXlXlXlXlXlXlXlXlXlXlXlXlXlXlXlXlXlXlXlXlXlXlXlXlXlXlXlXlXlXlXlXlXlXlXlXlXlXlXlXlXlXlXlXlXlXlXlXlXlXlXlXlXlXlXlXlXlXlXlXlXlXlXlXlXlXlXlXlXlXlXlXlX    . P E a 5.i.:.[ 7 # # ;.fX5.[ A 5 , { 5.5.y.s.u.u.t.t.@.b G Y.K.2.=.%.R l * . o * > 4 4 4 8 4 4 4 4 5 5 5 4 4 4 8 8 4 6 6 4 4 4 4 5 5 4 4 4 4 4 4 4 4 5 5 5 4 5 6 6 4 4 4 4 4 4 4 4 4 5 5 5 5 4 4 4 8 6 8 5 5 5 4 4 4 5 8 8 8 8 5 5 5 5 5 5 5 5 4 4 4 > > > > > > > > > > > > > > > > * * * > > > > > > > > > > > > > > > > > > > * ; ; * * * * * o X * l X.=.2.3.H.2.l ..t.t.t.4.5.*.%.=.J A #.q.q.q.] # 5 S C 7 5 , J Y.Q R %.;.t.a.a.a.a.a.u.u.a.u.u.u.t.t.t.4.&.G J J 5.",
"{ , 5.5.G G %.;.t.a.p.p.p.t.t.t.t.t.t.t.@.4.t.*.%.X.F R I.=.7 > 4 l 0 > # ] q.@.#.] l J =.R :.5.*.4.4.;.l l 7.5.=.R G J 5 % X # > * > , > > > > > > 4 4 4 > > > > > > > > > > > 4 > > , > 4 4 5 5 5 5 5 8 8 8 5 5 8 8 8 5 5 7 5 5 5 7 5 8 5 5 7 7 8 6 6 9 9 0 0 0 0 0 0 0 0 7 7 6 6 6 0 7 8 8 7 8 5 7 7 5 7 7 8 7 7 6 7 7 7 7 7 0 9 0 9 0 8 6 0 6 6 6 7 0 0 0 7 7 7 7 7 7 7 7 7 7 7 7 6 5 , > , A X.*.5.y.7.y.;.[ s.s.s.s.y.;.o.$.:.{ > > j J :.y.;.* > 0 ] #.4.o.z J.x       lXlXlXlXlXlXlXlXlXlXlXlXlXlXlXlXlXlXlXlXlXlXlXlXlXlXlXlXlXlXlXlXlXlXlXlXlXlXlXlXlXlXlXlXlXlXlXlXlXlXlXlXlXlXlXlXlXlXlXlXlXlXlXlXlXlXlXlXlXlXlXlXlXlXlXlXlXlXlXlXlXlXlXlXlXlXlXlXlXlXlXlXlXlXlXlXlXlXlXlXlXlXlXlXlXlXlXlXlXlXlXlXlXlXlXlXlXlXlXlXlXlXlXlXlXlXlXlXlXlXlXlXlXlXlXlXlX    o P E a 5.i.;.[ 7 * # ;.fXy.[ A 5 , J :.5.4.t.t.u.t.u.,.A F K.H.-.W =.G l 5 * > 5 7 7 7 7 0 7 6 6 0 l l l 0 7 7 0 l l l l l l l 0 7 7 0 9 0 0 0 7 6 0 l l l 7 6 7 7 6 6 6 9 0 0 0 7 7 7 0 l 0 7 7 0 l l 0 l 7 7 6 6 7 0 l l l 0 7 7 j j j l j 7 5 7 7 7 7 7 5 5 5 5 5 5 7 7 5 5 5 5 5 5 , 5 7 5 5 7 7 7 7 5 5 7 7 5 4 5 5 5 5 , , 5 , , , , , , > # * , l K =.2.H.2.=.0 ] 4.t.4.:.:.$.=.:.G A +.q.q.q...# 5 [ A l 7 , J Y.Q R =.4.t.a.a.a.a.a.u.u.a.a.i.t.t.u.i.y.;.{ J J 2.",
"$., 5.5.G X.%.o.@.t.a.a.t.4.t.t.t.u.4.;.4.t.4.;.&.{ G P H.E , > 4 6 6 > # 0 9.9.@.] l Z =.R R F.5.2.4.4.l g 2.5.:.&.=.l , o # > > , , , , , , , , , , , , 5 5 > > 5 5 , 5 5 , , 5 5 4 5 5 5 5 5 5 5 5 5 5 7 5 5 7 7 5 5 5 5 5 5 5 5 5 7 5 5 5 5 5 5 5 5 8 7 8 7 l l l 7 5 6 7 7 6 5 7 6 7 7 7 7 7 7 6 6 7 7 6 7 0 7 7 7 0 0 0 0 0 0 0 0 0 0 7 7 0 l l l l l l l l l l 7 6 6 6 9 6 6 7 7 5 5 > , l [ ;.*.:.5.y.o.#.i.i.i.i.4.o.G R :.o.> * g k R 5.*.# 4 l [ ;.1.%.Z T.s       lXlXlXlXlXlXlXlXlXlXlXlXlXlXlXlXlXlXlXlXlXlXlXlXlXlXlXlXlXlXlXlXlXlXlXlXlXlXlXlXlXlXlXlXlXlXlXlXlXlXlXlXlXlXlXlXlXlXlXlXlXlXlXlXlXlXlXlXlXlXlXlXlXlXlXlXlXlXlXlXlXlXlXlXlXlXlXlXlXlXlXlXlXlXlXlXlXlXlXlXlXlXlXlXlXlXlXlXlXlXlXlXlXlXlXlXlXlXlXlXlXlXlXlXlXlXlXlXlXlXlXlXlXlXlXlXlX    o P Y i =.5.o.A 7 * * 5.fX5.A l 5 , J :.:.*.t.t.u.t.t.,.A J H.m.2.=.W G l > ; * 4 8 8 8 7 7 7 7 6 9 0 0 0 9 9 9 6 6 0 0 l 0 0 9 9 9 7 7 7 6 6 6 6 6 6 7 7 6 6 6 5 5 5 4 4 4 5 6 6 8 8 7 7 7 7 7 8 8 7 7 7 7 6 5 5 8 8 7 l 7 7 7 8 5 7 7 7 l l 7 5 8 8 8 7 5 5 5 5 5 5 5 7 7 5 5 5 5 5 5 , > > 5 5 5 5 5 5 5 5 5 5 5 4 4 4 5 5 , 5 , , , , , , > > * * > l X.*.:.*.W *.l ] 4.y.4.&.=.=.:.:.{ A +.9.@.q...# 5 S A 0 5 > Z Y.Q R =.t.s.a.s.a.a.a.u.u.s.i.5.4.u.s.i.t.;.[ A z :.",
"&., 5.5.G G { *.4.a.p.t.t.t.t.t.t.u.t.t.t.u.t.;.&.{ { R I.-., 4 4 7 5 * * ] 9.q.@...A F :.E R :.2.5.*.;.A l 5.5.5.5.5.J , o . o o o o # * * * * > > > > > > * > > > * * > * > > > > > * * * * * * * * * * * * * * * * * # * # * * * * * * * * * * * * # * * * * > > > > * > * * > * * * * * > > > > > > > > > > > > > > > > , > > > > > > > > > > > > 4 5 5 5 5 5 > > * * * * * * * * * * * # > l [ ;.5.7.7.W.*.[ s.i.y.5.5.*.R R *.X.> > g z R 5.*.# 4 l [ ;.5.-.Z Z.s       lXlXlXlXlXlXlXlXlXlXlXlXlXlXlXlXlXlXlXlXlXlXlXlXlXlXlXlXlXlXlXlXlXlXlXlXlXlXlXlXlXlXlXlXlXlXlXlXlXlXlXlXlXlXlXlXlXlXlXlXlXlXlXlXlXlXlXlXlXlXlXlXlXlXlXlXlXlXlXlXlXlXlXlXlXlXlXlXlXlXlXlXlXlXlXlXlXlXlXlXlXlXlXlXlXlXlXlXlXlXlXlXlXlXlXlXlXlXlXlXlXlXlXlXlXlXlXlXlXlXlXlXlXlXlXlXlXlX  o P Y a R *.A A j % % 5.fX5.A l , , J :.*.4.t.u.u.t.t.@.A J 3.2.2.5.:.W j * X * * > > > > 4 > 5 4 4 4 6 4 4 4 4 4 4 4 4 4 4 4 4 4 > > , > > > > > > > > > ; * > > ; > * * * * * * * * * * > ; * * * * * * > ; ; > > > > > > > * * * > > * > , > > > > > > * * * * * * > * > * * > * * * * * * > > * * * > > * > * * * * % * * * * % ; * * * * * o X o 5 l X.4.*.%.K *.A ] 4.4.4.:.:.-.:.:.G A +.q.q.t.+.- 5 S A 0 6 > z Y.Q E :.t.u.t.a.a.a.s.s.s.u.4.4.t.u.u.u.t.4.o.A J :.",
"&.> :.5.G G %.:.t.i.t.q.t.t.t.t.t.t.t.t.u.u.t.;.o.[ G E I.:., 4 8 0 6 > * A @.+.+.] A G :.P R -.:.2.4.:.A l 2.5.5.y.5.A , 5 $ . % # # # # # # # # # * * * # # # # # # # # # * % % * * * * % * * * * * * * * > * * * * * * * * * * * * * * * * * * * > * * * * > > * * * * > * * * * % * * * > > , > > > > > > > > > > > ; > * * * * * * % * # * * * * * * * * * > > > > > , > * * * * * * # % > l [ 4.5.y.7.W.;.] i.y.5.*.:.-.E P *.X.> > g z R 5.;.# > 0 S *.3.2.s Z.m . o lXlXlXlXlXlXlXlXlXlXlXlXlXlXlXlXlXlXlXlXlXlXlXlXlXlXlXlXlXlXlXlXlXlXlXlXlXlXlXlXlXlXlXlXlXlXlXlXlXlXlXlXlXlXlXlXlXlXlXlXlXlXlXlXlXlXlXlXlXlXlXlXlXlXlXlXlXlXlXlXlXlXlXlXlXlXlXlXlXlXlXlXlXlXlXlXlXlXlXlXlXlXlXlXlXlXlXlXlXlXlXlXlXlXlXlXlXlXlXlXlXlXlXlXlXlXlXlXlXlXlXlXlXlXlXlXlXlXlX. % P x.i E 5.G A l % % 5.uX4.A l 5 , A =.=.5.i.u.t.t.t.@.A A 7.3.5.5.4.G g , o . o % % % * * * ; > * * * * * > > > > * * * > > > > * = * * > ; * * ; > > > > * * * * % % * * * ; > * * * > > > > > > > * * > > > > > > > ; ; > > * ; > > * * % * * * * * % * * * % % % * * * * % * * o % % % % % * * * % * > > > * * * * * * * * * % * * * * * % o o * 7 l [ ;.*.=.W =.0 A <.<.4.5.5.:.:.:.J l #.q.q.p.#.> 4 S A 0 6 > z Y.Q R *.4.t.u.a.a.a.s.s.s.u.4.4.i.u.u.u.t.@.o.G J 5.",
"&.> 5.7.X.%.&.:.4.t.t.t.u.u.u.t.t.;.;.t.u.u.t.;.o.[ A F P.-., 4 8 l 0 4 * l #.O.] ] A J :.R R =.*.*.4.;.l 7 =.*.4.5.5.G 7 { g = = , , 5 , , 5 5 5 5 5 5 , 5 5 g g j 7 7 j 7 7 7 7 j j j j j l l l l l l l l l l l l l l l l l A l l l l z z z J z l l l l l l l A A J l z z l l l l l l l l l z z z z J J A A A A S A l l A J J l l l l l l l l A A l l J l l l A A A l A A l j j g 7 5 7 , 7 A A A 4.4.7.W.W.o.] y.5.:.=.E E E P =.{ > > j J W 7.;.# > 7 A %.H.H.s Z.m . o lXlXlXlXlXlXlXlXlXlXlXlXlXlXlXlXlXlXlXlXlXlXlXlXlXlXlXlXlXlXlXlXlXlXlXlXlXlXlXlXlXlXlXlXlXlXlXlXlXlXlXlXlXlXlXlXlXlXlXlXlXlXlXlXlXlXlXlXlXlXlXlXlXlXlXlXlXlXlXlXlXlXlXlXlXlXlXlXlXlXlXlXlXlXlXlXlXlXlXlXlXlXlXlXlXlXlXlXlXlXlXlXlXlXlXlXlXlXlXlXlXlXlXlXlXlXlXlXlXlXlXlXlXlXlXlXlXlXlXo % R x.i :.Q.:.[ 7 * * 5.fX5.A l 5 , l E =.5.s.a.u.t.,.@.A ] i.5.4.4.4.A j J l , , , 5 j l l A A A A l l A J J A S A A [ [ S A l l l l z A A S A A A A G A A A J z z l l A A A A A A A A S S [ S A J A A A A A A A A A A A A A A A A A A l l j C l l l l g j j l l l j j j l l j l j 7 5 g g j j 7 7 7 g g g g g g g 5 j j j j 5 5 i , , 5 g 5 , , , j { A J =.:.2.W =.l A o.o.:.5.:.-.-.:.J 0 #.9.q.t...# > S A 0 6 > j I.E v =.4.4.i.s.s.a.a.s.s.u.t.y.i.s.a.t.4.@.o.{ J 5.",
"o.> 5.7.X.%.&.*.;.4.t.u.a.a.t.t.t.4.t.t.u.u.t.;.o.A A J H.R , 4 8 l 0 4 * l +.+.] A l J -.P R *.*.*.;.o.7 5 =.=.*.5.5.A 7 :.J i i g j j z Z J P J J J z z z z R Z J Z J P P G F F G J J J J G %.o.o.&.%.%.%.W R R R $.%.%.&.&.*.&.X.G =.=.=.=.=.=.=.&.*.*.*.*.*.*.*.*.=.=.=.W R R =.:.:.;.&.%.%.=.=.=.=.=.*.:.4.5.5.*.X.%.*.5.5.:.*.=.%.*.*.*.*.*.*.%.%.W %.%.%.*.*.*.*.;.4.&.{ G G J J J j J *.A A @.;.5.W.W.{ A 4.4.*.=.R R E R =.[ > > l %.*.U.;.# * 7 A *.P.I.u n.m     lXlXlXlXlXlXlXlXlXlXlXlXlXlXlXlXlXlXlXlXlXlXlXlXlXlXlXlXlXlXlXlXlXlXlXlXlXlXlXlXlXlXlXlXlXlXlXlXlXlXlXlXlXlXlXlXlXlXlXlXlXlXlXlXlXlXlXlXlXlXlXlXlXlXlXlXlXlXlXlXlXlXlXlXlXlXlXlXlXlXlXlXlXlXlXlXlXlXlXlXlXlXlXlXlXlXlXlXlXlXlXlXlXlXlXlXlXlXlXlXlXlXlXlXlXlXlXlXlXlXlXlXlXlXlXlXlXlXlX. % P x.i 2.!.:.A 7 % * 5.fX5.A l 5 , l E E :.i.s.a.t.q.@.b ] i.7.4.@.@.A g %.&.l j j J %.;.4.5.5.4.4.:.*.:.5.5.5.5.5.5.y.i.y.*.%.$.R R =.5.5.4.*.*.4.5.5.5.5.2.-.=.E 5.5.:.*.*.:.5.5.:.:.5.5.5.5.5.2.*.5.5.4.*.*.*.=.=.=.*.*.;.*.&.X.&.%.%.=.=.=.=.=.=.$.J G R R R R R G R %.%.R R G J J G R R R G G G J J J J J J z z J J J z z J P k k k k k k j z J =.z J %.-.-.W =.l S o.o.;.5.:.W -.-.J 0 ..@.@.9.] # 4 [ A 0 6 > j I.E v =.5.4.5.t.u.a.a.s.s.s.y.y.u.s.s.t.4.;.o.{ J 5.",
"{ * 5.5.G %.%.&.*.;.4.u.u.t.t.t.t.u.t.4.t.t.t.;.X.A J J H.R , 4 0 l 0 4 * l +.#...A l z =.R W *.*.*.o.o.l , =.*.*.5.4.A 5 o.%.j a g k k k k P R P P P P P P P P k k k P R E J R P E R R R R R R %.&.*.*.=.W -.Q E W =.*.:.*.*.:.:.=.=.:.:.:.:.:.-.-.5.7.5.5.:.:.:.2.U.P.:.:.-.W =.5.y.i.y.5.:.:.-.-.2.-.-.5.7.y.i.7.*.=.*.2.5.5.5.5.=.=.2.5.5.5.5.2.*.=.-.-.:.5.5.5.5.4.5.y.:.%.%.%.%.R J z G *.l A @.o.4.7.7.S A ;.:.*.=.J J R W =.[ > > l =.2.W.;.# > 7 A *.P.H.y n.Y       lXlXlXlXlXlXlXlXlXlXlXlXlXlXlXlXlXlXlXlXlXlXlXlXlXlXlXlXlXlXlXlXlXlXlXlXlXlXlXlXlXlXlXlXlXlXlXlXlXlXlXlXlXlXlXlXlXlXlXlXlXlXlXlXlXlXlXlXlXlXlXlXlXlXlXlXlXlXlXlXlXlXlXlXlXlXlXlXlXlXlXlXlXlXlXlXlXlXlXlXlXlXlXlXlXlXlXlXlXlXlXlXlXlXlXlXlXlXlXlXlXlXlXlXlXlXlXlXlXlXlXlXlXlXlXlXlXlX  . Z Y a 2.W.;.[ 7 % % 5.gX5.A l , , l Q E =.t.u.t.t.q.@.A ] i.7.4.@.@.S , G *.A l j J %.:.5.7.7.7.7.7.5.2.5.7.7.7.7.y.i.Q.i.5.:.-.W W =.5.5.4.*.4.7.W.5.5.5.5.:.-.-.7.7.5.:.5.5.7.7.5.5.7.7.U.U.7.5.:.5.7.7.5.5.2.2.-.2.5.5.5.4.4.*.*.:.*.:.-.:.:.:.:.=.R W W W R E W W W =.=.-.=.R E -.Q R R R R =.R z J J E R P P k R R R J z J R P x k k k s a z =.%.l J W %.=.W =.l [ @.o.4.:.=.=.:.:.J l #.@.@.@.] # 4 [ A 0 0 > l Y.-.R -.5.*.=.*.t.s.s.s.s.p.t.t.u.u.t.4.4.*.o.{ J 5.",
"A , 5.5.J $.$.{ :.5.t.t.t.p.p.t.u.i.4.;.;.4.;.&.G J J F H.W , 4 7 l A 4 * l +.#...] l J :.=.=.5.*.*.<.4.A , =.*.*.5.:.A 7 [ *.j j j k k k k P R P P I E I P P k k k x P R P P P P Q E I E E R P G *.5.5.W E Q x.E R -.5.:.=.=.=.:.=.E -.-.-.:.-.E Q W.U.5.:.*.*.=.=.P.U.F.-.Q W -.5.Q.Q.y.5.-.-.-.H.H.-.Q 5.W.W.U.2.=.=.-.-.-.2.P.P.-.-.5.7.7.5.5.*.=.:.-.Q -.2.5.5.:.4.y.i.4.%.%.=.%.G J J %.X.6 ] <.@.*.*.:.S A *.:.4.*.&.%.&.%.*.[ > > l =.2.W.;.# > 7 S ;.5.2.r n.Y .     lXlXlXlXlXlXlXlXlXlXlXlXlXlXlXlXlXlXlXlXlXlXlXlXlXlXlXlXlXlXlXlXlXlXlXlXlXlXlXlXlXlXlXlXlXlXlXlXlXlXlXlXlXlXlXlXlXlXlXlXlXlXlXlXlXlXlXlXlXlXlXlXlXlXlXlXlXlXlXlXlXlXlXlXlXlXlXlXlXlXlXlXlXlXlXlXlXlXlXlXlXlXlXlXlXlXlXlXlXlXlXlXlXlXlXlXlXlXlXlXlXlXlXlXlXlXlXlXlXlXlXlXlXlXlXlXlXlX  . Z Y i 5.Q.4.[ 0 * * 5.hX5.A l , , J -.E $.;.t.t.q.q.@.A [ W.W.y.4.@.{ , J *.A l z Z F =.5.7.7.U.Q.W.7.5.U.7.5.7.7.5.y.y.y.5.:.-.E E =.=.=.*.*.*.5.5.2.*.*.-.-.Q -.7.7.7.5.:.2.5.5.5.5.5.7.U.U.U.2.=.5.W.W.7.5.:.-.Q -.U.7.5.5.5.2.2.*.=.=.-.-.-.:.-.E R =.Q R P R Q Q E P E -.Q R Q Q E R R P E E F z J R Q E x d x P P P R k x P P x k k j k j J :.{ 7 A X.1.5.1.*.l ] 4.4.4.*.%.=.2.:.J l #.9.@.+.] # 4 X.A A 0 5 l !.2.R *.5.*.=.&.y.s.s.s.a.u.t.i.s.t.;.;.*.&.o.{ J :.",
"A * 5.:.J G G *.4.u.t.t.t.t.p.p.t.t.;.&.*.*.%.J J J J R P.%., 4 6 l l 4 * l #.#...] 0 z 2.-.5.4.;.4.4.4.] , W -.:.:.=.l 7 l &.J i a j k k k x x P P P P P d s k k k k P P P P P I I I P I I P R E -.-.-.E I I I I I Q Q -.-.-.-.Q Q E E E Q Q E I E H.H.-.-.Q W W Q H.H.-.Q R P =.5.U.U.2.-.-.Q Q Q -.Q W -.U.W.5.:.=.W =.=.W -.2.-.Q -.2.5.2.2.=.W =.-.Q Q Q Q -.:.2.5.5.5.4.*.%.$.J Z z J %.A 7 ] 4.4.4.5.5.A A *.;.4.t.t.4.4.;.;.[ > > g z W 7.;.# - 0 #.;.5.=.r x.Q .     lXlXlXlXlXlXlXlXlXlXlXlXlXlXlXlXlXlXlXlXlXlXlXlXlXlXlXlXlXlXlXlXlXlXlXlXlXlXlXlXlXlXlXlXlXlXlXlXlXlXlXlXlXlXlXlXlXlXlXlXlXlXlXlXlXlXlXlXlXlXlXlXlXlXlXlXlXlXlXlXlXlXlXlXlXlXlXlXlXlXlXlXlXlXlXlXlXlXlXlXlXlXlXlXlXlXlXlXlXlXlXlXlXlXlXlXlXlXlXlXlXlXlXlXlXlXlXlXlXlXlXlXlXlXlXlXlXlX  . Z Y i 4.~.t.[ 0 # % 5.1X=.z z , , F -.E R *.;.t.t.t.9.] [ i.U.i.y.4.[ , j G J J Z z J G =.:.5.U.U.5.:.=.:.5.5.5.5.5.5.5.5.5.:.Q R P P W W =.=.=.:.2.=.=.=.W W E Q H.H.2.:.-.=.=.-.2.H.P.P.2.-.2.2.Q 2.3.3.P.2.E E E Q 2.2.2.*.*.=.-.W E R E Q Q Q Q E P Q Q I I I I E I P I E I P E E P P P P P P P P P P P x f t d d P P P x x d d d s u p p k R :.A 7 A X.5.U.5.*.l [ 4.t.4.o.%.:.5.:.J l #.q.@.@.` # 5 o.A A 0 , z P.-.R %.:.4.5.t.u.s.s.s.u.u.t.y.y.t.o.G W W G J J -.",
"A = 5.5.G G %.4.y.a.u.t.4.t.q.p.t.4.;.&.*.*.W R J Z J P P.W , 4 6 0 0 6 * A @.#.] A l J 2.W 2.5.5.5.5.4.A , -.2.=.=.=.J 7 5 { %.z j k k k P P R E I I I I I P x x x x P I I E P I I I P P P P P E $.=.=.Q E Q Q E Q Q Q Q -.-.-.=.=.Q Q -.-.-.E E Q -.-.-.-.=.=.=.-.:.:.-.-.W W =.*.2.2.:.=.-.:.-.:.2.:.-.5.5.5.5.5.2.2.2.5.2.2.2.5.2.2.5.7.5.5.5.2.2.2.2.2.2.5.5.5.7.5.5.4.4.*.&.%.G J J R %.l 7 ] 4.5.W.Q.7.S ] o.;.t.u.t.t.4.*.;.#.> > j l G 5.;.# 4 0 #.4.5.=.r Q E .     lXlXlXlXlXlXlXlXlXlXlXlXlXlXlXlXlXlXlXlXlXlXlXlXlXlXlXlXlXlXlXlXlXlXlXlXlXlXlXlXlXlXlXlXlXlXlXlXlXlXlXlXlXlXlXlXlXlXlXlXlXlXlXlXlXlXlXlXlXlXlXlXlXlXlXlXlXlXlXlXlXlXlXlXlXlXlXlXlXlXlXlXlXlXlXlXlXlXlXlXlXlXlXlXlXlXlXlXlXlXlXlXlXlXlXlXlXlXlXlXlXlXlXlXlXlXlXlXlXlXlXlXlXlXlXlXlX    . Z I i :.s.t. .l # o 5.fX-.z z , , J Q Q E 4.t.t.t.t.@.]  .U.5.*.*.4.o., 5 S G J J J $.=.5.5.7.U.U.7.5.5.5.7.7.5.5.5.5.5.5.5.5.:.=.E R -.=.=.=.=.*.*.2.:.:.=.-.-.-.2.:.:.-.=.=.=.:.5.P.7.5.2.:.-.:.-.2.2.2.2.:.:.-.-.=.:.2.2.*.*.*.=.=.=.W W -.=.-.-.-.Q Q E R R E Q Q Q E E Q R R Q E P P P R R R R R P P R P x x k x P P P R R x x x k k k k R 5.:.7 7 A %.:.2.2.%.j  .4.4.4.*.4.5.2.-.J A #.q.@.@.] # 5 o.A 0 6 , k H.E P %.:.4.t.u.s.a.t.u.u.y.y.y.y.4.*.%.W R R J J -.",
"A = 5.5.G X.%.*.t.u.t.t.t.t.t.t.t.4.&.&.*.:.=.R R z Z R P.W , 4 4 5 9 4 * A @...A l l A =.W 2.2.P.K.2.*.l , 2.-.W F R J 7 > J %.J g g g g g j j g a i i a a a a a i i i i i , , , , : : , , , , g g g g g 7 5 , , , 5 , , , , , , , , , , , , , , , , , , , , 5 7 g g g , , , g 7 7 7 g j j j j j g g g g g j j l l l l l l l g g g g j l l j 7 7 7 g g , 5 5 5 5 5 7 7 7 7 0 j j j j j l { %.j 7 o.4.i.Q.!.W.[ A @.4.u.a.u.t.4.&.;.[ > > j J %.y.;.# 4 A @.t.5.=.r P P .       lXlXlXlXlXlXlXlXlXlXlXlXlXlXlXlXlXlXlXlXlXlXlXlXlXlXlXlXlXlXlXlXlXlXlXlXlXlXlXlXlXlXlXlXlXlXlXlXlXlXlXlXlXlXlXlXlXlXlXlXlXlXlXlXlXlXlXlXlXlXlXlXlXlXlXlXlXlXlXlXlXlXlXlXlXlXlXlXlXlXlXlXlXlXlXlXlXlXlXlXlXlXlXlXlXlXlXlXlXlXlXlXlXlXlXlXlXlXlXlXlXlXlXlXlXlXlXlXlXlXlXlXlXlXlXlX    . Z I i *.s.t.#.0 # # y.gX5.J l = , J -.-.5.i.p.t.t.t.@.] %.U.2.W G X.X.5 7 A G J l g j 7 7 j j 7 7 7 j l l l l j 7 7 7 7 0 0 7 7 5 , , g g 7 7 7 7 7 7 5 5 5 5 5 g g g , , , 5 5 , , 5 5 5 , , , g g 5 7 7 5 g g g , , 7 7 5 5 , , , , , , , , , , , , 5 , , , , 5 5 5 5 , , , , , , , , , , , , , , , , = = = & & = = , , , , , , , , , , , , g &.A , j A %.W W =.%.j [ 4.4.4.4.5.7.2.:.G A +.@.@.@.] # 7 X.A 0 7 , j H.E R *.4.t.t.a.a.u.t.t.t.u.y.t.t.4.4.5.:.=.R R R :.",
"A = 5.5.G X.%.%.4.t.t.u.u.t.p.t.t.4.o.*.4.5.:.E R k z R P.=., * * > 6 4 * A #.A A l l A *.=.Q Q J.L.Q %.J i 2.-.E R W J l > , , $ . . .                   X X X X     X X X X . .     . . . . . . . . . . . . . . . . . . . . o o o o o o o o o o o o % * * # # # o % o o o o % o o o o o o # o o o o o o o X o o o o o X X o X . X X X X X X X # o o o o o # # # # # o o o o o o o # o * > 5 , l 4.y.i.Q.&XQ.S A ;.4.y.s.p.t.;.X.;.[ * > j G 4.Q.;.# > A ;.t.4.*.i d a .     lXlXlXlXlXlXlXlXlXlXlXlXlXlXlXlXlXlXlXlXlXlXlXlXlXlXlXlXlXlXlXlXlXlXlXlXlXlXlXlXlXlXlXlXlXlXlXlXlXlXlXlXlXlXlXlXlXlXlXlXlXlXlXlXlXlXlXlXlXlXlXlXlXlXlXlXlXlXlXlXlXlXlXlXlXlXlXlXlXlXlXlXlXlXlXlXlXlXlXlXlXlXlXlXlXlXlXlXlXlXlXlXlXlXlXlXlXlXlXlXlXlXlXlXlXlXlXlXlXlXlXlXlXlXlXlXlX    . Z I i &.u.,...0 # # y.hX7.J l = = J -.:.y.s.a.u.t.t.@.A G 2.Q W W F S l l 7 % % $ o o o X o o o o X o o o o o o o # # # o o o o o o % * * * * * * * * o o o * * % % % * * * * * # * * * * * * % % * * o # * % o o o o * * o o o o o o o o o X X X o o o . . . . . . . . .       . . . . . . o o o o . . . . . . . . . . . . . . X X X X . . . . * * 5 l J R R E W W j [ 4.4.4.4.7.U.5.=.J 0 ..@.@.@.) # 7 *.A 0 6 , j I.Q R :.4.t.u.p.s.s.t.t.t.t.t.t.t.t.y.W.5.-.R R R -.",
"J , 5.5.G G X.%.4.t.t.u.u.t.p.t.t.4.@.4.4.4.*.E R k z R P.*.5 * > 4 6 4 > 0 ..] ] A 7 [ 4.=.-.H.L.m.E W G g 2.Q W W W J l > % o . o o # * * # # # # * * * * > > > > > > 4 4 > , , , 5 5 5 4 > > > 4 > > > * * > > 4 > > > > > > 4 4 4 4 5 5 5 5 7 5 5 5 8 5 4 6 8 5 8 5 5 5 5 5 5 5 5 5 5 5 5 8 8 8 7 7 6 6 5 6 8 7 8 8 5 5 4 4 7 7 5 5 8 6 6 6 7 6 6 6 7 7 7 7 7 7 7 6 6 7 7 7 8 5 5 > * * * , A 4.5.Q.&X&Xi.A ] @.4.u.s.s.t.*.X.:.[ * > j G 5.~.;.* > 0 #.;.4.=.i d r .   lXlXlXlXlXlXlXlXlXlXlXlXlXlXlXlXlXlXlXlXlXlXlXlXlXlXlXlXlXlXlXlXlXlXlXlXlXlXlXlXlXlXlXlXlXlXlXlXlXlXlXlXlXlXlXlXlXlXlXlXlXlXlXlXlXlXlXlXlXlXlXlXlXlXlXlXlXlXlXlXlXlXlXlXlXlXlXlXlXlXlXlXlXlXlXlXlXlXlXlXlXlXlXlXlXlXlXlXlXlXlXlXlXlXlXlXlXlXlXlXlXlXlXlXlXlXlXlXlXlXlXlXlXlXlXlXlXlXlX  . Z Y i %.t.@.] 0 # # y.gX5.A l * = J =.:.t.s.a.a.t.t.+.l J 2.Q W P P G l 5 > % > , 5 5 8 6 5 6 6 7 8 8 5 8 7 7 7 0 0 0 0 7 7 7 7 7 7 j 7 7 7 7 6 6 6 7 5 5 5 7 7 7 7 7 7 7 6 5 5 4 4 8 8 8 5 5 5 5 5 5 > > 4 5 4 > > , 5 5 5 > 4 4 4 > > > , , > 4 5 , , > > * * * > * * * > * * * * > > > 4 5 5 4 4 > > > > > > > > 4 4 > > > > 4 > > > > > > * o * 5 l G W R E E R g S 4.4.5.7.Q.U.2.%.A l #.q.q.@.0 # 7 *.D 0 6 , j I.W G *.4.t.a.a.s.a.t.t.u.t.u.t.t.t.4.5.:.E R R R :.",
"A , 7.5.G G X.=.4.u.u.4.4.t.t.t.t.4.4.t.t.t.*.R R z J P P.2.5 5 5 7 0 > > b +.+.] A 7  .4.*.P.Y.L.Q P W A 7 -.Q E W W l j % o * * * > 4 5 5 5 5 , , , , , , , , , , , , , , , < < < 7 7 7 5 5 5 5 5 5 , > > > , 5 5 5 5 5 5 , 5 5 5 5 > 5 5 5 5 7 7 5 5 7 6 6 6 6 7 7 7 7 7 7 7 7 7 7 l 7 7 7 l l l l l l l l l l l l l 7 6 6 7 0 7 7 l 0 6 7 7 j l l 0 0 0 0 0 0 0 0 0 0 0 l l 0 0 7 5 5 5 > , l G 1.W.&XQ.7.A ] @.4.u.s.s.t.:.%.:.A * > l %.5.~.;.* > 0 [ o.:.%.r d i .   lXlXlXlXlXlXlXlXlXlXlXlXlXlXlXlXlXlXlXlXlXlXlXlXlXlXlXlXlXlXlXlXlXlXlXlXlXlXlXlXlXlXlXlXlXlXlXlXlXlXlXlXlXlXlXlXlXlXlXlXlXlXlXlXlXlXlXlXlXlXlXlXlXlXlXlXlXlXlXlXlXlXlXlXlXlXlXlXlXlXlXlXlXlXlXlXlXlXlXlXlXlXlXlXlXlXlXlXlXlXlXlXlXlXlXlXlXlXlXlXlXlXlXlXlXlXlXlXlXlXlXlXlXlXlXlXlXlXlX  X F Y i %.4.@.] 7 # # y.fX*.l j * * z =.4.t.s.s.s.u.t.@.A J H.Q W P P J 5 * > > 5 5 5 5 8 5 6 7 0 l l 0 0 7 7 7 7 7 0 0 l l 0 0 7 7 7 7 l 7 7 7 7 5 5 , , , > , 5 , 5 5 5 5 5 5 5 , 5 5 8 8 8 5 5 5 5 5 5 5 4 4 4 4 > > , , > > > 4 > > > > , > > > , , , , > * * , , , > > , , * * > > > > > > > > > > , 5 5 5 4 > > > 4 4 > > , 5 5 > 5 5 , , , * * > 5 R =.R R E R g S 4.5.7.%X&XU.2.=.J 0 ..q.q.@.0 # 6 *.S 0 6 , l P.W G &.4.t.u.s.u.u.t.u.a.a.a.u.u.u.t.4.=.R G G J -.",
"A , 7.5.G G %.=.4.u.u.4.o.@.q.q.q.q.t.a.p.t.;.{ J z J P K.5.j 5 7 l 0 > > ] q.+.O.b 7 A 4.:.P.J.Q E E R l , -.Q R W %.l , . . o o o o o % % % % o % % % % % % * * % % % % % % * % % * * * * * * * * * * % % o o o o % % % % % % % % % % % % % * * * * * * > > > > > > > > > > > > > > > > > > > > > > , , > * > > * * * * * * * ; ; > > * ; > > , , > > > > > > , , > > 4 4 5 5 5 4 > ; * ; * * g J *.5.U.W.y.] ] 4.t.s.s.u.t.:.%.4.A * 5 l %.y.~.;.* * 0 #.;.4.R r P s .   lXlXlXlXlXlXlXlXlXlXlXlXlXlXlXlXlXlXlXlXlXlXlXlXlXlXlXlXlXlXlXlXlXlXlXlXlXlXlXlXlXlXlXlXlXlXlXlXlXlXlXlXlXlXlXlXlXlXlXlXlXlXlXlXlXlXlXlXlXlXlXlXlXlXlXlXlXlXlXlXlXlXlXlXlXlXlXlXlXlXlXlXlXlXlXlXlXlXlXlXlXlXlXlXlXlXlXlXlXlXlXlXlXlXlXlXlXlXlXlXlXlXlXlXlXlXlXlXlXlXlXlXlXlXlXlXlXlXlX  X F Y i W 4.@.] 0 * # i.gX1.l l * * z %.4.t.a.a.i.s.p.q.A S 5.Q =.W W J 5 * # * * * * * * * * * * * * > > > > > > > > > > * > > > > * * > > * * * * * % * # o o o % % % * * * % % # # % % % % % * * * * * * * # * # o o * * % * * * % % % % % % o o % % % % % % % % % % o o % % % o % * * * * * * # # # * * * * * * % % * * * * * * * * * * * % % % o 5 g J W R E E W g S 5.7.U.U.K.3.2.:.A 0 ..q.q.@.0 # 7 :.S l 7 , l P.W J X.4.4.t.u.t.t.t.s.a.a.a.a.a.a.y.4.=.R J J J =.",
"A * 7.5.G { X.o.4.t.t.;.@.,.q.q.t.t.t.p.p.t.;.o.J z k P P.5.j 5 8 7 l 4 * ..q.+.O.0 0 A ;.*.2.H.Q 2.Q W A > =.-.R W R j , $ . . . . o o o . . o X X o o o o % # o o o o o o o o o # # % % % % % % % % o o % % o o o o % % % % % o o o o % $ % % % % % % % % % % % % % % % % % % % % % * % % * * * * * * * % % % % % * % * * % % % % % % % % % % % % % % % % * * * * % * * * % * * % % o o o o , g R 7.5.2.7.y.[ ] 4.t.y.t.t.4.:.%.5.A * > l &.y.~.o.o * l #.;.4.%.i c.P .   lXlXlXlXlXlXlXlXlXlXlXlXlXlXlXlXlXlXlXlXlXlXlXlXlXlXlXlXlXlXlXlXlXlXlXlXlXlXlXlXlXlXlXlXlXlXlXlXlXlXlXlXlXlXlXlXlXlXlXlXlXlXlXlXlXlXlXlXlXlXlXlXlXlXlXlXlXlXlXlXlXlXlXlXlXlXlXlXlXlXlXlXlXlXlXlXlXlXlXlXlXlXlXlXlXlXlXlXlXlXlXlXlXlXlXlXlXlXlXlXlXlXlXlXlXlXlXlXlXlXlXlXlXlXlXlXlXlXlX  X J I p Z W G A l * * i.gX:.l j * * l &.4.t.t.t.s.s.u.q.A A =.P R %.%.G l 7 o o o o o % % o o % % % * % % % % % * * * * * % * * * * * * * * * * * * * % % o o o % % % % % % % % % o % % % % % % % % % o o o # # # # o o * * % % % % % % % % % % % o o % % $ o o o o o . o o . . . . o o % % o o o o o o % % % % o o o o % % % % % % % % % % % % % % > A J z R R R Q W l K 5.U.U.2.3.2.2.:.J 0 ..@.9.@.0 # 0 *.S l 7 > j P.W J G %.*.4.4.t.t.u.a.s.a.a.a.t.u.t.*.=.R G G J =.",
"A * 5.5.G X.o.o.4.4.4.;.;.t.q.q.4.4.t.t.t.t.4.o.[ l z R P.5.7 5 5 7 l 2 * ] @.+.O.0 0 A *.W 2.H.2.H.-.=.A , %.W P W $.j j g % % % * > > > > , , > > , > > , , , , 5 5 5 5 5 , , , 5 5 5 5 , 5 5 5 5 5 5 5 5 5 , , , , , , 5 5 , , , , , 5 , g g 5 g g j j j g 5 5 g j j g 5 , , g g 5 7 7 5 5 5 g g g j j j j g g g j l j 7 g 5 5 7 5 5 g 7 j l j j j j 7 , 5 7 7 7 7 5 5 7 5 5 5 5 , > , , , J l G i.y.U.W.y.[ A 4.4.;.4.4.4.;.=.5.A * > l G 4.i.o.% > 0 [ ;.t.4.s R.E     lXlXlXlXlXlXlXlXlXlXlXlXlXlXlXlXlXlXlXlXlXlXlXlXlXlXlXlXlXlXlXlXlXlXlXlXlXlXlXlXlXlXlXlXlXlXlXlXlXlXlXlXlXlXlXlXlXlXlXlXlXlXlXlXlXlXlXlXlXlXlXlXlXlXlXlXlXlXlXlXlXlXlXlXlXlXlXlXlXlXlXlXlXlXlXlXlXlXlXlXlXlXlXlXlXlXlXlXlXlXlXlXlXlXlXlXlXlXlXlXlXlXlXlXlXlXlXlXlXlXlXlXlXlXlXlXlXlXlX  X Z I t k R z z j * * i.gX:.l j * % J &.:.4.t.t.s.u.t.@.A l =.R W =.=.R J { 7 , , , 5 5 , , 7 7 g 7 5 , , 5 5 5 5 5 5 5 , , 5 7 5 5 g g j j j 7 j j g g g 7 7 7 g g j g g g g j j 7 7 7 7 7 7 g g g g 5 5 7 7 7 7 7 7 5 7 7 7 7 7 j g 5 5 5 , , , , 5 5 , = = * , , , = * = , , , , , , , , > > > , = * , , , , , , , , , 5 5 5 5 5 5 5 , , , , , , l %.G G =.W Q -.=.l X.5.U.3.2.2.2.2.*.J l #.@.@.+.0 # 7 X.A l 7 , j U.W J $.{ X.;.t.t.t.t.a.a.a.p.t.t.t.4.*.%.$.{ { G *.",
"J = 5.5.G X.*.;.4.4.4.;.4.t.q.@.@.@.q.q.t.4.,.o.[ l j Z U.5.5 > 5 0 0 * * A #.....A 0 A o.%.2.-.=.=.-.=.A 5 %.P F W %.j g G i * , , g l l j l l l j l j j j j j l z z z z l z z l j z z z z J A J A A A J J J J J J z l l J J J J J J J J J R R J $.X.&.*.*.&.%.%.&.&.*.&.{ { { G G G { { { G J J G G G { %.%.{ G { X.o.{ [ { { { o.%.X.$.{ %.&.X.S G G G S A A { X.{ { { X.{ S S A l l l g l %.l A 5.W.Q.Q.i.[ ] 4.4.;.4.4.5.5.:.:.l * > j l G 5.X.* > 0 #.;.t.4.P >XQ     lXlXlXlXlXlXlXlXlXlXlXlXlXlXlXlXlXlXlXlXlXlXlXlXlXlXlXlXlXlXlXlXlXlXlXlXlXlXlXlXlXlXlXlXlXlXlXlXlXlXlXlXlXlXlXlXlXlXlXlXlXlXlXlXlXlXlXlXlXlXlXlXlXlXlXlXlXlXlXlXlXlXlXlXlXlXlXlXlXlXlXlXlXlXlXlXlXlXlXlXlXlXlXlXlXlXlXlXlXlXlXlXlXlXlXlXlXlXlXlXlXlXlXlXlXlXlXlXlXlXlXlXlXlXlXlXlXlXlX  . Z I r P E J l 7 > > i.gX4.l j * % J %.%.*.t.u.i.u.t.@.0 A 2.2.=.=.=.R z %.o.j j l J J J D S [ { X.%.X.%.%.%.%.%.X.X.X.X.R R R R R W =.%.%.&.X.X.G G R G G G G R R { { { X.{ X.o.&.o. . .o.X.{ R R R G G J J J { X.{ G A G G S S X.X.G A A A A A A [ S A z z z z z z k k z k z z z z z l l l l l l j g g g g g i j j g j j l l l j j j a i i i , g G *.S %.*.Q Q -.=.l S 1.5.5.2.2.2.2.*.J l ..@.+.#.0 # 6 S A l 0 , l !.=.J $.G X.4.t.u.t.t.p.a.a.p.t.p.u.4.*.%.R { $.R :.",
"G = 5.5.G &.;.;.4.t.4.@.t.t.t.@.#.@.q.t.t.4.;.o.{ l l J U.5.g > 5 0 0 * * A #.....A 9 A %.=.:.W G G W *.A > %.=.W %.%.g 5 W z , , g j l C Z J F R J R J J k k R J J Z J R R k k J J J J J Z J R $.$.G G G R $.R G J J G %.$.G G G G R =.=.=.-.-.=.:.5.7.7.5.5.5.5.5.5.5.5.5.:.5.5.5.5.5.5.5.7.7.5.5.5.5.7.7.5.5.y.5.4.:.5.y.5.5.5.5.5.5.5.y.i.y.5.:.:.5.:.*.*.:.4.5.:.*.4.4.*.%.G G F J z j G X.7 A 4.5.5.y.i.o.] 4.4.t.t.y.y.y.:.*.l * > 7 j Z :.G % > 0 #.t.u.4.k :XQ     lXlXlXlXlXlXlXlXlXlXlXlXlXlXlXlXlXlXlXlXlXlXlXlXlXlXlXlXlXlXlXlXlXlXlXlXlXlXlXlXlXlXlXlXlXlXlXlXlXlXlXlXlXlXlXlXlXlXlXlXlXlXlXlXlXlXlXlXlXlXlXlXlXlXlXlXlXlXlXlXlXlXlXlXlXlXlXlXlXlXlXlXlXlXlXlXlXlXlXlXlXlXlXlXlXlXlXlXlXlXlXlXlXlXlXlXlXlXlXlXlXlXlXlXlXlXlXlXlXlXlXlXlXlXlXlXlXlXlX  . J R p E :.%.A 7 * # s.jX4.A l > * J E G %.y.y.y.t.t.+.0 A 5.2.=.%.=.R j G 4.Z k Z G G K =.:.4.4.5.y.5.5.5.5.5.4.4.4.5.7.5.*.=.2.5.2.=.*.5.5.5.4.*.%.R *.5.5.*.*.*.:.:.:.:.;.4.t.5.4.4.4.4.5.5.:.:.:.2.:.*.%.&.4.5.4.*.&.&.&.*.;.:.;.&.&.*.&.X.&.4.:.&.$.E R R R F J J R R E E R W =.R G R G X.G J J k z z z k k k z z z l l l l R z k h p s i i l =.G l K *.W E Q W l S =.5.7.5.5.=.:.*.J 0 ] O.O.#.] # 5 A A l 6 , j Q.=.J $.&.;.4.u.u.t.t.t.a.a.a.u.p.u.u.4.*.$.R $.R -.",
"A = 7.7.%.*.;.;.4.t.t.t.t.t.p.t.@.q.t.t.4.;.&.$.{ z k P P.5.g , 5 7 0 # * ] +.+...A 9 J %.W =.R %.&.%.*.A > %.2.%.%.%.j , J R j , g j j j l z Z z z k Z J J J $.J k k R R J l J { %.%.G F J J R =.=.R G J G R E R R %.*.:.=.R R E E R P W -.-.=.=.:.Q.W.7.5.5.5.7.5.5.2.:.2.5.5.5.5.5.5.5.5.5.5.=.=.=.:.5.5.5.4.5.4.*.&.5.y.7.5.5.5.5.5.5.7.7.5.4.4.*.4.5.5.7.W.Q.W.5.5.7.7.5.*.%.K R J z z %.A 7 A @.o.X.4.y.o.A y.t.t.y.i.5.*.%.*.l * > 7 l W 2.G o > 0 #.u.a.4.k :XQ     lXlXlXlXlXlXlXlXlXlXlXlXlXlXlXlXlXlXlXlXlXlXlXlXlXlXlXlXlXlXlXlXlXlXlXlXlXlXlXlXlXlXlXlXlXlXlXlXlXlXlXlXlXlXlXlXlXlXlXlXlXlXlXlXlXlXlXlXlXlXlXlXlXlXlXlXlXlXlXlXlXlXlXlXlXlXlXlXlXlXlXlXlXlXlXlXlXlXlXlXlXlXlXlXlXlXlXlXlXlXlXlXlXlXlXlXlXlXlXlXlXlXlXlXlXlXlXlXlXlXlXlXlXlXlXlXlXlXlX  X J E s Q 5.=.A 7 # - s.jX4.A l > * Z R R %.4.4.t.t.t.@.0 l 5.2.*.=.=.R j J 5.=.Z k J R %.*.5.5.5.7.7.4.:.y.y.y.5.:.:.5.5.5.*.=.:.5.:.=.*.5.y.i.y.:.&.K 4.y.y.5.:.4.5.5.5.5.4.4.y.i.y.y.y.y.y.7.*.=.=.=.*.&.X.;.y.i.i.4.4.4.:.:.4.4.:.&.*.5.&.&.4.y.:.%.{ $.$.R G J J J G W =.W =.-.-.$.$.=.=.*.=.&.R R R k R E E P P R R J J J J R z k k s s u j J 5.D 7 S =.R E Q %.l [ &.:.5.5.4.%.*.*.J 0 _ ..+.#.A # 5 A A A 7 > g U.=.z J &.4.t.u.u.u.t.t.a.a.a.t.t.p.i.y.:.%.R R P -.",
"J = 7.7.%.;.;.;.4.t.t.t.t.t.t.t.4.t.t.t.&.G J J z k k P P.2.5 , 5 l 0 * * ] @.#...b 6 J =.R R R R *.%.&.A , *.:.%.%.%.j , z =.J g g j k k k z z k k k Z k J J J k k Z R R z j z G %.R R P P R R -.-.=.R J P E E R P =.*.*.W R R E E R P R E E E =.:.W.7.5.5.5.5.5.5.:.*.-.:.5.5.5.:.*.*.5.5.5.=.=.:.:.:.5.7.W.Q.y.5.5.5.5.5.*.=.=.-.:.:.5.5.5.7.7.7.7.5.=.=.:.7.7.7.2.2.5.7.7.5.*.*.W J J %.4.l 5 A o.&.&.5.5.[ A 5.y.i.i.y.:.&.E *.l * > g z 2.U.G # 4 0 #.t.a.4.Z oXQ     lXlXlXlXlXlXlXlXlXlXlXlXlXlXlXlXlXlXlXlXlXlXlXlXlXlXlXlXlXlXlXlXlXlXlXlXlXlXlXlXlXlXlXlXlXlXlXlXlXlXlXlXlXlXlXlXlXlXlXlXlXlXlXlXlXlXlXlXlXlXlXlXlXlXlXlXlXlXlXlXlXlXlXlXlXlXlXlXlXlXlXlXlXlXlXlXlXlXlXlXlXlXlXlXlXlXlXlXlXlXlXlXlXlXlXlXlXlXlXlXlXlXlXlXlXlXlXlXlXlXlXlXlXlXlXlXlXlXlX  X F E s -.5.%.A 7 * - s.jX5.A j * * J E E W *.;.4.t.t.@.0 l 5.2.5.=.%.J g l 4.5.R k k R %.*.%.=.*.5.y.y.7.5.5.5.5.5.5.5.5.5.4.*.*.:.:.*.=.5.y.y.y.:.&.X.:.5.5.:.:.4.5.5.5.5.5.4.5.5.5.5.y.5.5.5.5.:.*.=.*.*.:.;.4.5.5.4.4.4.:.:.:.:.&.$.&.:.*.*.4.5.=.$.$.$.$.$.R J J J J R E W W W $.$.$.$.=.=.=.$.R Z k k x E E x x R R J J J J P R R P x k s j $.4.l 7 S %.=.=.:.&.l ..o.;.4.4.:.*.*.&.l l ] #.@.+.l # 9 S S A 7 > j U.W z z $.4.4.t.u.u.u.u.a.a.a.t.t.t.i.y.4.&.G G J =.",
"J = 7.7.%.;.;.;.4.t.t.t.p.t.q.4.4.t.t.;.X.J R J k k k P H.1.5 > 7 A A > # ] @.#...A 6 J :.R x R R G G { l , :.2.=.%.X.j , z W P z l k R P P R R P P E E E R R E P P P E E P P R P R E E E E R R -.:.-.$.E W Q E E Q -.-.=.=.W -.=.E E R E Q -.-.:.5.5.5.5.5.5.7.5.5.5.2.2.H.P.U.7.5.5.7.W.W.y.5.:.2.2.2.5.7.W.W.7.7.7.5.5.2.:.:.:.2.2.P.U.5.5.7.7.7.7.5.=.:.5.7.7.5.5.2.:.5.5.5.:.*.%.G $.4.4.5 5 A ;.4.7.7.5.A A 4.y.i.i.4.4.:.-.5.A * > g Z H.U.X.# 4 0 #.t.p.4.Z oXQ     lXlXlXlXlXlXlXlXlXlXlXlXlXlXlXlXlXlXlXlXlXlXlXlXlXlXlXlXlXlXlXlXlXlXlXlXlXlXlXlXlXlXlXlXlXlXlXlXlXlXlXlXlXlXlXlXlXlXlXlXlXlXlXlXlXlXlXlXlXlXlXlXlXlXlXlXlXlXlXlXlXlXlXlXlXlXlXlXlXlXlXlXlXlXlXlXlXlXlXlXlXlXlXlXlXlXlXlXlXlXlXlXlXlXlXlXlXlXlXlXlXlXlXlXlXlXlXlXlXlXlXlXlXlXlXlXlXlXlXlXX F E s :.U.:.[ 7 * # i.jX5.J j * * A =.W W *.;.:.t.t.@.l A 5.P.4.*.%.J a g *.7.W Z P W :.2.2.2.5.7.Q.W.W.7.5.7.y.W.W.7.7.5.5.5.5.5.2.2.:.5.5.5.5.:.=.W =.:.:.:.:.:.:.:.2.5.5.:.:.5.5.7.7.5.5.5.:.:.=.=.:.:.:.*.*.*.*.5.5.5.*.*.:.:.*.%.*.*.:.:.:.:.=.=.=.W W W E E R R =.=.-.Q Q -.-.-.-.-.-.-.-.=.E P R R R P P P R P J R R R P P P R P P k k J *.*.7 7 A %.*.:.2.o.0 ..@.;.4.4.4.;.;.&.l l #.,.@.#.0 # 9 X.[ A 7 * j 5.E z k J &.4.t.u.u.u.u.p.p.t.t.t.t.u.t.4.*.$.G J :.",
"J = 7.7.X.&.;.;.4.t.t.p.p.t.@.@.4.t.t.4.o.{ %.R G z z Z H.1.5 > 7 A A > # A #.#...A 7 J :.R P E $.G S S l 5 :.5.*.%.X.l , J R J z j z z z J J R P P P P P P P P x x x P P x x P Z J R P R R R R R E R R G R R R R R R G G G G G G J J P P P R %.%.=.%.%.%.=.=.=.=.&.*.=.=.=.=.*.*.*.*.:.:.:.&.%.=.%.%.%.*.:.:.*.*.:.:.:.*.*.=.-.-.-.-.:.5.5.4.5.5.5.4.:.*.*.:.4.4.4.1.*.:.:.*.:.:.:.&.%.*.5.;.5 7 [ 4.5.y.W.7.z l *.4.t.t.y.y.5.:.5.A * > g k 2.Q.{ # 4 ` +.u.s.t.Z oXQ     lXlXlXlXlXlXlXlXlXlXlXlXlXlXlXlXlXlXlXlXlXlXlXlXlXlXlXlXlXlXlXlXlXlXlXlXlXlXlXlXlXlXlXlXlXlXlXlXlXlXlXlXlXlXlXlXlXlXlXlXlXlXlXlXlXlXlXlXlXlXlXlXlXlXlXlXlXlXlXlXlXlXlXlXlXlXlXlXlXlXlXlXlXlXlXlXlXlXlXlXlXlXlXlXlXlXlXlXlXlXlXlXlXlXlXlXlXlXlXlXlXlXlXlXlXlXlXlXlXlXlXlXlXlXlXlXlXlXlX  X J E s P.&X5.[ l * # i.jX5.J j * * A -.W %.4.4.t.t.q.@.0 A W.U.4.*.%.J g j o.*.G Z Z F W W %.=.*.*.5.:.*.&.*.*.:.:.*.=.=.=.=.=.=.=.R R W =.%.W W R R P R R R R R R { { X.%.%.X.{ { &.*.*.&.%.%.$.R R R $.=.%.R R G R %.=.%.G { { { G G G G G G G G J J J J J J J J G G G R R P P P R R J J G G J J J k z z k k k k z z l z J J R J J J J Z Z Z G &.S 5 7 A &.:.5.5.o.9 ..4.t.u.t.;.;.;.&.l l @.t.@.#.0 # 0 #.A A 7 * j 5.R k J G &.4.t.u.a.a.u.u.t.t.t.t.t.t.y.4.*.$.G G :.",
"J = 7.5.{ o.*.;.4.u.t.p.p.t.q.@.@.4.4.4.@.@.;.X.$.z z k 2.*.5 > 5 A A * # 9 ......A 7 { *.$.=.-.*.:.X.[ l 5 =.5.=.%.%.A 5 l l 5 , * * * % % * * % % % % * * % % % % % % * * * * * * * > , = = * * * * * * * * * * * * * * * * * * * * * * * > > , , , , , > > > > , , , , , , , 5 5 5 , 5 4 > , , , , , , 5 5 > 4 5 5 5 5 5 , , , , , , 5 5 8 7 7 7 7 7 7 7 7 7 7 7 7 5 5 5 5 5 7 7 j j l A A 5 7 X.4.y.i.W.7.l z *.*.4.t.i.y.4.5.5.] * > j z =.U.{ o 4 ` +.t.s.t.n E.Q       lXlXlXlXlXlXlXlXlXlXlXlXlXlXlXlXlXlXlXlXlXlXlXlXlXlXlXlXlXlXlXlXlXlXlXlXlXlXlXlXlXlXlXlXlXlXlXlXlXlXlXlXlXlXlXlXlXlXlXlXlXlXlXlXlXlXlXlXlXlXlXlXlXlXlXlXlXlXlXlXlXlXlXlXlXlXlXlXlXlXlXlXlXlXlXlXlXlXlXlXlXlXlXlXlXlXlXlXlXlXlXlXlXlXlXlXlXlXlXlXlXlXlXlXlXlXlXlXlXlXlXlXlXlXlXlXlXlX  . J E s P.!.5.[ l * # y.gX5.A l > * J =.=.*.t.t.t.t.q.@.l l W.U.5.*.%.R l 7 l 7 , > ; > > > > > , , > > > > > > , , > > > , , , , , , , , , , , , , , , , , , , , , > > > > > > * * > > > > > > * * * * , , , , > > , , , > > * * * * * * * * * * * * * * * * * * % % # * * * * % % * * * * * * * % % % % % % % % % % % % * * > = , , , , , , , 5 5 > > 7 [ *.:.:.4.#.0 ] t.s.s.u.4.;.*.%.z l #.@.#.[ 0 # 0  .A l 6 > g 2.P J $.*.4.4.t.t.a.a.u.u.t.a.a.p.t.t.5.*.%.J J R :.",
"J , 7.7.X.o.*.@.4.u.t.e.p.p.t.q.q.,.t.t.t.@.o.X.{ z k k H.*.7 > 5 l l * # 9 ......A 7 S *.$.-.:.4.4.*.o.l 5 %.=.%.%.%.G 5 , > o . . . X . . . X + + + + + + + + X X X X # # o o o + # # # % % % # # # # # * * # # # # # # # * * % % % * % % % % % % % % % % * * * * > * * * * * * * * * * * * > > > > > * * * - > > > > ; ; > > > ; > > > * * * * * > > > * * * * * * * * * * * * * * * * * > > 7 [ 4.W.W.i.5.l J *.;.t.u.u.y.4.*.5.A * > 7 l G 5.{ o 4 A @.t.a.4.s T.E     lXlXlXlXlXlXlXlXlXlXlXlXlXlXlXlXlXlXlXlXlXlXlXlXlXlXlXlXlXlXlXlXlXlXlXlXlXlXlXlXlXlXlXlXlXlXlXlXlXlXlXlXlXlXlXlXlXlXlXlXlXlXlXlXlXlXlXlXlXlXlXlXlXlXlXlXlXlXlXlXlXlXlXlXlXlXlXlXlXlXlXlXlXlXlXlXlXlXlXlXlXlXlXlXlXlXlXlXlXlXlXlXlXlXlXlXlXlXlXlXlXlXlXlXlXlXlXlXlXlXlXlXlXlXlXlXlXlXlX  . J E k -.5.*.[ l * * y.gX5.J l > * J =.=.;.i.u.t.t.@.+.l J U.5.5.:.*.%.l 5 > # # # * * * * > > > > > > > > > * > > > > > > > > > > > > > > > > > * * > > * * * * * * * * * * % % # * * * * * ; * * * * * * * * * * > > > > * * * * * * * % # # # # # # # % % % % # o o # * * * % % * * % % # # # # o # # # # # # # % o o o % * * % % % % % % % o X o ; l { ;.5.5.4.#.0 ..t.i.s.u.t.@.o.$.z l ] ..] ] 0 # 0 [ A A 8 > g :.R J =.4.4.t.t.t.a.a.t.t.p.a.a.a.p.u.4.%.F J J R :.",
"J , 7.7.X.&.*.*.;.t.t.r.r.e.t.q.q.q.q.t.q.@.o.[ G z k k H.*.7 > 5 l l # # 9 ......A 7 S *.%.*.:.:.4.4.;.l 5 %.=.R G W J = o . X X # * > > > > > , , , , , 5 5 5 > > > , , , , , , , , 5 5 5 5 5 5 5 5 5 6 6 6 6 6 7 7 7 5 5 6 7 5 5 5 7 8 5 5 6 7 7 7 7 6 6 7 7 7 7 0 7 7 7 7 7 7 7 7 7 7 7 7 7 6 6 6 6 6 6 6 6 6 6 6 6 6 6 0 0 7 6 6 9 9 9 6 6 6 6 6 6 6 8 8 5 8 8 8 8 6 6 6 6 6 6 5 5 4 > * > 7 A *.5.7.y.5.l A ;.4.u.a.s.u.4.*.:.A * > 7 l G 5.[ o > l @.4.i.4.s Z.R     lXlXlXlXlXlXlXlXlXlXlXlXlXlXlXlXlXlXlXlXlXlXlXlXlXlXlXlXlXlXlXlXlXlXlXlXlXlXlXlXlXlXlXlXlXlXlXlXlXlXlXlXlXlXlXlXlXlXlXlXlXlXlXlXlXlXlXlXlXlXlXlXlXlXlXlXlXlXlXlXlXlXlXlXlXlXlXlXlXlXlXlXlXlXlXlXlXlXlXlXlXlXlXlXlXlXlXlXlXlXlXlXlXlXlXlXlXlXlXlXlXlXlXlXlXlXlXlXlXlXlXlXlXlXlXlXlXlXlX  . J E k R =.{ A j * # 4.iX:.z j * * A =.W *.s.s.u.4.@.#.l z P.-.*.:.*.G 5 > # 4 4 6 0 0 0 0 0 0 0 0 9 9 9 9 6 6 6 0 0 0 0 0 0 0 6 6 9 9 9 9 6 6 6 6 6 9 9 9 6 6 6 6 6 6 6 6 6 6 6 7 7 7 7 6 7 7 7 6 6 6 6 6 7 0 9 9 6 9 9 6 6 8 8 8 5 5 5 5 4 5 5 4 4 4 4 5 5 5 5 5 5 5 8 8 7 5 5 5 8 8 8 5 5 5 5 5 5 5 5 5 5 5 5 5 5 4 4 4 4 5 4 5 5 5 5 5 5 , > > # ; 0 [ ;.5.5.4.#.0 ..t.u.s.u.t.o.[ G l l ] ..] ] 0 + 0 [ A l 5 > l :.R J *.4.t.u.t.t.a.u.t.t.p.a.a.a.a.u.4.%.J J J J :.",
"{ , i.7.X.&.&.o.@.<.t.p.p.t.q.q.q.q.t.t.q.q.@.[ J j k k H.*.5 > 5 l l # # 9 ....] 0 7 S 1.*.:.:.4.4.4.4.l , =.:.W R R j * o o # > > > > * * * > , = = * = , , > , , , : , , , , , , , , , > > > > > > > 4 5 5 5 > > > > > 4 4 5 5 5 5 5 5 5 5 5 5 5 6 6 6 6 6 6 6 7 7 8 5 5 5 7 7 7 7 7 7 7 7 7 7 7 7 7 7 7 6 6 7 6 7 5 5 5 5 5 5 5 5 5 8 6 6 6 6 6 6 6 0 0 0 7 7 0 0 7 7 7 7 0 0 0 7 7 7 6 4 > 7 A W %.5.W.5.l A ;.4.u.a.s.s.t.:.:.A * > 7 A *.i. .o * 0  .;.t.*.s Z.R     lXlXlXlXlXlXlXlXlXlXlXlXlXlXlXlXlXlXlXlXlXlXlXlXlXlXlXlXlXlXlXlXlXlXlXlXlXlXlXlXlXlXlXlXlXlXlXlXlXlXlXlXlXlXlXlXlXlXlXlXlXlXlXlXlXlXlXlXlXlXlXlXlXlXlXlXlXlXlXlXlXlXlXlXlXlXlXlXlXlXlXlXlXlXlXlXlXlXlXlXlXlXlXlXlXlXlXlXlXlXlXlXlXlXlXlXlXlXlXlXlXlXlXlXlXlXlXlXlXlXlXlXlXlXlXlXlXlXlX  . J E k G %.{ A 7 % o 4.uX*.l g * * A :.=.*.s.s.a.4.@.#.l J P.W P W %.l > > # > 4 5 6 6 6 6 0 7 7 7 8 6 6 6 7 8 7 0 l l 0 7 7 6 5 5 5 5 6 8 5 5 5 5 7 7 5 5 5 5 4 4 4 4 4 4 4 4 > 5 5 5 > > > > > > > > 4 5 5 5 5 5 5 5 5 5 4 4 4 4 > > > > > > > > > > > > > > > > > > > > , > * * > > > > > > > > , , , , , > > 4 4 4 4 4 4 4 4 > > 5 5 5 5 5 4 4 * * 5 A ;.4.4.4.#.0 ] t.u.p.u.u.;.{ G j j ] #.#.#.0 + 8 A A l 5 > l 5.R J *.t.t.t.t.t.a.u.4.q.p.p.p.a.a.u.5.2.=.J J Z :.",
"[ , y.y.X.o.&.;.4.u.u.q.q.t.t.t.t.t.p.t.t.t.t.o.A k k J P.*.5 > 7 A A # + 9 ....] 0 6 S 1.*.4.4.4.4.4.;.l , %.5.:.%.K j , , * # # % % o . . . o X X o . X o o X # o o o # # X X X X X X X o % % % % % % % % % % % o o o # # * * * * * * * * * * * * * * * * * * * ; > ; * * * * * * * > > > > > , , , , > > > > > * * * * * , , % % % % * * * * > > > > > > > > > > > > > > > > > 4 > > > > * > j A X.*.y.Q.4.l [ 4.t.t.p.a.i.y.:.4.A % * j { 4.~.o.o > 7 A  .@.@.d Z.R     lXlXlXlXlXlXlXlXlXlXlXlXlXlXlXlXlXlXlXlXlXlXlXlXlXlXlXlXlXlXlXlXlXlXlXlXlXlXlXlXlXlXlXlXlXlXlXlXlXlXlXlXlXlXlXlXlXlXlXlXlXlXlXlXlXlXlXlXlXlXlXlXlXlXlXlXlXlXlXlXlXlXlXlXlXlXlXlXlXlXlXlXlXlXlXlXlXlXlXlXlXlXlXlXlXlXlXlXlXlXlXlXlXlXlXlXlXlXlXlXlXlXlXlXlXlXlXlXlXlXlXlXlXlXlXlXlXlXlX  X R Q z R =.X.A 7 o # 4.iX:.l g > * A :.:.;.u.a.u.t.,.+.l J U.-.E R W J l l % o # % * * * * * * * * * * * o % o * * * * * * * * * % % * > > * * > > > > > * * * * % * * * * * * * * % % * % * * * * * * * * * * > > > > * % * * * * * % % % % * * * * * * % % % % % % % % % % % o o o o o o o o o o o # # # # # # # * % % * * * * # o o * * * * X * * , 7 A ;.4.4.4.#.0 ] t.u.p.p.p.t.*.G j j ] #.#.#.0 # 8 A l l 5 > C 5.R J &.4.t.p.a.a.a.t.4.t.p.a.p.p.p.u.y.5.:.=.J Z :.",
"o., y.7.X.&.*.:.t.s.u.q.@.4.t.t.t.u.u.t.u.p.t.@.G z z R P.*.7 4 7 A A # + 9 #...] 9 6 G *.;.4.t.4.4.@.] l 7 %.:.=.*.%.j l l * o o o o o o o % * o o # # # # # # # * * * * * * * * * * * * % % % % % % % % % * * * * % % % % * * * * * % * * % * % % * * * * > > > * > * * * * * * * * * * * * * * = = * * * * * > * * * > , , , , > * * * * * * * * * * * > > > > > > * * * * * * * * * * * # , l z *.5.i.y.;.l A 4.4.t.p.u.u.t.4.4.[ * > 7 [ 4.~.o.o * 0 ] o.,.@.x M.R     lXlXlXlXlXlXlXlXlXlXlXlXlXlXlXlXlXlXlXlXlXlXlXlXlXlXlXlXlXlXlXlXlXlXlXlXlXlXlXlXlXlXlXlXlXlXlXlXlXlXlXlXlXlXlXlXlXlXlXlXlXlXlXlXlXlXlXlXlXlXlXlXlXlXlXlXlXlXlXlXlXlXlXlXlXlXlXlXlXlXlXlXlXlXlXlXlXlXlXlXlXlXlXlXlXlXlXlXlXlXlXlXlXlXlXlXlXlXlXlXlXlXlXlXlXlXlXlXlXlXlXlXlXlXlXlXlXlXlX  X R Q z %.*.{ A j % # t.sXy.A 7 > * A *.:.:.t.t.t.u.q.+.l A P.-.=.=.-.R R R a o $ % % % * > , > > > * * > * * * , , , , > > , , * * * * * * % % * % % * * * * * * * * * * * * > > > * > , > > > > > > > > , , , , , , , , * * * * * % % % % * * * * % % % % % % % % % % % * % % % % * * * > > , , > > > > > > * * ; * % * * * * % * % o % o % % o % = j J A 4.y.5.4.#.0 ] t.u.a.a.u.t.*.{ l j ] ..#.[ 0 + 4 A l l 5 > l 5.R J &.;.t.u.a.s.u.4.4.u.a.t.t.p.p.u.4.:.:.:.R z 2.",
"o., y.7.{ X.&.;.4.t.u.t.4.4.4.t.t.t.t.t.u.t.t.@.G z z R P.*.7 4 7 A l # + 0 +.+.] 0 6 G *.*.t.y.t.;.] l l j %.%.%.*.=.l l J , * * > > , , , , , , , , , 5 5 , , , i i i i g i i a a a i i , , 7 < 7 g g g g g g g g g g g g j j j j j j j l l l l g g j j l l l l l A A l l l l l l l l l l l j g j j j g j j l l l l l l l l l l l l l l l l l l l j j j l l j j l j j j 7 5 5 5 5 , , > > > l J l o.4.;.;.*.l A ;.4.t.a.u.t.;.;.4.[ * * 7 A ;.i.[ o * 0 o.t.t.4.k M.P     lXlXlXlXlXlXlXlXlXlXlXlXlXlXlXlXlXlXlXlXlXlXlXlXlXlXlXlXlXlXlXlXlXlXlXlXlXlXlXlXlXlXlXlXlXlXlXlXlXlXlXlXlXlXlXlXlXlXlXlXlXlXlXlXlXlXlXlXlXlXlXlXlXlXlXlXlXlXlXlXlXlXlXlXlXlXlXlXlXlXlXlXlXlXlXlXlXlXlXlXlXlXlXlXlXlXlXlXlXlXlXlXlXlXlXlXlXlXlXlXlXlXlXlXlXlXlXlXlXlXlXlXlXlXlXlXlXlXlX  X P Q Z %.*.{ A 7 % # t.sXi.[ 7 > > A *.*.4.u.a.s.p.q.+.l z P.Q W -.:.J k E P , : , , 7 g j l l l l l l l l l l l l l l l l l l j 7 7 7 j j l l l j l l l l j j j j j j g g l l l l l l A A l l g 7 g g l l l J A J A A l l 7 7 g g j j j j l l l l 7 < < i i i g g g g g g j j g g 7 7 g j j j j j g j j j g g g g , , , i g , , , , , = = , , , * 5 { S A 4.5.4.;.[ 0 ..u.s.s.p.t.@.o.&.z j ] ....] 0 X 4 b b l 5 > l 5.R J &.@.@.t.t.u.t.@.;.t.t.t.p.p.a.u.4.*.*.:.R Z 5.",
"o., y.7.G X.o.%.*.4.t.t.t.4.4.4.4.t.t.4.4.u.t.@.{ A z R P.=.5 4 8 l l o # 0 #.@.#.A 7 F *.*.t.t.4.*.A l l j =.=.=.=.=.l , G z & , , i i g g g g j j g j j j g g j z z k k k k k k z z z z l Z Z z Z J J J J Z J J J J J J J R P P P P P R R R R R R R R R R %.=.=.%.%.=.*.%.G { X.{ R W W R R G J J J J G { { [ { X.X.%.%.%.%.%.%.%.o.X.X.X.%.%.=.%.%.%.%.%.%.X.X.%.%.X.X.X.G J J J Z j g , g S A l o.o.#.[ [ j l o.4.t.t.u.;.X.&.:.[ * * 5 z G 5.A o * 0 @.t.p.<.k J.Z     lXlXlXlXlXlXlXlXlXlXlXlXlXlXlXlXlXlXlXlXlXlXlXlXlXlXlXlXlXlXlXlXlXlXlXlXlXlXlXlXlXlXlXlXlXlXlXlXlXlXlXlXlXlXlXlXlXlXlXlXlXlXlXlXlXlXlXlXlXlXlXlXlXlXlXlXlXlXlXlXlXlXlXlXlXlXlXlXlXlXlXlXlXlXlXlXlXlXlXlXlXlXlXlXlXlXlXlXlXlXlXlXlXlXlXlXlXlXlXlXlXlXlXlXlXlXlXlXlXlXlXlXlXlXlXlXlXlXlX  . F Q z :.*.o.[ 7 % # ;.iXy.A 7 > * z %.&.u.s.qXs.u.q.+.0 z H.Q W -.:.F i J Q k a i l Z J J G G G G { { [ [ [ { X.%.X.[ G G G $.G G G G { X.&.%.%.W W %.%.X.X.{ G G S S G G G { [ G %.o.o.o.{ F J J F F G %.%.%.&.&.*.*.o. .[ [ G F P R J G X.X.%.%.G J J J k z J J Z k Z Z k Z J z z z z z J z Z z z z z z k k j j k k k k k j a a a a i r r i r i j { l A *.&.%.&.X.l A t.s.s.t.4.@.*.&.l l ] ......7 o > A A A 5 * l P.E J %.o.@.4.4.4.;.*.*.4.t.t.p.p.p.u.y.:.=.=.R Z U.",
"{ , 7.7.G X.o.o.4.t.u.u.t.4.4.4.4.t.t.t.u.u.t.4.*.J z R P.*.5 4 8 A A o % 0 #.@.#.A l G *.;.4.4.;.;.[ A l 5 =.:.:.:.=.l , J R a i i j k z z z z s s s k s s s z z k J R R P Z Z J J J J J F R F J R E E R F R %.W G G G R R E -.Q E E R E =.*.=.R R =.:.2.2.5.5.:.*.:.7.7.4.&.&.*.*.%.%.=.=.%.%.$.%.%.%.&.&.*.*.:.*.*.*.*.5.*.*.4.5.4.*.1.5.:.*.*.:.:.;.:.;.;.4.;.*.*.*.;.&.&.$.$.G J J z g J &.l 7 o.;.@.o.[ j l o.@.t.u.t.;.o.&.:.[ * * 5 z G 7.A o > ] ,.t.p.,.z J.Z     lXlXlXlXlXlXlXlXlXlXlXlXlXlXlXlXlXlXlXlXlXlXlXlXlXlXlXlXlXlXlXlXlXlXlXlXlXlXlXlXlXlXlXlXlXlXlXlXlXlXlXlXlXlXlXlXlXlXlXlXlXlXlXlXlXlXlXlXlXlXlXlXlXlXlXlXlXlXlXlXlXlXlXlXlXlXlXlXlXlXlXlXlXlXlXlXlXlXlXlXlXlXlXlXlXlXlXlXlXlXlXlXlXlXlXlXlXlXlXlXlXlXlXlXlXlXlXlXlXlXlXlXlXlXlXlXlXlXlX  . F Q l *.*.&.[ 7 % + ;.iXy.A 7 > * j R &.u.s.s.s.u.q.@.l J P.-.=.=.*.J , J :.P z l J G %.%.&.*.*.:.*.*.&.&.*.*.:.5.:.:.*.*.*.:.*.%.%.%.*.*.:.:.4.4.*.*.*.4.4.;.*.*.*.*.*.*.:.:.*.*.*.4.y.4.&.%.=.=.W %.*.4.4.;.*.4.4.4.;.o.;.*.=.R =.=.$.R o.&.:.*.%.R R W E R R R R R P R R W R J J J J J J J J J J J J J J k z k k z z z z z k j j k h a a a r i z { 7 A ;.*.=.&.{ l A 4.y.u.t.4.;.;.*.l 0 ..#.#...0 o > A A A 6 > A P.W R %.;.@.4.4.t.t.4.4.4.t.t.a.a.p.u.y.5.*.R J k 7.",
"{ , 7.5.X.X.o.;.t.i.a.u.t.t.4.4.t.u.u.t.p.p.t.;.%.A z R P.:.5 4 8 A A # # 0 #.#.#.A l %.*.o.;.4.4.4.o.A 0 5 =.2.:.:.%.l > z R k i i a k z k J J k k x x k s k z z k k k P P Z k J G J z J R W J k R E R P P W =.W G X.%.=.E E E E E R R E -.-.W R R =.-.-.-.-.:.:.*.2.5.5.2.=.*.*.*.=.=.=.*.*.=.=.=.R W %.%.%.*.*.*.=.*.*.2.*.*.5.7.5.*.5.5.*.=.*.*.:.;.;.;.4.4.;.o.&.:.:.&.$.$.$.{ J J z j K &.7 7 o.;.4.4.o.j l { @.t.t.4.@.;.&.;.[ * * 5 z =.W.S # 4 ` ,.t.p.,.J F.k     lXlXlXlXlXlXlXlXlXlXlXlXlXlXlXlXlXlXlXlXlXlXlXlXlXlXlXlXlXlXlXlXlXlXlXlXlXlXlXlXlXlXlXlXlXlXlXlXlXlXlXlXlXlXlXlXlXlXlXlXlXlXlXlXlXlXlXlXlXlXlXlXlXlXlXlXlXlXlXlXlXlXlXlXlXlXlXlXlXlXlXlXlXlXlXlXlXlXlXlXlXlXlXlXlXlXlXlXlXlXlXlXlXlXlXlXlXlXlXlXlXlXlXlXlXlXlXlXlXlXlXlXlXlXlXlXlXlXlX  . J Q l *.*.&.[ 7 o + @.iXy.[ l > * j R *.i.a.s.a.t.q.@.l J 5.-.W %.*.G , z :.E k z J %.=.=.*.*.5.5.5.5.:.*.*.=.=.*.*.*.*.*.*.*.*.%.W W %.=.=.*.4.4.4.%.*.5.4.*.*.*.=.=.=.=.:.5.5.4.:.5.i.5.&.*.-.-.R R =.4.4.*.*.4.5.:.%.*.*.=.E P W :.=.%.o.&.*.*.R P R R R R J R R W P R E W R J J G J J J J R P J k k k R P k k k k k k j j j k k g a a i r w r J { 7 A 4.5.:.%.G l A ;.4.t.t.4.;.;.;.l 0 ..@.@.@.0 X > A A l 7 > l P.E R R o.<.4.t.u.u.t.4.4.t.p.p.p.t.u.y.5.:.$.J z 7.",
"[ * 7.5.X.o.&.4.t.s.a.u.t.t.4.4.u.a.p.p.p.t.0.[ J z J R U.5.7 4 6 A A # # 0 #.#.#.A l X.&.{ ;.4.4.4.;.o.l 5 =.2.=.=.%.l > g R R a i a a k z k k k p s x k p k k k k k k k P P k k J z z J P R P s P P R P P P P P F R W R P R R R E R E Q Q E R E E R E Q Q Q -.-.=.=.-.-.Q W W W =.W W W =.=.-.-.W P P E W =.*.*.=.=.=.*.:.:.*.5.5.:.*.5.2.-.=.=.*.*.:.;.:.4.*.*.%.%.*.*.%.R G G G J z z Z *.S 5 l o.4.t.4.;.7 g { *.;.@.;.;.;.&.;.A # * g z -.W.A # 4 ] ,.t.p.q.z Q a     lXlXlXlXlXlXlXlXlXlXlXlXlXlXlXlXlXlXlXlXlXlXlXlXlXlXlXlXlXlXlXlXlXlXlXlXlXlXlXlXlXlXlXlXlXlXlXlXlXlXlXlXlXlXlXlXlXlXlXlXlXlXlXlXlXlXlXlXlXlXlXlXlXlXlXlXlXlXlXlXlXlXlXlXlXlXlXlXlXlXlXlXlXlXlXlXlXlXlXlXlXlXlXlXlXlXlXlXlXlXlXlXlXlXlXlXlXlXlXlXlXlXlXlXlXlXlXlXlXlXlXlXlXlXlXlXlXlXlX  . J E l *.:.;.[ 7 o + ;.sXi.[ l 4 * l { ;.i.a.a.a.a.t.@.l J 2.=.$.%.%.A , j &.E k j z R =.=.=.=.=.=.*.*.=.:.=.W W =.2.5.*.=.W W W W E W W =.W %.*.5.4.W %.*.*.=.%.%.:.=.W W =.1.2.*.*.*.5.*.%.=.W R P R W *.1.=.%.=.=.%.R W =.W P Z P =.=.=.%.W W R R P P P P P x P P R R R R P R J P P Z k k R R P P k k k x x k s k s s s s s k k k i r r r r r k =.A 5 A ;.5.2.%.S l J %.*.4.y.5.*.*.o.l 0 ..@.9.@.0 X > A A A 7 > l :.E k G *.4.4.u.u.u.t.4.t.t.q.t.t.t.t.4.4.:.%.R J 7.",
"A * y.5.o.*.*.4.4.t.u.u.t.t.4.4.t.u.p.p.p.t.9.[ J z z R U.5.j 8 6 A l # # 0 +.#...A 0 G &.%.:.*.*.4.;.*.A 7 W =.W R %.A > , F R k k k k k k J J k s s d x k P Z P Z Z Z P W W P Z Z k J R E R P P R E W Q R P P E W -.-.Q W W Q -.-.-.:.2.-.Q -.2.:.-.-.-.-.-.:.5.5.2.:.:.-.-.Q -.:.:.-.-.:.5.5.5.:.-.-.:.2.2.5.5.5.1.5.5.5.5.5.5.5.5.5.5.2.2.2.2.2.5.5.4.5.5.*.*.*.%.%.*.%.%.W R F J z J %.4.A > A o.;.4.4.&.g g J X.X.o.4.y.4.o.o.A # * g z =.W.A o 4 ` @.p.a.,.z Q a     lXlXlXlXlXlXlXlXlXlXlXlXlXlXlXlXlXlXlXlXlXlXlXlXlXlXlXlXlXlXlXlXlXlXlXlXlXlXlXlXlXlXlXlXlXlXlXlXlXlXlXlXlXlXlXlXlXlXlXlXlXlXlXlXlXlXlXlXlXlXlXlXlXlXlXlXlXlXlXlXlXlXlXlXlXlXlXlXlXlXlXlXlXlXlXlXlXlXlXlXlXlXlXlXlXlXlXlXlXlXlXlXlXlXlXlXlXlXlXlXlXlXlXlXlXlXlXlXlXlXlXlXlXlXlXlXlXlXlX  . Z E l *.:.&.[ 5 o # 4.sXi.[ l * * l &.;.t.a.a.s.s.p.,.l z :.2.:.=.$.J , l ;.-.P k z P =.:.:.:.:.:.2.2.2.5.2.2.-.2.5.7.7.2.=.=.-.-.-.-.:.-.=.=.2.5.5.:.*.*.2.:.*.-.=.=.=.=.:.2.1.5.5.5.5.:.:.=.E R E W Q :.:.:.*.=.=.=.=.=.=.=.W P W =.1.2.:.*.=.W W E E P E E E E W Q E E R R E E R P R R P E E P R P x x P P P P P x x k k Z Z R P k k s p p k %.*.l , A &.:.2.=.G l J $.%.:.5.:.%.o.o.0 7 ..#.@.O.0 X > A A A 7 * l :.E k F *.4.t.u.u.u.t.t.t.t.t.t.t.t.t.4.;.;.%.R J 7.",
"A * y.y.&.;.;.*.;.4.u.u.u.u.t.4.t.t.u.t.t.t.t.o.G z k R U.5.7 6 6 0 0 # # 0 +.+.#.A 0 J %.%.=.G G X.X.X.J , W =.W P W A , j W =.G J z l z Z J J L Z k k k k k k k k j j l J J z j g g j z l l j j z z J J J z Z J J J J k z z z z z J { G J J G $.{ G G J z A { *.4.;.*.=.=.W R R $.$.%.G X.&.*.&.%.{ { G R $.%.X.X.%.o.o.&.:.:.;.:.*.*.*.%.%.%.=.%.&.;.4.4.:.*.&.&.&.{ { { { G S J A { X.*.&.7 > l o.;.:.:.&.g j Z J S &.y.y.4.o.o.l o * g z -.U.z o 4 ] @.t.a.q.z F.j     lXlXlXlXlXlXlXlXlXlXlXlXlXlXlXlXlXlXlXlXlXlXlXlXlXlXlXlXlXlXlXlXlXlXlXlXlXlXlXlXlXlXlXlXlXlXlXlXlXlXlXlXlXlXlXlXlXlXlXlXlXlXlXlXlXlXlXlXlXlXlXlXlXlXlXlXlXlXlXlXlXlXlXlXlXlXlXlXlXlXlXlXlXlXlXlXlXlXlXlXlXlXlXlXlXlXlXlXlXlXlXlXlXlXlXlXlXlXlXlXlXlXlXlXlXlXlXlXlXlXlXlXlXlXlXlXlXlXlX  . F Q l o.X.{ A 8 o # ;.iXy.[ l > * l %.=.4.t.i.i.i.u.@.l l :.5.7.*.R J , l &.*.G l l A G X.S S A J G G G J J z C J A [ X.[ A J J J J J A J J A A S [ A A A A A A z l l A J A G { { { G J J J l l l z z z J A A A J l A J l l l j j l A J S A A l l l z j j i j j j l z l l z z Z z l l j l l l l j l l j j j k k j j j j j j j j j l l g , , i j A A 5 5 A *.:.5.5.X.l l R R %.=.=.R %.{ 7 5 l ] ] ] 9 o > A A A 7 * l 5.E P P *.4.u.t.u.u.t.t.t.t.t.t.t.u.t.4.;.;.%.R Z 5.",
"A > y.y.&.;.;.*.*.4.t.u.u.u.t.4.t.t.u.t.t.u.t.X.J z z E U.:.7 6 8 7 6 + # 0 #.+.#.A 7 $.=.E =.R J F J A l , W :.:.W W A > 5 l i , * % % % % = * * % % % % % $ % % % % % % * % o o o % % % % * % % % * % * % % % % % % % % % % % % % * * o o # * * * % * * * * 4 4 4 4 * * % * * * * = * * * 4 4 > > > > * * * * * * > > > > * > * * , , ; > > > > > > 4 6 4 2 4 4 > > 4 5 5 = * , > > > 5 7 5 > , A o.;.5.5.&.j j Z l S 4.y.y.;.&.o.A o * g z =.5.l # 8 ..t.a.s.q.J H.k     lXlXlXlXlXlXlXlXlXlXlXlXlXlXlXlXlXlXlXlXlXlXlXlXlXlXlXlXlXlXlXlXlXlXlXlXlXlXlXlXlXlXlXlXlXlXlXlXlXlXlXlXlXlXlXlXlXlXlXlXlXlXlXlXlXlXlXlXlXlXlXlXlXlXlXlXlXlXlXlXlXlXlXlXlXlXlXlXlXlXlXlXlXlXlXlXlXlXlXlXlXlXlXlXlXlXlXlXlXlXlXlXlXlXlXlXlXlXlXlXlXlXlXlXlXlXlXlXlXlXlXlXlXlXlXlXlXlXlX  . R -.l X.[ [ A 7 % * ;.uXy.{ l , * l W R =.5.5.y.y.t.@.l j -.U.5.:.R J , , l > > * # % * # * # # * * * % * * * % * # # # # # # * * % % # % * # # # # # # # # o o o # % % % % * * > * * * * * * * * * % * * * * * # # * # o % * * # % % # % + + + # o o o % o o % o o % X o o o o o o o o o o o o % % o % o % % % % % % % % % % * % # o o o o o % > > * 5 A *.5.7.y.o.7 l $.R R E E P %.X.7 5 0 0 ] ] 0 o 4 l A [ 7 , l 5.W P R =.4.t.t.y.u.t.4.4.t.p.t.t.t.t.4.4.;.%.R J 5.",
"J * 4.5.W W %.%.*.;.;.4.4.4.4.t.t.t.t.t.4.;.*.R J z J E U.5.7 4 4 6 7 + # 8 ] ] ] l 0 G =.E E R R G G S l 5 %.:.=.*.%.S 7 o o o X X X o o o o o o o o o o o X o o o X o o o o # # o o o o o % % % % % * * * % % % * * * * * * * * * * * * * * * * ; * * * * * > 4 > * * % * * * * * * * * * * # # * * # # # * > > > * * * * # * * * * * * * * * * * * * * * # # # * * * * * * * * * * * % % * % 5 A %.:.4.5.=.j p R R P =.:.:.*.&.;.A o * g z E U.z o 6 +.q.a.qX4.P I.k       lXlXlXlXlXlXlXlXlXlXlXlXlXlXlXlXlXlXlXlXlXlXlXlXlXlXlXlXlXlXlXlXlXlXlXlXlXlXlXlXlXlXlXlXlXlXlXlXlXlXlXlXlXlXlXlXlXlXlXlXlXlXlXlXlXlXlXlXlXlXlXlXlXlXlXlXlXlXlXlXlXlXlXlXlXlXlXlXlXlXlXlXlXlXlXlXlXlXlXlXlXlXlXlXlXlXlXlXlXlXlXlXlXlXlXlXlXlXlXlXlXlXlXlXlXlXlXlXlXlXlXlXlXlXlXlXlXlXlX$ R x.l X.@.o.[ 7 # # 4.iX:.A l > * l E E P =.2.5.5.4.*.0 C *.:.5.=.R z 5 % + X o o o # * * * * # # * * * * * * > * * > > 4 4 * * * * * * * > > > * * * > * * # # # * ; > > > > 4 4 > > * * * * * * * > ; > > > > > > * * * * * ; ; ; * * > > * * * # # * * % * * # # * # # + X X o o o o o o o o * * o # # o o # # * * * * * * * * o # # # + X X X + * 7 l %.7.y.5.X.6 l J R P x P R E { 0 5 l A ] ] 6 X 4 0 A A j = l 2.Q P P R R :.t.y.y.t.4.<.t.t.u.t.4.:.4.4.;.&.G Z =.",
"R = 4.5.R W %.%.;.4.4.t.4.;.4.t.t.t.t.t.4.o.{ J J k R E U.:.7 4 4 7 7 # # 8 ] ] A 0 0 %.%.R R E E E J A l 7 %.=.=.=.=.G > o o o * > > > > > > , , > > > > , > > > > > > > > , , , > > > > > > , , , , 5 5 5 5 , 5 5 5 5 , , , , , , 5 5 5 5 5 5 5 < 7 7 7 7 8 6 9 0 9 7 7 7 7 7 7 7 7 7 7 7 7 7 7 7 7 7 8 8 5 7 7 7 7 7 7 7 9 6 5 5 7 7 5 , 5 7 7 7 7 7 7 8 6 5 5 5 5 5 5 5 5 5 5 5 5 8 4 4 5 > 5 A %.&.*.*.*.k a R R R R $.&.*.&.:.A o * g k R 5.J o 6 +.q.a.s.;.R H.k       lXlXlXlXlXlXlXlXlXlXlXlXlXlXlXlXlXlXlXlXlXlXlXlXlXlXlXlXlXlXlXlXlXlXlXlXlXlXlXlXlXlXlXlXlXlXlXlXlXlXlXlXlXlXlXlXlXlXlXlXlXlXlXlXlXlXlXlXlXlXlXlXlXlXlXlXlXlXlXlXlXlXlXlXlXlXlXlXlXlXlXlXlXlXlXlXlXlXlXlXlXlXlXlXlXlXlXlXlXlXlXlXlXlXlXlXlXlXlXlXlXlXlXlXlXlXlXlXlXlXlXlXlXlXlXlXlXlX  $ R x.z *.4.4.o.j % # ;.uX:.A l > * A Q E P W :.5.5.5.*.l J *.W $.R =.J g % # * * > 5 5 5 5 8 8 8 8 5 5 5 7 7 7 7 7 7 7 0 0 0 7 5 5 5 7 8 8 8 8 8 6 8 8 8 5 5 5 5 5 5 5 7 7 7 7 7 7 7 7 7 7 7 5 5 5 5 5 7 7 7 7 0 7 7 7 7 7 7 7 5 5 7 7 7 7 7 7 7 j 7 5 5 5 5 5 5 5 5 5 5 5 > > > > > > * * > > > , , 5 , , > > 5 5 5 5 5 , , , , 5 , , 4 > > * * # # > 7 l G *.*.%.J 7 l J R P P P R =.%.l 8 l ] ] ] 6 X * 0 A A 7 , l 5.W P R R G =.t.u.i.u.t.4.t.t.u.t.;.*.4.4.*.X.J z =.",
"R , 5.5.G %.*.;.4.t.u.u.t.4.t.t.t.t.t.t.4.o.{ J J J R E U.:.7 4 4 7 7 # # 6 A ] A l 0 $.E P P E E E R A l 7 %.=.W %.=.J > * o o * > > , , , 5 7 , , , , , , , , , , , , > > , , , , , > , , , , , , , 5 5 5 5 5 5 5 5 5 5 , 5 5 5 5 5 7 7 j 7 7 7 7 7 7 7 7 7 0 0 0 0 0 0 7 7 7 j l l j 7 7 7 0 7 7 7 7 7 6 7 7 7 7 7 7 7 7 0 7 5 5 5 5 5 5 5 7 7 7 7 7 7 7 6 6 6 8 8 7 7 7 7 7 7 8 8 8 5 5 , > 5 A R G %.*.*.j i R R R R G { *.*.4.] o * 5 j J 5.l o 4 ] q.p.s.;.J F.k       lXlXlXlXlXlXlXlXlXlXlXlXlXlXlXlXlXlXlXlXlXlXlXlXlXlXlXlXlXlXlXlXlXlXlXlXlXlXlXlXlXlXlXlXlXlXlXlXlXlXlXlXlXlXlXlXlXlXlXlXlXlXlXlXlXlXlXlXlXlXlXlXlXlXlXlXlXlXlXlXlXlXlXlXlXlXlXlXlXlXlXlXlXlXlXlXlXlXlXlXlXlXlXlXlXlXlXlXlXlXlXlXlXlXlXlXlXlXlXlXlXlXlXlXlXlXlXlXlXlXlXlXlXlXlXlXlXlX  $ R z.k *.t.4.o.l % o ;.-X:.J l * * J Q I x R -.5.5.5.*.l J :.R J J R J , % * > 5 7 7 7 7 7 0 0 7 6 6 7 7 7 7 l 7 0 7 7 l l 7 5 5 5 5 5 7 8 5 5 5 8 7 7 7 7 5 5 5 5 5 5 5 7 7 7 7 7 7 7 7 5 5 , , , 5 5 5 5 5 7 7 7 5 5 5 5 5 7 5 5 7 7 7 5 5 5 5 5 5 5 5 5 , , 5 5 5 , 5 5 > > > > , , , , > > , , , , , > > > > , , , , , , , , , , > 5 5 , , > * # > j j J $.$.G J 7 l J R R E P P E G j 7 A ] ] A 6 X * 0 A A 7 * j 5.=.J R %.*.:.u.a.s.u.u.u.t.t.t.4.:.:.4.*.X.G J k =.",
"$., y.5.%.%.*.4.4.u.a.a.a.u.t.t.u.t.t.t.t.4.&.R R R R R P.:.7 4 5 0 0 # # 6 A ] ] A l R E R P R E Q W J j 5 %.=.W R F j 5 > . o o % % % % % > > > * % % % % % * * * * * % % % % % % % % % % % % * * * * > > * * * * * * * * > > > * > > > > > > > > > > > > > 4 4 > > > > > > > > > 4 4 > > > > * * > > * > ; > > > > > > > > > > > > > > > > > > > > > > > > > > > > > > > > * * * * * * * # # > l G %.*.:.*.j i R R E =.$.{ &.*.4.A o % 5 j J 5.l o 4 ] 9.p.s.;.k E a       lXlXlXlXlXlXlXlXlXlXlXlXlXlXlXlXlXlXlXlXlXlXlXlXlXlXlXlXlXlXlXlXlXlXlXlXlXlXlXlXlXlXlXlXlXlXlXlXlXlXlXlXlXlXlXlXlXlXlXlXlXlXlXlXlXlXlXlXlXlXlXlXlXlXlXlXlXlXlXlXlXlXlXlXlXlXlXlXlXlXlXlXlXlXlXlXlXlXlXlXlXlXlXlXlXlXlXlXlXlXlXlXlXlXlXlXlXlXlXlXlXlXlXlXlXlXlXlXlXlXlXlXlXlXlXlXlXlX  $ P z.k 2.y.@.[ l % # ;.-X=.J j , > J Q I x P :.5.5.5.*.l J :.=.R P R Z , % % * > > > > > 4 4 5 > > > > > > , , > > > > 5 4 > * * * * > > > > * * > > > > > * * * % > * * * * * > * * * * * % % % % % * * * * * * * * * * * * * > > > > > * > * * * % * * * * * * * * * * * * o o o % * * % % # # * * * * * * % % % % * * > * * % * * * * * * * # o o 5 j j J $.$.R J 7 A J R E Q E P Z J g 7 A ] ] A 6 X * A A A 7 > j 7.=.J %.4.4.y.a.a.s.i.i.a.u.t.4.5.5.5.5.*.G G J Z :.",
"$., y.5.%.%.*.;.4.u.a.a.t.t.t.t.u.t.4.4.t.4.;.%.E R R J 5.*.5 4 8 A l # # 8 A [ [ l l J E R R R E -.E J l 5 R W W %.F j A l * % o o o o o o o o * % % % % % % * * * * * * * % % * * * * % % % % = = * , , > > > * * * * * > > * * * > > > > > > > > > > > > , , > > > > > * > > * * > > ; * * * * * * # # > > * > > > > , , > , , , > > > > > > > > , , > > > > > > > > > > > > * * * * * * * , 7 l G *.5.5.*.j a R E E $.=.&.&.*.4.A o % 5 l J 5.l o 4 ] @.t.a.*.k P i       lXlXlXlXlXlXlXlXlXlXlXlXlXlXlXlXlXlXlXlXlXlXlXlXlXlXlXlXlXlXlXlXlXlXlXlXlXlXlXlXlXlXlXlXlXlXlXlXlXlXlXlXlXlXlXlXlXlXlXlXlXlXlXlXlXlXlXlXlXlXlXlXlXlXlXlXlXlXlXlXlXlXlXlXlXlXlXlXlXlXlXlXlXlXlXlXlXlXlXlXlXlXlXlXlXlXlXlXlXlXlXlXlXlXlXlXlXlXlXlXlXlXlXlXlXlXlXlXlXlXlXlXlXlXlXlXlXlX  $ I v.P 5.y.#.A 7 % % ;.-X=.z j , * z E I x E -.:.5.5.&.j J :.-.=.=.=.R g , * % % * * * * > > > > , > > > , , , , > > > > > > > > ; > > > > , , , , , > > > > > ; % > > > * * * * * * * * * % % % % % % % % * * * * * * * * % % % > > * > > > > > > > > > > > > > > > > > > > > * * * > > > > > > > * * > > > > > * > > > , > > * * * * * * * * * % , l l l G $.R R J j l G R E Q E P k z g 0 ] ....A 4 X * A A ] 0 , l 5.=.J $.4.t.u.u.a.u.u.u.u.u.t.4.4.5.y.5.*.G G J Z :.",
"$.5 i.5.W %.&.*.4.a.a.a.t.t.t.t.u.t.,.4.t.4.;.%.E R v J 5.*.5 4 5 l 0 # + 8 [ [ A l 7 J $.G R G R $.J J l 5 R E W =.G j S %., % = , , , , , , , , , , , , , , * = , , , , , , , , , , , , , , , , , , , , , , , , , , , , , , , , , , , i i g 7 g j g g g g i i , 5 5 g g i , , , , , , , , , , , , , 5 5 7 7 7 7 7 7 g 5 i , 5 , 7 7 7 7 < 7 g g g g g g j g g 7 7 7 7 5 5 , , , 5 , , , , 5 A A l G &.:.:.=.k j E R R E =.*.;.1.4.A o % 5 J X.5.l X 4 ] @.t.u.X.s P a       lXlXlXlXlXlXlXlXlXlXlXlXlXlXlXlXlXlXlXlXlXlXlXlXlXlXlXlXlXlXlXlXlXlXlXlXlXlXlXlXlXlXlXlXlXlXlXlXlXlXlXlXlXlXlXlXlXlXlXlXlXlXlXlXlXlXlXlXlXlXlXlXlXlXlXlXlXlXlXlXlXlXlXlXlXlXlXlXlXlXlXlXlXlXlXlXlXlXlXlXlXlXlXlXlXlXlXlXlXlXlXlXlXlXlXlXlXlXlXlXlXlXlXlXlXlXlXlXlXlXlXlXlXlXlXlXlXlX  $ I c.P 2.4. .l 5 % * 4.-X*.z j * * l R E R =.*.:.:.*.X.7 z :.=.%.=.:.W z A 7 & & : , , , , 5 5 5 g g 5 , , , 7 g 7 7 7 7 5 7 g 7 , , , 7 7 g g g g g 7 g g 7 < , , 5 7 g 5 , , , 5 5 5 , , , , , : , , , , , , , , , , , , , , , , , , , , 5 7 j g g , , , , , , , , , 5 7 7 g 5 5 , , , 5 7 7 7 5 7 7 j l j g g g 5 g g g g 5 5 5 , , 5 , , , , , l G l z { { G J J 7 l J R Q Q R Z Z Z g 7 ] ....l 4   # A ] ] l , z 5.=.J { ;.4.u.u.u.t.t.t.u.u.t.4.4.4.y.t.;.X.G J k =.",
"$.5 y.5.G K &.*.4.u.s.p.t.t.t.t.t.t.t.t.t.t.;.G R z z J P.*.7 4 4 7 7 + X 8 A A l 5 7 J %.%.*.;.o.G z l j 5 R -.W R X.g l :.l , a p k k z z k k k k k k k k k i g l z z z j k k k z z k j j l z Z Z Z J J z z z z z z z Z k k k k k k k Z P P P R R $.R G R R R F F R R R R R R W W P F Z R P R Z Z J G %.%.&.*.%.%.R R G G G J J G G G G J F K W W W W %.%.%.%.R G S S [ S A l l l l j g 5 j X.A 7 { { { $.$.k k R P P R =.:.:.4.4.A o % 5 S *.y.l X 4 ] @.t.t.{ s P k       lXlXlXlXlXlXlXlXlXlXlXlXlXlXlXlXlXlXlXlXlXlXlXlXlXlXlXlXlXlXlXlXlXlXlXlXlXlXlXlXlXlXlXlXlXlXlXlXlXlXlXlXlXlXlXlXlXlXlXlXlXlXlXlXlXlXlXlXlXlXlXlXlXlXlXlXlXlXlXlXlXlXlXlXlXlXlXlXlXlXlXlXlXlXlXlXlXlXlXlXlXlXlXlXlXlXlXlXlXlXlXlXlXlXlXlXlXlXlXlXlXlXlXlXlXlXlXlXlXlXlXlXlXlXlXlXlXlX  $ Y c.P =.4.#.A 7 % * 4.uX:.z j * * l R W =.4.4.*.R G S 7 J :.=.G =.:.J j %.{ i a j l z z J A G G G J J z Z J F G G G G G R R W W J Z J D G R R G G F F R R R R P P [ o.&.&.{ S S { { X.%.G J J z z z z z z z z z J J J J Z z J J J J J k z A J J J J J J z k z J J J z z J J J Z Z Z k k z z Z Z l l z J J k z k Z z z J J J J z z z l j j i i 5 g $.=.l J o.X.G J A 7 l J P W E R J W R j 7 A ] ] 0 4 X # A ] A l , C 5.=.J { ;.4.u.y.t.t.t.t.u.u.t.4.4.t.i.u.4.o.G J z %.",
"%.5 t.4.{ X.o.o.4.i.i.t.t.t.t.t.4.;.4.t.t.t.4.[ A z J R P.:.j 4 * > > o o 8 A A l 5 5 J G &.;.;.@.{ J l l , E -.E =.=.J , o.{ j i a k k k z J k k k k k k k k j J W =.%.W R R J J $.R J J J G G R W W R %.%.%.%.&.{ { o.*.%.R R R W =.=.E E -.:.*.o.@.4.4.:.4.:.:.5.5.5.5.5.;.:.4.4.:.=.=.=.:.:.W P E =.2.5.t.t.t.t.5.5.5.5.5.5.*.4.4.t.4. .;.5.y.5.5.y.y.y.5.5.4.4.4.4.4.;.;.;.;.&.{ z z l A o.7 7 o.;.;.X.{ g j R R R R =.:.4.4.4.] o * 5 A o.y.A X 6 ] 9.t.4.J p E z .     lXlXlXlXlXlXlXlXlXlXlXlXlXlXlXlXlXlXlXlXlXlXlXlXlXlXlXlXlXlXlXlXlXlXlXlXlXlXlXlXlXlXlXlXlXlXlXlXlXlXlXlXlXlXlXlXlXlXlXlXlXlXlXlXlXlXlXlXlXlXlXlXlXlXlXlXlXlXlXlXlXlXlXlXlXlXlXlXlXlXlXlXlXlXlXlXlXlXlXlXlXlXlXlXlXlXlXlXlXlXlXlXlXlXlXlXlXlXlXlXlXlXlXlXlXlXlXlXlXlXlXlXlXlXlXlXlXlX  $ P v.s 2.y.;.o.j o * y.uX5.J g = = z E E :.:.:.*.G A A 7 l -.W =.%.%.J 5 A o.a j z J X.o.;.@.;.4.4.*.G G %.X.;.t.i.4.*.&.%.:.U.7.=.W %.*.:.5.i.i.5.4.;.;.5.2.H.-.%.t.t.y.i.y.*.*.5.5.y.4.4.;.&.%.G L W 5.4.4.;.*.%.$.$.&.&.%.%.%.*.*.1.*.=.[ &.:.*.=.R R P Z R :.5.*.%.$.$.%.W E P R P z J %.:.&.$.$.A G $.E R P P P J R &.%.R Z R R Z z j i i i k :.G 7 [ %.*.S J l 7 l J J R J J G *.W g 7 l _ 0 l >   * A S A 0 , z 5.*.J { ;.4.t.t.t.4.4.t.u.t.4.4.5.t.t.u.4.o.G J k W ",
"&.5 y.4.K X.o.o.;.4.4.4.4.4.4.*.o.*.*.;.;.4.4.o.{ z J R U.=.7 4 > > 4 o o 8 l A l j j J R &.;.;.*.{ A A l , R -.=.-.:.A * A *.J a a k z z k k k k R R P k k k Z J G W W R R F R =.=.=.R R %.%.%.=.*.:.:.*.%.%.*.;.;.&.o.%.%.$.E -.-.=.$.$.=.:.:.&.o.t.i.y.:.5.5.5.:.5.y.y.y.4.4.t.t.5.5.1.:.2.2.-.=.-.5.5.t.t.u.s.i.y.y.y.y.5.5.5.i.y.t.t.4.4.y.i.i.i.i.i.i.i.i.y.4.t.y.t.4.4.;.4.;.X.J J J X.o.7 7 o.;.;.*.%.j j G R W =.*.*.:.5.y.[ o * 5 A *.i.[ X 4 ] @.t.;.J s E k       lXlXlXlXlXlXlXlXlXlXlXlXlXlXlXlXlXlXlXlXlXlXlXlXlXlXlXlXlXlXlXlXlXlXlXlXlXlXlXlXlXlXlXlXlXlXlXlXlXlXlXlXlXlXlXlXlXlXlXlXlXlXlXlXlXlXlXlXlXlXlXlXlXlXlXlXlXlXlXlXlXlXlXlXlXlXlXlXlXlXlXlXlXlXlXlXlXlXlXlXlXlXlXlXlXlXlXlXlXlXlXlXlXlXlXlXlXlXlXlXlXlXlXlXlXlXlXlXlXlXlXlXlXlXlXlXlXlX  $ P v.P 7.s.t.o.l % > y.uXy.S j = * z E R W &.:.:.*.&.S 7 z 2.W =.R G l 5 S ;.k z J G %.&.;.;.4.y.5.%.R *.*.=.;.t.t.4.:.:.4.7.W.7.*.*.5.4.5.i.i.i.y.5.y.i.Q.P.2.-.1.t.i.i.y.5.:.4.7.Q.~.i.4.:.5.5.=.P W 7.y.4.;.*.*.5.5.*.*.:.*.*.4.5.5.4.*.o.:.5.2.-.-.Q E R W :.5.2.:.*.*.:.:.=.W Q E R W :.5.=.=.=.%.R W W E P P P R E =.R J x P R P k s s k a P 2.S 5 A &.%.G F l 7 l S J J J S { *.%.l 7 l ] l l 4   # l A A 7 , z 7.:.$.&.4.4.4.4.4.4.4.4.4.4.;.4.5.t.u.t.4.o.X.J z %.",
"&.8 i.5.K G X.%.*.=.*.;.4.4.*.G G =.&.X.@.4.,.o.{ J J R U.=.7 > > 5 5 o X 8 A A l j j P R R %.&.*.&.R G l , R =.=.=.=.A > l *.%.j a k k k k k k k P P k k k P J J J J J F R P R W W P P W =.W R R =.:.5.*.%.*.:.5.:.;.&.%.%.R R E E W =.=.=.:.=.%.{ t.i.4.o.*.5.y.5.y.y.i.y.4.4.4.4.5.5.*.*.5.:.=.E %.*.;.4.t.s.s.t.4.4.5.5.5.5.y.i.5.4.t.5.4.4.5.y.y.i.i.i.i.y.4.4.4.y.t.4.o.*.o.o.X.G J J X.A , 0 #.;.;.*.&.g g J R =.*.*.*.:.5.y.[ o * 5 z *.i.[   > A #.@.o.J s E z     lXlXlXlXlXlXlXlXlXlXlXlXlXlXlXlXlXlXlXlXlXlXlXlXlXlXlXlXlXlXlXlXlXlXlXlXlXlXlXlXlXlXlXlXlXlXlXlXlXlXlXlXlXlXlXlXlXlXlXlXlXlXlXlXlXlXlXlXlXlXlXlXlXlXlXlXlXlXlXlXlXlXlXlXlXlXlXlXlXlXlXlXlXlXlXlXlXlXlXlXlXlXlXlXlXlXlXlXlXlXlXlXlXlXlXlXlXlXlXlXlXlXlXlXlXlXlXlXlXlXlXlXlXlXlXlXlXlXlX  . P c.P 5.i.t.@.0 # > y.=Xt.[ l * % l E P P R *.2.:.:.J , l 2.W J F R J , A ;.Z k z Z G %.%.*.1.2.:.R F =.=.%.%.;.4.4.:.:.:.5.5.*.W =.1.4.4.4.4.4.4.5.y.i.y.5.=.*.4.4.y.t.4.:.*.5.5.y.i.y.;.%.=.-.R P P :.4.;.*.*.*.5.5.%.%.2.*.=.*.5.5.5.*.%.=.=.W P R E I P P W =.=.-.:.:.:.-.W R Q E E W W =.=.=.=.W R P P E I P P P R E J P P P P x s p p p s P W l 5 A { R W Q z 7 l S J J A X.&.*.%.l 7 l ] A l >   # l A l 7 , z i.5.$.*.4.;.;.4.4.4.:.=.%.*.*.*.5.5.u.t.,.o.#.{ J =.",
"&.5 i.5.W %.X.=.=.=.=.:.4.5.:.{ G =.*.o.@.4.,.@.{ A z J U.=.7 > > 7 7 o X 8 A A l 7 j E R J J %.*.:.=.{ l , P -.=.=.W l > 7 o.*.J j k k J Z Z Z P P s s s k P P P Z Z Z R R R P P P k Z P R P J J R =.5.:.W W =.=.=.=.%.R P Z k P R Q -.=.E W =.$.%.;.4.%.G $.*.5.5.5.:.:.*.&.*.*.:.5.*.R R =.:.-.R R R *.4.t.t.y.4.;.*.*.5.5.5.5.5.*.:.:.2.*.%.=.:.5.y.y.y.5.4.:.4.4.4.4.*.K K G G D D S { &.l > l [ @.;.o.X.j g G R =.*.:.:.5.7.y.[ o * g R 5.Q.S . > l A { { J s E l     lXlXlXlXlXlXlXlXlXlXlXlXlXlXlXlXlXlXlXlXlXlXlXlXlXlXlXlXlXlXlXlXlXlXlXlXlXlXlXlXlXlXlXlXlXlXlXlXlXlXlXlXlXlXlXlXlXlXlXlXlXlXlXlXlXlXlXlXlXlXlXlXlXlXlXlXlXlXlXlXlXlXlXlXlXlXlXlXlXlXlXlXlXlXlXlXlXlXlXlXlXlXlXlXlXlXlXlXlXlXlXlXlXlXlXlXlXlXlXlXlXlXlXlXlXlXlXlXlXlXlXlXlXlXlXlXlXlXlX  $ P m.Z :.t.4.#.0 # > y.uXt.[ l * % l E R P R *.:.-.W l , l :.=.F G R J , A 4.=.R J F G %.*.*.=.=.W R G R W G G X.o.;.:.:.*.*.*.=.R W =.*.*.%.%.*.5.7.7.5.:.*.-.:.:.;.4.4.&.o.*.5.4.4.4.:.*.%.R R R P R %.&.*.*.*.%.%.%.F R =.W W W =.:.2.2.*.=.R J Z P P P P P R R W =.=.=.W P Z k Z P P P P P W =.-.W P R P R R R R R E R J R =.W R P k k k k v Q =.g 5 A G R Q Q k 7 l S J z A &.;.*.G j 7 l ] A l >   # l A l 7 , z i.5.$.%.:.;.;.4.4.5.R J G %.*.*.=.:.t.t.,.@.#.{ J =.",
"$.5 y.5.R W %.=.:.2.:.*.*.:.;.&.&.*.;.4.4.4.4.@.X.J J G U.:.5 > > 7 7 o X 8 ] ] l 7 7 R R J J R =.=.%.G j , E -.=.W W l * 5 o.*.G l j z J z z z P k k s s k k P Z k k k Z P Z k k k k k k k z k z J R W W P J J J R R F Z k k k Z E -.=.E R R E R R $.R G F R %.:.*.%.G G %.$.%.$.%.*.=.F J G R R R J J G %.;.:.:.*.=.=.%.*.*.5.*.%.%.%.$.R W W W =.*.5.5.*.*.=.%.%.%.%.W G G J J J J S X.;.;.7 > l o.o.o.o.X.l j $.$.$.=.-.:.:.5.5.A X * l :.U.!.A . > l S &.&.v p R l     lXlXlXlXlXlXlXlXlXlXlXlXlXlXlXlXlXlXlXlXlXlXlXlXlXlXlXlXlXlXlXlXlXlXlXlXlXlXlXlXlXlXlXlXlXlXlXlXlXlXlXlXlXlXlXlXlXlXlXlXlXlXlXlXlXlXlXlXlXlXlXlXlXlXlXlXlXlXlXlXlXlXlXlXlXlXlXlXlXlXlXlXlXlXlXlXlXlXlXlXlXlXlXlXlXlXlXlXlXlXlXlXlXlXlXlXlXlXlXlXlXlXlXlXlXlXlXlXlXlXlXlXlXlXlXlXlXlXlX  o R m.Z 4.t.@.#.0 # > y.uXt.] j * * l E P R $.%.W E J j , l :.-.=.=.W J , 0 @.J z l j l l J J J Z Z z l l l l l A A A [ S J J J Z Z Z Z F J J J J R =.%.X.X.R P F S o.o.o.S A A [ [ [ [ [ S J l l z k Z J S G $.G J J Z Z Z Z Z Z Z z Z J J S J l j j j k z z z z l l J J J l j j g i i a j g g l Z z l j j j j j j j j j l l l A A l j j g 5 g j R R j 5 A R x P I k 5 l S A A A { o.&.G g 7 l ] A l >   X l A A 7 , j i.5.J R %.*.5.4.5.5.R J %.*.4.*.W %.4.t.4.@.o.{ J *.",
"G 5 y.5.G R G %.*.5.*.%.R { &.*.:.*.;.;.4.4.<.o.{ J J R U.:.5 > > 5 5 o X 8 A A l 7 7 J R R R R W R G A 7 , R Q W W W l , 5 [ l 5 * * > > * > , , , , , , , = , , , , = = , , = * , , , , , , , , 5 7 5 5 5 , , , , 5 , , , , , , g j g 5 , g g , 5 5 5 , g g g l j 7 5 5 7 5 5 , 5 g g 7 , 5 5 5 g g 5 g 7 7 7 7 7 j j 7 l j l l j 7 5 5 5 7 g g g j j l j 7 7 g 5 5 , , 5 5 , , , , 5 7 7 7 * , A o.o.o.o.X.l l %.{ $.=.:.-.=.W *.l X * g E H.U.J . > 0 [ &.&.x p R l     lXlXlXlXlXlXlXlXlXlXlXlXlXlXlXlXlXlXlXlXlXlXlXlXlXlXlXlXlXlXlXlXlXlXlXlXlXlXlXlXlXlXlXlXlXlXlXlXlXlXlXlXlXlXlXlXlXlXlXlXlXlXlXlXlXlXlXlXlXlXlXlXlXlXlXlXlXlXlXlXlXlXlXlXlXlXlXlXlXlXlXlXlXlXlXlXlXlXlXlXlXlXlXlXlXlXlXlXlXlXlXlXlXlXlXlXlXlXlXlXlXlXlXlXlXlXlXlXlXlXlXlXlXlXlXlXlXlXlX  o R H.k 5.y.@.#.7 # > y.=X4.A 5 * * l R E =.&.$.R R J l 5 j =.-.:.:.-.J , > 6 > * * % * * > * > > , * * > * * * * ; ; ; > * * * % % > > , , , , , , , , 5 6 7 , , > 7 7 5 4 > > > * > > > > * * * * & * > 4 , , , , , , , , , , , , , * * * * * * * * % % * * * * * * * * * * % % % o o % % % % % % % % % % o o o o o o o % * % % * * * * # o o # * > > 7 A P x x P k g l [ S G A A A G G g 7 l l l l >   X l A A 7 > g 5.:.R R W =.:.4.5.:.%.%.*.:.:.*.E R &.4.4.;.o.$.J :.",
"J , y.4.F F J G %.*.%.G G J G %.*.*.%.*.4.4.@.o.G J P E U.=.5 > * > 4 # X 8 l l 0 7 7 G R %.%.%.%.%.G S j , P Q -.W R l 5 * * o . X . . X X o o X X o o X X + o X X X X X o X o X X X X X o o o # # # # # # # + # # # # # # # # # * * * * * * * * * # * * * * * # # # # # # # # # # # # # # # # # * * % # # # * * * * * # 4 4 4 > > * # # > > > > * * * > * * > * * % * * * * * # # # # # % o o 5 A { &.&.&.&.j l X.X.;.5.5.*.%.=.*.l X * i k E P.S . 4 l [ &.%.k p R z     lXlXlXlXlXlXlXlXlXlXlXlXlXlXlXlXlXlXlXlXlXlXlXlXlXlXlXlXlXlXlXlXlXlXlXlXlXlXlXlXlXlXlXlXlXlXlXlXlXlXlXlXlXlXlXlXlXlXlXlXlXlXlXlXlXlXlXlXlXlXlXlXlXlXlXlXlXlXlXlXlXlXlXlXlXlXlXlXlXlXlXlXlXlXlXlXlXlXlXlXlXlXlXlXlXlXlXlXlXlXlXlXlXlXlXlXlXlXlXlXlXlXlXlXlXlXlXlXlXlXlXlXlXlXlXlXlXlXlX  . P x.k 5.i.4.[ 7 # > y.=X4.l 5 * * l E E :.:.*.X.%.$.A 5 g W -.:.:.=.J , # # # o # > > > > 4 4 > > > > * * * > * ; ; * * * > * # # # # * * 4 4 * * * 4 4 4 > > > > > > * * * # # * * * * # # # + # % o # # # * # # * # # # # # # # # # # # # * * # # # # # # # # # # # # # # # # X X X o # # # # # # # # # # # # # # # # * * * * ; ; > > * # X X X X # 8 z P x x x R g l S { &.o.[ S G R j 7 l l l j >   X l A A 7 , g 5.-.P P R W -.:.:.&.&.o.o.&.*.=.E R R *.;.*.K R R 2.",
"J , 5.=.z J J J G F A A z Z Z R R R R R :.4.4.*.%.R J E U.*.5 * > 4 5 # X 4 l l l 7 7 G %.X.o.;.;.;.o.[ 7 , R -.W E R l 5 o . o o % * * * * * * * > > * * * * * * > > > * > * * * > * * > > > > > > > * > > , > > * * > * > > > > 5 5 5 5 5 4 4 4 5 > 4 5 5 4 4 4 4 4 4 4 4 > * > > > > > > > * > > > > > > > 4 4 4 4 6 6 6 8 6 6 6 4 > > 5 5 8 5 5 7 7 8 6 6 8 5 4 4 4 4 4 6 4 4 4 4 4 4 4 > , j z { %.G J R j j S o.4.u.y.5.:.:.:.A * % , k P -.F X > l { { %.k p E k .   lXlXlXlXlXlXlXlXlXlXlXlXlXlXlXlXlXlXlXlXlXlXlXlXlXlXlXlXlXlXlXlXlXlXlXlXlXlXlXlXlXlXlXlXlXlXlXlXlXlXlXlXlXlXlXlXlXlXlXlXlXlXlXlXlXlXlXlXlXlXlXlXlXlXlXlXlXlXlXlXlXlXlXlXlXlXlXlXlXlXlXlXlXlXlXlXlXlXlXlXlXlXlXlXlXlXlXlXlXlXlXlXlXlXlXlXlXlXlXlXlXlXlXlXlXlXlXlXlXlXlXlXlXlXlXlXlXlXlXlX. Z Q i 5.Q.;.#.0 # > y.=X:.l g % % l W W 5.4.;.@.o.o.[ 5 i =.-.=.$.=.J 5 > # * > 4 4 6 6 6 8 5 5 5 4 5 > 4 5 5 4 4 4 4 4 5 5 8 5 5 , 5 7 8 8 8 8 8 8 8 6 8 8 5 5 5 5 7 5 7 8 4 4 5 5 5 5 4 > * > > > > > > > 4 5 6 6 5 > > > 4 5 5 5 5 5 5 4 5 5 5 > > > > > > > > > > , , , , , > * > > , , , , , , , , , , > > > > > > > , , 5 > , 5 5 5 > > # o # * 5 J J J R P G 0 0 ] #.;.;.&.{ G R j g l l l l >   X j J l 5 * g 5.-.P P R R =.%.*.X.X.A J z J Z k x x P R F J J J 2.",
"J , 5.%.z J z z J Z A A l J z G J R J R &.;.*.%.%.J k R P.:.5 * > 5 5 % X 5 A A A 7 7 G &.*.;.4.4.4.@.#.j , R -.W W -.G 7 * o # * > 5 , , , , , , , , 5 5 , , , , 5 5 5 5 5 5 5 5 5 5 5 5 , , , , 5 5 5 5 5 5 5 5 5 5 5 5 5 5 5 5 7 7 7 l 7 7 7 7 7 7 7 7 7 7 7 7 7 0 0 0 7 7 5 5 5 5 5 5 5 5 5 5 5 5 5 5 5 5 7 7 7 0 0 l l l l l l 0 7 7 7 7 7 7 7 7 7 l l l l 0 7 7 7 0 0 0 6 6 6 6 7 7 7 7 5 j A G R J J R g j X.o.4.u.s.i.y.:.:.[ * * i k P H.F . > l [ { R k p E k .   lXlXlXlXlXlXlXlXlXlXlXlXlXlXlXlXlXlXlXlXlXlXlXlXlXlXlXlXlXlXlXlXlXlXlXlXlXlXlXlXlXlXlXlXlXlXlXlXlXlXlXlXlXlXlXlXlXlXlXlXlXlXlXlXlXlXlXlXlXlXlXlXlXlXlXlXlXlXlXlXlXlXlXlXlXlXlXlXlXlXlXlXlXlXlXlXlXlXlXlXlXlXlXlXlXlXlXlXlXlXlXlXlXlXlXlXlXlXlXlXlXlXlXlXlXlXlXlXlXlXlXlXlXlXlXlXlXlXlXlX. k Q i :.i.;.#.0 # > i.uXy.A 7 * * z W R *.4.t.4.@.o.[ 7 g =.W $.R =.G 7 > 4 4 8 6 6 7 0 0 7 0 0 0 0 7 6 7 7 7 7 7 7 7 7 7 0 0 j 7 7 7 l l l l j l j j j j j j 7 7 7 7 j 7 7 6 7 7 7 7 7 8 5 4 > > 5 5 5 5 5 7 7 l A 0 7 5 7 7 7 7 7 7 5 5 6 7 7 7 7 5 5 5 7 7 7 5 5 5 7 7 7 7 7 5 , , , 5 5 5 5 g 7 5 7 7 7 , , , 5 5 5 5 7 7 7 5 , 7 5 5 5 5 > > ; * 5 J G G R R A 7 0 #.@.4.4.:.X.G J j g l A A l >   X j J l 5 > g :.-.P E W W W %.*.X.o.S J z l j k k k Z J z k Z Z :.",
"J , :.W Z J z z J g 7 7 8 5 , g j l J J G X.*.%.=.F Z G 5.=.5 * > 4 5 * X 5 A [ A 7 7 F %.&.4.t.4.4.@.#.l , R W R E :.W j 5 * * * ; > > ; ; * * * * * * , * * * * * * * * * * % % * > > > > , , = = = * > > > , , , , > > > > > > , , , 5 > 5 4 > > , , > > > , 5 5 5 5 5 > > > > > > > > > > > > > > > > > > > > > , 5 5 5 5 5 5 5 , , , , , , 5 5 , , 5 5 5 5 5 , > , 5 5 4 4 4 4 > > > > > * 5 z F J z J $.j l @.@.,.u.s.i.t.*.4.[ * * g J -.U.K X # 0 [ G R k p I k       lXlXlXlXlXlXlXlXlXlXlXlXlXlXlXlXlXlXlXlXlXlXlXlXlXlXlXlXlXlXlXlXlXlXlXlXlXlXlXlXlXlXlXlXlXlXlXlXlXlXlXlXlXlXlXlXlXlXlXlXlXlXlXlXlXlXlXlXlXlXlXlXlXlXlXlXlXlXlXlXlXlXlXlXlXlXlXlXlXlXlXlXlXlXlXlXlXlXlXlXlXlXlXlXlXlXlXlXlXlXlXlXlXlXlXlXlXlXlXlXlXlXlXlXlXlXlXlXlXlXlXlXlXlXlXlXlXlX  . k I i *.y.;.o.A # > W.fXQ.{ j % * J =.R *.4.t.t.@.o.[ 7 g =.E R =.=.R g * * > > 4 5 5 5 5 5 5 5 5 5 5 5 > , , 5 5 5 5 5 5 5 , , , , , , , , 5 5 5 , , 5 , , , , , , , , , > > > > > > > > > > * * * * > > > > > 5 , , > > > , > > , , > > > > > > > > ; > > > > > > > > > > > > > * * > > > > > , , , , 5 , > > > > > > > > , , , , , , , , > * * * * 7 J %.*.*.=.[ 6 0 #.@.4.4.4.X.J J i 5 l A A l >   X j J l 5 , g :.-.R =.*.*.%.&.&.[ [ j 5 , , , , i g z J J J J Z =.",
"J , 2.W J G J J l % X . . . X o o j J J G X.*.*.*.G J R U.*.5 * * 4 4 # . 4 A A l 8 5 F W X.;.4.@.o.o.#.A , F R F P -.k i j * . o o o o o o X X o o o o o o . . o % % % % % % % % % % % % % % % % % % % % % % % % % % % % % % % % % * * * * * * % % % % % % % % % % % % % $ $ % $ $ % % o % % o o o % % * * o o % % % % % * % * * % % % % % % * * * * % * * % % % % % % % % % % % * % * * * * * 5 l G R R =.&.j l @.4.t.a.a.t.@.*.:.] # * j G 2.Q.X.X # 0 A J W k i x k .     lXlXlXlXlXlXlXlXlXlXlXlXlXlXlXlXlXlXlXlXlXlXlXlXlXlXlXlXlXlXlXlXlXlXlXlXlXlXlXlXlXlXlXlXlXlXlXlXlXlXlXlXlXlXlXlXlXlXlXlXlXlXlXlXlXlXlXlXlXlXlXlXlXlXlXlXlXlXlXlXlXlXlXlXlXlXlXlXlXlXlXlXlXlXlXlXlXlXlXlXlXlXlXlXlXlXlXlXlXlXlXlXlXlXlXlXlXlXlXlXlXlXlXlXlXlXlXlXlXlXlXlXlXlXlXlXlXlX  . s I i *.y.4.o.A # , y.=X4.S l * % A :.W *.t.t.t.@.#.A 7 g =.P R =.=.J i , o o % % % % $ $ % % % % % % % $ $ % * % % % % % % % % % o % % % % % % % % * * * % % % % % % % * % % % o % % % % % $ $ o o o o o o o o o o $ $ % % % % % % % % % % % % % % o o % % * * % % % % % o % o o o o % % % % % % % % % % % % % % % % % % * * * % % % % % % o o o o , l J *.;.:.;.[ 6 0 #.4.4.4.;.{ J J i 5 l l l 7 *   X j J l 7 , j 2.-.E *.4.4.;.@.o.] 0 % . . . . . . $ 5 J J J J J =.",
"A , 5.R J J J z g . . # % * o   X 5 G J X.*.4.4.*.%.G %.W.*.5 * * 4 4 # X 5 A A 0 5 7 P R X.*.;.o.o.#.o.J , G R R =.-.z g J 5 % * > , , > > > * > > > > > > > > > , , , , , , 5 g g 5 , , , , , , 5 5 5 5 5 5 , , , , , , , , , , , , g j j g g i i , , , , 5 , , , , , , , , , , , , , , 5 5 5 , , 5 5 7 7 7 7 g g 7 5 7 g g j j j g g g i i g j 7 5 , 5 5 g 5 5 , , , , , , , 5 5 5 5 5 5 5 l A J W =.:.:.=.j l @.t.u.u.u.t.@.*.;.A # * j G 5.Q. .X # 0 A R -.P r x g       lXlXlXlXlXlXlXlXlXlXlXlXlXlXlXlXlXlXlXlXlXlXlXlXlXlXlXlXlXlXlXlXlXlXlXlXlXlXlXlXlXlXlXlXlXlXlXlXlXlXlXlXlXlXlXlXlXlXlXlXlXlXlXlXlXlXlXlXlXlXlXlXlXlXlXlXlXlXlXlXlXlXlXlXlXlXlXlXlXlXlXlXlXlXlXlXlXlXlXlXlXlXlXlXlXlXlXlXlXlXlXlXlXlXlXlXlXlXlXlXlXlXlXlXlXlXlXlXlXlXlXlXlXlXlXlXlXlX  . s I i %.y.;. .0 # > 5.i.o.A l * % J :.=.4.t.t.q.@.#.] j j -.E R =.-.J g J = & , , , , , , , , 5 , , , , , , , , , , , , , 5 5 , , , , 5 5 5 7 7 7 7 g g g 7 , , , , , 5 7 5 , , , , 5 5 , , : & % > > , > > > > , , , , , , , , 5 5 , , , , 5 5 5 , , , , , 5 5 5 5 5 5 , 5 5 , , > , 5 5 5 5 , , , , , , , , , , , , , , 5 5 , , , , , , , , * * , A A A *.4.;.*.[ 6 0 #.4.4.4.;.X.$.J g 5 l A A 0 *   X j J A 7 , j :.-.R *.y.t.t.o.o.] 6 . . % * * # . . , z J J J Z =.",
"{ g :.G l l l j g . o 7 , , * X   > J J X.;.5.5.5.%.G %.U.%.5 % * > > # X 4 A A 0 5 7 R R G o.;.o.o.[ [ l , J %.%.:.5.z j =.J , , i j j j j j g 7 g g g g g l j l l l j j g g l J z z l j j j l l z J l l A A J J J z l l l z l l l l J J J J J z z J J J S A A A A A S S S J J J Z J z l A A A J z Z J G [ [ X.X.X.{ { G G G %.%.{ X.{ S G G { X.{ G J S S G { { G A J A A A A A A A l l 7 l %.G J %.*.:.:.%.g l o.;.t.t.4.t.t.*.;.A # * j G :.W.[ X > 7 A R -.P r x j       lXlXlXlXlXlXlXlXlXlXlXlXlXlXlXlXlXlXlXlXlXlXlXlXlXlXlXlXlXlXlXlXlXlXlXlXlXlXlXlXlXlXlXlXlXlXlXlXlXlXlXlXlXlXlXlXlXlXlXlXlXlXlXlXlXlXlXlXlXlXlXlXlXlXlXlXlXlXlXlXlXlXlXlXlXlXlXlXlXlXlXlXlXlXlXlXlXlXlXlXlXlXlXlXlXlXlXlXlXlXlXlXlXlXlXlXlXlXlXlXlXlXlXlXlXlXlXlXlXlXlXlXlXlXlXlXlXlX  . k P a %.y.;.] 0 # * 4.=X;.l j * * J :.=.4.t.t.q.@.#.#.l j -.E R =.:.J j =.J i j j z J J J J A G G S A A S G G S S A A A A [ S J l l z z J A A S S S S A A A J A l z J A S S J l z J J J z k j j j l z J J A l A A A J J A A J J J J J J l l J S A l l l l l l l l l l l l A A l l l l l l l l l l l j l l l l l l j j j j l j j j j j g g a a , , j :.[ [ 4.t.y.:.[ 7 b o.;.*.*.*.%.%.G g 5 l ] A l *   X 7 J l 7 , j :.-.R *.4.t.t.o.[ A 5   . > , , > o . * j z z z z %.",
"{ g :.G j g l j 5 . o 7 < , o     * z z { o.:.4.4.%.G W 5.%., % * > > # X 4 A [ A 7 7 R R G o.4.;.o.] A l , J %.*.4.4.l i R $.j i s k k k k k z k k z z z z z k z k Z k z k k z J J J J z k k Z J R $.{ A S %.$.$.$.$.J J J $.R J J z G $.R $.R R R =.%.%.&.*.*.o.o.o.;.*.*.=.=.W W R R { X.X.&.%.R R P %.*.4.4.:.;.:.:.*.=.X.*.5.4.4.4.1.*.*.4.:.*.&.X.*.*.:.:.:.:.&.&.*.*.&.&.o.o.{ J l l S :.S l *.*.*.%.G g l [ o.@.;.4.y.y.4.;.A o * j J =.7.[ X > l G =.:.P r x j       lXlXlXlXlXlXlXlXlXlXlXlXlXlXlXlXlXlXlXlXlXlXlXlXlXlXlXlXlXlXlXlXlXlXlXlXlXlXlXlXlXlXlXlXlXlXlXlXlXlXlXlXlXlXlXlXlXlXlXlXlXlXlXlXlXlXlXlXlXlXlXlXlXlXlXlXlXlXlXlXlXlXlXlXlXlXlXlXlXlXlXlXlXlXlXlXlXlXlXlXlXlXlXlXlXlXlXlXlXlXlXlXlXlXlXlXlXlXlXlXlXlXlXlXlXlXlXlXlXlXlXlXlXlXlXlXlXlX  . k P a =.y.;.A 7 # * i.iXt.l 7 * * l =.*.t.t.q.q.,.@.o.l j -.Q E :.*.J i =.:.k k J R %.%.%.X.&.:.:.*.*.*.4.4.4.:.*.*.*.;.;.4.:.$.J F R G { X.o.o.o.o.o.o.o.X.X.X.{ J G &.*.*.%.G J G R R R R R J J R %.%.%.%.{ { X.%.%.%.X.%.%.X.{ %.%.G J G X.&.o.{ A J R J J J J J J A A { G G J J J J J J J J z z k z J J J J J J Z z z z z l k z z k a a a a g R 5.A ] ,.t.4.;.[ 0 l o.{ [ X.*.%.=.%.g 5 l l A 0 > X X 7 A l 7 , j :.-.R %.4.4.;.o.[ A 5   . , , , > X   * j l j z z %.",
"J j :.A l j j l , . % < < : o     * l Z %.o.&.*.:.X.G R :.R , % * > 5 # X 5 A #.[ l 7 z G { ;.4.4.;.[ A j , J %.*.:.&.l , J =.z i a k k k k k k z z k k k k k k k k P P k k k J R R R R R P Z Z R =.=.R J G %.=.=.=.=.R J $.&.=.$.J z J R $.$.R R =.=.=.=.*.;.4.4.@.@.@.4.5.*.-.W R R =.=.%.%.*.=.R P P X.4.t.y.4.;.4.5.5.:.o.;.4.5.5.5.5.4.4.4.y.5.;.;.;.;.4.5.5.*.*.:.:.;.;.;.;.;.X.J A A *.:.l l &.%.$.%.G g l o.o.o.4.4.y.4.:.4.A o * 7 J R 5.[ . * l %.:.:.x w k g       lXlXlXlXlXlXlXlXlXlXlXlXlXlXlXlXlXlXlXlXlXlXlXlXlXlXlXlXlXlXlXlXlXlXlXlXlXlXlXlXlXlXlXlXlXlXlXlXlXlXlXlXlXlXlXlXlXlXlXlXlXlXlXlXlXlXlXlXlXlXlXlXlXlXlXlXlXlXlXlXlXlXlXlXlXlXlXlXlXlXlXlXlXlXlXlXlXlXlXlXlXlXlXlXlXlXlXlXlXlXlXlXlXlXlXlXlXlXlXlXlXlXlXlXlXlXlXlXlXlXlXlXlXlXlXlXlX    . a x a =.5.o.A 7 # * i.iX4.A 7 * * J =.=.4.t.t.t.q.,.@.l l -.-.=.:.=.J , G 5.k z J %.*.*.*.&.:.5.y.4.:.4.4.4.4.5.4.4.;.4.y.y.:.R R W W %.%.:.4.4.;.*.o.:.4.4.&.&.*.%.%.*.4.4.*.%.J J R R R R R R R %.*.4.;.&.o.X.%.%.%.%.*.4.:.X.X.&.*.%.J G %.:.:.&.R R E R R R R J J G { %.$.G J J J Z J J { J J z z k J J P R R R k Z J J z z k k k k p p p a k *.:.l A o.o.o.o.] 0 l X.X.&.&.;.&.&.%.j 8 0 l A 0 > X X 5 l l 7 , j :.-.R $.*.*.*.o.[ A 5   . > , < , .   * g z l z J %.",
"J j *.A l l l j , . % , , : .   . * l Z %.&.&.*.4.X.G R :.R , # * > 5 # X 5 A [ ] l 7 J $.X.4.4.4.4.o.S j , J %.*.%.G l , l *.R k a p k k k k z k k k k k k k s k x P P x d k k J J R R P P s s P W W R J F R W W =.E R R R =.=.$.P J R R E E P E -.-.-.=.%.:.4.4.4.o.o.*.*.=.-.Q E E =.=.%.%.:.*.R P R X.4.4.y.4.*.*.*.*.*.*.*.*.5.5.5.7.5.4.5.y.5.4.4.:.*.4.5.5.=.*.:.:.*.%.&.*.*.%.G G X.5.*.g l { { { %.%.l J ;.;.4.4.t.4.4.:.5.A o * 7 J $.5.[ . * l $.-.-.x w k a       lXlXlXlXlXlXlXlXlXlXlXlXlXlXlXlXlXlXlXlXlXlXlXlXlXlXlXlXlXlXlXlXlXlXlXlXlXlXlXlXlXlXlXlXlXlXlXlXlXlXlXlXlXlXlXlXlXlXlXlXlXlXlXlXlXlXlXlXlXlXlXlXlXlXlXlXlXlXlXlXlXlXlXlXlXlXlXlXlXlXlXlXlXlXlXlXlXlXlXlXlXlXlXlXlXlXlXlXlXlXlXlXlXlXlXlXlXlXlXlXlXlXlXlXlXlXlXlXlXlXlXlXlXlXlXlXlX    . i k i E :.{ A 7 * > y.iX4.A 7 , * J =.%.4.q.p.t.t.t.@.A l -.:.-.:.=.A , J 5.E k z G %.=.=.&.:.5.5.*.*.*.*.*.*.*.4.*.&.;.5.5.*.R P R R P %.:.5.5.*.W %.:.5.:.=.%.*.W G %.1.1.=.R R R R R P E W E P G &.4.:.;.&.X.%.R R %.*.4.*.%.%.*.*.%.J J %.*.=.R R P P P P P P k k G $.%.R R P P P x k J %.R Z k k k k k k x P x k k z z k z k k k p p s s k R 5.&.7 l #.o.*.*.[ 7 A X.*.:.:.4.o.&.X.j 8 0 ] ] 0 >   X 5 l C l , z :.=.R %.;.;.:.o.{ J ,   . > 7 j , .   % g z Z J J %.",
"G g &.A l l l i , . o i i : o     * l z { o.*.*.;.%.R E P.E , # * > 4 + X 5 A A A 7 j R =.&.4.4.4.4.@.[ g , J %.X.{ G l > 5 S G z j a k k k Z R P k s s s x s d d x x I I I P P k k Z P P x s s k P P R R R R R R R R R P W =.=.E R R R R P R P R Q :.:.=.=.*.5.7.:.&.%.=.W W Q Q E R R P R =.:.-.R R E =.=.4.4.1.1.=.%.=.=.:.-.-.-.-.-.:.=.*.2.2.:.=.:.=.%.W =.=.R =.:.5.:.=.=.=.*.=.%.%.:.y.[ , l o.o.*.;.&.l A ;.4.t.t.4.4.4.:.4.A + # 7 A R 5.[ X > j A R E k r k a       lXlXlXlXlXlXlXlXlXlXlXlXlXlXlXlXlXlXlXlXlXlXlXlXlXlXlXlXlXlXlXlXlXlXlXlXlXlXlXlXlXlXlXlXlXlXlXlXlXlXlXlXlXlXlXlXlXlXlXlXlXlXlXlXlXlXlXlXlXlXlXlXlXlXlXlXlXlXlXlXlXlXlXlXlXlXlXlXlXlXlXlXlXlXlXlXlXlXlXlXlXlXlXlXlXlXlXlXlXlXlXlXlXlXlXlXlXlXlXlXlXlXlXlXlXlXlXlXlXlXlXlXlXlXlXlXlX    . i p i Z $.G A 7 * 4 y.uX4.A j , * z =.%.4.q.e.p.t.q.#.l l :.:.:.=.%.A 5 l 5.E k k z R R W =.:.:.-.=.=.-.-.-.W =.-.%.%.=.*.:.-.R P P P P P =.*.=.R Z R =.-.-.W R R R F W =.=.W E E E R R P E -.Q R J G %.*.*.=.=.%.E E W =.:.=.=.=.=.E R J P R W R R k k P x d x x k s R R R R P P P I x k R E E k s k k s p p d d s s k z k k k k k k s a p s Z W 5.S 5 A X.*.*.*.S 8 l o.;.:.4.4.o.o.[ 7 4 A ] ] 0 >   X 5 C A l , z :.=.R &.4.4.4.@.[ l >   . > 7 7 > o   % g z J z J G ",
"G j &.z g j g y &   o i i : o .   * l l S { *.;.;.%.R E P.-., % * > > + X > l l 0 7 j R =.X.;.@.@.4.@.[ 5 , J %.G G G l > 5 S %.%.z j j k J R =.E R k k x x x x x x P E Q F.-.W R J J J Z P P k x P R R R E R R J R P R P =.=.=.E E =.=.E R R P P R =.=.W W %.%.&.:.:.=.%.W %.=.=.=.=.W =.:.5.2.=.E E E =.=.*.1.2.2.*.=.=.:.5.5.:.:.:.:.:.2.5.U.5.5.5.5.5.:.=.:.*.=.*.:.:.:.*.=.=.=.=.=.*.5.y.A > A @.4.t.4.;.l l o.;.4.t.t.4.:.*.:.l X # 7 A G 5.] X > 7 l J E z r k i         lXlXlXlXlXlXlXlXlXlXlXlXlXlXlXlXlXlXlXlXlXlXlXlXlXlXlXlXlXlXlXlXlXlXlXlXlXlXlXlXlXlXlXlXlXlXlXlXlXlXlXlXlXlXlXlXlXlXlXlXlXlXlXlXlXlXlXlXlXlXlXlXlXlXlXlXlXlXlXlXlXlXlXlXlXlXlXlXlXlXlXlXlXlXlXlXlXlXlXlXlXlXlXlXlXlXlXlXlXlXlXlXlXlXlXlXlXlXlXlXlXlXlXlXlXlXlXlXlXlXlXlXlXlXlXlXlX  . i r i k R J A 7 # * :.~.:.A j , * z =.%.4.q.e.t.q.+.] 6 j =.-.$.{ %.A 5 l y.:.R J J R -.2.5.5.P.2.2.2.2.:.-.-.-.2.:.:.:.=.:.-.W R P R W -.-.*.=.=.W R W W W W R R P R %.=.%.W =.=.-.W R P R -.:.:.=.%.*.5.5.:.*.=.W E R W %.=.=.=.W R W %.R W R G J k k P P P P P P P P P P R P P R P P R E E R Z k k k z s s k k k k J J J R R R J J k k k k R *.5.A , l %.=.=.R A 5 l o.*.:.;.;.o.[ [ 7 4 A ] ] 0 *   X 5 A A l , z :.=.R &.4.4.;.o.[ l >   . % , , % X   # j k k k z J ",
"A j =.l i i i i %   o , : ; $ .   * j j A { :.:.;.%.G R P.-., * * ; > X X 5 l l 0 7 j R *.X.o.#.@.@.@.[ 5 , J =.%.R G A 5 5 l l j 4 * * * * > 5 , , = % & = = & , , , , , , , , , > , , , , , , , , , , , , = * * * * * > , , , , , , , , , , , * , , , , > > > > * > > * * * * * > > > , , 5 5 5 5 , , , 5 5 7 g j g 7 7 g 5 , , , , , , , , 5 , , 5 7 5 , , 5 5 , 5 5 5 5 , , 5 , , , , j l 5 > [ @.t.i.y.;.l l [ X.;.4.y.y.:.&.;.0 X # 7 A R 5.[ X # 7 J R W z r k i         lXlXlXlXlXlXlXlXlXlXlXlXlXlXlXlXlXlXlXlXlXlXlXlXlXlXlXlXlXlXlXlXlXlXlXlXlXlXlXlXlXlXlXlXlXlXlXlXlXlXlXlXlXlXlXlXlXlXlXlXlXlXlXlXlXlXlXlXlXlXlXlXlXlXlXlXlXlXlXlXlXlXlXlXlXlXlXlXlXlXlXlXlXlXlXlXlXlXlXlXlXlXlXlXlXlXlXlXlXlXlXlXlXlXlXlXlXlXlXlXlXlXlXlXlXlXlXlXlXlXlXlXlXlXlXlXlX  . , r r J E J A 7 # > 4.~.;.l 7 > * z =.=.t.p.p.p.,.#.] 0 l &.$.G $.&.S 5 8 #.A j 5 5 5 g g g j g , , , , , , , , 5 7 5 g 7 5 7 , , , , g g g 7 7 7 g 5 , , , , , , , , , 5 5 , , , , , , > > , , , 5 > > 5 5 4 5 , , , * * * , , , > , , 7 , , 5 > > > * , , , , , , > > > > > > > > > , , , > > > , > > > % % % % % * > > , , , , , , , , * 5 5 j l 5 5 l { $.E F l 5 l X.*.:.*.&.X.%.{ 7 4 0 l l 7 *   X 5 J A l , z :.E R &.4.4.;.o.A j >   X % & & % o   o g j j j k J ",
"A g &.l i i i i % . o ; : : & .   % g j S { *.:.4.&.G R P.=., * * > > X X > l A l 7 7 P =.X.o.#.o.@.#.] 5 , J -.=.%.R J , * o . . X X X .   X X . . . . . . . . . . . X X X . . . . . . . . . . . . . . . . . . . . . . X . . . X o X o o o o o o o o o o X X # # # # # # o o o X X X X X X # # o % % o o o o o o % * * * * * * % % # # + o o o o o o # # # # # # # # # # # X X # # # % % % * * 5 o.;.4.y.y.;.j j A G o.5.Q.i.:.*.:.l X # 7 J R 5.[ X * 7 G W -.R r s i         lXlXlXlXlXlXlXlXlXlXlXlXlXlXlXlXlXlXlXlXlXlXlXlXlXlXlXlXlXlXlXlXlXlXlXlXlXlXlXlXlXlXlXlXlXlXlXlXlXlXlXlXlXlXlXlXlXlXlXlXlXlXlXlXlXlXlXlXlXlXlXlXlXlXlXlXlXlXlXlXlXlXlXlXlXlXlXlXlXlXlXlXlXlXlXlXlXlXlXlXlXlXlXlXlXlXlXlXlXlXlXlXlXlXlXlXlXlXlXlXlXlXlXlXlXlXlXlXlXlXlXlXlXlXlXlXlX  . , p i k R J l 7 # > 4.-X:.l 5 > * z -.=.t.a.p.u.@.#.] 0 l %.$.%.$.%.A 5 * * # X X X o o o * # o o o o o X X X X o o o o o o o o X o o o o o o o o X # X X o o o o o X X X X o X X o o o o o X X o # # # # X X X o o o . . . . . . X X . . X X X X X o o X X X X X X X X X X X X X X X . X . X X X X X X X . . . X . . . . X o o o o o o X X X . . X % 5 z R R P P z 5 7 { %.%.$.$.G %.{ 7 4 7 7 7 7 *   X 7 A A l , z :.E R %.4.;.:.{ A j >   . $ : r r %   o g j j k k Z ",
"A 7 %.l j j i i % X o : P n & . . * j j A o.&.4.y.&.G R :.R , # * 5 5 X X , A A A 7 7 J &.o.o.#.#.#.#.] 5 = R -.=.W W J 5 * o o o o % % % * # # * * * * * % o * * ; > > > * ; ; * * * * ; * ; ; ; ; > > > > > > > > > > > > , , > 4 4 4 4 5 5 5 4 4 > 4 4 > > 4 4 4 4 > 4 4 4 4 > 4 > > 4 > 4 4 4 5 5 5 5 4 > 5 5 5 5 5 4 6 6 6 6 8 8 4 4 > 4 4 5 4 4 8 6 6 4 5 4 4 > > 4 4 4 4 8 8 4 > > > * > 7 [ *.:.5.:.&.j g G { %.5.Q.W.:.:.5.A X % g R =.5.A . * j R -.F.P r s i         lXlXlXlXlXlXlXlXlXlXlXlXlXlXlXlXlXlXlXlXlXlXlXlXlXlXlXlXlXlXlXlXlXlXlXlXlXlXlXlXlXlXlXlXlXlXlXlXlXlXlXlXlXlXlXlXlXlXlXlXlXlXlXlXlXlXlXlXlXlXlXlXlXlXlXlXlXlXlXlXlXlXlXlXlXlXlXlXlXlXlXlXlXlXlXlXlXlXlXlXlXlXlXlXlXlXlXlXlXlXlXlXlXlXlXlXlXlXlXlXlXlXlXlXlXlXlXlXlXlXlXlXlXlXlXlXlXlX. i k i k R z z 7 # * 5.-X*.l 7 > * l =.=.t.a.p.u.4.@.#.7 7 %.*.*.%.%.J 7 * # # * * > 5 5 4 4 4 4 4 4 4 4 8 6 8 5 6 5 5 5 5 5 5 4 4 > 4 4 4 4 5 5 4 4 4 4 4 4 4 > > 4 4 4 4 4 4 4 4 4 4 4 4 4 4 4 4 4 4 5 5 > 4 5 5 5 5 4 > > 4 > > > > > > > > > > > > > > > > > > > > > > > > ; ; ; > * * * > > > > > > > > > * * > > > > > > 4 5 5 4 > > > > > o o > 5 l J E R J z 5 g S G G R W R W $.j 4 7 7 7 7 >   X 7 A A l 5 z 2.=.R R %.%.%.G C g >   . & y m u $   o g k k k k z ",
"A 5 { l j j a i %   o s ^ N : . . * j j [ { %.:.5.&.G R :.R , # * 5 5 + X 5 S [ A 7 5 J %.&.;.;.@.#.#.A 5 * J W E E W J , * o * * * > > > > > > > > > > > > * > > > > > > 5 , , > > > > > > > > > > > > > > > > > > > > > > , , 5 5 6 5 5 5 5 5 5 4 4 4 5 5 4 4 5 5 4 4 5 5 4 4 4 4 4 4 4 4 4 5 5 7 7 7 7 5 , 5 5 7 6 5 5 6 6 6 6 7 7 6 8 5 5 5 5 5 8 7 9 6 6 6 6 7 5 4 4 6 6 7 7 7 7 6 0 7 7 7 l X.%.%.R E =.j g G $.=.5.U.U.:.:.5.J o % g Z P -.z . * j R -.H.E p x a       lXlXlXlXlXlXlXlXlXlXlXlXlXlXlXlXlXlXlXlXlXlXlXlXlXlXlXlXlXlXlXlXlXlXlXlXlXlXlXlXlXlXlXlXlXlXlXlXlXlXlXlXlXlXlXlXlXlXlXlXlXlXlXlXlXlXlXlXlXlXlXlXlXlXlXlXlXlXlXlXlXlXlXlXlXlXlXlXlXlXlXlXlXlXlXlXlXlXlXlXlXlXlXlXlXlXlXlXlXlXlXlXlXlXlXlXlXlXlXlXlXlXlXlXlXlXlXlXlXlXlXlXlXlXlXlXlXlXlX. g x r k R J J l * * *.Q.$.j 7 * * l =.=.5.y.t.t.4.4.o.7 7 *.:.2.*.%.J j * 4 ; > 5 7 0 0 0 0 0 l l 0 6 6 7 0 7 7 7 7 7 7 7 7 7 7 5 5 4 8 5 5 5 5 8 8 6 8 6 6 5 4 4 4 4 5 5 4 4 4 5 5 5 5 5 4 4 5 5 4 5 5 5 5 5 5 5 5 5 5 > > > > > > > 5 5 4 > > 4 > > > * * > , > > > , , , > > > > > > > > * * > > > , 5 , > > * * * > > > ; > > > > > 5 5 > > ; > > 5 g J E E R l 5 j J J J R E E W W g > 7 7 7 7 *   X 5 l l j , z 5.=.R P R R R F z g >   . & s M r $   o i k k j g k ",
"A 5 G l j j a i %   $ n Y s : . X * j l A { %.=.=.$.R $.:.R , % # 4 5 # X 5 A A l 5 5 F %.=.*.:.&.X.[ A 5 * J E R P W J , > o o o % % % % * * * * * * * * * * * * * * * > > > > > > ; * * ; ; * * * * * * * * * * * * * * ; * > > > > > > > > > > > > > > > > > > > > > > > > > > > > > > > 4 4 > 5 5 5 , , , , , , , , , , 4 4 5 5 5 5 > > > , , , 5 5 6 6 6 6 6 5 4 > > > 4 4 5 5 5 4 4 > > , g $.%.R P x E z j X.%.:.5.:.:.:.:.5.J o % i k d E z o * g P Q H.E t I k       lXlXlXlXlXlXlXlXlXlXlXlXlXlXlXlXlXlXlXlXlXlXlXlXlXlXlXlXlXlXlXlXlXlXlXlXlXlXlXlXlXlXlXlXlXlXlXlXlXlXlXlXlXlXlXlXlXlXlXlXlXlXlXlXlXlXlXlXlXlXlXlXlXlXlXlXlXlXlXlXlXlXlXlXlXlXlXlXlXlXlXlXlXlXlXlXlXlXlXlXlXlXlXlXlXlXlXlXlXlXlXlXlXlXlXlXlXlXlXlXlXlXlXlXlXlXlXlXlXlXlXlXlXlXlXlXlXlX  . k I i x -.G J 7 * * =.U.P j 5 * % l =.-.=.5.4.4.4.4.o.7 7 *.*.=.%.G A j * > * 4 4 5 7 8 7 8 8 7 7 7 5 4 5 5 5 5 5 5 5 5 5 5 5 5 5 > > > > > > > 4 4 4 4 4 4 > > > > > > > > ; * ; > > > > > > > > > > > > > > 4 4 > > > > * * > > > > > > > > > > > > * * * * * * * > > > > * * * * * * * * * # * * ; > * * * * * * * * ; * * * * ; ; > * * * * # * * 7 g l R E J l , l F J R P E E W R 5 > 7 j 0 7 *   X , l l l , z 2.E R R R J J J Z j 5 . . & u d & % . % j k k a a k ",
"J 5 G j a k k a %   % s V u : . X * l z { %.=.=.&.$.R $.P.%., * # 4 5 o o > l 7 7 5 7 R =.$.R %.G G G J 5 , J R R R E z , j % . . . o o o o o % % % % % % o o o % % % % % % % % * * * % % % % % % % * * % % * * % % % % % * * * * * > > * * * > * % * * * * > * * * * * * * * * % * * * * * * * * > > > , > * * * > > * * > > > > > > > * * % % % * * * * * > > > * * % * % % # * * * * # * % > z $.=.R x x P k j { *.:.:.=.=.=.*.:.J o * , k x Q J o * g J E x.I t I k     lXlXlXlXlXlXlXlXlXlXlXlXlXlXlXlXlXlXlXlXlXlXlXlXlXlXlXlXlXlXlXlXlXlXlXlXlXlXlXlXlXlXlXlXlXlXlXlXlXlXlXlXlXlXlXlXlXlXlXlXlXlXlXlXlXlXlXlXlXlXlXlXlXlXlXlXlXlXlXlXlXlXlXlXlXlXlXlXlXlXlXlXlXlXlXlXlXlXlXlXlXlXlXlXlXlXlXlXlXlXlXlXlXlXlXlXlXlXlXlXlXlXlXlXlXlXlXlXlXlXlXlXlXlXlXlXlXlXlX  . k I r x -.W J 7 * % :.!.-.j 5 * % z -.-.W 4.4.4.4.4.@.l j %.R J J G J g * o % * * * * * * > * > , , > > > > > > > > > > > * * > > * % * * * > > > > * > > > > * * > > * * % * * * * * * * * * * * * * * * * * * * * * % % % * * % * > * * * * * * * % o % % % * * * * * * * % % % % % % % % % % * * * > * % % % % % % * * * * * * * * * * * % % o o 5 l g l k k j l 7 l G G R R E P R J 5 4 7 l l 0 *   X 5 l J l , z :.R Z P R J J J J l 5 X . : s r r : . % z k z k k J ",
"J 5 J k i s k i $ . $ y u u : .   % z J &.%.=.=.*.%.R -.5.%., % * 5 5 # X > l 7 7 5 7 R =.R J J J R F J g = J R J R R z j &., o % * * > > , 5 5 5 , , , 5 , , > , , 5 5 , , , , , , , , , , , , , , , , , , 5 , , , , , , , , g 7 7 g g i i i i i , , , g 5 7 7 5 5 , , i i , , , , , , 5 5 5 5 , , 5 7 g , 5 5 7 g 7 7 7 g g g 5 5 5 7 5 , , , , , , , , , , , , , , , , , > > > * > > > , , l %.R $.E P P E j g X.&.:.*.&.$.%.=.:.J % * , k P -.J . * g Z P E I t I k     lXlXlXlXlXlXlXlXlXlXlXlXlXlXlXlXlXlXlXlXlXlXlXlXlXlXlXlXlXlXlXlXlXlXlXlXlXlXlXlXlXlXlXlXlXlXlXlXlXlXlXlXlXlXlXlXlXlXlXlXlXlXlXlXlXlXlXlXlXlXlXlXlXlXlXlXlXlXlXlXlXlXlXlXlXlXlXlXlXlXlXlXlXlXlXlXlXlXlXlXlXlXlXlXlXlXlXlXlXlXlXlXlXlXlXlXlXlXlXlXlXlXlXlXlXlXlXlXlXlXlXlXlXlXlXlXlXlXlX  . k I p k P J J j * % :.:X-.j 5 * % J -.E J &.:.:.:.;.o.l j %.F F R =.E Z j , % * * , , , , 5 5 5 5 5 , , , , , 5 5 , , , , , , 5 , , , , , , , , , , 5 5 5 , , , , , , , , , , 5 , , , , , , , , , , 5 5 5 5 5 , , , , , , , , , , , , , , , 5 5 , , , > * , , , , 5 5 5 5 5 , , , , , , , , , , , , 5 5 5 5 , > * = , , , , 5 , , , , > > > , > * , A J j z z j g l 7 l S G G G G Z Z J g 5 l l l 0 >   X 5 J A l , z :.P k P W E R J k l 5 X . r s t s : . % j z z z z G ",
"J 5 J k i a p i % X $ r u m i .   % Z A { %.*.:.:.=.R =.5.%., % * 5 5 # . > A l 7 5 5 R =.E R R R R J Z g , J J z J J j j :.z * , 5 5 g g g g j j g g j j g g 7 g l l l l j i j l l j g g g g j l l l l l z l l z z z j z z z J J J J J J J J J Z z z J J J J A A J J J J J J J Z J J G J J R J J A { X.X.[ { [ { W X.X.G G J G G S S G S J J J J F G A A A A G G J J J z J J A A l l l j j l &.&.z =.-.-.-.$.j g o.o.o.&.&.&.%.=.:.z % * , k P :.J . * g z x E I t d i     lXlXlXlXlXlXlXlXlXlXlXlXlXlXlXlXlXlXlXlXlXlXlXlXlXlXlXlXlXlXlXlXlXlXlXlXlXlXlXlXlXlXlXlXlXlXlXlXlXlXlXlXlXlXlXlXlXlXlXlXlXlXlXlXlXlXlXlXlXlXlXlXlXlXlXlXlXlXlXlXlXlXlXlXlXlXlXlXlXlXlXlXlXlXlXlXlXlXlXlXlXlXlXlXlXlXlXlXlXlXlXlXlXlXlXlXlXlXlXlXlXlXlXlXlXlXlXlXlXlXlXlXlXlXlXlXlXlXlX  . k I u i a j l j * * :.!.=.j 7 * % J :.E J %.:.:.;.o.[ 7 j =.R J =.-.R J =.G g , g l l A z A A A J J z l l l z J J G G J z J J J J z z z Z J J J J J J J J z l z z z z J J G G S J J J J J z z k z J G X.{ { A z z z z J S A A A J J J J J J J J J z l j j z z z l l A A J J z j j j j j l z z l j g j l l l j g g g j l l l l j l j g g , , , , 5 J *.l g J G J J l 7 l S { { { { S G G g 5 l A l 6 >   X 5 J J j , z :.R k P =.=.E z z j 5 o . r y s P : . % j z z z z G ",
"A g R z i a a s $ X o y m V : .   > J l l S *.:.5.*.J =.5.%., * * 5 8 # . 5 A A 0 5 5 G =.R R R R J J z g , J J Z J J j i *.J , , j j k k k j j j j j j j j j l l l l z z J k z J z z z z l z z J J J J J J A J J J Z z R R J J J J J G %.$.R R R R J R %.%.%.&.X.{ %.&.=.%.=.=.G J G $.$.=.=.=.&.*.4.4.*.*.*.*.*.:.:.4.*.%.R &.*.o.*.*.*.%.%.W W %.&.&.&.X.&.&.*.%.%.R %.%.%.&.&.%.$.R J l { 5.{ l *.:.:.:.=.j g ;.o.o.o.;.;.*.&.:.J % * 5 j k =.J . * 7 l R Q E t t i     lXlXlXlXlXlXlXlXlXlXlXlXlXlXlXlXlXlXlXlXlXlXlXlXlXlXlXlXlXlXlXlXlXlXlXlXlXlXlXlXlXlXlXlXlXlXlXlXlXlXlXlXlXlXlXlXlXlXlXlXlXlXlXlXlXlXlXlXlXlXlXlXlXlXlXlXlXlXlXlXlXlXlXlXlXlXlXlXlXlXlXlXlXlXlXlXlXlXlXlXlXlXlXlXlXlXlXlXlXlXlXlXlXlXlXlXlXlXlXlXlXlXlXlXlXlXlXlXlXlXlXlXlXlXlXlXlXlXlX  . k I i s P k l 7 % * :.!.$.l 7 * $ z :.:.%.;.&.&.*.o.[ 7 j :.=.P -.=.J z *.5.l g z J R &.o.o.o.o.o.X.%.$.G G %.*.:.:.*.%.G %.*.=.R R R R $.%.&.o.X.X.[ [ o.{ { { $.R R R &.*.*.o.S S X.X.%.R P P P R %.;.;.o.{ G J R R %.&.o.o.&.$.R G G %.=.%.%.X.G J Z k R R J J J G J J J J J k k J J J Z Z J z l l l A J z z k k z J J z l j z l j j j j j g l =.*.j j G %.&.{ l , 0 [ [ [ o.&.&.&.{ 5 5 l A l 7 > X X 5 C l g , z :.P z R R P R z z j 5 X . : r m Z $ . % j z z z z G ",
"A 5 G z a a a i $ X o r m u : .   * C l A G *.5.5.*.l =.5.*.5 * * 5 5 # X 5 A A 0 5 5 S X.R R $.$.G J l g , J G F R R z , G W j i j z k k k z z z z z z z z z l z z J J J J Z J J J z k z z J J R J F G A J A G G J J J P R R R G S S { ;.*.%.R R R R %.%.&.*.&.[ o.4.4.*.&.=.=.%.W %.%.%.=.=.=.&.*.4.4.;.;.4.4.4.4.4.5.*.{ { ;.4.;.4.;.;.&.&.%.%.&.&.;.;.;.;.;.4.:.&.&.*.*.*.*.&.%.R z z j %.5.l A *.=.&.&.$.j l o.;.;.;.4.4.:.=.:.J % * 5 j z $.l X * 7 S =.:.-.s p i     lXlXlXlXlXlXlXlXlXlXlXlXlXlXlXlXlXlXlXlXlXlXlXlXlXlXlXlXlXlXlXlXlXlXlXlXlXlXlXlXlXlXlXlXlXlXlXlXlXlXlXlXlXlXlXlXlXlXlXlXlXlXlXlXlXlXlXlXlXlXlXlXlXlXlXlXlXlXlXlXlXlXlXlXlXlXlXlXlXlXlXlXlXlXlXlXlXlXlXlXlXlXlXlXlXlXlXlXlXlXlXlXlXlXlXlXlXlXlXlXlXlXlXlXlXlXlXlXlXlXlXlXlXlXlXlXlXlXlX  . k c p E H.P l 7 # * 4.=X&.l 7 * % J :.5.4.4.;.&.o.o.[ 5 j =.R E =.W J g o.5.z i j J G &.o.#.@.;.@.;.&.=.&.&.*.:.4.4.*.{ { &.:.=.G R %.%.%.&.&.o.o.o.] #.o.o.o.o.*.R J J { &.;.o.S  .@.;.&.R E E R R &.;.;.;.{ G R R R R &.;.*.&.$.R R W %.*.*.&.X.$.R J x R R R J G J S S G G F J J F R F J J J J l l J G R J k k k z z z j j j j j z k j k k j z 5.X.7 l { o.*.&.A , 7 S [ [ o.o.o.o.{ 7 4 l A ] l > X + 5 l j g , k 5.R z R P J Z z z j < . . & u m y $ . # g z z z z J ",
"A , G z a j a i % X o : m u < X   % l l { &.:.:.5.=.l R 5.*.5 * * , 5 X X 5 A A l 5 5 S X.$.$.=.&.{ J l j , J R R R J j = l =.J a a k k k k k k k z z z k z z l z J J J z z x R R R Z Z Z R R R R R G G A A A $.$.J F P P R W =.%.G G o.:.:.%.R R R $.=.=.*.;.o.[ @.t.y.:.&.%.%.=.*.*.%.%.%.%.%.*.:.5.4.4.4.5.4.4.4.5.5.*.G { ;.4.4.4.4.4.;.:.:.*.*.;.:.4.4.;.4.4.;.&.:.4.4.:.*.=.%.R z z J 5.:., { *.X.[ S A j l { ;.4.t.t.4.4.=.:.J o * 5 j J %.l . > 0 o.4.5.=.s s a     lXlXlXlXlXlXlXlXlXlXlXlXlXlXlXlXlXlXlXlXlXlXlXlXlXlXlXlXlXlXlXlXlXlXlXlXlXlXlXlXlXlXlXlXlXlXlXlXlXlXlXlXlXlXlXlXlXlXlXlXlXlXlXlXlXlXlXlXlXlXlXlXlXlXlXlXlXlXlXlXlXlXlXlXlXlXlXlXlXlXlXlXlXlXlXlXlXlXlXlXlXlXlXlXlXlXlXlXlXlXlXlXlXlXlXlXlXlXlXlXlXlXlXlXlXlXlXlXlXlXlXlXlXlXlXlXlXlXlX  . s c t Q I.W J 7 # > t.uX;.l 7 > * A 5.5.4.4.4.;.X.X.[ 5 g R R P P R J g A 5.G j k k J { [ #.t.t.4.;.*.=.%.%.&.:.4.4.*.X.X.*.5.*.%.=.*.&.&.&.*.;.@.@.] #.@.@.;.*.*.R J J { &.;.@.#.@.4.4.*.=.Q E R R %.;.;.;.o.G R R P $.:.4.4.*.&.%.%.%.%.*.*.*.&.=.E R P P E P R R G S [ X.%.K F J F P P F J J J l C J J J J R P P P J k l z z k k k k k p h j J 5.A 5 A { o.;.;.S 7 7 S o.o.o.o.#. .[ 7 4 0 A ] A > X X 5 l g g , z :.R k R R R G z z j , X . : m m r %   # g Z z z z J ",
"z , J j i a i i $ X # , u n 7 X   * l l [ :.:.:.:.&.J R 5.%.5 * * * > X . 5 A A 0 6 7 A &.%.R $.$.J A l 7 , A { J R z j , 5 =.E k i i j a a a k k k k k k k j z z k k Z k s x P P P x k k R P k k P R R J J Z R W P R P P R W W =.R R { =.=.R R P k P -.:.*.%.G { &.5.5.*.$.R R R =.-.-.W P P R =.:.5.:.5.5.5.4.1.*.*.=.R J G &.:.4.5.4.:.*.*.*.%.%.&.:.;.;.4.4.*.&.*.*.*.1.*.=.E J k z Z %.5.J , A X.X.[ [ [ j l  .o.;.t.y.y.:.E =.J o * 5 j J *.7 . * 0 #.o.4.%.s c.E     lXlXlXlXlXlXlXlXlXlXlXlXlXlXlXlXlXlXlXlXlXlXlXlXlXlXlXlXlXlXlXlXlXlXlXlXlXlXlXlXlXlXlXlXlXlXlXlXlXlXlXlXlXlXlXlXlXlXlXlXlXlXlXlXlXlXlXlXlXlXlXlXlXlXlXlXlXlXlXlXlXlXlXlXlXlXlXlXlXlXlXlXlXlXlXlXlXlXlXlXlXlXlXlXlXlXlXlXlXlXlXlXlXlXlXlXlXlXlXlXlXlXlXlXlXlXlXlXlXlXlXlXlXlXlXlXlXlXlX  . s f t x.F.E J 7 % * 5.uXo.0 0 * % J 5.:.:.4.4.;.G A l , g J k k z J z , g :.P k k k z z J ..4.t.;.&.%.W R %.=.*.*.=.%.R R =.=.=.=.=.=.W $.$.%.%.X.o.S [ o.;.:.&.%.J Z J G %.&.&.o.o.o.%.%.=.E R P R { &.&.&.%.R J R R R *.4.4.*.%.%.R P R P =.=.%.E E P x P P P x J R J G %.%.R F J Z P R R Z z l l z l j k k x x x P k k k k k k x k p a a p a =.=.j 5 l { ;.*.X.A 6 0 [ X.o.o.o. .[ S 7 5 0 A A 0 * . o , 7 j 5 = z :.R k Z E =.%.J j g , X . : m s r %   # 7 l Z Z Z J ",
"z , J i i i i i $ X # : m U 7 X   * C l S ;.4.:.4.&.J J 5.%.5 % o % ; X o 5 l 0 6 8 7 A &.%.R J J G S A 7 , J J J J z j , , J =.Z g a a k z z Z R P k k k k k s x P P P x d x x P Z k k P P P d m P P P R R Z R P R E E P R E Q W E R R %.R R R E P E -.=.%.R J G *.5.*.%.W W W R W -.=.=.E E =.-.=.%.%.*.*.*.*.*.=.W R R R R $.%.&.*.*.&.%.=.=.=.W =.*.:.*.%.%.%.%.*.*.*.:.*.=.R J z z R *.*.7 > A [ o.;.;.o.j j [ o.*.4.t.4.=.R R l o * 5 l J :.j X # 6 A #.;.G s T.H..   lXlXlXlXlXlXlXlXlXlXlXlXlXlXlXlXlXlXlXlXlXlXlXlXlXlXlXlXlXlXlXlXlXlXlXlXlXlXlXlXlXlXlXlXlXlXlXlXlXlXlXlXlXlXlXlXlXlXlXlXlXlXlXlXlXlXlXlXlXlXlXlXlXlXlXlXlXlXlXlXlXlXlXlXlXlXlXlXlXlXlXlXlXlXlXlXlXlXlXlXlXlXlXlXlXlXlXlXlXlXlXlXlXlXlXlXlXlXlXlXlXlXlXlXlXlXlXlXlXlXlXlXlXlXlXlXlXlXlX  . k c t x.x.R S 7 % * 4.uX;.0 7 * * J :.&.:.4.4.*.G A l , g R Z k z z l , 5 &.-.R z z z z J  .;.*.X.%.$.G R W =.=.=.%.$.%.W R R E W W E P R R %.G G S D S { &.&.%.R Z Z J F R %.%.%.G G G $.R R P P J G %.&.&.%.P Z Z Z R %.*.%.%.%.W R J k P R P J J P P P P x x x R P P P P R R P P x x P Z k z z z z z k z k k x P k k k k k k k k k s a s k R -.G 5 5 l A G G F l 5 0 [ X.&.;.;.X.S S j 6 A ] A 0 # X o , 5 5 , = j =.J z J R =.*.G z g > X . & y y y %   # 7 l J J z J ",
"l , D j i i , i $   # , ! ~ , X   * C C A &.4.4.4.o.A J :.*.5 % o % > o o 4 0 7 6 5 7 l G R R R R $.A l 7 * J G G P J l 5 , l G l , , , i i g g j j i , , i i i g j j j g i a a a j j j k j a a j j j l j j j j j k k k k k z z z z z l l z z z z z z z z l l l l J J l l l l l l l l l z l l l z l g g l l l l z z j j g j g j l l l l l l l l j l l l z l l l l l A l J J J J z j g j A X.A , > A #.;.4.4.o.j j [ o.;.4.4.;.$.R R j o * 5 l R :.j X # 6 A #.@.K s T.I..     lXlXlXlXlXlXlXlXlXlXlXlXlXlXlXlXlXlXlXlXlXlXlXlXlXlXlXlXlXlXlXlXlXlXlXlXlXlXlXlXlXlXlXlXlXlXlXlXlXlXlXlXlXlXlXlXlXlXlXlXlXlXlXlXlXlXlXlXlXlXlXlXlXlXlXlXlXlXlXlXlXlXlXlXlXlXlXlXlXlXlXlXlXlXlXlXlXlXlXlXlXlXlXlXlXlXlXlXlXlXlXlXlXlXlXlXlXlXlXlXlXlXlXlXlXlXlXlXlXlXlXlXlXlXlXlXlXlX  . k m t x.Q P S 7 o * t.iX;.0 6 * * z %.G &.:.;.;.X.A l , g R P R J G J 5 5 { R z j i i g g l l j j j j j j l l J l l j l l g g j l l j l z l l l l j g l l l l l l j j g l l l l l l j j l l j j a g j l j j j g i i i j j j l l l l g i i g j g , g j i j g i i i g g j j g j j j a a a a j g i i i i g i i i g a a i i i j j j j j g g i i j z J j 5 5 7 l J J J j 5 0 S X.*.;.*.X.S S l 6 l ] ] 0 # X o , , , 5 , g :.P k J R R $.J z j 5 X . $ t m P &   # j z z z z Z ",
"l 5 G z a i i i $ X # k ^ U > X   % C C S &.;.;.;.X.S J 2.*.5 % o % > + o 5 l 0 7 8 5 z J Z P W =.$.A l 5 * J { R R F J j > > > # .   . . . . . . . . . . . . X . X X X X X . . . . . o $ . . . o o o o o . o . o o o . . o o o o o o o o o o o o o o % o o o o o o o o o o o # o # o o # o X o o o o o o o . o o % o . . o . o o X o o o o o o o % o o o # # o o o o o o o o o o X o o o > > > 5 [ @.4.4.4.;.7 7 #.*.:.4.;.&.R R J j o * 5 l R 5.j . # 6 ] +.4.%.s J.H..     lXlXlXlXlXlXlXlXlXlXlXlXlXlXlXlXlXlXlXlXlXlXlXlXlXlXlXlXlXlXlXlXlXlXlXlXlXlXlXlXlXlXlXlXlXlXlXlXlXlXlXlXlXlXlXlXlXlXlXlXlXlXlXlXlXlXlXlXlXlXlXlXlXlXlXlXlXlXlXlXlXlXlXlXlXlXlXlXlXlXlXlXlXlXlXlXlXlXlXlXlXlXlXlXlXlXlXlXlXlXlXlXlXlXlXlXlXlXlXlXlXlXlXlXlXlXlXlXlXlXlXlXlXlXlXlXlXlX  . k I s x.Q P S 6 # * y.iX4.A 7 * * z R J %.*.:.;.X.S l , g R R R R %.{ 7 * 5 > * o . . . . o o X X o o o o o o o o o X X o . . . o o o o o o o X X o o o # # o % % % o o o o o o % % o o o o % % % % # # # o % % % o o o o o o o o o o o o . . . o o o . X X X . . X X X X . . . o . . . . . . . . . . . . . . . . . . . o o o % o o % o o o o * * * > 5 j k R P P z 5 0 S X.%.%.%.G G G l 8 l ] ] l * X X > , , 5 , l 5.W J P E R J J z l 4   . $ d N s $   * 7 l l l j Z ",
"z 7 S l a a j g % X o j U y o X   % C Z S X.&.o.;.&.G R 5.*.5 % o % > # . 5 A l l 8 5 l R R P E W %.G l 5 = A $.R R F l , o o .   X X X X . X X X o o X o o o . o o o o o X o X X X X o o o o # % o o o X X X X X X # # # # + + # # # # # # # # # # % * # # # + # # # # # # # * # > # # > > # * * * * * > > * > > > > > > > > > # # > > 4 > > > > > > > > 4 4 > > > > 4 > > > > # # # o o o o * 5 { ;.4.5.5.;.0 7 o.*.;.@.o.&.$.P R j o * 5 l E P.l . # 9 ..@.4.X.s J.H..     lXlXlXlXlXlXlXlXlXlXlXlXlXlXlXlXlXlXlXlXlXlXlXlXlXlXlXlXlXlXlXlXlXlXlXlXlXlXlXlXlXlXlXlXlXlXlXlXlXlXlXlXlXlXlXlXlXlXlXlXlXlXlXlXlXlXlXlXlXlXlXlXlXlXlXlXlXlXlXlXlXlXlXlXlXlXlXlXlXlXlXlXlXlXlXlXlXlXlXlXlXlXlXlXlXlXlXlXlXlXlXlXlXlXlXlXlXlXlXlXlXlXlXlXlXlXlXlXlXlXlXlXlXlXlXlXlXlX  . k I p Q H.W A 6 # * y.fX4.A 6 * % z %.J R %.*.;.X.[ A 5 g R W =.%.%.S , . X X X X # # # # # * * > > * > > > > > 4 2 # # # # # # * * * * * * > > # # * # # # * * * * * * * # # # * * > # # * * * * * # * # # * * * * * * > > # # * * # # # * # # # # * * * * * * * * * # # # # # # % o o # # # # # o # # # # # o o o o # # # o # X X # # # + + . X o > j k P E E R z 5 l [ S G G $.$.$.G j 5 l l l l * X X > , , , = l 5.=.R E E R $.A z l 4   . & u u r $ X * 7 j j l k Z ",
"z 7 S l a j j g % X . : u r #     * J J J { &.o.*.&.J R P.%., % o * > # . 5 A A l 7 5 l R E R R E $.A l 5 * A { J R G j % o o o # % * * * * * * * * * * * * * & & : , , > % > * ; > > , , > > , , , > > > > > > > > 4 5 > > > > , > > 5 5 5 5 5 7 7 5 7 8 5 8 5 5 5 5 5 5 5 5 8 8 8 5 5 7 6 8 8 8 8 5 7 7 7 7 5 7 7 5 5 5 5 5 5 4 4 5 6 7 5 7 7 7 7 8 8 4 7 7 5 5 7 7 6 6 8 6 6 6 6 6 5 5 > * * 5 J %.=.*.:.&.j 7  .o.&.@.@.*.=.R R j o * 5 j J 5.l . # 0 #.4.t.X.s L.H..     lXlXlXlXlXlXlXlXlXlXlXlXlXlXlXlXlXlXlXlXlXlXlXlXlXlXlXlXlXlXlXlXlXlXlXlXlXlXlXlXlXlXlXlXlXlXlXlXlXlXlXlXlXlXlXlXlXlXlXlXlXlXlXlXlXlXlXlXlXlXlXlXlXlXlXlXlXlXlXlXlXlXlXlXlXlXlXlXlXlXlXlXlXlXlXlXlXlXlXlXlXlXlXlXlXlXlXlXlXlXlXlXlXlXlXlXlXlXlXlXlXlXlXlXlXlXlXlXlXlXlXlXlXlXlXlXlXlX  . k I i -.P.%.[ 7 # * y.gX5.A 7 * % z =.R E %.&.;.o. .A 5 l R =.-.R F z , o # % * > > 4 5 5 4 4 4 5 7 5 5 8 8 8 8 8 8 8 4 4 4 5 5 5 5 7 5 6 6 7 8 5 5 5 5 > 5 5 5 5 5 5 5 5 5 4 > > > 4 4 > 4 5 5 8 8 5 5 > > 5 , , > , 5 7 5 5 5 5 5 5 , , , , > > , , , , , , , = * * > ; ; > > > : > > > > > > ; * * ; * * * ; > > > > , , > > ; > > > > > * * * * 5 j k P R P P k 5 l [ G G R =.=.E R j 5 7 j l j * X X > , , , * l 5.%.R R R R { { J l 4     & r r r % . # j l g j z J ",
"z 7 S l j j j g %   o & s P ,     * J J J $.&.o.*.&.J J 5.%., % * ; 5 # . 5 A A l 7 6 A %.-.E E R J l l 7 > J G R J J l , * % o % % % $ $ $ $ % $ $ $ $ % % % % % % * % % % $ $ % % % % & % * * = = * * * % % & % % % , = = = = = % * * > * * * > > = , * * * % * * % % % * * = * , * * > * * * * > > > > > > > > > > * * , * > > > > > > * > > > > > * ; > > > , , , , > > , , > > > * * # % , , z J R R $.{ j 0 S X.;.4.t.4.:.P R j o * 5 5 k =.j . * 0 #.t.u.*.s M.H..   lXlXlXlXlXlXlXlXlXlXlXlXlXlXlXlXlXlXlXlXlXlXlXlXlXlXlXlXlXlXlXlXlXlXlXlXlXlXlXlXlXlXlXlXlXlXlXlXlXlXlXlXlXlXlXlXlXlXlXlXlXlXlXlXlXlXlXlXlXlXlXlXlXlXlXlXlXlXlXlXlXlXlXlXlXlXlXlXlXlXlXlXlXlXlXlXlXlXlXlXlXlXlXlXlXlXlXlXlXlXlXlXlXlXlXlXlXlXlXlXlXlXlXlXlXlXlXlXlXlXlXlXlXlXlXlXlXlXlXlX. z I a 2.U.*.o.l % * y.gX7.A 7 * * J =.W :.*.:.;.*.X.] 5 j G J k k J J g > * * * * * * * * > > > > , , , , > , , > > > > > > > ; , , , , > > > > > > = * % ; > , , % * > * * * * * % * * * * * * % % * % % % % % % % > , , % > ; % % % % % $ % % % % % % % % % & % % % % % % % % % % % % % % % $ $ o $ % $ $ % % % % $ % % * % % % % * % % * % % % * > 5 g z P P P z 5 l S G %.=.=.=.E E l 5 7 j j j ; X X > , , , , Z 7.R z k R %.X.$.A l >     $ y u y > . # j j g j z J ",
"J 5 G l a g g , % X X i Y m ,     * z k k J =.%.%.G Z J 5.=.5 % % * , % . 5 l l 0 7 5 l *.%.W E R $.z g 7 > l J z J E z i 7 % . o o o o o o X X o o o % o o % $ % o o o o o $ $ o o % % % * * * * * * # % % % * % $ % % % % % * % % % * * * * * * * % * * % % % % % % % % % % * * * * * * % % % * * % % % % % % = = % * = > % = , , , , , = , , = = , * % % , > * % * * * % * * % % % % % o # 5 z z $.$.E =.=.j 7 S [ @.4.y.4.;.R $.l o * 5 j k =.l . # 0 #.t.t.*.s J.H..   lXlXlXlXlXlXlXlXlXlXlXlXlXlXlXlXlXlXlXlXlXlXlXlXlXlXlXlXlXlXlXlXlXlXlXlXlXlXlXlXlXlXlXlXlXlXlXlXlXlXlXlXlXlXlXlXlXlXlXlXlXlXlXlXlXlXlXlXlXlXlXlXlXlXlXlXlXlXlXlXlXlXlXlXlXlXlXlXlXlXlXlXlXlXlXlXlXlXlXlXlXlXlXlXlXlXlXlXlXlXlXlXlXlXlXlXlXlXlXlXlXlXlXlXlXlXlXlXlXlXlXlXlXlXlXlXlXlXlXlX. z P k 2.7.<...0 > * y.fX=.j 7 * * J :.W :.t.t.;.@.#.] 6 j $.J k J G l j g $ % % o o o * % % % * * * * * % % * % % % % % % % % % % % * * * % % * * % % % % * * % > * * % % % % * % % % * * * * * * * * * * % % % % % % % % % * % % % % % * % % % * % % * * % * * * % * * * * % % % % % % % % % % % % % $ % o % % % % % % % * % % * * % * * # # o # * l l , z R P R J 7 A o.X.;.4.=.P R P g 5 j l l j > . o * , , , = l 5.W x R $.{ X.{ J C 4 X . & u u y %   # g k g i j Z ",
"J 5 G l i g g i % X o i m u :     * z k k R =.%.%.J Z J 5.%., % # * > % . 4 l A A 7 7 { =.J R R =.=.J l l , l J z J E z , J 5 % % * * * * * * > > * * , = * * , , , , , > , , , , > > , , , , , 5 , , , , , , , , , , , , , , , , , , , , , , , , , , 5 5 5 5 , 5 , , , , , , , 5 5 5 5 5 5 5 5 5 5 , , , , , , 5 , , , 5 5 , 5 5 , 5 7 g g g g g g 7 5 , 5 5 5 , , , 5 5 , 7 5 5 5 , , , * , o.G z =.=.$.-.=.j j S [ o.4.4.:.&.R =.l o * 7 l R 2.J . # 0 #.4.t.&.s J.x..   lXlXlXlXlXlXlXlXlXlXlXlXlXlXlXlXlXlXlXlXlXlXlXlXlXlXlXlXlXlXlXlXlXlXlXlXlXlXlXlXlXlXlXlXlXlXlXlXlXlXlXlXlXlXlXlXlXlXlXlXlXlXlXlXlXlXlXlXlXlXlXlXlXlXlXlXlXlXlXlXlXlXlXlXlXlXlXlXlXlXlXlXlXlXlXlXlXlXlXlXlXlXlXlXlXlXlXlXlXlXlXlXlXlXlXlXlXlXlXlXlXlXlXlXlXlXlXlXlXlXlXlXlXlXlXlXlXlXlXlX. k P a =.4. .] 0 > * 5.fX=.7 5 * * A :.%.:.t.t.4.@.#.] 7 j $.J R $.$.l j l , % % * * * * > , , , , , , , 5 , , , , , > > > > > > , , , , 5 5 , , , , , , , , , , , 5 , , , , , , , , , , , , , , 5 5 5 5 , , , , , , , , 5 5 7 5 , , , , > , , , , , , , , , , , , , , , , , , , , , , , , , , , , > , , * * * * * = = * * , , 5 , , , , , , , > , 7 o.J g z R E E J 8 ] ;.*.4.:.%.k k k j 7 l A l j *   X > , , , = j 5.=.R E =.{ G { A S 0 X . & y u y % X o j j j j j Z ",
"J g K z a g g i %   o y V u , X   * z k z =.5.*.=.G J J 5.%., * # * * + X 4 ] #.] 0 7 A &.G G R $.$.$.J J , l J z z R j , J A , , g g g j j j l j g g j j g a g j j l j j l j j j j j g g j l l l l l l l l l l z z l g j l l l l l l z z z z Z Z J z G G S A A A A A A A A A A A [ [ A l A A S A A S [ S A A S G G G A J S G G G { { { G { { G G { { [ S G S A S S G J J S S S A A J l l g l 4.A l *.%.$.=.&.7 l [  .@.4.4.;.o.E =.l o * 7 l E P.G X # 0 ..@.4.&.s m.Q .   lXlXlXlXlXlXlXlXlXlXlXlXlXlXlXlXlXlXlXlXlXlXlXlXlXlXlXlXlXlXlXlXlXlXlXlXlXlXlXlXlXlXlXlXlXlXlXlXlXlXlXlXlXlXlXlXlXlXlXlXlXlXlXlXlXlXlXlXlXlXlXlXlXlXlXlXlXlXlXlXlXlXlXlXlXlXlXlXlXlXlXlXlXlXlXlXlXlXlXlXlXlXlXlXlXlXlXlXlXlXlXlXlXlXlXlXlXlXlXlXlXlXlXlXlXlXlXlXlXlXlXlXlXlXlXlXlXlXlXlX. j x a %.&.] ] 0 > * 5.1X*.j 7 * * A :.%.;.t.u.t.@.#.] 7 j $.J J R R l j { J , , , j l l A J J A J A A A A A A A A A A l l l l l l l g l A S A l l A J J l l J J l l l J z l l l l l l l l l z l l A A l l j g j g g j l l J A A J J A A l z l l l l l j l J J z l l l l l l l l j j j l l l j j j j j l j 7 , , , i i g g g j j j j j j j g a i i A :.l g l J J R J 8 ] ;.4.4.:.=.k p k j 7 l z l 7 *   X > 7 g 5 , j :.W R E =.%.%.{ A S 6 X . & t u y $   o j z z z z J ",
"A 7 G z j j j j ,   o r V V i X   * z k z =.5.5.:.%.J J 5.%.5 * # * * o X 4 ] #.] 0 7 A &.%.%.G R $.$.J J , l J z j z g * J $.k a j k k k z Z J k k k k k k k k z z l z k Z z z z J J z l J J J J J J J J J J J R R J z J J G A A G G G G R $.%.R G G =.:.*.o.{ o.&.%.%.=.*.&.X.X.&.*.{ J G %.&.&.*.4.4.:.*.*.4.:.:.:.=.=.*.*.*.:.5.5.5.*.*.*.*.*.*.*.4.*.1.*.*.4.5.*.W %.=.*.%.%.{ G J J J S 4.l l *.$.$.=.&.7 l [ o.4.t.t.4.o.R =.l o * 7 l R U.{ o # 0 ] #.4.*.s x.E .   lXlXlXlXlXlXlXlXlXlXlXlXlXlXlXlXlXlXlXlXlXlXlXlXlXlXlXlXlXlXlXlXlXlXlXlXlXlXlXlXlXlXlXlXlXlXlXlXlXlXlXlXlXlXlXlXlXlXlXlXlXlXlXlXlXlXlXlXlXlXlXlXlXlXlXlXlXlXlXlXlXlXlXlXlXlXlXlXlXlXlXlXlXlXlXlXlXlXlXlXlXlXlXlXlXlXlXlXlXlXlXlXlXlXlXlXlXlXlXlXlXlXlXlXlXlXlXlXlXlXlXlXlXlXlXlXlXlXlXlX. j s j =.;.#...0 * * :.1X=.l 7 * * A :.&.4.t.t.t.@.@.] 7 j R R Z z J j 5 G &.z i g z J G { { %.{ %.%.G %.X.&.&.X.{ { %.$.G G G G G J J { &.&.%.G G G R R R %.=.%.G G %.%.R J R %.W R R W =.W P G %.*.:.&.$.J J J J J G R %.%.X.X.{ R %.%.{ G G G S G S J J G R J z J G G J Z J J J J J G J J z z J J z J J l l j j s k z z l l l J z z k k p p k a $.=.5 j A z J J J 5 A o.*.:.:.=.v k k j 7 l l l 7 * X X > j j 5 = j 5.%.Z P %.&.&.{ S A 4     & u m m $   o l J J k k Z ",
"A 5 G z j j l j >   X r V m i X   * z k z R %.*.4.*.J J 2.%.5 * # * > o X 4 ] ] A 6 5 J *.%.*.*.%.$.J l l , l G J Z z g * l =.Z s k k k k k k k k k s k k k k k z z z k Z P k k J R R J Z J J J J J J J J Z J P W E J k J R R J G R R R $.=.=.=.$.J =.:.5.:.*.%.*.=.=.=.:.:.=.W X.*.*.R J R =.=.=.*.5.5.5.:.5.5.5.5.:.:.:.:.-.:.5.7.7.5.:.*.5.5.:.*.*.5.5.5.5.5.5.5.-.W -.2.2.-.%.R R R J R *.*.5 l %.{ $.%.{ 7 A o.;.t.t.y.4.&.R $.l o * 7 l %.W.o.o # 9 ] @.4.*.s x.E .   lXlXlXlXlXlXlXlXlXlXlXlXlXlXlXlXlXlXlXlXlXlXlXlXlXlXlXlXlXlXlXlXlXlXlXlXlXlXlXlXlXlXlXlXlXlXlXlXlXlXlXlXlXlXlXlXlXlXlXlXlXlXlXlXlXlXlXlXlXlXlXlXlXlXlXlXlXlXlXlXlXlXlXlXlXlXlXlXlXlXlXlXlXlXlXlXlXlXlXlXlXlXlXlXlXlXlXlXlXlXlXlXlXlXlXlXlXlXlXlXlXlXlXlXlXlXlXlXlXlXlXlXlXlXlXlXlXlXlXlX. j s j 4.y.4...0 * * *.!.%.j 8 * * A *.;.t.a.u.u.t.@...7 j R R Z z J j , z :.R j a z R R %.R %.R =.=.R R &.*.*.%.R R %.R R R W =.=.R G =.*.*.%.%.=.%.W W W -.-.=.P R :.-.R R E =.Q W W -.-.-.R E :.:.:.*.=.=.E P R R R W =.%.%.%.W R W %.%.W W W W W R R F P P Z z J R R J k R R Z Z F R G J k J J J Z Z J J Z k k s k k k z z J J J z k s p p p k =.$., j J J G G J 5 A X.%.&.&.=.P x k j 7 l A l 7 *   X > j 7 5 = j 5.W Z G *.;.;.o.A A 4     & y m n .   # l z z k j z ",
"l 5 G z j j j j %   X i N m , X   * J k z J G %.:.&.J J 5.%.5 * * * > # . 5 A A 0 5 5 l &.*.5.4.%.J J l j , l J J J k g * g *.P s k k k k k k k k k s d s k k k k k k k x P x x P E R J J R R J J R R R R Z Z P W R P Z P R R J R W R R R =.-.-.E R =.:.5.:.%.%.:.-.W Q -.-.W W %.*.:.E R E Q W =.=.:.2.:.:.:.5.5.2.:.2.2.-.-.:.P.U.U.5.:.:.5.P.:.-.:.5.2.:.:.2.2.:.Q Q -.H.2.-.R R R R R -.5.S > l X.G G $.{ 7 A &.4.4.4.4.:.&.R $.l o * 7 l %.y.[ # # 9 ] ;.4.*.k x.R     lXlXlXlXlXlXlXlXlXlXlXlXlXlXlXlXlXlXlXlXlXlXlXlXlXlXlXlXlXlXlXlXlXlXlXlXlXlXlXlXlXlXlXlXlXlXlXlXlXlXlXlXlXlXlXlXlXlXlXlXlXlXlXlXlXlXlXlXlXlXlXlXlXlXlXlXlXlXlXlXlXlXlXlXlXlXlXlXlXlXlXlXlXlXlXlXlXlXlXlXlXlXlXlXlXlXlXlXlXlXlXlXlXlXlXlXlXlXlXlXlXlXlXlXlXlXlXlXlXlXlXlXlXlXlXlXlXlXlXlX. k x l 5.y.4...0 * * *.-X=.j 5 * o l *.;.i.a.a.u.q.@.#.l j W R z z z l , j *.R k a k R E W R W R =.:.R R :.:.:.R P R W R P R W W W W =.=.=.=.=.-.-.-.E Q Q Q Q E P R -.-.P x R R E Q Q -.-.Q R Q -.:.-.=.-.-.W R E E E W W =.%.=.W R =.:.:.Q R R Q W E E P R P P k k E E R P P P k Z F W R R k R R R Z Z J R P P d s s k k k J R R J k k k k h p J :.J , l A $.$.G J 5 l S G %.&.=.P R J j 5 l A A l >   X > j 7 5 = l :.R Z G :.4.;.o.A C 4     & y u r o   o g z k j j Z ",
"l 5 K l i i g i % X X i N s %     * J z z J %.&.:.&.J J 5.%.5 * # * > # . 5 ] ] A 7 , l &.&.;.X.S G S l j , l z z z a g * , %.R s p p p i i a a k s s s p s k k s a i k k k s s k J J k z k z k k k R R R k z P R k k k P k k k R E P Z P P E E P P R -.:.=.R G =.Q R P E R P P R =.-.P x P R P P P E =.-.-.=.*.:.W E -.-.E R -.:.2.:.-.W W -.-.E E -.-.-.W W =.Q E P E Q -.Q R k k z R E :.5.j > A %.R R R $.j A :.4.4.;.o.&.%.R %.l o > 7 A G 5.[ # > 0 #.4.t.*.k c.P     lXlXlXlXlXlXlXlXlXlXlXlXlXlXlXlXlXlXlXlXlXlXlXlXlXlXlXlXlXlXlXlXlXlXlXlXlXlXlXlXlXlXlXlXlXlXlXlXlXlXlXlXlXlXlXlXlXlXlXlXlXlXlXlXlXlXlXlXlXlXlXlXlXlXlXlXlXlXlXlXlXlXlXlXlXlXlXlXlXlXlXlXlXlXlXlXlXlXlXlXlXlXlXlXlXlXlXlXlXlXlXlXlXlXlXlXlXlXlXlXlXlXlXlXlXlXlXlXlXlXlXlXlXlXlXlXlXlXlXlX. z P l 4.t.@...0 * % :.1X5.l 5 * # A ;.4.s.a.t.t.9.@.#.l j R Z k J z l , 5 { =.R k k x P P R R Z R Q P P =.=.P k k R R P P P R R P P E R P R R R R R P P P E P P P Z E R x d x x x P P R R P P P E E E R R R P P P P R P R W =.=.P R R =.=.E P P E E R P R k k k k k R P P x x x k k J P P k k k P x k k k R P x s t s s k k k R R z a a a k p k R :.j , j A G G F A 5 l A G %.&.$.R P G l 5 j l l l > X . > l j 5 = l :.W Z J X.o.X.[ S A 4   X & u r & o   X 7 z k k z J ",
"l , R z , i g i ,   o i s r %     * l l J { &.;.;.X.J J :.%.5 * % * > o o 5 A A l 7 5 l &.%.%.%.{ J J l j , l J z k k j * , G =.k k k k k k k k x s s p p p p s p u s s s d s s k k k k k k k k k P P P P x k x x x x x R x x P R R R R R E -.-.Q Q Q -.-.-.:.:.:.:.-.E P P R E Q Q Q W R R R R E E W =.-.:.:.-.-.-.-.-.-.Q Q W W W -.-.-.-.Q E E W =.-.-.W W E R R R Q -.-.-.E R J J E :.U.:.5 > A =.R R $.G 7 A *.4.:.o.{ { $.E =.l % * 7 l l *.A X * 0 o.4.t.@.k v.R     lXlXlXlXlXlXlXlXlXlXlXlXlXlXlXlXlXlXlXlXlXlXlXlXlXlXlXlXlXlXlXlXlXlXlXlXlXlXlXlXlXlXlXlXlXlXlXlXlXlXlXlXlXlXlXlXlXlXlXlXlXlXlXlXlXlXlXlXlXlXlXlXlXlXlXlXlXlXlXlXlXlXlXlXlXlXlXlXlXlXlXlXlXlXlXlXlXlXlXlXlXlXlXlXlXlXlXlXlXlXlXlXlXlXlXlXlXlXlXlXlXlXlXlXlXlXlXlXlXlXlXlXlXlXlXlXlXlXlXlXlXz P j ;.@.#.] l * # :.fX5.l 8 # # l *.*.4.,.;.;.@.o.#.l g R R J J A l , 5 X.:.E R R P E Q E R R E Q W E P P P P P P R P P k k Z P P P P P P R Q Q E E P P P R E R R R Z k P R R P R R R R P P R R R R R R E R P x k x P P E 2.=.W W W W =.E P x I Q Q P P P P k k P P I I P x k k k P P R k k P P P k x P P P x k s s k x x x P P x k k s s k R :.:.g , g z z J F J 5 l [ G %.&.X.S S G l 5 7 7 7 0 4 X X * j l 5 , k *.R z F G [ o.[ S A 4 X X $ : r : .   X , g j j z J ",
"J , R z i i g i * . . , k Z >     # j j J $.*.:.:.X.G J 5.*.5 * # * > o o 7 [ [ A 7 5 l &.X.X.&.&.{ J l l , z J J R R z , * A J j g , , , g j j j i i i i i i a i i i i a p j j j i g g , i i , i g g g g j a a a g g a i i , i j l j l j j l z l j l z z J J z A J z l j j j j l l l l j j j l l l l A A J J z l l J J J z J l l l J J J z l j l l l l l l j j j j j j j j g g 5 5 , g l l 7 * 4 A %.=.:.:.&.7 A *.;.4.;.o.X.$.E =.l % * 7 l G 5.A X * l #.;.t.o.k E.F.      lXlXlXlXlXlXlXlXlXlXlXlXlXlXlXlXlXlXlXlXlXlXlXlXlXlXlXlXlXlXlXlXlXlXlXlXlXlXlXlXlXlXlXlXlXlXlXlXlXlXlXlXlXlXlXlXlXlXlXlXlXlXlXlXlXlXlXlXlXlXlXlXlXlXlXlXlXlXlXlXlXlXlXlXlXlXlXlXlXlXlXlXlXlXlXlXlXlXlXlXlXlXlXlXlXlXlXlXlXlXlXlXlXlXlXlXlXlXlXlXlXlXlXlXlXlXlXlXlXlXlXlXlXlXlXlXlXlXlXlXk P j 4.;.#...l > * :.1X:.l 6 * * l *.*.4.4.4.4.@.#.[ 7 g %.=.$.%.{ A 5 5 l A j 5 , , 5 g l l l j l l l g g j j j l z z z l j l z Z z z j k z l l j j j g j j k j j i i i a j j z k k k z k k l l j z Z J J z z j i g j j l l l l j l j j z j j k z z k l l j j j j j k k j j g g g g j j g g j j j a j j j j a a g j j l l l l l j g i , , i , g j * 5 j j z J G J 5 A X.%.*.*.*.X.{ { l 5 7 l l 0 > X X > l l 5 , k *.R z J G [ { [ S A 4 X   o r s k o   # 5 g g l z G ",
"J , $.z g g g i = .   , j F >     o g j z { =.%.$.J J R U.*.5 % # ; > X o 5 A A l 7 5 J *.X.{ *.:.X.A A l , z G R R E J , % * * .         . . . . . . . . . . . . . X . . . . . . . . . . . . . . . . . . . . . . . . . . . . X X X X . . . . . . . . . X . X X o X X X . . . . X X . . X X X . . . . . . . . X . . X o o o o o X X o o o o o o o o o X o o X X X X X . X X X . X X X . X . X # 4 A =.5.5.5.=.j l *.*.:.4.4.&.$.E =.l % * 7 z %.7.S o * 0 [ @.4.o.P 6XY.X     lXlXlXlXlXlXlXlXlXlXlXlXlXlXlXlXlXlXlXlXlXlXlXlXlXlXlXlXlXlXlXlXlXlXlXlXlXlXlXlXlXlXlXlXlXlXlXlXlXlXlXlXlXlXlXlXlXlXlXlXlXlXlXlXlXlXlXlXlXlXlXlXlXlXlXlXlXlXlXlXlXlXlXlXlXlXlXlXlXlXlXlXlXlXlXlXlXlXlXlXlXlXlXlXlXlXlXlXlXlXlXlXlXlXlXlXlXlXlXlXlXlXlXlXlXlXlXlXlXlXlXlXlXlXlXlXlXlXlXlXk P i 4.t.@...l * % *.-X=.j 8 * * J *.X.4.4.;.;.@.#.[ 7 7 $.%.=.%.{ A 8 # * # X . . X X X . . . . . X X . . . . . . . o o . . X X o X . . . . . . . . . . . . X X . . . . o o o . . . . o o o o o o o X X X o o o . . X X X X X o o o o o o X . . . . X . . . . . . . . . . . . . . . . . . . . . . . . . . . . . . . . . . . . X . . . . . . X . o # 5 7 l J R R J 5 l [ %.:.;.;.&.X.{ j > 7 l l 7 * X X > l l 5 = k :.R z J G [ { X.A l > X   o , s i .   X , g g j l J ",
"A , $.z j g g i , . . , g j > X X o j z J G R G G J R R P.=., % # * > o . > l l 7 5 5 z $.{ X.*.*.X.G A l , z G R R R l * o . X X X o # # % % * # o o o # # # # * # # # o o o o o o o # # # # # # # # # # # o o # # # o X # # # # # # * * # * * > > * > > > > > > > > > > * * * # # # # * * * * * * * * * > > > > > > > > > 4 > > > > 4 > * * > > > > > > > > > > > > * * * * > * * * * * * * > 5 l &.:.:.=.$.j l o.&.;.4.4.;.&.=.=.l % * 5 l E U.J o * 0 ] #.;.;.Y 8XJ..     lXlXlXlXlXlXlXlXlXlXlXlXlXlXlXlXlXlXlXlXlXlXlXlXlXlXlXlXlXlXlXlXlXlXlXlXlXlXlXlXlXlXlXlXlXlXlXlXlXlXlXlXlXlXlXlXlXlXlXlXlXlXlXlXlXlXlXlXlXlXlXlXlXlXlXlXlXlXlXlXlXlXlXlXlXlXlXlXlXlXlXlXlXlXlXlXlXlXlXlXlXlXlXlXlXlXlXlXlXlXlXlXlXlXlXlXlXlXlXlXlXlXlXlXlXlXlXlXlXlXlXlXlXlXlXlXlXlXlXlXJ P g 4.t.,...0 % # &.Q.%.7 5 * * J %.X.4.t.@.@.@.o.#.l 5 J J J R A A 7 # + # # # # # # > > * * * * > > > > > > * * * * * # # # * # * * # * # # # # # # # # # # # * * * * * * * * * * * > > > > > > > * # # # # # # # # o + + # # # # # # # # # # # # # # # # # # # # % % % o o o # o # * * * * * * # # o # # * * # # # # # + + # # # # # # X X o o * , j $.=.E R J 5 A [ X.&.o.;.;.o.{ l , 5 j 7 7 * X X > l l 5 = k :.E z J G G &.{ A j > X X o , : & o   X , g g g g z ",
"A , $.J j g g i ,   . , k a ; X X * l Z J G W G R R R R :.%., % # * * X . * 0 0 7 5 , j J G *.;.*.;.X.S l , z J J J J i & , * X # % * * > > , , > > > > > > > > > > > > * * * > * * * * * * * * * * * > > ; * * ; * * * * > > > > > > > > > > > > > > > , , , , , , , > > > > , > > > > , , > > , > > > > > > > > > , , , , , , > > > , , , , , , , > > > > > > > > > > > > > > > * * * * > > , j J G %.$.R { j A X.X.o.@.4.4.5.-.-.l % * 5 l P 5.J o > 0 ] #.4.;.I 8XM.    lXlXlXlXlXlXlXlXlXlXlXlXlXlXlXlXlXlXlXlXlXlXlXlXlXlXlXlXlXlXlXlXlXlXlXlXlXlXlXlXlXlXlXlXlXlXlXlXlXlXlXlXlXlXlXlXlXlXlXlXlXlXlXlXlXlXlXlXlXlXlXlXlXlXlXlXlXlXlXlXlXlXlXlXlXlXlXlXlXlXlXlXlXlXlXlXlXlXlXlXlXlXlXlXlXlXlXlXlXlXlXlXlXlXlXlXlXlXlXlXlXlXlXlXlXlXlXlXlXlXlXlXlXlXlXlXlXlXlXlXlXZ P g 4.t.+...0 * # &.!.=.j 4 # % l %.%.4.t.t.4.+.+.#.0 7 J J k k J A 5 * # * * * * > > 4 5 , , , , 5 5 , 5 5 5 , > > > > > > > > > > > > > ; * * ; > > > * * * > > > > > > , , > > > > , , > , > , , > > > > * * > > > * * * > > > ; ; > > > * * > > > * * > > * > * * * * * * > > > * * > > > > > * * * > > > > > > > > > ; ; > > > > * * % * * * , i j W =.E F l 5 A  . .o.o.;.;.*.X.l , , 7 5 5 * X X > l j 5 = k 5.W k J W %.%.$.J l > X X o , i , % X + , 5 , , i l ",
"A , $.J j l l j ,   . i P Z , .   % l J $.&.&.$.R R J Z :.=., % # * > X . > l A l 5 , j G G :.4.4.4.*.X.J , l J J J J j a z , . o * * % % % * > > * % * * * * * > > > * * * % * * * * * % % % % % * * * * % % % % % % % % % % * % % * % % * * * * % % % * * * * * % % % % % % % % % % % % * * % % % % % % % * % * * % % % % * * * * > * > * > , > * * * * * * * * * * % * * * * * % % o % % % , l l G { J $.$.l A o. .o.4.t.y.5.-.-.l % * g l Z :.z o > l #.@.t.@.U 8XT.    lXlXlXlXlXlXlXlXlXlXlXlXlXlXlXlXlXlXlXlXlXlXlXlXlXlXlXlXlXlXlXlXlXlXlXlXlXlXlXlXlXlXlXlXlXlXlXlXlXlXlXlXlXlXlXlXlXlXlXlXlXlXlXlXlXlXlXlXlXlXlXlXlXlXlXlXlXlXlXlXlXlXlXlXlXlXlXlXlXlXlXlXlXlXlXlXlXlXlXlXlXlXlXlXlXlXlXlXlXlXlXlXlXlXlXlXlXlXlXlXlXlXlXlXlXlXlXlXlXlXlXlXlXlXlXlXlXlXlXlXlXJ P g 4.4.+.A 0 * # o.!.=.j 5 % % l =.%.4.u.s.u.t.@.#.0 5 J R J J R z 5 5 % * o o o % * > > > > = > > > > > , , * * * * * % % % % * % % * * * * * % % % % % % % * % % * * % * , , * * * , , , , , , > > * * * * % % % % % % % * * * % % * % % % % % % % % % % % % % % % % % % % * * * * % * * % % % % % * % * * % % ; * * * * % % % % % % % % o % % j k j R R R Z l 5 A  . .o.@.4.4.*.X.l , , 7 7 5 * o X , j j 5 , z 5.E k J W %.%.$.G A ,   X o i s j %   # , , , , i z ",
"A , $.J j l l j , . . a P P , .   * l J &.4.:.&.$.J J R P.*.5 % % > 4 X o 4 A S l 5 , l G { ;.4.4.4.4.o.A , l J J F R k s R i $ % o * * * * * > > * * * > * > > > > > > > > > > > > > * * * > * * * * * * * * * * * * * % * * * * * * * * * , , , , * > > > , , , * % & & = , , * * > > > * = = * > > , , , , > , , , , , , , , , > > > , * > , , , , , , , , , , > > > > > * > * * * * * * 5 [ [ j %.%.$.%.%.l A o.o.@.t.i.y.:.-.-.l % * g z Z :.z o > A #.t.a.4.Y 8XT.    lXlXlXlXlXlXlXlXlXlXlXlXlXlXlXlXlXlXlXlXlXlXlXlXlXlXlXlXlXlXlXlXlXlXlXlXlXlXlXlXlXlXlXlXlXlXlXlXlXlXlXlXlXlXlXlXlXlXlXlXlXlXlXlXlXlXlXlXlXlXlXlXlXlXlXlXlXlXlXlXlXlXlXlXlXlXlXlXlXlXlXlXlXlXlXlXlXlXlXlXlXlXlXlXlXlXlXlXlXlXlXlXlXlXlXlXlXlXlXlXlXlXlXlXlXlXlXlXlXlXlXlXlXlXlXlXlXlXlXlXlXR E j y.u.,.] 0 * # o.Q.%.l 5 o % z =.W 4.u.s.s.t.q.#.0 5 J R k J R k j A , o # * * * > 5 > , , , , , > > , , , , , , , , , , , , > > > , , , , , , , , , , , , * * > , , , , , , , , , , , , , , , , 5 5 , , , , , , , , , * = , , , , , , , , , = = % % * > * = = , = % = = = * * * * * > > * % * * * * * * % * % * > > * * * * ; > * * % * # % > G G g J J J F A 5 A  .o.;.4.4.4.*.X.l , 5 l j 5 * o X = j j , , z :.=.k J W %.%.$.$.J 5 X X o i k a %   o , j j g j z ",
"l * %.J j l l j 5   X i L P , .   * l J &.4.4.&.$.J J R P.5.5 * % > > o X 4 l A l 5 , z R G %.&.&.*.o.X.A , l S J J $.a r E k % * * * = , > , 5 5 , , , , , 5 , , 7 7 7 5 5 , 5 , , , , , , , , , , , , 5 5 , , i i , 5 , 5 g g g g g g j j j l z l l j j l l j g g j g j j l l l l l l l l j g g g g l l A A l l l l l l z l l C A A A l j l l l l j j g j g g g g g 5 5 5 7 7 l g g , , , 7 7.J j =.=.=.=.=.j [ o.@.4.t.4.4.$.R R l o * g z R :.l o 4 ] +.t.a.4.z.8X X.   lXlXlXlXlXlXlXlXlXlXlXlXlXlXlXlXlXlXlXlXlXlXlXlXlXlXlXlXlXlXlXlXlXlXlXlXlXlXlXlXlXlXlXlXlXlXlXlXlXlXlXlXlXlXlXlXlXlXlXlXlXlXlXlXlXlXlXlXlXlXlXlXlXlXlXlXlXlXlXlXlXlXlXlXlXlXlXlXlXlXlXlXlXlXlXlXlXlXlXlXlXlXlXlXlXlXlXlXlXlXlXlXlXlXlXlXlXlXlXlXlXlXlXlXlXlXlXlXlXlXlXlXlXlXlXlXlXlXlXlXlXW x.j 4.i.t.[ 0 * * &.Q.J g , % % z =.%.;.t.t.t.t.q.@.l 7 R z k k P k g =.j = * * , 5 , g j g g g g l l l A l A l l j j j j j g j g g g l l l j g g l j j l z l g i j l l l l l Z J J J J J Z z Z J D J J J l z z l g j j j g g l l l l l l j j g g a i , i i a a i g 5 g g g g g 5 , g g l g i , g 5 5 g 7 , , , , , , i g g g 5 , , , , * > ; > j =.G i J J J A l 7 A X.o.@.@.o.o.%.G z , g l l 5 o o . * j g , , z 5.W k R R R E $.$.S 5 X   % i k i % X # , l z j a k ",
"l * %.z j l l g ,   X g F L , .   * l G &.:.;.&.%.J J R P.:.5 % % > > % . > l l l 5 , z R $.{ S { *.o.X.S 5 l S J z J k p E R i , 5 g j l j l l z Z Z Z Z j z k z Z J J J Z k l l z Z J z j j z J J J J J A Z Z P P R J J F G J J F R W W %.%.:.4.*.&.*.:.:.*.%.X.*.4.*.5.4.4.*.4.4.;.;.;.&.$.{ %.%.*.:.:.;.*.;.4.4.*.=.:.:.=.=.*.1.4.5.4.&.&.*.*.*.*.*.%.=.%.=.%.%.W R R R =.%.*.=.R J z l A i.z k R R $.=.&.j [ @.@.;.4.4.*.$.R W l o * g z R =.A o 4 ] +.t.a.y.v.8XT..   lXlXlXlXlXlXlXlXlXlXlXlXlXlXlXlXlXlXlXlXlXlXlXlXlXlXlXlXlXlXlXlXlXlXlXlXlXlXlXlXlXlXlXlXlXlXlXlXlXlXlXlXlXlXlXlXlXlXlXlXlXlXlXlXlXlXlXlXlXlXlXlXlXlXlXlXlXlXlXlXlXlXlXlXlXlXlXlXlXlXlXlXlXlXlXlXlXlXlXlXlXlXlXlXlXlXlXlXlXlXlXlXlXlXlXlXlXlXlXlXlXlXlXlXlXlXlXlXlXlXlXlXlXlXlXlXlXlXlXlXlXQ x.j *.4.@.] 0 > * %.W.J g , o % J =.%.@.,.,.4.t.q.@.A 5 R J k k x p a -.J , , g l S G W R W W %.%.*.;.;.4.4.4.:.;.*.:.:.%.R F W G G G %.=.=.W G G R W W =.=.%.%.%.=.*.*.*.*.*.*.4.4.4.5.5.2.4.5.y.y.t.4.;.*.*.*.*.X.X.J J A S { o.o.@.o.o.X.G G G F J Z F R R P G G { %.G K G G J G =.=.W F W G G J G { { G F Z z Z F F G G G J J J l z j , g g k -.G g J R $.{ A 7 A o.@.@.@.#.[ { { z g j l l 5 % o . * j j 5 , z 2.W k J J J R J G G 7 X   % J W l o   * j z k k a k ",
"A , &.z j l l j ,   X 5 l j ;   . 5 J G o.;.;.;.*.G J R P.*.5 % % > > o   * l l l 5 , z $.&.;.;.o.#. .X.G 5 l S z z J j i k E P R R R R R P P F P E E Q E P R P P P P E H.F.R P P E W R W R R P =.2.*.=.W R R Q H.H.Q W =.:.=.W W =.*.=.*.1.5.5.y.y.4.i.~.i.y.4.y.4.y.y.s.i.t.4.i.i.u.t.4.4.5.:.*.:.4.y.y.t.t.u.s.s.y.5.5.7.5.5.5.7.i.y.7.y.5.5.5.5.y.y.5.5.5.7.W.U.7.5.5.7.W.U.U.5.:.-.$.J *.5.j k z J J $.$.7 [ ,.@.4.4.4.;.&.=.=.A * * 5 j z =.A o > ] @.t.a.y.z.9XN..   lXlXlXlXlXlXlXlXlXlXlXlXlXlXlXlXlXlXlXlXlXlXlXlXlXlXlXlXlXlXlXlXlXlXlXlXlXlXlXlXlXlXlXlXlXlXlXlXlXlXlXlXlXlXlXlXlXlXlXlXlXlXlXlXlXlXlXlXlXlXlXlXlXlXlXlXlXlXlXlXlXlXlXlXlXlXlXlXlXlXlXlXlXlXlXlXlXlXlXlXlXlXlXlXlXlXlXlXlXlXlXlXlXlXlXlXlXlXlXlXlXlXlXlXlXlXlXlXlXlXlXlXlXlXlXlXlXlXlXlXlXQ Q j o.@...A 0 > * o.~.$.g , o % J -.%.o.@.@.,.t.t.t.] 5 J J j k k a i $.=.j Z F W *.2.2.2.5.2.7.7.i.i.s.s.s.i.s.i.i.i.y.5.5.2.5.5.5.5.7.5.7.5.1.=.=.2.2.5.5.4.4.4.4.5.y.i.i.i.i.i.i.Q.~.=XQ.i.i.s.s.s.s.i.y.t.t.u.t.y.4.;.o.@.4.4.t.t.t.4.<.;.;.;.*.*.%.%.W Q W %.*.4.5.5.5.=.=.=.=.2.5.:.=.5.*.*.5.5.*.5.7.2.-.R P W =.=.W %.G F W P P k Z P R R -.z g l G $.$.[ 0 [ @.4.4.4.@.o.o.{ z g 7 7 5 5 * X . * l j 5 , z 5.=.J J J J J J G X.7 X X # l J 5 o X * g z k k k x ",
"A , &.z j l l j , X . o o . X   X 5 A K o.;.4.4.*.G J J U.4.5 % % > > o   > l l l 5 , z R &.4.4.4.o.#.[ J 5 j A z J J j & i R R R W W R E W R P P E E E R P -.E P P P I m.x.I E Q Q E W -.Q P P -.P.2.-.W W E E Q E P R :.5.:.=.=.2.5.=.1.5.i.y.5.5.4.s.=Xi.4.t.s.i.i.y.i.i.y.t.i.i.u.u.4.:.5.7.5.5.5.5.5.i.s.s._.s.y.5.5.7.7.5.5.i.i.y.4.t.4.t.4.4.t.i.y.y.4.i.Q.Q.7.5.7.Q.-XW.7.:.-.:.E R y.5.g k z z J $.{ 7 A +.4.u.t.t.;.*.-.:.A # * 5 j z *.A X * A @.u.a.y.Y k.Y .   lXlXlXlXlXlXlXlXlXlXlXlXlXlXlXlXlXlXlXlXlXlXlXlXlXlXlXlXlXlXlXlXlXlXlXlXlXlXlXlXlXlXlXlXlXlXlXlXlXlXlXlXlXlXlXlXlXlXlXlXlXlXlXlXlXlXlXlXlXlXlXlXlXlXlXlXlXlXlXlXlXlXlXlXlXlXlXlXlXlXlXlXlXlXlXlXlXlXlXlXlXlXlXlXlXlXlXlXlXlXlXlXlXlXlXlXlXlXlXlXlXlXlXlXlXlXlXlXlXlXlXlXlXlXlXlXlXlXlXlXlXW Q J 4.q.+.] 7 * # ;.-X*.g , # % J =.=.;.t.q.4.q.t.t.[ 7 J R j j k g , z :.R =.2.2.3.3.P.H.H.H.U.7.i.s.=Xi.t.t.i.~.i.i.i.7.7.5.U.7.W.U.7.5.Q.Q.5.5.2.3.2.5.5.5.y.i.y.t.4.t.y.y.y.i.i.i.i.i.Q.~.=Xs.s.i.y.y.i.u.4.4.4.5.4.4.4.4.4.4.t.y.i.y.4.4.4.*.*.*.:.-.Q Q W W :.4.5.4.*.=.=.-.-.-.-.=.=.5.5.5.5.5.*.5.5.=.:.R P W =.=.G R J %.=.P s x R P R E -.j 5 j z R G A 0 ] o.@.t.t.t.@.o.[ l , 5 7 5 5 * o X > l j 5 , z 5.=.J R W G G J G G 5     X # # o X X * g k P x x P ",
"A , %.J j l l j j > > * # X # # * 7 A G *.4.4.4.;.G J J 7.4.7 * % > > X   > l l l 5 , j { o.@.<.,.4.o.[ { 5 j S J J z g 5 , k R P P E Q Q Q R Z P R R P P P :.-.P R R P I I I Q Q E E Q Q R P W 2.2.2.-.2.H.Q E I P P W =.:.:.=.=.5.5.-.:.7.7.7.4.4.y.~.=Xi.4.y.=XQ.Q.7.W.y.5.5.y.i.i.i.4.%.*.5.H.-.-.-.=.4.i.yX=Xi.5.5.5.7.5.7.i.y.4.4.5.t.y.y.t.t.y.i.i.y.4.i.%XU.2.1.7.Q.=X7.5.&.=.:.-.-.W.%.g z z z J %.A 7 A +.,.t.t.q.@.;.-.*.A # * 7 z G 5.A X * ] @.t.s.i.Y D.U     lXlXlXlXlXlXlXlXlXlXlXlXlXlXlXlXlXlXlXlXlXlXlXlXlXlXlXlXlXlXlXlXlXlXlXlXlXlXlXlXlXlXlXlXlXlXlXlXlXlXlXlXlXlXlXlXlXlXlXlXlXlXlXlXlXlXlXlXlXlXlXlXlXlXlXlXlXlXlXlXlXlXlXlXlXlXlXlXlXlXlXlXlXlXlXlXlXlXlXlXlXlXlXlXlXlXlXlXlXlXlXlXlXlXlXlXlXlXlXlXlXlXlXlXlXlXlXlXlXlXlXlXlXlXlXlXlXlXlXlX% W Q S t.a.9.] 7 # o ;.-X5.J 7 * % z =.%.;.u.t.t.,.4.@.A g R R j j k j , i *.5.2.2.5.2.-.5.K.P.H.U.U.i.s.i.5.*.*.5.7.7.7.7.5.2.W =.:.2.=.=.=.5.U.2.2.3.2.-.-.2.5.5.y.5.4.4.5.y.i.y.5.i.i.y.7.7.7.7.7.7.7.y.i.Q.i.5.5.5.5.2.2.:.2.*.*.:.5.i.5.=.W W W R E E Q Q Q P P E 5.4.R R R W W 2.H.Q -.=.5.5.7.5.2.*.7.2.W :.Q R W =.=.R P R %.=.P s s P P R Q E g g l k z G A 0 ]  .o.,.t.t.4.@.[ j , 5 0 l 5 % # . * l l 5 , z 5.=.J P =.&.$.G G J 5 o + X X o o o # , j x x k k Z ",
"l > &.J j l l j l l l j 7 6 7 7 l A J { :.4.4.4.*.{ G J 7.4.7 * % * > X . 4 l A l , , l { o.@.,.4.4.o.[ { 5 j G J J z g , , z W R R J k k k Z z k k k k k k E P k z k k k x x P P P P P k k k E =.P R P E E R P P P k J J R J J J R R R R E $.$.R R *.5.5.*.=.*.5.*.:.=.-.-.E R %.*.5.2.%.J R R R R R R R *.5.i.5.:.%.=.=.=.=.2.2.=.K %.5.4.4.4.*.%.%.*.*.*.=.5.5.-.P W :.:.:.{ { S A J R =.=.z g z l z J $.l j [ +.@.t.t.q.,.;.=.*.A # * j J R *.l X * A +.t.s.y.Q C.P     lXlXlXlXlXlXlXlXlXlXlXlXlXlXlXlXlXlXlXlXlXlXlXlXlXlXlXlXlXlXlXlXlXlXlXlXlXlXlXlXlXlXlXlXlXlXlXlXlXlXlXlXlXlXlXlXlXlXlXlXlXlXlXlXlXlXlXlXlXlXlXlXlXlXlXlXlXlXlXlXlXlXlXlXlXlXlXlXlXlXlXlXlXlXlXlXlXlXlXlXlXlXlXlXlXlXlXlXlXlXlXlXlXlXlXlXlXlXlXlXlXlXlXlXlXlXlXlXlXlXlXlXlXlXlXlXlXlXlXlX% W Q A u.a.9.] 0 # # ;.-X5.{ l * % l %.%.4.u.t.t.t.@.#.A j R R j j l j i , J *.%.R R F z J =.=.W -.-.*.4.*.=.W R R R E W =.W Q P P P P P R E :.-.R R E R P P P W %.$.$.$.%.=.*.:.:.:.5.5.5.:.2.2.2.:.:.:.-.=.W R P E P R P P P P R J R =.:.=.W P P R P P R R E E P k J =.=.P R P P R Q -.E Q -.=.R W W W W :.W k P P P P P J z k z z Z k k s s R =.W J 7 j j j z G [ 0 ]  .o.,.t.t.4.@.[ l , 5 l l 5 o o . * l l 5 , l 5.=.k R W %.&.G G Z l j 7 6 7 5 5 7 7 l k x k i i j ",
"l > *.J j l l l l A S C A A A A S J J G ;.5.4.4.&.{ J J 5.4.7 * % * > X . 5 A A l 5 , z X.o.@.@.@.@.o. .{ g l X.R R z g , 5 G =.$.J z k j j l z j k k k s a k s s s k k k k k k k P P k k k k J J Z k k z z k k P k j k k k z k k k k k v R R R R R P R R R R R R P W E R P P P R P P J Z k k k k k x P k S o.X.W G P R P R P P P k k Z R =.=.W R R J J R R P Q Q R P R E R R z J J l l z J z g g h j z $.=.l l  .o.#.@.q.t.4.;.=.*.A o # 5 z J %.7 X > A +.u._.u.U n.P     lXlXlXlXlXlXlXlXlXlXlXlXlXlXlXlXlXlXlXlXlXlXlXlXlXlXlXlXlXlXlXlXlXlXlXlXlXlXlXlXlXlXlXlXlXlXlXlXlXlXlXlXlXlXlXlXlXlXlXlXlXlXlXlXlXlXlXlXlXlXlXlXlXlXlXlXlXlXlXlXlXlXlXlXlXlXlXlXlXlXlXlXlXlXlXlXlXlXlXlXlXlXlXlXlXlXlXlXlXlXlXlXlXlXlXlXlXlXlXlXlXlXlXlXlXlXlXlXlXlXlXlXlXlXlXlXlXlXlXlX% =.Q A t.a.9.] 0 > # ;.-X:.l j * % l %.%.4.a.t.t.t.@.#.[ l R R l l z l j g z J z l z z j j z F Z P k J F F F J R J Z Z P R P P P x d x x P P R P d x P P P P P P J Z J R R R R P P P R E E P P R P R E R R R Z P P R P P P P x k Z R R R R Z Z P x x x x z k k x x k k k P x P x x k P R P R P R R P J J J R J k k k Z R z k k k j j l k k k k J G J j 7 l j j z G A 0 [ o.o.@.<.@.#.o.[ l , 7 0 0 7 * o . * l l 5 , l 5.=.k Z P %.&.{ $.Z z J A l A l l l A J P x h r i j ",
"l , %.J j j j l A o.{ J A A A S G A J J &.4.5.:.&.G G J 5.4.7 * # ; > X . 5 A A l 5 , J X.o.o.#.o.o.o. .[ l g J R J g , , g l l j j j j g 5 g j j j i i i , i i i g g g g i g g g l j g g g g j g g j g j j j j j g 5 5 g g g j j j j j l l j j l z z z l z J z J C J J z j j j z z l j j j j j l l l l l A A z z z z z J z k k k j k k z z z z z z z z z k k k k k k k Z z z l z l j g j j i i i i g J =.$.l l o.o.#.#.,.t.4.o.$.=.A o o , g z R 7 X 4 ] ,.a.s.t.L n.E     lXlXlXlXlXlXlXlXlXlXlXlXlXlXlXlXlXlXlXlXlXlXlXlXlXlXlXlXlXlXlXlXlXlXlXlXlXlXlXlXlXlXlXlXlXlXlXlXlXlXlXlXlXlXlXlXlXlXlXlXlXlXlXlXlXlXlXlXlXlXlXlXlXlXlXlXlXlXlXlXlXlXlXlXlXlXlXlXlXlXlXlXlXlXlXlXlXlXlXlXlXlXlXlXlXlXlXlXlXlXlXlXlXlXlXlXlXlXlXlXlXlXlXlXlXlXlXlXlXlXlXlXlXlXlXlXlXlXlXlX% W Q A t.p.+.] 0 > # o.=X&.5 , % % l X.X.4.a.a.t.4.@.@.;.A j J z l l l l j g 5 j 5 7 g g 5 7 l j j g j g j j j j j j j l z z z k k k k k k k k k k k z z k k k j j j j j k j j j j k z z z k j j l l z z j j g g j j g j j j j g j l l l j g j j j j j j g g i g j g g j j j k j g g g j j j j l j j j j j j j j j i j j g g g g g g g i i i g 5 g g 5 j j g j J G A l [ o.;.;.@. .[ X.{ l , 5 l l 7 * # . > l l 5 , l 5.W k P R %.*.&.%.J Z J S A A A A A A J P x k k a z ",
"j , %.z j k k k G :.&.[ [ { o.o.&.%.%.%.*.4.:.&.o.[ { J 5.4.7 * * * > X . 5 A l l 5 , J X.o.o.@.<.@.#.#. .S j g z k j i i , , , , , , , , , , , , , , , , , , , , , = * * * % % * * * * * * * * * * * * * * * * * * * * * * * * * * * * * * * * > > * > * > > > > , , 5 , , > > , , , , > > > > , > , , 5 , > * * * * > , 5 , , , , * * > , , , , , , , , , , , = = , , , , , , , 5 , , i i i j j l F %.&.J l [ #.o.@.+.,.t.4.o.$.=.A o o , g k R 7 X 4 ..t.a.a.q.F  X2.    lXlXlXlXlXlXlXlXlXlXlXlXlXlXlXlXlXlXlXlXlXlXlXlXlXlXlXlXlXlXlXlXlXlXlXlXlXlXlXlXlXlXlXlXlXlXlXlXlXlXlXlXlXlXlXlXlXlXlXlXlXlXlXlXlXlXlXlXlXlXlXlXlXlXlXlXlXlXlXlXlXlXlXlXlXlXlXlXlXlXlXlXlXlXlXlXlXlXlXlXlXlXlXlXlXlXlXlXlXlXlXlXlXlXlXlXlXlXlXlXlXlXlXlXlXlXlXlXlXlXlXlXlXlXlXlXlXlXlXlX% -.Q A q.p.+.] 9 * * &.=X&.5 , * % l X.X.4.u.s.t.4.@.@.t.[ g j J J J l 5 , , , , 5 5 5 5 , 5 5 5 , , 5 , , , * * * * > > * > * * * * * * > > > > , , , , , > > * * * * * * * * * * * * * * * * * * * * * * * * * * * % o o % % % * * * * * % * * * * * * * * * , , , , , = , > = * * * % % % * * * * = = , , , , > > , > * > > > , , , = , , , , , , 5 g j l J R A 7 A o.@.;.t.4.X.{ o.{ l , 5 l 0 4 o o   > l l 5 , j 5.W k P W %.1.:.X.J J G X.o.[ [ [ o.%.R P x k k j z ",
"j , %.z k k k Z $.:.&. . .@.;.@.*.&.*.*.*.;.;.o.[ A J G 5.5.j * # > > X   4 l l j 5 , A X.X.o.4.4.4.@.o.#. .A l g j k j j j j l z l l l l l l l g j j j j j j j j j j g 5 g 5 5 7 7 7 5 5 5 5 5 5 5 7 7 7 5 5 5 g g 7 5 5 5 5 7 7 6 6 7 7 7 7 7 7 0 7 0 0 0 0 0 0 l l l l l j g g g 7 7 7 7 7 7 g j j j j 7 7 6 6 7 7 7 l l l l l l 7 6 0 0 6 6 7 l 0 7 7 j l j g 5 g j l l j g l l z l z z z J J G G G z l { @.@.@.4.,.t.t.4.;.=.=.A o o , j k R 7 X 4 ] @.t.p.q.W +XK.    lXlXlXlXlXlXlXlXlXlXlXlXlXlXlXlXlXlXlXlXlXlXlXlXlXlXlXlXlXlXlXlXlXlXlXlXlXlXlXlXlXlXlXlXlXlXlXlXlXlXlXlXlXlXlXlXlXlXlXlXlXlXlXlXlXlXlXlXlXlXlXlXlXlXlXlXlXlXlXlXlXlXlXlXlXlXlXlXlXlXlXlXlXlXlXlXlXlXlXlXlXlXlXlXlXlXlXlXlXlXlXlXlXlXlXlXlXlXlXlXlXlXlXlXlXlXlXlXlXlXlXlXlXlXlXlXlXlXlXlX% -.F.A t.p.@.] 0 * % &.-X:.j 5 # o l %.X.@.t.t.t.4.,.@.t.@.l 7 z F G A l l l l j l l l l l J A A J l A A l l 7 6 0 0 7 7 7 7 7 7 7 7 7 9 6 6 7 0 l 0 j l l l l l 0 6 6 6 6 6 6 9 7 7 7 6 8 6 6 8 8 7 5 5 7 7 7 7 l l 7 5 5 5 5 5 5 5 5 7 j g j j l j j j j j 5 g j g g j g g g g j j 7 7 5 5 7 j j j j g g j j j j j j 7 7 7 7 7 j j g g g l z l l l l J J J J z g 7 #.;.@.@.t.4.;.o.&.o.z , 5 7 8 * o o   * l l 5 * j 5.W k P =.&.*.4.X.S G X.X.o.o.o.o.;.:.=.R k k k j z ",
"j , %.J j k z Z R *.;. .#.4.t.,.@.o.;.*.o.;.;.o.[ J J J 5.:.j % % * > X X 5 l l j 5 , l X.&.%.:.4.;.@.@.#.#.#.A l 5 , , , , g j j k j j g g g g g j l l j j l g g l z l l J l l A A A A l l J J J J J J J A A J J S A A l A A A S S S A J J A S S S [ [ [ [ [ ] S J G { { { G G G J J A A J A A J G %.$.{ [ [ ] A A A A A A A A A A l l 0 0 0 0 l l l l A A A A A J A l A A l 7 7 j j g g g 5 , g g g g g S ;.@.;.@.4.t.4.4.o.X.E =.J o o , j J %.7 X * 0 #.q.t.q.K 6XK.    lXlXlXlXlXlXlXlXlXlXlXlXlXlXlXlXlXlXlXlXlXlXlXlXlXlXlXlXlXlXlXlXlXlXlXlXlXlXlXlXlXlXlXlXlXlXlXlXlXlXlXlXlXlXlXlXlXlXlXlXlXlXlXlXlXlXlXlXlXlXlXlXlXlXlXlXlXlXlXlXlXlXlXlXlXlXlXlXlXlXlXlXlXlXlXlXlXlXlXlXlXlXlXlXlXlXlXlXlXlXlXlXlXlXlXlXlXlXlXlXlXlXlXlXlXlXlXlXlXlXlXlXlXlXlXlXlXlXlXlX% Q x.A t.u.@.] 0 * o o.-X*.l 5 # o l %.X.o.#.q.t.t.4.@.@.@.#.l g j j l l l z l l j l l j l j g j z l j l A A A A A A A A A A A S [ [ [ [ A z z z J A A A A [ [ ] ] A A A A A A A A A [ [ [ ] A A A A l l A A A A A A A l l l A A A S S { G l A A z l l l A A l l l l l l j j l l l l l l l l l l z A J A l A J l l A A A A A l 7 7 7 , , , , , g 5 5 , , , g , 5 j A @.;.@.@.4.4.;.o.{ [ j , , 5 5 * o o   * 0 l 5 % j 4.=.Z J %.&.=.1.*.X.o.o.o.@.@.<.4.4.4.*.R k k z j J ",
"j , &.J z k Z R R &.;.#.#.4.t.t.4.@.;.;.@.4.4.@.o.A J J 5.:.g % o # *   X 5 l l j 5 > l X.&.$.{ X.X.o.@.#.[ #.] A l j l l l z Z z z z z l z J l 5 5 g g g g g g i j z l l l A J A A [ { G z z J J z l l l l l l J J A l l l l A G G G J G R $.%.$.{ o.o.{ [ [ [ [ l z l J G { J z l l J A J z J J { %.{ S G { { [ A A [ [ [ S J J J A A A l A A S S [ { G J J J K W J l A [ A A l l l A A G A A l l l l A ;.@.] #.@.t.t.4.;.X.{ P $.J o % , j R =.7 X > 0 #.q.t.q.P .XH.    lXlXlXlXlXlXlXlXlXlXlXlXlXlXlXlXlXlXlXlXlXlXlXlXlXlXlXlXlXlXlXlXlXlXlXlXlXlXlXlXlXlXlXlXlXlXlXlXlXlXlXlXlXlXlXlXlXlXlXlXlXlXlXlXlXlXlXlXlXlXlXlXlXlXlXlXlXlXlXlXlXlXlXlXlXlXlXlXlXlXlXlXlXlXlXlXlXlXlXlXlXlXlXlXlXlXlXlXlXlXlXlXlXlXlXlXlXlXlXlXlXlXlXlXlXlXlXlXlXlXlXlXlXlXlXlXlXlXlXlX% Q x.C 4.u.#.] 0 * o o.-X*.l 5 # # A %.G { #.4.t.t.4.,.@.#.@.o.{ J l j g g j l l j g l l A l l l A A l l l l J G J l l J J J J J J A J z J J R J R R J J J G X.X.o.D A A A G G S J J J X.X.{ J A [ [ [ A A A A A A A A J J Z l l A [ X.G J J G G J A J A A J z z z l J J J J J J A A A A A A [ [ [ [ G A A A A A A A [ [ ] A l j l l l l g g j l l l l l j l l A [ #.@.@.@.@.4.4.;.{ A l j , , 5 5 * # o   * 0 l 5 % j 5.=.Z R *.*.*.*.4.4.;.4.4.@.@.4.t.t.4.4.%.F k z k J ",
"j > &.G J R G J J $.o.#.o.,.t.u.t.4.;.4.4.t.t.;.&.A J J 5.:.g % o * *   X 4 l l j 5 > j G %.G G { o.o.;.@.o.o.#.[ A A A S { G J J z z z J G G S g j l l j j z k j z J F J J J J G { &.%.G J J J G J J J D S J J G { [ [ A A J { %.%.$.J J R %.%.R J [ { { { { { { G J l A o.*.S l l J $.R J G %.%.*.&.{ J J { $.{ { [ o.o.o.X.G J J G { [ A A S X.X.&.&.X.G S S =.=.G A ] #.o.#. .] [ #.o.;.;.X.{ X.o.o.o.@.@.@.o.;.t.4.4.;.X.R P =.A % * 5 j R =.7 X > A +.q.t.t.P E.H.  lXlXlXlXlXlXlXlXlXlXlXlXlXlXlXlXlXlXlXlXlXlXlXlXlXlXlXlXlXlXlXlXlXlXlXlXlXlXlXlXlXlXlXlXlXlXlXlXlXlXlXlXlXlXlXlXlXlXlXlXlXlXlXlXlXlXlXlXlXlXlXlXlXlXlXlXlXlXlXlXlXlXlXlXlXlXlXlXlXlXlXlXlXlXlXlXlXlXlXlXlXlXlXlXlXlXlXlXlXlXlXlXlXlXlXlXlXlXlXlXlXlXlXlXlXlXlXlXlXlXlXlXlXlXlXlXlXlXlXlX  % Q c.j 4.y.#.A 7 * o o.-X=.g , o # l $.J G o.t.t.t.t.t.@.#.#.@.;.o.{ [ [ #.#.[ [ A J G X.o.[ A ]  .[ [ [ J S W W F J J G %.%.%.W J J F A J D G G G G G G G { X.=.o.%.{ G %.%.%.=.R F R *.4.=.G S [ [ [ [ [ A A S S G G G J J J G { *.:.=.%.G %.%.X.G G G G G J R =.W %.G G G G G S [ ] A A [ { o.o.o.X.{ { %.&.&.&.o.o.#.#.#. .[ l l S G J A A [ [  .[ A A A S [ ] [ @.@.@.@.@.;.%.G G A j , 5 g , * # #   * 0 l 5 = z 7.-.P P :.4.4.4.4.t.t.t.4.o.@.t.u.u.t.4.4.W k k j J ",
"g * &.J J J J J G &.@.@.,.,.,.t.4.;.4.t.t.t.t.4.&.A J R 5.:.j * % * >   X > l l l 7 5 , z R R %.*.;.;.;.;.;.o.*.o.[ [ { o.%.S z J A J z A $.%.A l A J z z z Z k k k J F F J D %.:.:.*.%.R G S A G G A A G X.S S G X.o.[ [ [ { { G %.%.G G R &.*.{ J [ o.o.o.o.[ [ [ S ] [ @.;.[ l l J { J z J %.%.%.$.G J J G R %.{ { @.@.@.*.X.G G X.o.@.#.] #.o.;.;.o.o.@.@.@.4.4.o.[ #.#.o.o.#.#.#.+.@.4.<.o.o.*.@.+.@.@.4.t.t.4.t.4.4.*.$.R E -.A * * 5 j P *.0 X 4 ] @.t.u.t.P E.I.  lXlXlXlXlXlXlXlXlXlXlXlXlXlXlXlXlXlXlXlXlXlXlXlXlXlXlXlXlXlXlXlXlXlXlXlXlXlXlXlXlXlXlXlXlXlXlXlXlXlXlXlXlXlXlXlXlXlXlXlXlXlXlXlXlXlXlXlXlXlXlXlXlXlXlXlXlXlXlXlXlXlXlXlXlXlXlXlXlXlXlXlXlXlXlXlXlXlXlXlXlXlXlXlXlXlXlXlXlXlXlXlXlXlXlXlXlXlXlXlXlXlXlXlXlXlXlXlXlXlXlXlXlXlXlXlXlXlXlXlX  % x.M.k 5.y.o.A 7 * o o.-X*.j , o # l %.J G ;.u.t.t.t.t.@.o.#.o.@.#.#.#.@.@.@.#.[ [ [ [ [ #.#.#.#.#.#.o.o.[ S G G J J { o.o.*.*.X.J J G [ S G X.X.X.{ *.o.o.o.*.;.;.;.o.&.&.R R E W W =.4.4.o.X.{ #.[ [ { [ [ A A { &.{ G G G { { %.&.&.%.$.%.%.&.&.X.{ S { J J R -.=.G G G R R G X.o.o.#. . .o.&.*.&.%.X.%.X.X.*.o.] [ #.#.#.#. .l J G G S [ o.@.o.o.#.] A ]  .#. .] @.<.<.@.@.o.G J J z j , g g , * # # . * 7 7 , = Z 5.-.P P 4.4.4.4.t.t.u.u.4.o.@.t.u.a.u.y.4.G k k j J ",
"j * X.J z z J F $.*.;.4.t.,.@.4.4.@.4.t.t.t.t.;.&.G J P P.:.g * * > > .   > l j l j 7 , l J %.&.;.;.;.@.;.;.o.;.*.X.X.&.:.*.S J A { A A { X.{ A A A A J J J Z J Z z Z J F Z J R %.{ G G G G { { { X.{ { o.o.X.S S X.o.#.#.o.o.S G $.=.G G X.*.&.{ A ] [ #.o.o.S S [ #.@.@.@.@.o.[ J A J z j Z R R G G G R R J J A S #.4.4.@.o.o.{ G X.o.@.@.#.#.@.o.o.#.o.,.4.4.4.4.@.o.@.@.@.#.#.+.@.@.,.4.<.o.;.4.@.@.@.4.t.u.t.t.,.@.;.&.J z -.-.G * * g j E 2.l X 4 ] @.t.u.4.P E.J.X lXlXlXlXlXlXlXlXlXlXlXlXlXlXlXlXlXlXlXlXlXlXlXlXlXlXlXlXlXlXlXlXlXlXlXlXlXlXlXlXlXlXlXlXlXlXlXlXlXlXlXlXlXlXlXlXlXlXlXlXlXlXlXlXlXlXlXlXlXlXlXlXlXlXlXlXlXlXlXlXlXlXlXlXlXlXlXlXlXlXlXlXlXlXlXlXlXlXlXlXlXlXlXlXlXlXlXlXlXlXlXlXlXlXlXlXlXlXlXlXlXlXlXlXlXlXlXlXlXlXlXlXlXlXlXlXlXlXlXlX  % x.M.k 2.y.@.A 7 * o &.-X:.g , o # A $.J R 4.s.p.t.t.t.4.,.o.#.<.o.o.@.q.q.,.o.[ [ o. .] #.#.#.+.#.+.@.@.o. .[ S S X.&.@.@.4.4.o.G { &.o.[ { $.$.{ &.@.@.@.o.@.;.4.;.4.;.&.R J R =.*.4.4.4.o.o.o.[ [ [ X.{ [ A [ *.:.&.G R $.$.$.$.$.G G G *.*.*.*.&.%.$.X.G J E :.=.G G R R G G o.@.;.@.o.o.o.&.&.*.&.*.&.X.X.*.X.[ #.#.o.@.;.@.G G G X.X.#.@.@.@.@.o.....#.@.<.o.#.@.4.4.4.@.{ A J z j g 5 g g 5 * * o   * 7 7 , , Z 5.Q Z J *.4.4.4.t.u.u.u.4.@.;.t.u.u.u.4.&.J z k k J ",
"j = { J k k J F %.;.4.t.t.@.@.<.;.@.@.4.t.4.;.;.%.R k R 2.:.j * * > > .   > l j j l l 7 5 l [ o.@.@.@.@.;.;.;.4.4.o.o.;.4.*.G A J { [ { { G J J { G G { G J J Z Z Z z z z Z z J J J J J { { { { { o.{ o.o.@.o.[ S [ #.#.o.o.S J J G R J G %.&.X.{ { [ [ o.*.X.S G [ #.@.+.#.o.;.{ S G G Z k k k k Z F G %.$.$.J A J X.;.@.o.o.;.&.{ X.@.@.@.@.@.@.X.X.@.<.4.4.4.;.;.;.@.@.4.@.#.#.+.@.@.4.4.<.o.4.t.t.@.@.@.4.t.t.q.,.@.*.G J R -.=.S * * g j P *.l o 4 ] @.t.t.<.P S.L.X lXlXlXlXlXlXlXlXlXlXlXlXlXlXlXlXlXlXlXlXlXlXlXlXlXlXlXlXlXlXlXlXlXlXlXlXlXlXlXlXlXlXlXlXlXlXlXlXlXlXlXlXlXlXlXlXlXlXlXlXlXlXlXlXlXlXlXlXlXlXlXlXlXlXlXlXlXlXlXlXlXlXlXlXlXlXlXlXlXlXlXlXlXlXlXlXlXlXlXlXlXlXlXlXlXlXlXlXlXlXlXlXlXlXlXlXlXlXlXlXlXlXlXlXlXlXlXlXlXlXlXlXlXlXlXlXlXlXlXlX  % Q M.k :.t.#.A 7 * % %.!.=.g > o o A $.R R ;.u.t.t.t.t.t.t.,.@.4.;.@.,.t.q.<.@.@.#.o.@.] +.@.,.@.@.#.@.@.@.#.] [ o.o.o.@.@.@.;.*.o.o.@.4.@.o.o.{ { *.@.t.4.@.@.4.4.4.4.:.*.%.W R =.2.4.*.X.X.X.#.[ [ [ X.{ [ [ o.4.:.$.J R E $.=.$.R R R =.&.;.4.4.*.%.%.%.$.J E -.R F %.W R R %.*.;.4.4.@.@.;.;.&.&.:.:.*.%.&.&.o.o.;.@.@.;.;.o.&.%.%.%.X.o.@.@.@.o.#.#.#.#.<.<.<.@.,.4.4.@.#.X.G z j g g g g g g * * o   # 7 7 , = z 5.W Z Z X.o.4.4.t.u.t.t.4.4.4.t.u.u.t.4.*.{ z k k J ",
"j = { J z J G %.%.@.t.t.t.@.4.4.4.@.@.4.t.;.X.%.$.P z J 2.=.g * * > > .   * j j l l l j 7 7 l  .o.o.o.@.@.4.4.4.*.X.X.*.1.*.%.G G { X.%.G J J G { X.%.%.G Z J k k k z k Z Z P R R P J J %.&.*.&.&.&.o.o.;.4.;.G G G [ A A A l J G G F P R R $.%.&.*.o.&.;.;.X.S {  .#.o.+.@.o.o.o.o.X.{ F Z Z z z l D G &.&.:.4.*.G G { { o.o.&.%.G X.*.@.@.@.,.;.o.o.@.4.4.@.@.;.@.@.4.4.@.+.+.@.q.q.,.,.@.@.@.<.t.u.t.@.@.,.t.t.@.4.*.%.G J =.-.=.A * * 5 g Z %.7 o 4 A @.t.t.<.R S.J.X lXlXlXlXlXlXlXlXlXlXlXlXlXlXlXlXlXlXlXlXlXlXlXlXlXlXlXlXlXlXlXlXlXlXlXlXlXlXlXlXlXlXlXlXlXlXlXlXlXlXlXlXlXlXlXlXlXlXlXlXlXlXlXlXlXlXlXlXlXlXlXlXlXlXlXlXlXlXlXlXlXlXlXlXlXlXlXlXlXlXlXlXlXlXlXlXlXlXlXlXlXlXlXlXlXlXlXlXlXlXlXlXlXlXlXlXlXlXlXlXlXlXlXlXlXlXlXlXlXlXlXlXlXlXlXlXlXlXlXlX  * -.m.k *.t.#.] 0 * o { Q.%.j 5 o o l =.R R { @.q.t.t.t.t.u.t.t.t.4.@.t.t.t.@.@.@.o.@.@.#.#.,.,.,.@.@.@.4.@.o.o.;.;.;.;.*.o.X.;.4.;.;.t.t.4.;.;.*.o.o.4.t.4.;.;.;.;.*.%.%.*.*.=.W *.*.*.X.[  .X.#. .[ X.X.{ { o.*.*.%.G G G R R $.$.%.W W =.5.5.4.4.*.$.R $.$.J R P J R =.=.W W %.*.4.;.o.#.o.;.;.o.&.*.*.*.=.*.&.o.;.;.@.o.#.#.;.o.&.&.X.o.@.@.@.o.#.@.@.@.o.<.,.,.,.t.4.@.#.o.&.J k i g j j j j j * * X X * 7 j , = J U.-.P J &.@.4.4.4.4.4.t.u.t.4.t.t.t.t.4.;.o.G z z J ",
"j > X.J z J X.%.o.@.t.t.t.t.t.t.t.@.;.4.4.;.{ R R R z J 5.=.7 * * > > .   * j l z J l l l l l A [ o.@.@.o.o.;.*.o.{ X.*.4.1.*.R J G =.*.{ J J G G %.=.R j k J k k J k z k P P P P P E R =.&.*.*.&.*.&.&.;.;.X.z z z z z l j z R =.J Z W E E R $.*.*.:.:.*.&.S A [ #.o.@.@.@.#.[ o.;.&.X.X.X.X.K G G *.4.4.*.4.5.5.%.R J G *.&.*.%.R =.:.@.X.@.4.4.*.@.4.t.4.@.;.4.;.@.4.4.@.+.@.q.q.q.q.,.@.@.@.4.t.u.t.@.@.@.,.,.,.@.X.R =.%.%.E =.A * * 5 g z W l o 4 A #.t.4.4.P D.H.X lXlXlXlXlXlXlXlXlXlXlXlXlXlXlXlXlXlXlXlXlXlXlXlXlXlXlXlXlXlXlXlXlXlXlXlXlXlXlXlXlXlXlXlXlXlXlXlXlXlXlXlXlXlXlXlXlXlXlXlXlXlXlXlXlXlXlXlXlXlXlXlXlXlXlXlXlXlXlXlXlXlXlXlXlXlXlXlXlXlXlXlXlXlXlXlXlXlXlXlXlXlXlXlXlXlXlXlXlXlXlXlXlXlXlXlXlXlXlXlXlXlXlXlXlXlXlXlXlXlXlXlXlXlXlXlXlXlXlXlX  * W E i @.t.@.#.0 # X A U.%.l 7 o o l $.x z A #.@.q.t.a.a.u.t.u.t.4.;.t.u.t.4.;.4.@.@.;.@.@.@.@.@.@.4.4.4.;.*.;.;.;.o.[ [ S A X.:.;.4.t.4.;.&.4.4.;.;.4.4.;.;.;.:.*.R J R *.5.*.*.%.%.o.o.o.@.o.o.X.{ G G A G X.*.*.*.:.:.*.=.R $.%.%.$.G W 4.4.;.X.{ G G { $.R R R R %.:.:.=.=.=.*.;.o.o.#.@.;.4.;.%.R W %.=.*.&.o.@.@.@.@.#.o.4.@.o.X.o.@.@.+.#.#.@.,.,.@.+.+.<.,.,.,.@.@.o.o.{ z g i 5 j j j j j * * X X * l l , = J y.:.P G ;.4.4.t.4.@.4.u.u.u.t.t.t.t.u.t.t.@.G z k J ",
"j , o.G J G X.&.;.4.t.t.t.t.t.t.t.4.4.4.4.;.$.R P Z z R U.2.j * * > 4 . X * j l z A l A A A A l A o.;.;.;.o.*.*.*.o.X.*.*.*.*.W F %.*.*.G G S J l J G J j l R J J J z j j j a k P E -.=.R R %.%.$.&.&.&.$.J z k k v v z k j z J J j j Z Z k k R %.X.{ %.%.&.X.[ [ ;.4.4.4.@.o.o.o.o.o.o.&.*.o.o.&.*.4.4.;.&.*.4.:.=.E E %.*.*.*.%.=.:.:.o.S o.;.4.;.;.4.4.@.#.o.;.;.;.;.4.;.@.,.t.t.t.@.+.@.@.4.4.t.t.t.4.4.4.4.4.;.X.J R -.=.G x -.J * * 5 j z W l o 4 A +.t.t.4.R Z.m.X lXlXlXlXlXlXlXlXlXlXlXlXlXlXlXlXlXlXlXlXlXlXlXlXlXlXlXlXlXlXlXlXlXlXlXlXlXlXlXlXlXlXlXlXlXlXlXlXlXlXlXlXlXlXlXlXlXlXlXlXlXlXlXlXlXlXlXlXlXlXlXlXlXlXlXlXlXlXlXlXlXlXlXlXlXlXlXlXlXlXlXlXlXlXlXlXlXlXlXlXlXlXlXlXlXlXlXlXlXlXlXlXlXlXlXlXlXlXlXlXlXlXlXlXlXlXlXlXlXlXlXlXlXlXlXlXlXlXlXlX  o J P g o.t.@.+.b # o A U.=.A 0 * o j $.k k J [ #.@.q.p.a.p.t.q.4.;.o.4.u.t.4.4.4.;.&.o.o.o.o.o.#.o.@.@.o.[ [ o.o.{ A l A J J S { o.@.;.&.X.X.*.:.;.;.X.X.X.%.%.%.R k k R :.5.*.:.*.=.:.4.y.y.4.X.S G J J z J G &.*.:.5.5.5.*.$.%.%.%.G J G X.*.&.&.%.$.R J R R P R F R *.*.*.*.*.*.o.[ [ o.;.;.;.&.G z J G %.*.X.[ o.o.o.o.o.o.o.4.o.o.;.4.4.@.#.+.,.,.,.,.,.,.,.,.@.@.@.@.o.[ z j g g g 7 j g , 5 * * X X * l l , = J y.:.P %.4.t.t.t.4.4.t.u.t.p.u.t.t.u.a.i.u.;.S Z j z ",
"l , &.{ z J G X.;.4.t.t.t.t.t.t.t.t.4.4.4.4.:.=.P Z k W W.5.j * # > > . X * 5 g g l l [ A [ S A A A [ X.o.X.o.*.*.*.*.*.%.=.=.=.R R %.G J S { S J J J J J J J z z z z z z J J Z J R -.=.G J J R J R R R z z j g k k k J R z z J J J J J J k J %.=.%.[ { G G G { [ #.#.#.[ [ [  .[ X.&.;.*.o.X.X.o.X.*.X.X.%.*.X.&.%.%.%.%.%.&.%.%.%.*.*.{ G o.;.;.*.;.;.;.o.[ [ o.o.&.*.;.;.@.@.<.4.t.;.@.@.4.4.@.@.@.@.@.o.o.o.o.A J z Z R J z Z -.z * * 5 j J %.l o 4 0 #.4.t.4.W c.m.X lXlXlXlXlXlXlXlXlXlXlXlXlXlXlXlXlXlXlXlXlXlXlXlXlXlXlXlXlXlXlXlXlXlXlXlXlXlXlXlXlXlXlXlXlXlXlXlXlXlXlXlXlXlXlXlXlXlXlXlXlXlXlXlXlXlXlXlXlXlXlXlXlXlXlXlXlXlXlXlXlXlXlXlXlXlXlXlXlXlXlXlXlXlXlXlXlXlXlXlXlXlXlXlXlXlXlXlXlXlXlXlXlXlXlXlXlXlXlXlXlXlXlXlXlXlXlXlXlXlXlXlXlXlXlXlXlXlXlXlX  o G Z g #.q.O.] 0 # o S U.R l 7 * o 5 $.R k z A [ o.4.u.u.p.t.4.4.4.;.4.t.4.4.;.;.&.&.&.;.*.[ [ A A A S S A S o.&.o.o.X.&.;.&.%.%.*.&.o.X.$.G $.%.X.X.J J J J R R P J R =.=.=.&.&.*.&.&.;.4.4.&.X.X.%.%.$.G S [ { X.&.*.4.4.:.&.*.*.*.%.G %.%.*.%.{ { $.$.G R R P R G G %.%.W %.=.%.X.S { ;.4.4.*.{ G J G W %.%.{ [ [ o.o.o.;.o.{ o.o.&.;.;.;.;.@.;.<.@.@.@.<.@.o.@.o.o.o.o.A l l l j j j g g , , , % * X X * l l , = J y.2.W %.;.4.4.t.t.u.a.a.t.t.t.t.t.u.u.t.4.o.A z j l ",
"l , &.G z z J J o.;.u.u.u.u.t.t.t.t.t.4.4.4.;.*.R Z z F 5.*.j * # - > . X * g g g l A [ [  . . .[ A A A A A A A A A A l z z l l z J J A z l J A S S G { { G A G G J A A J J &.%.J J R R G G $.$.G R G G { { G J E R G R { G J R $.$.=.%.%.X.%.*.*.*.4.:.%.G { &.o.*.o.o.{ o.o.o.X.X.&.*.&.S G X.&.X.X.S %.*.:.:.:.*.=.%.%.&.&.%.&.*.*.*.&.%.o.@.o.X.X.o.o.o.{ { $.{ $.[ [ S A l A A A l l l l l l l l l l l l l l l l k x k k Z P R , % , 5 g J %.j o 4 0 #.4.t.t.[ l.E X   lXlXlXlXlXlXlXlXlXlXlXlXlXlXlXlXlXlXlXlXlXlXlXlXlXlXlXlXlXlXlXlXlXlXlXlXlXlXlXlXlXlXlXlXlXlXlXlXlXlXlXlXlXlXlXlXlXlXlXlXlXlXlXlXlXlXlXlXlXlXlXlXlXlXlXlXlXlXlXlXlXlXlXlXlXlXlXlXlXlXlXlXlXlXlXlXlXlXlXlXlXlXlXlXlXlXlXlXlXlXlXlXlXlXlXlXlXlXlXlXlXlXlXlXlXlXlXlXlXlXlXlXlXlXlXlXlXlXlX  % G R g o.q.O.] 0 * # [ Q.R l 7 > * > l $.R R J J l A A A A A A A J J A l j j j g j l j l j 7 j l A G X.%.%.%.&.*.;.*.*.;.;.;.:.*.=.*.*.%.%.R R R G $.$.G R R E W W =.=.%.%.$.$.$.*.%.&.&.&.&.%.X.X.{ %.X.{ [ { X.X.X.&.:.:.;.;.;.*.:.*.&.*.5.:.%.{ $.=.=.:.=.=.W R %.&.G G F G %.%.%.G %.*.:.*.%.G G X.%.%.%.%.&.&.o.o.o.;.o.A A A J J A A A A A J A A A A A A A A l l l j j l J J l l j j g i , , % * X   * 7 j , , J 7.:.P R *.4.t.t.u.u.u.u.p.p.t.t.u.u.t.4.X.S A z a j ",
"z , &.G z z J J X.;.t.t.t.t.t.t.t.t.t.4.4.4.;.*.R Z k J *.*.j * # ; > X X * j j j J X.[ o.o. . . .[ [ [ S A S S S S S A J J J Z z z z J l 5 5 5 7 l j j j l l g g 5 7 7 7 7 7 7 5 5 g g g 7 g g 7 7 5 5 5 7 , , g 7 7 7 g g 5 5 5 5 g j j 7 0 j l J A l l g j l l l 7 7 7 l l j j g j l 5 5 5 j j 7 7 , g l z z l j 7 7 5 7 j l l l j j l l l 0 j g 7 7 7 l l l l j g l A l j 7 7 7 l l l l l l l l l l l l l l l J J J P P P R J j % % 5 g l k R 7 o 4 A +.t.u.t.A c P     lXlXlXlXlXlXlXlXlXlXlXlXlXlXlXlXlXlXlXlXlXlXlXlXlXlXlXlXlXlXlXlXlXlXlXlXlXlXlXlXlXlXlXlXlXlXlXlXlXlXlXlXlXlXlXlXlXlXlXlXlXlXlXlXlXlXlXlXlXlXlXlXlXlXlXlXlXlXlXlXlXlXlXlXlXlXlXlXlXlXlXlXlXlXlXlXlXlXlXlXlXlXlXlXlXlXlXlXlXlXlXlXlXlXlXlXlXlXlXlXlXlXlXlXlXlXlXlXlXlXlXlXlXlXlXlXlXlXlX  o G R g ;.t.@...l * # { Q.*.A l 7 > * , J $.=.R J J J z l l l l l A z A l l Z l l J z l j 7 7 j l l l l j l l l l l j l l 0 l l l l l J z z l z z z z z z z z k Z Z J z l j j j j j j j j j g j l l j j j 7 l l 7 7 7 7 l j 7 7 j j j j 5 j j j 5 5 j j l l l j g i g j j j g g l l l l l l l j j g j l l l l l l A l l A l 7 , 5 7 5 5 g l l j j j j l J J l A A l j l l l z A A A J l l j g i , , % # X   * 7 j , , J 5.-.R J X.4.t.t.u.u.u.u.a.p.t.t.u.i.i.4.*.[ J z j j ",
"z , %.J j z J X.4.t.t.4.4.t.t.t.t.t.t.4.4.;.&.{ J J z Z 5.:.g ; # * > # . * j j j l J &.o.#.#.#. .A [ o.o.o.o.#.#.#.o.o.o.&.%.{ J k J [ 8 X   X X X o o o o X X o o X X X X X X X X X o X o o X X X X X X . . . . X X X . . X X X X X X X X o o o % o o o X X X X o X X X X o o o o o X X X X X X X X X X o # o # o X X X X X X X X X X X + # # % % o o o # # + o % % 7 [ [ A l A ] #.#.#.....#.........#.#.#.#.[ X.{ G J J R J 5 % % , g j j k R 5 o > A @.u.u.4.S R J .   lXlXlXlXlXlXlXlXlXlXlXlXlXlXlXlXlXlXlXlXlXlXlXlXlXlXlXlXlXlXlXlXlXlXlXlXlXlXlXlXlXlXlXlXlXlXlXlXlXlXlXlXlXlXlXlXlXlXlXlXlXlXlXlXlXlXlXlXlXlXlXlXlXlXlXlXlXlXlXlXlXlXlXlXlXlXlXlXlXlXlXlXlXlXlXlXlXlXlXlXlXlXlXlXlXlXlXlXlXlXlXlXlXlXlXlXlXlXlXlXlXlXlXlXlXlXlXlXlXlXlXlXlXlXlXlXlXlXlX  % J R i *.t.@...0 * # { !.:.%.A j 7 5 * * z =.$.$.;.*.;.o.@.#.@.o.o.#.#.#.#.@...o.o.[ A A l [ A > o * * o o o o # o X X X o o X o o o o o o o o o o # o o o # o % % % % % o o o X X X X X X o o X X o o X X X X X X X X X + # o # o X X X X X o X X o # # # # o o X X X o + o o # # o o o o o o o X X + X X o o o o % % % o . . X o o X # l { J J A { #.[ [ [  .[ A A S S A A A [ S A A l j g g , , * o X   * l l 5 , Z 2.W J R %.*.4.4.t.t.t.p.a.p.p.t.t.s.s.t.;.o.A l j j ",
"z > %.G z J G &.4.y.t.t.t.t.t.u.t.t.t.t.t.t.@.o.G J Z J 5.:.j * # > 5 # X > j j j j j S X.o.#.#.[ [ #.@.,.@.@.@.o.o.o.o.&.&.%.%.R J A 5 o X X # o # # * * * * o * * * # # X # # # # # # # # * * # # + + # # # # # # # # # # * # # # # # # # # * * 2 * * * * # # # # # # 1 3 3 > * 4 4 # # 4 # # * # 3 4 4 4 4 4 4 4 4 > # # 4 4 # # # > 4 4 > > > > > > > > 4 4 * * * * 7 [ o.] ..o.@.@.#.#.@.q.@.+...#.+.#.@.@.;.*.&.G J G J 5 % * , g k z z R -.5 o > l @.t.u.4.J R z     lXlXlXlXlXlXlXlXlXlXlXlXlXlXlXlXlXlXlXlXlXlXlXlXlXlXlXlXlXlXlXlXlXlXlXlXlXlXlXlXlXlXlXlXlXlXlXlXlXlXlXlXlXlXlXlXlXlXlXlXlXlXlXlXlXlXlXlXlXlXlXlXlXlXlXlXlXlXlXlXlXlXlXlXlXlXlXlXlXlXlXlXlXlXlXlXlXlXlXlXlXlXlXlXlXlXlXlXlXlXlXlXlXlXlXlXlXlXlXlXlXlXlXlXlXlXlXlXlXlXlXlXlXlXlXlXlXlXlX  % J R i o.t.+.] 0 # X [ -X5.:.X.l l 7 5 * * A :.:.4.4.4.@.;.@.4.@.@.+.@.@.@.4.#.@.@.o.S A [ o.6 # % > > > * > 4 4 > * * > 4 > > > > > > > > > * * # # 3 3 1 1 1 * * - > > - # # # # # # # # * * # # * 4 * # # # * * * # * > 4 > 4 4 4 # # # * > > * * * * 4 4 > > 4 4 2 * # # # # # # * * * * * # # # * * * * * * * * * * * % o # X o X . > A =.J J $.*.o.#.#.#.#.[ [ [ [  .[ A A A A J J z j g , 5 * o X   * l J g , k 2.W P =.:.;.4.4.t.t.t.u.a.p.p.t.t.a.s.u.4.o.S J j l ",
"A * %.G z J G o.4.4.t.t.t.t.t.t.u.t.q.t.t.t.4.;.{ G Z F 5.:.7 * > 5 7 # X * j j j a a l G %.o. . . .#.@.4.,.@.o.@.@.;.o.{ G R $.G A 5 o . o o # % % * * * % % % * * * * # o # # # * * * * * # * # # # # # # # # # # # # # * * # # # # # # # * * * * * * * * # # # # # + # # # # # * # # # # # # # * * * * * * * * * # # # # * * * * * * > > > > > > > > 4 > > > > 5 5 , * , A o.] #.@.#.#.@.q.p.q.9.+.#.+.@.;.4.5.*.&.G G A 5 % % , j k z J R Q :.7 o > 0 #.t.t.4.A P k     lXlXlXlXlXlXlXlXlXlXlXlXlXlXlXlXlXlXlXlXlXlXlXlXlXlXlXlXlXlXlXlXlXlXlXlXlXlXlXlXlXlXlXlXlXlXlXlXlXlXlXlXlXlXlXlXlXlXlXlXlXlXlXlXlXlXlXlXlXlXlXlXlXlXlXlXlXlXlXlXlXlXlXlXlXlXlXlXlXlXlXlXlXlXlXlXlXlXlXlXlXlXlXlXlXlXlXlXlXlXlXlXlXlXlXlXlXlXlXlXlXlXlXlXlXlXlXlXlXlXlXlXlXlXlXlXlXlXlX  % J R i o.4.+.A 6 # X [ -X5.5.*.G l 7 7 5 % 5 o.5.4.4.4.@.4.4.t.,.,.@.@.@.@.@.@.o.o.o.[ A S 7 # o * * * > > > > 4 * * * * * * * * > > > > > > * * # # 1 1 # # # # * # - - - # # # # # # # # # * * # * * # # # # * * * # # # * * * * * # # # # # # * # * * * * * # # # # # # # # # * * * * * * * # # * > * * * > * * * * > > * * # % # # # o , J $.R { o.o.o.#.#.#.#.[ [ [ o.[ A A A S A A z g i , , * o X   * J J g , Z 2.W R :.5.4.t.u.a.u.t.u.u.a.p.t.u.a.u.t.4.o.G J j l ",
"z > *.W Z J $.*.4.4.t.t.t.t.t.@.t.t.t.t.t.t.t.@.o.G J J 5.:.7 * > 4 8 + X * g j j j k z G %.X.X.o.#.#.@.t.t.@.#.;.4.;.o.J z J J A 7 o . o * * * , , , , , , = , , , , > * * * * , , , , , , , , , , > * > > > , , , , > > , , , > > > > > , 5 5 5 , 5 5 5 5 5 5 , 5 5 5 5 5 7 5 5 5 5 5 5 5 5 5 5 5 5 5 5 5 5 5 7 7 7 5 5 5 , , , , , 5 , , , , 5 5 5 5 7 g j g 5 5 5 5 , * , l [ [ ] #.#.q.p.p.q.q.9.@.@.@.;.;.&.*.&.X.{ j % % i j j j k R E F.-.5 o > 0 #.@.t.@.l k k     lXlXlXlXlXlXlXlXlXlXlXlXlXlXlXlXlXlXlXlXlXlXlXlXlXlXlXlXlXlXlXlXlXlXlXlXlXlXlXlXlXlXlXlXlXlXlXlXlXlXlXlXlXlXlXlXlXlXlXlXlXlXlXlXlXlXlXlXlXlXlXlXlXlXlXlXlXlXlXlXlXlXlXlXlXlXlXlXlXlXlXlXlXlXlXlXlXlXlXlXlXlXlXlXlXlXlXlXlXlXlXlXlXlXlXlXlXlXlXlXlXlXlXlXlXlXlXlXlXlXlXlXlXlXlXlXlXlXlX  % J R i &.4.+.A 6 # X [ *X7.5.:.=.G l j j 5 * l 4.t.4.4.@.t.4.t.4.t.t.t.t.@.#.#.@.o.[ { S 7 % o % * * > 5 7 7 5 5 5 5 5 5 5 5 5 5 7 g g , , , , , , > , , 5 5 5 , , 5 5 5 5 5 5 5 5 5 5 5 5 5 5 5 5 5 5 5 , 5 , , , , , , , 5 , , , , > > > , > , , , , 5 , , , , , , 5 5 , , , , , , , , 5 5 5 5 5 5 5 5 , , , 5 5 , , 5 , , > > * * > * o % , J G G S o.@.#.@.<.#.A A { { S S S S [ G J j i , , , % # X X * z J 7 , J 5.W R *.5.4.u.p.a.a.p.u.u.t.p.t.p.a.u.t.4.&.G J k l ",
"l * *.W J J %.:.t.t.t.u.t.t.t.#.,.u.p.p.p.p.t.@.[ S J J 5.:.5 # # > 5 X X * g g g g k z Z z z S &.;.@.;.4.4.@.] o.4.;.%.J J J J j # . * % % 5 l J J z z J J G F R G J J J J J J J R P R E P P P P R P R R R R R R R R R R R E R R R G G R $.=.-.:.*.=.-.=.=.%.%.W %.%.%.%.=.:.:.-.=.=.=.=.=.=.=.W =.=.=.=.=.=.=.:.:.:.:.=.=.=.%.R =.-.-.=.%.%.=.=.=.=.%.*.7.P.:.o.] l g g , % * l [ A A #.q.p.p.t.q.,.@.@.4.;.o.z &.X.o.A , $ , g j j z R Z R Q -.5 # 4 0 #.4.t.@.l k k     lXlXlXlXlXlXlXlXlXlXlXlXlXlXlXlXlXlXlXlXlXlXlXlXlXlXlXlXlXlXlXlXlXlXlXlXlXlXlXlXlXlXlXlXlXlXlXlXlXlXlXlXlXlXlXlXlXlXlXlXlXlXlXlXlXlXlXlXlXlXlXlXlXlXlXlXlXlXlXlXlXlXlXlXlXlXlXlXlXlXlXlXlXlXlXlXlXlXlXlXlXlXlXlXlXlXlXlXlXlXlXlXlXlXlXlXlXlXlXlXlXlXlXlXlXlXlXlXlXlXlXlXlXlXlXlXlXlXlX  o z R i &.t.#.A 6 # X o.fXW.7.5.:.=.R l 7 7 > 5  .4.4.4.;.4.;.4.4.t.t.t.t.@.[ @.@.&.X.S 7 o o * , 5 g A S %.%.$.{ &.&.=.%.%.=.=.-.-.-.-.-.-.-.-.=.R R R E W W E E P $.=.=.=.=.=.=.=.=.=.=.:.:.:.=.=.*.:.=.%.%.%.%.%.%.%.=.=.*.:.*.=.=.=.=.=.=.=.E =.=.-.-.-.-.E W W =.=.=.=.R R R E E R R E $.$.R R $.%.$.{ G G $.%.%.%.%.{ G G %.[ l 7 5 > % $ & j G G { o.@.<.o. .A A G J A A G G G G z g i , , 5 % o X X * l l 5 , Z P.W J R ;.4.u.p.a.a.p.u.t.t.p.a.a.p.t.t.;.X.J z j k ",
"g % %.G J G %.;.4.t.t.p.p.p.u.@.t.p.t.a.p.p.t.@.[ A z J 5.:.5 * # * > o X * 5 g i i j a j a a z $.&.&.&.;.;.o.S D X.*.%.R R J j * . % , , , z R J z l l z J J J J k z z z k k k z k k k x x P P P R k k k J R R P P P R R R R R R J J J R R v R R R E E W W R R G X.%.&.X.&.=.=.$.E =.=.$.R R J J Z x v R R P E -.-.=.R R E R F J R R =.W G G R R G G G  .3.H.P X.#.{ J l l , % * j A A [ @.t.t.4.4.@.@.4.4.:.&.{ S { [ 5 % & g j z k R =.R P Q -.5 # 4 A @.t.t.4.j s k     lXlXlXlXlXlXlXlXlXlXlXlXlXlXlXlXlXlXlXlXlXlXlXlXlXlXlXlXlXlXlXlXlXlXlXlXlXlXlXlXlXlXlXlXlXlXlXlXlXlXlXlXlXlXlXlXlXlXlXlXlXlXlXlXlXlXlXlXlXlXlXlXlXlXlXlXlXlXlXlXlXlXlXlXlXlXlXlXlXlXlXlXlXlXlXlXlXlXlXlXlXlXlXlXlXlXlXlXlXlXlXlXlXlXlXlXlXlXlXlXlXlXlXlXlXlXlXlXlXlXlXlXlXlXlXlXlXlXlX  % z R a =.u.@.] 6 # X o.fXU.7.7.5.2.-.F j 5 , , l o.;.4.4.4.;.;.;.4.4.t.4.@.#.4. .{ { j % o * , 5 j J J F W W R R R R R R P R E -.-.-.W R R R P P P Z R R R P P P R R R E E R R R G R $.$.R E =.=.$.%.$.$.G G { $.{ R %.=.*.%.W R R R R P R P R R R E -.E P P P P P R R R R k k k k k x R R R E R R R R R R R R R R R $.$.R R W 2.4.A 7 l 7 * % . * j A { o.o.o.X.S J J J z j j l l z z j g , , , 5 % o X X * l l 5 , z P.=.J J &.4.u.p.a.a.s.p.q.t.p.a.a.p.t.t.4.%.J k a k ",
"j * =.G J R %.:.t.u.t.t.t.u.a.t.s.a.t.a.a.a.t.@.o.J z J 5.-.5 ; * % > # . * g g i i a a j k j z J J A X.%.=.*.%.G G G J J P z * . % , , j k z R E P R R R J J z z k k k k k z k k k k k R Z Z P x k k k k k x x R R R R k k k k k z z G J R k z R =.R R $.$.{ { { o.;.;.@.;.*.X.$.%.%.-.=.R J R R R R R R E E =.=.=.R R R =.G $.$.%.=.=.=.*.*.&.&.&.o.o.4.1X}.Q ;.@.&.%.S A l * . * l G [ #.@.@.#.o.o.o.o.X.S S G A X.A * % , j k J R =.:.-.$.F.F.g # 6 A @.t.u.4.j s k     lXlXlXlXlXlXlXlXlXlXlXlXlXlXlXlXlXlXlXlXlXlXlXlXlXlXlXlXlXlXlXlXlXlXlXlXlXlXlXlXlXlXlXlXlXlXlXlXlXlXlXlXlXlXlXlXlXlXlXlXlXlXlXlXlXlXlXlXlXlXlXlXlXlXlXlXlXlXlXlXlXlXlXlXlXlXlXlXlXlXlXlXlXlXlXlXlXlXlXlXlXlXlXlXlXlXlXlXlXlXlXlXlXlXlXlXlXlXlXlXlXlXlXlXlXlXlXlXlXlXlXlXlXlXlXlXlXlXlX  % J R a :.y.@.] 7 # X o.;X5.5.5.5.2.-.-.R i , , 5 A X.4.:.4.:.4.;.4.4.t.4.;.4.o.o.A 7 * o * > j l J G W =.5.U.U.5.=.R x J R R W R R R R R P P P P R R R R R R $.=.=.%.=.=.W W G G G W =.E R R =.=.=.&.%.{ X.*.*.o.{ { o.&.o.X.G G J R R R v x k k z R =.R z k k k k x x x k k k k k x R R R R R J z z J R R P P P P R $.$.R R ^ K.1.X.S A A j * % $ % j S [ o.X.S S G F J Z l j l z z j j g , , i g % o + X * l l 5 , z P.-.P J *.4.u.a.p.a.0Xa.t.t.s.s.a.p.u.t.4.&.J k p z ",
"l % X.G z R R %.4.t.t.p.a.a.u.t.t.p.p.p.p.p.t.9.o.A z Z H.:.5 * # * > > . % 5 g g g j g j j l z z z z J J G G J J J J J k i % # # * g z J J A S S E Y W o.o.o.{ G J J J k Z k R J J J J J $.%.[ G J J J z J R v Z J J J G J k z S S J G R J z J &.;.%.&.X.o.@.@.@.+.4.4.@.o.@.;.&.&.;.t.;.o.{ R W W G G %.%.$.=.:.;.%.%.*.;.4.;.;.;.4.4.4.;.4.4.4.;.4.4.%X5XOXK.5.;.*.{ S S D j * # * g J J j g g j j j l l l J J X.A > % , k k J J R :.-.P R Q -., # 6 A o.4.4.=.s d s .   lXlXlXlXlXlXlXlXlXlXlXlXlXlXlXlXlXlXlXlXlXlXlXlXlXlXlXlXlXlXlXlXlXlXlXlXlXlXlXlXlXlXlXlXlXlXlXlXlXlXlXlXlXlXlXlXlXlXlXlXlXlXlXlXlXlXlXlXlXlXlXlXlXlXlXlXlXlXlXlXlXlXlXlXlXlXlXlXlXlXlXlXlXlXlXlXlXlXlXlXlXlXlXlXlXlXlXlXlXlXlXlXlXlXlXlXlXlXlXlXlXlXlXlXlXlXlXlXlXlXlXlXlXlXlXlXlXlXlX. % Z P i -.y.#.A 7 * o G !.Q -.5.2.:.-.Q E k 5 * 4 7 [ :.4.%.J z z l l l l z z J g * % % > , g j J W %.%.*.K.2X;X7.*.%.R $.%.*.:.&.%.*.=.R R R =.$.{ o.&.%.J A &.:.;.;.;.*.&.&.;.o.X.o.*.%.G G &.:.;.@.@.@.@.@.@.@.@.#.] o.@.o.o.{ G G G J A J J J J R $.$.J R R x v v k k x k k k J %.%.{ { J J G J A S { G J J J G { X.=.3./ ^ 1.o.o.o. .S A l * o o % g J F J J J J J z z j j j j j j j 5 , 5 5 5 * o # . % j l i & z 5.-.R %.4.t.u.p.p.a.u.u.t.t.p.p.a.e.t.t.:.X.J z a s ",
"l % X.R z J P %.*.t.a.a.t.t.t.t.p.p.t.t.p.t.t.t.@.A z k P.:.5 * * * > > X . % % % % % % % % * * * * * * > > > > > , , , , * o % > g z J J J J A F ^ H.2.*.X.X.&.X.G G G J J J G G J J A { o.X.o.{ J z J J J R J z J G { R R z J G { S J J J J G ;.;.o.o.o.@.@.@.@.@.t.t.@.@.4.4.;.;.4.t.4.;.%.G G G %.%.=.%.&.:.t.t.4.*.*.;.;.;.;.4.4.;.4.;.4.y.4.;.;.4.%X,XOX}.U.t.4.;.X.G F J l , * * , , , , , > * * * * * * * * ; * > j J R E R R =.=.R E Q Q , # 6 0  .@.4.*.k I x .     lXlXlXlXlXlXlXlXlXlXlXlXlXlXlXlXlXlXlXlXlXlXlXlXlXlXlXlXlXlXlXlXlXlXlXlXlXlXlXlXlXlXlXlXlXlXlXlXlXlXlXlXlXlXlXlXlXlXlXlXlXlXlXlXlXlXlXlXlXlXlXlXlXlXlXlXlXlXlXlXlXlXlXlXlXlXlXlXlXlXlXlXlXlXlXlXlXlXlXlXlXlXlXlXlXlXlXlXlXlXlXlXlXlXlXlXlXlXlXlXlXlXlXlXlXlXlXlXlXlXlXlXlXlXlXlXlXlX  % J P r =.4.[ A 7 * o A !.2.5.5.4.5.:.:.=.R z 5 > # > 4 4 > > * * * * * * * * * # X o * 7 l j z F %.$.W 3.}.,X%X5.;.&.&.&.&.*.;.*.*.:.*.%.R G %.&.;.4.o.{ { o.&.;.;.4.:.X.{ o.;.4.@.o.o.&.*.;.;.;.@.@.<.4.4.q.q.q.q.+.#.@.@.*.o.{ %.$.G S X.X.{ G G $.$.G G J J R R R k k k k k z G %.$.{ G { { { X.X.{ { G J { X.o.o.o.*.5.K.N.^ 1.*.;.&.X.G A 7 * o % % * , > * % % % % % % % % % % o o o % % % % * > * . * l l 5 & z 5.W R =.4.t.t.p.a.t.t.t.t.p.q.w.r.q.t.t.5.=.R k k k ",
"l % %.W k J R W *.4.u.t.t.t.t.t.p.p.t.t.q.t.t.4.o.A z J P.:.5 * # * 5 4 # X X X . X X . . . X X . . o o o o o o # o o # # o % = g z z z J F A G W m.N.^ =.X.*.;.o.X.{ %.G G G =.&.{ [ [ o.o.o.o.X.R J J J G G G G S X.&.R R R $.o.o.X.J J J G { o.@.o.@.@.@.@.,.q.q.q.t.t.t.t.t.t.4.4.t.t.4.*.X.G X.*.:.:.;.;.4.u.s.t.;.;.4.4.4.;.;.;.;.4.4.4.4.4.4.4.4.y.}.+XOXY.y.4.;.*.{ J R G l , % o o o o o . X X . X X o o o * > 7 l J R P =.*.*.*.%.$.Q -.5 # 6 0  .@.t.4.Z I x .       lXlXlXlXlXlXlXlXlXlXlXlXlXlXlXlXlXlXlXlXlXlXlXlXlXlXlXlXlXlXlXlXlXlXlXlXlXlXlXlXlXlXlXlXlXlXlXlXlXlXlXlXlXlXlXlXlXlXlXlXlXlXlXlXlXlXlXlXlXlXlXlXlXlXlXlXlXlXlXlXlXlXlXlXlXlXlXlXlXlXlXlXlXlXlXlXlXlXlXlXlXlXlXlXlXlXlXlXlXlXlXlXlXlXlXlXlXlXlXlXlXlXlXlXlXlXlXlXlXlXlXlXlXlXlXlXlX  % J P r $.;.] l 7 * o A !.U.y.4.4.4.4.*.%.%.W J 7 # # # # # # # # # + X + # # X + # * 5 l z J R %.=.*.3.{.}.|.3.4.@.;.*.*.*.;.;.*.4.4.;.*.%.X.*.4.4.t.;.o.@.4.;.@.4.;.&.X.X.;.4.q.@.o.o.;.t.t.t.t.@.@.4.t.t.t.q.q.q.q.@.@.,.;.o.{ $.&.X.#.@.@.o.o.&.&.$.G G J J R E R Z k k k k J { o.{ J J %.&.o.#.o.o.{ { &.*.@.@.@.@.;.5.L.B.m.~ =.;.;.o.X.S A 5 % o o o o o o X . X X o X X X X X X X X o X . X * 7 * X > l l 5 & z 2.E R =.t.u.p.a.a.t.t.t.t.t.q.q.t.t.t.4.*.R P P k k ",
"z % %.%.Z R W =.*.4.u.q.q.t.t.t.p.p.p.t.q.t.,.o.{ A z J U.5.5 * # * 5 5 > # X X X     X X X X X X X X X X X X X X . . X X # , g k k z z D G X.=.! b.b.~ o.o.;.;.;.&.X.X.X.X. .;.4.;.o.o.o.@.@.o.{ R R R { { X.&.*.o.o.o.G J R &.;.@.o.G J $.&.o.o.o.#.@.t.t.q.q.q.q.q.q.t.t.t.p.u.t.t.t.t.4.4.*.o.*.4.4.4.4.t.t.p.a.a.4.4.t.t.t.4.t.t.4.t.y.t.:.4.4.4.4.6.{.@X+X,XQ.t.4.;.%.R J R F C 5 , , 5 5 5 5 5 5 7 7 7 7 j l l J J R R -.=.:.5.5.4.*.*.2.2.7 # 4 b #.t.i.4.z P k .       lXlXlXlXlXlXlXlXlXlXlXlXlXlXlXlXlXlXlXlXlXlXlXlXlXlXlXlXlXlXlXlXlXlXlXlXlXlXlXlXlXlXlXlXlXlXlXlXlXlXlXlXlXlXlXlXlXlXlXlXlXlXlXlXlXlXlXlXlXlXlXlXlXlXlXlXlXlXlXlXlXlXlXlXlXlXlXlXlXlXlXlXlXlXlXlXlXlXlXlXlXlXlXlXlXlXlXlXlXlXlXlXlXlXlXlXlXlXlXlXlXlXlXlXlXlXlXlXlXlXlXlXlXlXlXlXlXlX% J P i &.t...A 7 * o J ^.U.i.i.i.i.y.=.R R R P J l l 7 7 7 5 , 5 4 4 4 4 5 8 4 > , g z k k G *.:.;.5.U.|.}.{.5.4.t.t.4.;.;.;.@.;.4.4.;.&.*.*.5.y.t.q.@.@.;.t.t.t.q.;.&.X.&.4.t.q.4.,.@.t.t.t.t.t.q.@.4.u.u.t.q.q.q.q.t.q.t.4.;.o.$.$.;.<.,.,.@.@.o.&.%.$.R $.P R R R G z z J J G &.o.{ A J &.:.;.@.@.*.X.&.;.4.,.q.t.,.@.*.N.].B.3.2.4.;.o.X.D J l , * o o . X X X X X X X X X X X X X X X X X o X * 7 * X > l l 5 = Z 2.=.R %.4.u.a.a.a.u.u.p.p.p.q.q.t.t.t.;.R J R x k s ",
"z * %.=.J R =.=.*.4.u.t.t.u.p.t.p.p.p.t.t.t.@.o.{ A z J P.5.5 * # * > > o > * o o X X o o o # * * * % * * * ; * * * * * > , g k k k J J S  .o.1.N.N.! W o.@.;.;.;.;.o.o.o.o. .@.@.@.o.o.o.@.@.*.{ J J X.o.o.X.o.;.;.@.o.G J $.&.;.@.@.{ { o.&.o.#.o.#.@.t.t.t.t.q.q.t.t.t.p.p.p.t.t.u.t.@.o.;.4.4.4.t.t.4.t.u.u.p.a.a.4.@.t.4.4.t.u.u.4.;.4.t.t.4.4.4.t.4.{.+X+X&Xi.t.4.@.o.%.R F F F G G %.%.G { { G R %.%.R G G J J J J R P W *.:.5.5.4.*.5.Q.U.j o 4 b #.t.a.4.l k a .       lXlXlXlXlXlXlXlXlXlXlXlXlXlXlXlXlXlXlXlXlXlXlXlXlXlXlXlXlXlXlXlXlXlXlXlXlXlXlXlXlXlXlXlXlXlXlXlXlXlXlXlXlXlXlXlXlXlXlXlXlXlXlXlXlXlXlXlXlXlXlXlXlXlXlXlXlXlXlXlXlXlXlXlXlXlXlXlXlXlXlXlXlXlXlXlXlXlXlXlXlXlXlXlXlXlXlXlXlXlXlXlXlXlXlXlXlXlXlXlXlXlXlXlXlXlXlXlXlXlXlXlXlXlXlXlXlXlX% J R i ;.u.@.] 7 ; o [ ^.5.7.i.i.y.:.=.$.R R J Z J J G G G G G J J A A S G { G A J R Z k R &.;.@.@.4.7.{.}.{.7.t.t.t.4.t.t.4.@.@.4.t.@.*.*.*.:.y.t.q.@.;.t.t.t.t.q.4.;.o.o.4.t.t.t.q.t.t.t.q.p.p.t.@.t.u.t.q.q.q.q.t.t.t.t.t.;.;.*.&.*.4.4.q.t.,.o.{ G R $.$.E k R R { A J G G G o.o.{ { { X.o.4.4.@.o.o.o.;.t.q.,.t.t.@.*.N.]. X3.5.4.;.o.X.S J z l j > % % * * % * * * * # % * * * * * * # * > * * > % X > l l 5 , J P.-.R $.4.t.a.a.p.u.a.a.p.p.t.q.t.t.t.:.%.R R k k s ",
"z * %.=.J P R %.*.4.t.t.t.t.t.p.q.r.p.t.t.t.4.;.&.J z J P.:.5 * * * , # # 5 7 5 5 5 j j g j j l z z j l z l l l l l l j j j z k k z G [ #. . .1.K.N.! W o.@.;.*.;.;.;.@.o.@.#.o.o.#.o.o.@.o.@.o.G z z [ o.o.o.o.@.4.4.@.X.$.$.o.@.4.@. .#.o.@.@.+.o.@.@.@.@.t.t.q.q.p.p.t.p.p.p.t.t.u.t.@. .o.4.t.t.u.u.t.t.u.u.a.a.a.t.o.4.4.4.4.t.t.4.@.@.4.t.t.4.4.t.7.&X<X&Xi.t.t.t.@.#.o.*.R J J J J G J J J G G F R R R R G { R J J R R R %.*.:.4.;.&.*.5.5.g o 4 b +.t.a.4.j k a .   . . lXlXlXlXlXlXlXlXlXlXlXlXlXlXlXlXlXlXlXlXlXlXlXlXlXlXlXlXlXlXlXlXlXlXlXlXlXlXlXlXlXlXlXlXlXlXlXlXlXlXlXlXlXlXlXlXlXlXlXlXlXlXlXlXlXlXlXlXlXlXlXlXlXlXlXlXlXlXlXlXlXlXlXlXlXlXlXlXlXlXlXlXlXlXlXlXlXlXlXlXlXlXlXlXlXlXlXlXlXlXlXlXlXlXlXlXlXlXlXlXlXlXlXlXlXlXlXlXlXlXlXlXlXlXlXlXlXlX* R P i ;.a.q...0 * o [ !.:.*.4.4.:.=.=.*.=.$.P J Z J J J R J J z Z J J F J R J J R J Z J &.@.@.@.9.@.4.7.{.&X%Xy.u.u.u.u.t.t.4.@.4.t.@.;.;.o.&.;.4.t.4.t.t.q.q.t.t.t.4.;.;.4.t.t.t.t.t.p.p.q.t.p.t.t.t.4.,.q.q.t.t.t.t.t.t.t.t.t.4.@.o.;.t.t.,.,.@.X.G J $.$.R k J o.#.#.o.o.[ S X.o.;.;.@.o.#.#.@.@.@.o.o.;.4.,.,.;.,.@.4.K.[.Y.1.*.@.4.*.*.&.J k l J J z z z l l l l l l l j j j l l l l j j l 7 5 4 * X > l j 5 , J U.:.R %.4.t.u.t.t.t.p.a.p.p.t.t.t.t.t.4.*.W J k k k ",
"A * *.=.Z Z J %.:.t.t.t.t.t.t.e.e.w.t.t.t.t.t.4.:.J z J U.5.j # # * , * * 5 5 * , , g , , i g g k k k k z l j j j j j j s s k z z J o.o.@.#. .X.=.2.2.*.@.@.X.;.*.;.4.4.;.@.o.@.@.o.@.o.o.o.o.S G $.&.;.@.o.;.o.@.4.t.,.o.&.$.X.@.4.;.@.@.@.@.@.@.@.4.@.#.#.@.t.q.q.p.a.q.t.p.p.t.t.t.4.4.;.&.;.t.u.u.t.q.t.p.p.a.e.a.t.;.4.4.4.;.t.t.t.t.t.t.t.t.t.t.t.y.%XY.7.p.a.u.t.t.<.<.4.=.$.R R R J z J R %.G J z z J %.=.4.4.=.=.*.:.:.&.:.*.o.X.{ G =.=.5 o 4 ` ,.a.a.,.7 s a .   . . lXlXlXlXlXlXlXlXlXlXlXlXlXlXlXlXlXlXlXlXlXlXlXlXlXlXlXlXlXlXlXlXlXlXlXlXlXlXlXlXlXlXlXlXlXlXlXlXlXlXlXlXlXlXlXlXlXlXlXlXlXlXlXlXlXlXlXlXlXlXlXlXlXlXlXlXlXlXlXlXlXlXlXlXlXlXlXlXlXlXlXlXlXlXlXlXlXlXlXlXlXlXlXlXlXlXlXlXlXlXlXlXlXlXlXlXlXlXlXlXlXlXlXlXlXlXlXlXlXlXlXlXlXlXlXlXlXlX* R x i ;.s.p.@.0 * X S !.:.:.*.*.*.*.5.4.*.*.=.%.R F R R R J k z Z J J F J J z J J G { #.#.@.q.q.q.q.t.4.3.U.%Xy.t.t.u.p.p.p.t.4.4.t.,.4.4.o.o.4.t.t.t.t.q.q.q.t.t.t.t.4.4.;.4.t.p.p.t.p.p.t.t.t.t.t.4.@.@.t.t.t.t.t.t.u.t.q.t.t.t.4.@.;.5.,.,.<.4.*.{ J R G J J X.@.@.@.@.@. .S X.*.;.@.4.4.@.#.;.4.@.@.@.;.;.4.t.4.,.@.4.3.3.=.o.o.@.4.o.*.&.$.R z z z J z j j a a j j j j g g g g j l l l j j j 5 * o X > l j 5 , G 7.:.$.&.4.4.t.t.t.a.a.p.p.p.t.t.t.t.u.t.:.$.k k k z ",
"J * ;.*.z k R R *.y.y.t.t.q.q.t.p.p.t.t.0.;.:.;.{ z z R H.U.j * * * * o o 5 > % % & g i i g j j j j l Z k z j j j z z k k k k J J { &.@.#.#.#.o.o.o.@.@.;.;.;.*.&.{ o.@.@.@.4.@.+.@.@.@.@.X.S [ o.@.;.;.@.o.@.@.@.@.,.,.o.o.*.*.o.*.@.@.4.4.@.@.@.@.@.o.o.@.,.q.q.t.p.p.t.t.t.t.t.t.4.t.4.;.o.@.4.t.t.p.p.t.p.t.p.a.a.q.,.4.t.t.t.t.q.t.t.p.t.4.t.t.t.t.u.t.t.t.a.a.p.t.q.q.4.4.@.o.o.@.;.o.{ o.@.,.@.[ l A X.@.t.@.t.q.@.t.t.4.4.t.4.4.*.%.R W =.5 X 4 b ,.u.t.@.g P k . X . . lXlXlXlXlXlXlXlXlXlXlXlXlXlXlXlXlXlXlXlXlXlXlXlXlXlXlXlXlXlXlXlXlXlXlXlXlXlXlXlXlXlXlXlXlXlXlXlXlXlXlXlXlXlXlXlXlXlXlXlXlXlXlXlXlXlXlXlXlXlXlXlXlXlXlXlXlXlXlXlXlXlXlXlXlXlXlXlXlXlXlXlXlXlXlXlXlXlXlXlXlXlXlXlXlXlXlXlXlXlXlXlXlXlXlXlXlXlXlXlXlXlXlXlXlXlXlXlXlXlXlXlXlXlXlXlXlXlX% J x j 4.p.q.+.0 * X A Q.:.*.*.:.5.4.t.t.q.,.,.4.%.[ o.4.@.] ] [ #. . .o.{ J J G { #.@.q.9.9.q.q.q.q.q.t.t.4.t.t.t.t.t.t.u.u.u.t.t.t.t.t.u.t.t.u.u.t.q.t.t.4.@.@.t.t.4.<.4.;.4.t.t.p.t.t.t.t.t.q.q.q.t.u.t.t.t.p.p.p.t.t.t.;.@.t.t.@.@.@.;.4.4.q.t.t.@.#.o.o.S  .@.,.,.,.<.X.S o.#.@.;.t.t.;.;.o.@.t.4.@.;.;.;.;.@.;.;.4.4.4.@.#.@.@.@.#.o.;.:.:.G z z l j i i , , 7 l l l l g , , , i i i g , = , , o X X > j j 5 = R H.W z G *.4.t.4.t.p.p.u.u.t.t.t.t.u.u.4.%.J z k j Z ",
"G * ;.*.k Z R R :.;.;.;.4.t.e.t.t.t.t.t.t.*.o.{ S l z R U.U.j * # * * o # 5 > % = = g g g j j z z z z J J Z l z z J G J k z z J G { o.o.@.#.#.o.o.o.o.o.;.:.4.*.&.{ o.;.@.@.@.@.@.,.,.@.o.X.{ { o.;.@.o.#.@.;.4.@.@.@.@.@.@.@.@.@.@.@.o.o.o.#.+.@.q.@.o.+.4.t.t.q.p.p.t.t.t.t.t.t.@.@.@.@.o.o.;.t.t.t.p.p.a.a.t.p.a.a.t.t.t.t.t.t.t.t.t.t.p.t.4.t.u.t.t.t.u.a.p.p.a.s.s.a.t.,.@.@.;.4.@.4.;.o.@.q.t.;.o.o.o.o.@.t.t.q.q.q.t.u.t.@.t.t.y.4.%.R Q -.5 X 4 0 @.t.t.@.j P k .     X lXlXlXlXlXlXlXlXlXlXlXlXlXlXlXlXlXlXlXlXlXlXlXlXlXlXlXlXlXlXlXlXlXlXlXlXlXlXlXlXlXlXlXlXlXlXlXlXlXlXlXlXlXlXlXlXlXlXlXlXlXlXlXlXlXlXlXlXlXlXlXlXlXlXlXlXlXlXlXlXlXlXlXlXlXlXlXlXlXlXlXlXlXlXlXlXlXlXlXlXlXlXlXlXlXlXlXlXlXlXlXlXlXlXlXlXlXlXlXlXlXlXlXlXlXlXlXlXlXlXlXlXlXlXlXlXlXlX% k k l t.p.+.] 7 * X A Q.5.5.5.4.5.4.t.u.u.t.t.4.o.#.@.t.@.#.#.@.@.@.@.@.&.&.{ [ [ @.q.q.q.q.t.q.q.q.q.t.t.4.,.q.t.t.t.t.t.u.t.t.t.u.p.t.t.t.t.a.p.p.p.p.p.t.,.q.t.t.q.@.4.t.t.u.t.p.t.t.t.t.t.p.e.t.t.t.t.p.p.p.p.p.t.q.t.4.;.@.@.t.4.;.&.;.4.t.9.@.@.;.;.X.X.X.@.@.,.+.#. .X.@.@.@.4.t.,.@.;.o.@.q.,.4.4.;.o.#.#.o.o.@.@.4.@.@.,.4.4.@.;.;.&.$.{ G { S J l g j A A A A A J j , , , , g g g , = , 5 # X   > l j 5 , P 2.E k J %.*.;.4.u.p.p.t.t.t.t.,.@.t.t.;.%.J J z k Z ",
"R * &.*.Z R P W *.@.@.@.4.t.p.q.t.t.t.t.0.o.{ S S l l R U.U.j * # * * X * 5 > * , , g g l l l S G J z J G S J J J S o.*.G z J J { o.[ o.@.@.#.o.o.o.o.o.o.X.X.X.X.X.&.*.o.X.o.<.,.,.,.@.o.&.o.o.@.4.<.#.@.,.,.@.@.@.@.@.@.@.,.,.@.@.o.{ { X.#.@.q.q.,.@.@.,.t.q.q.p.p.t.t.t.t.t.t.4.@.;.@.o.;.4.t.t.p.p.p.p.a.p.p.a.a.t.t.u.p.p.t.t.p.p.p.p.t.4.t.a.p.t.t.t.a.p.p.a.s.s.u.u.t.t.t.t.t.t.t.4.@.q.q.q.q.@.@.;.@.q.q.t.,.q.t.p.t.u.4.t.4.;.&.R R -.-., X 4 9 ..,.t.@.l P k .       lXlXlXlXlXlXlXlXlXlXlXlXlXlXlXlXlXlXlXlXlXlXlXlXlXlXlXlXlXlXlXlXlXlXlXlXlXlXlXlXlXlXlXlXlXlXlXlXlXlXlXlXlXlXlXlXlXlXlXlXlXlXlXlXlXlXlXlXlXlXlXlXlXlXlXlXlXlXlXlXlXlXlXlXlXlXlXlXlXlXlXlXlXlXlXlXlXlXlXlXlXlXlXlXlXlXlXlXlXlXlXlXlXlXlXlXlXlXlXlXlXlXlXlXlXlXlXlXlXlXlXlXlXlXlXlXlXlX% k x l i.p.O.` 6 * X A -XP.5.;.;.;.t.u.a.a.a.u.t.@.@.4.t.q.@.,.q.q.q.q.@.o.o.o...#.,.t.q.q.q.p.t.q.q.q.q.q.,.,.q.t.t.p.p.p.t.u.t.,.t.t.t.t.q.p.p.p.a.p.p.t.t.t.t.t.t.t.t.t.t.t.p.p.p.t.q.q.q.q.e.a.p.t.t.u.a.a.a.p.t.q.q.4.t.t.@.@.4.:.&.%.4.@.@.@.4.4.4.o.X.o.o.o.@.@.@.+.o.@.4.,.,.4.4.@.@.;.;.@.q.t.t.4.;.o.o.@.o.o.+.@.@.@.t.@.@.@.@.;.o.[ J { X.o.o.[ A l A [ ] ] ] [ S l l l l j l z g , = , 5 o X X > l l 5 , R 2.E k J W K o.t.t.p.p.t.@.t.u.q.+.,.4.;.%.J z z k Z ",
"R * &.*.Z P P %.:.t.4.4.t.t.e.q.t.q.t.t.@.o.{ G J l l J Q.U.j * o * ; # * 5 > * , , g g j l z J J J z J %.o.[ A A #.@.@.o.S A { X.o. .o.@.@.o.#.#.@.@.@.o.G D S %.*.*.%.G R @.4.4.@.o.o.o.o.o.#.o.;.4.@.,.t.t.@.o.*.;.;.@.;.4.4.;.X.J F G X.o.,.q.q.q.q.q.,.@.@.q.t.p.t.t.t.t.t.t.t.t.t.4.@.4.t.t.t.p.p.p.p.p.a.a.p.p.t.t.p.p.p.t.t.p.p.p.p.u.4.t.a.a.t.q.q.t.t.a.u.t.t.u.a.a.p.p.t.t.t.t.t.t.q.t.p.t.q.t.t.t.t.q.,.t.t.p.p.p.p.t.t.@.@.&.G W -.-., X > 9 ] @.t.@.l P k .     . lXlXlXlXlXlXlXlXlXlXlXlXlXlXlXlXlXlXlXlXlXlXlXlXlXlXlXlXlXlXlXlXlXlXlXlXlXlXlXlXlXlXlXlXlXlXlXlXlXlXlXlXlXlXlXlXlXlXlXlXlXlXlXlXlXlXlXlXlXlXlXlXlXlXlXlXlXlXlXlXlXlXlXlXlXlXlXlXlXlXlXlXlXlXlXlXlXlXlXlXlXlXlXlXlXlXlXlXlXlXlXlXlXlXlXlXlXlXlXlXlXlXlXlXlXlXlXlXlXlXlXlXlXlXlXlXlXlX% R x l i.s.+.] 6 # + [ -XP.5.4.4.t.u.p.p.p.t.t.t.t.q.q.q.q.q.q.r.e.p.w.,.+.@.q.@.q.q.q.q.q.q.p.t.q.q.t.t.q.q.q.t.p.p.p.p.p.p.a.u.t.4.t.u.t.q.t.p.a.s.p.p.p.t.t.t.t.t.t.p.p.p.p.p.a.p.p.t.q.q.q.r.a.a.t.t.p.a.p.p.p.t.t.t.t.t.q.q.t.;.o.{ %.4.@.@.4.t.;.o.{ o.o.o.o.o.@.q.@.@.@.,.,.,.4.@.@.@.4.;.@.q.t.t.4.@.o.;.t.4.,.+.#.#.@.@.,.@.@.@.;.;.o.S { &.o.o.#.#.A A  .#.#.#.#.A A A A A A J z g , , 5 5 o X   > A l 7 , R P.W Z R R X.;.t.t.p.p.t.@.t.u.q.@.t.t.:.$.J z z k Z ",
"G * &.*.Z Z P %.4.t.t.t.t.t.t.t.t.9.@.q.@.o.{ J J l l J U.P.j * # * > # # 5 , = 5 , g j j z z z z z z z { o.[ A [ @.@.o.o.o.o.o.o.o.&.o.o.o.o.#.#.@.@.;.;.*.*.o.4.4.*.G F R <.4.4.@.@.@.@.@.@.o.o.@.4.4.t.t.4.<.o.o.o.o.%.%.X.X.R G J X.X.%.;.4.q.q.q.q.q.,.@.q.t.p.p.p.p.t.t.a.a.a.a.t.@.@.t.t.q.t.p.p.p.p.a.a.p.t.t.t.t.p.r.r.t.t.t.p.p.q.u.t.t.p.p.t.q.q.q.p.a.u.4.;.t.p.a.p.a.a.p.p.p.a.p.p.a.s.p.t.q.t.p.t.q.+.t.p.r.r.p.p.q.t.t.4.;.R E -.:., X - 9 #.4.t.;.j P k .   . . lXlXlXlXlXlXlXlXlXlXlXlXlXlXlXlXlXlXlXlXlXlXlXlXlXlXlXlXlXlXlXlXlXlXlXlXlXlXlXlXlXlXlXlXlXlXlXlXlXlXlXlXlXlXlXlXlXlXlXlXlXlXlXlXlXlXlXlXlXlXlXlXlXlXlXlXlXlXlXlXlXlXlXlXlXlXlXlXlXlXlXlXlXlXlXlXlXlXlXlXlXlXlXlXlXlXlXlXlXlXlXlXlXlXlXlXlXlXlXlXlXlXlXlXlXlXlXlXlXlXlXlXlXlXlXlXlXlX% R x l y.a.@.] 5 o X [ !.P.5.t.u.a.a.p.t.q.q.t.t.t.q.q.q.q.t.t.r.r.p.p.t.q.t.p.p.t.t.t.t.q.q.t.t.q.q.t.p.p.t.p.p.p.p.p.p.p.p.a.s.u.t.4.t.t.t.p.a.p.a.t.t.t.p.t.q.q.q.t.p.p.p.p.a.p.a.a.p.p.q.r.p.a.p.p.t.p.p.p.p.p.p.p.t.t.t.t.t.t.;.o.X.:.,.@.4.t.;.o.[ { o.;.;.@.@.@.,.4.4.@.,.,.@.o.@.@.,.4.@.@.q.t.t.,.@.#.@.t.t.,.@.o.#.@.@.t.,.@.@.4.4.;.*.o.o.o.#.#.@.#.[ [ #.@.@.#.A A [ [ [ A z l j i , 7 5 o X X > A A 7 , =.P.Q Z J %.*.t.u.t.t.t.t.,.@.t.q.q.u.t.&.J k z z z J ",
"J % &.*.z Z P %.4.u.t.t.4.t.t.t.q.,.,.q.t.o.[ J z j j J U.5.5 * * > 5 # # 5 5 = g i g l z A A z z J J z J S S ]  .@.#.#.o.@.@.@.@.@.&.o.{ { o.o.@.@.@.4.,.4.<.4.4.4.o.X.G %.t.t.t.4.4.t.t.q.q.4.@.#.@.4.4.,.,.4.;.o.{ S J z Z Z Z J %.@.o.*.;.@.q.t.q.q.q.q.q.t.p.p.p.p.p.t.p.a.a.a.a.t.4.,.t.t.t.t.t.t.p.p.a.p.t.t.t.t.p.p.r.r.t.t.t.t.p.q.t.t.t.p.e.t.t.t.t.p.a.a.u.t.t.p.a.a.t.t.t.p.p.a.a.a.s.s.a.p.q.q.p.t.q.@.t.p.e.r.p.p.q.q.t.4.*.%.=.F.2., . > 9 #.4.t.;.j P x . X . . lXlXlXlXlXlXlXlXlXlXlXlXlXlXlXlXlXlXlXlXlXlXlXlXlXlXlXlXlXlXlXlXlXlXlXlXlXlXlXlXlXlXlXlXlXlXlXlXlXlXlXlXlXlXlXlXlXlXlXlXlXlXlXlXlXlXlXlXlXlXlXlXlXlXlXlXlXlXlXlXlXlXlXlXlXlXlXlXlXlXlXlXlXlXlXlXlXlXlXlXlXlXlXlXlXlXlXlXlXlXlXlXlXlXlXlXlXlXlXlXlXlXlXlXlXlXlXlXlXlXlXlXlXlXlXlXlXlX% x x j 5.t.#.A 5 # X [ !.5.5.u.a.a.a.p.t.t.t.t.t.t.t.t.t.t.p.p.p.p.p.p.t.p.t.t.p.t.q.t.p.q.q.t.t.t.q.q.p.p.p.p.p.p.p.t.p.p.a.a.a.u.@.@.4.t.t.t.p.t.t.4.,.q.p.t.q.t.@.t.t.p.p.p.p.a.a.a.a.p.t.r.p.a.p.p.p.p.p.p.p.p.p.p.p.p.p.p.t.t.4.;.4.4.,.4.4.;.*.o.{ o.@.4.t.4.@.@.,.;.;.@.,.4.&.{ @.t.q.,.,.,.q.q.,.4.,.,.,.t.t.,.,.@.@.@.@.t.t.,.4.4.4.;.;.@.o. .#.#.@.o.[ [ o.o.o. .[ S [ o.[ A l l j g , g , o X X > l l 7 , =.P.-.P J %.4.a.a.p.t.t.p.q.@.q.q.t.t.4.&.J z z z z J ",
"J % *.*.z Z P %.4.p.p.t.t.q.q.t.t.q.q.q.t.@.o.S z j k J P.5.g * * > 5 # # 4 , = g i i A S { A A S { J J J J S o.o.#.#.#.#.@.@.@.@.;.o.{ G A { ;.@.4.t.t.q.,.<.t.t.4.4.;.*.*.t.t.4.4.,.,.q.q.q.t.@.#.#.@.4.<.4.4.4.;.&.X.J z R R J G ;.@.@.;.;.@.,.q.q.q.q.t.t.p.p.p.p.p.p.p.p.a.p.p.t.t.t.t.q.q.t.t.t.t.t.t.p.a.a.a.u.p.p.p.p.p.t.t.t.t.p.e.t.t.t.p.p.t.u.t.,.q.a.s.a.u.a.p.a.p.t.@.t.t.p.p.a.p.a.a.a.a.p.p.p.p.t.t.t.t.p.e.p.p.q.q.q.4.;.%.-.H.2., X 4 0 #.4.t.;.j x x . . . . lXlXlXlXlXlXlXlXlXlXlXlXlXlXlXlXlXlXlXlXlXlXlXlXlXlXlXlXlXlXlXlXlXlXlXlXlXlXlXlXlXlXlXlXlXlXlXlXlXlXlXlXlXlXlXlXlXlXlXlXlXlXlXlXlXlXlXlXlXlXlXlXlXlXlXlXlXlXlXlXlXlXlXlXlXlXlXlXlXlXlXlXlXlXlXlXlXlXlXlXlXlXlXlXlXlXlXlXlXlXlXlXlXlXlXlXlXlXlXlXlXlXlXlXlXlXlXlXlXlXlXlXlXlXlXlXlXlX% x x j 5.t.#.A 5 # + [ &X5.5.u.p.p.a.p.p.t.t.p.p.p.t.t.t.q.t.t.a.a.p.p.p.p.p.t.t.t.q.q.e.e.q.q.p.p.r.e.e.p.p.p.p.p.p.t.t.p.a.a.a.t.t.@.t.a.t.t.p.t.t.4.@.t.p.t.q.t.4.t.t.p.p.p.p.a.a.p.p.p.t.p.p.p.r.p.a.p.p.p.p.p.p.p.p.p.p.p.t.t.t.t.t.t.t.4.;.;.;.;.;.;.@.t.t.t.4.@.<.@.X.[ o.4.G J o.t.q.q.t.q.q.q.t.t.t.t.q.q.t.t.4.4.4.@.@.t.t.t.4.,.@.o.@.;.@.o.o.@.@.@.#.o.o.[ S [ %.G S X.o.A l z j g , 5 > o X X > l l 8 , E P.-.P J *.t.a.p.u.t.t.p.w.,.q.q.p.t.;.=.R J z z k R ",
"z * &.%.z Z P %.4.t.u.t.t.t.4.o.@.u.q.q.q.@.;.X.A j j k P.:.g * * > 4 o o > > , i i i j J S S [ #. .{ [ S A  .o.#.[ [ o.@.@.@.@.@.%.G G J A [ @.@.t.t.t.4.@.@.t.4.<.@.;.;.;.,.,.@.@.@.@.@.@.t.;.o.o.o.o.;.;.;.4.4.,.0.;.*.X.&.&.{ o.;.@.;.o.;.;.@.@.t.t.t.t.t.t.t.p.p.t.t.t.p.p.t.t.t.t.t.t.t.q.q.t.q.q.q.t.p.p.a.a.p.p.p.p.p.t.4.4.t.t.p.p.p.t.t.t.t.t.t.t.t.t.u.a.a.a.a.p.a.p.t.q.t.t.t.t.t.t.p.a.a.p.p.p.t.t.t.q.p.t.t.t.p.t.q.q.t.4.%.G -.P.2., . > 0 o.4.4.o.a P s .     . lXlXlXlXlXlXlXlXlXlXlXlXlXlXlXlXlXlXlXlXlXlXlXlXlXlXlXlXlXlXlXlXlXlXlXlXlXlXlXlXlXlXlXlXlXlXlXlXlXlXlXlXlXlXlXlXlXlXlXlXlXlXlXlXlXlXlXlXlXlXlXlXlXlXlXlXlXlXlXlXlXlXlXlXlXlXlXlXlXlXlXlXlXlXlXlXlXlXlXlXlXlXlXlXlXlXlXlXlXlXlXlXlXlXlXlXlXlXlXlXlXlXlXlXlXlXlXlXlXlXlXlXlXlXlXlXlXlX% x s a *.0...A 5 o X A Q.5.5.t.t.p.p.p.p.p.p.p.p.t.t.u.t.,.q.t.p.p.p.p.p.p.p.4.,.t.t.p.t.t.q.t.p.p.w.q.p.t.t.t.t.p.p.t.t.p.p.p.p.p.p.p.p.p.p.p.t.t.t.4.4.t.t.q.q.q.t.t.t.t.t.t.p.p.a.a.p.q.q.q.t.q.p.p.p.p.a.a.a.a.a.a.u.u.u.u.t.t.,.q.t.t.t.4.;.*.4.t.;.;.4.t.t.t.;.o.@.@.#. .o.;.G S ;.t.q.q.t.t.,.4.t.t.t.t.t.t.t.t.q.4.t.4.+.q.4.4.:.o.o.@.,.@.@.@.,.q.q.+.@.&.[ A [ o.o.[ ] [ [ A z z j , = g , % X . > l l 5 , R H.Q P J &.t.p.t.u.;.4.t.t.q.q.e.t.4.*.*.=.R z z k R ",
"z * &.=.k P P $.*.;.t.t.t.t.4.o.#.t.t.t.t.@.o.[ A j k J P.2.5 * * * 4 o # > > , i i i i l S [ #.@.#.@.o.#.[ #.o.#. .o.@.@.@.@.@.o.G J G G { o.;.@.4.t.q.,.@.@.<.4.4.;.&.o.;.4.4.@.;.;.;.@.o.&.S G G $.G *.;.@.<.4.4.4.;.@.;.;.*.{ { &.;.;.@.@.;.@.@.t.t.@.@.,.t.t.t.t.t.t.t.t.t.t.t.t.t.t.p.q.q.q.t.p.t.p.a.a.p.p.a.a.p.p.p.p.t.o.4.u.t.p.a.t.t.t.t.q.q.t.u.u.u.u.a.a.s.s.s.s.a.p.t.q.q.q.q.p.p.a.a.p.p.t.t.p.p.e.e.p.q.q.q.q.q.q.q.;.&.{ J R H.:.5 X > 0 [ @.4.X.a I p .       lXlXlXlXlXlXlXlXlXlXlXlXlXlXlXlXlXlXlXlXlXlXlXlXlXlXlXlXlXlXlXlXlXlXlXlXlXlXlXlXlXlXlXlXlXlXlXlXlXlXlXlXlXlXlXlXlXlXlXlXlXlXlXlXlXlXlXlXlXlXlXlXlXlXlXlXlXlXlXlXlXlXlXlXlXlXlXlXlXlXlXlXlXlXlXlXlXlXlXlXlXlXlXlXlXlXlXlXlXlXlXlXlXlXlXlXlXlXlXlXlXlXlXlXlXlXlXlXlXlXlXlXlXlXlXlXlXlX$ h s a *.;...A 5 o X A Q.2.5.t.u.t.t.t.t.p.p.p.u.t.4.4.4.@.,.t.p.p.q.t.p.p.p.4.4.q.q.t.t.t.q.q.t.p.p.e.q.q.q.q.q.p.p.t.t.t.p.e.a.a.a.p.w.e.p.p.t.q.t.4.4.t.t.t.t.t.t.t.t.4.t.t.a.a.p.p.q.t.t.t.q.q.t.t.p.p.p.p.p.a.p.p.q.t.t.t.4.4.4.4.t.t.q.4.;.;.@.4.;.o.4.4.,.@.@.;.4.4.4.;.;.4.;.@.4.t.t.t.t.4.<.<.4.t.t.t.t.t.4.,.,.4.,.@.#.@.;.*.W %.;.t.t.q.,.,.q.q.q.@.@.o. .X.@.,.@.o.#. .[ A J l j , = g 5 * X . > l l 5 , %.P.Q R R &.4.u.p.u.4.o.4.t.q.e.e.t.@.o.=.%.R z k k R ",
"J * &.=.Z Z P $.&.;.@.q.t.t.t.@.,.t.q.t.q.#.S A A l l k P.2.5 * * * 4 o # > > , i e i , l A  .o.@.@.,.@.@.#.@.@.o.o.o.o.@.@.<.@.o.S A { o.o.@.@.@.@.,.q.,.@.@.<.@.o.o.{ X.:.4.;.o.o.;.4.;.%.G J G J R R G X.o.o.4.;.;.*.#.o.*.*.X.G $.o.o.@.@.@.4.4.,.,.,.,.q.t.t.p.w.t.p.p.u.u.u.t.p.p.t.t.q.p.p.p.p.p.t.t.t.a.a.a.a.a.p.p.p.t.o.4.u.u.u.u.t.t.t.q.9.t.t.a.a.t.u.a.a.a.a.s.s.a.a.p.p.p.p.p.p.a.a.a.p.p.p.p.p.p.e.e.q.q.9.@.q.q.q.q.@.o.%.J G -.-.g X > 0 ] o.@.X.a I p .   X   lXlXlXlXlXlXlXlXlXlXlXlXlXlXlXlXlXlXlXlXlXlXlXlXlXlXlXlXlXlXlXlXlXlXlXlXlXlXlXlXlXlXlXlXlXlXlXlXlXlXlXlXlXlXlXlXlXlXlXlXlXlXlXlXlXlXlXlXlXlXlXlXlXlXlXlXlXlXlXlXlXlXlXlXlXlXlXlXlXlXlXlXlXlXlXlXlXlXlXlXlXlXlXlXlXlXlXlXlXlXlXlXlXlXlXlXlXlXlXlXlXlXlXlXlXlXlXlXlXlXlXlXlXlXlXlXlXlX. p s i &.@...A 5 o X A Q.:.4.t.t.t.4.t.t.t.t.t.t.4.@.;.;.4.t.p.a.q.q.q.p.p.t.t.t.q.q.q.q.q.q.q.e.r.a.p.e.r.q.q.q.p.t.q.t.t.t.p.p.a.a.p.p.e.p.p.p.t.t.o.o.4.t.t.t.t.t.4.@.@.@.t.p.p.p.t.t.p.p.p.p.p.t.t.t.p.p.p.p.p.p.p.t.t.t.;.@.@.@.4.,.,.,.4.;.o.o.o.;.%.*.@.@.@.@.@.4.4.4.4.4.4.4.4.4.t.t.t.t.4.@.,.t.t.t.t.t.,.o.[ o.4.@.@.4.9.4.&.S X.4.t.,.t.q.@.,.t.,.,.#.#.o.4.4.t.t.,.@.#.#.[ A l j , = g 5 > X X , J A 7 , =.P.-.P R &.;.a.a.s.t.@.@.t.e.r.q.,.#.o.*.%.R z k j R ",
"J * &.=.k Z J $.*.4.t.t.t.t.u.t.t.q.q.q.q.#.[ S A l z z P.5.7 * * * 5 # # > > , i & , g l [ #.+.@.,.,.,.@.@.@.@.@.o.o.@.@.o.@.4.;.o.o.o.@.@.@.@.o.#.@.q.q.q.t.q.,.@.@.o.o.;.4.@.o.X.;.:.;.o.{ X.*.X.*.%.G G %.*.G F R =.W G G *.:.;.@.{ { @.,.,.t.;.@.4.t.t.t.t.t.q.t.t.u.t.t.u.u.t.t.t.t.p.t.q.t.q.t.p.a.a.a.a.a.a.a.p.p.p.p.t.4.t.u.u.u.4.4.t.t.q.q.p.p.p.p.p.a.a.a.a.a.s.a.a.a.a.a.a.a.a.a.a.a.a.a.p.p.p.p.p.e.q.q.q.q.9.9.q.q.,.@.X.%.G $.:.:.7 X - 9 ] #.@.X.a I p .       lXlXlXlXlXlXlXlXlXlXlXlXlXlXlXlXlXlXlXlXlXlXlXlXlXlXlXlXlXlXlXlXlXlXlXlXlXlXlXlXlXlXlXlXlXlXlXlXlXlXlXlXlXlXlXlXlXlXlXlXlXlXlXlXlXlXlXlXlXlXlXlXlXlXlXlXlXlXlXlXlXlXlXlXlXlXlXlXlXlXlXlXlXlXlXlXlXlXlXlXlXlXlXlXlXlXlXlXlXlXlXlXlXlXlXlXlXlXlXlXlXlXlXlXlXlXlXlXlXlXlXlXlXlXlXlXlXlX$ p s i o.t.#.] 5 o X A ~.5.5.t.t.q.4.t.t.t.t.t.q.+.@.@.t.t.p.a.p.t.q.q.t.t.t.p.p.p.t.q.q.q.w.r.r.a.a.a.p.p.p.w.q.p.t.q.q.t.p.p.p.a.p.e.p.e.p.p.t.t.q.S { ;.4.t.t.4.4.4.;.;.4.t.p.q.p.p.t.t.t.q.p.p.p.p.q.q.t.t.t.p.p.p.t.p.t.t.,.@.@.<.;.;.<.;.&.X.X.%.$.R R X.;.4.@.@.;.o.+.<.t.q.,.,.t.t.t.t.t.4.@.t.t.u.t.t.q.@.#. .@.4.,.,.t.t.u.;.#.o.,.q.q.q.q.@.@.@.@.@.+.#.@.,.q.q.q.,.,.@.@.[ l j j g = g 5 * X X > l l 7 , =.P.W Z R *.4.u.a.a.u.t.t.t.p.r.q.q.@.@.4.%.R J z s P ",
"J * &.=.z k J $.:.t.t.t.t.t.t.q.q.q.q.t.t.@.;.o.{ A z J P.:.7 * * * 4 # # > , , i & i g l [ #.@.@.@.,.q.t.,.,.@.@.o.o.@.@.o.@.4.4.4.4.@.@.@.@.@.;.@.,.t.t.q.t.q.q.t.t.4.o.@.4.@.o.&.;.;.@.o.o.@.4.o.4.4.=.%.=.%.J z R R R P R *.t.t.t.&.{ @.4.4.4.@.4.t.u.u.t.t.t.q.t.u.t.@.@.;.t.t.t.t.t.t.t.t.q.q.p.p.t.t.q.t.p.a.a.p.p.r.p.p.p.a.p.t.t.4.4.4.t.t.t.p.p.p.t.p.a.u.u.s.qXs.a.a.a.a.a.a.a.a.a.p.a.p.a.p.p.p.p.p.p.t.q.q.t.t.q.q.q.@.o.{ %.{ %.:.5.j X # 6 A #.@.X.a I p . X . . lXlXlXlXlXlXlXlXlXlXlXlXlXlXlXlXlXlXlXlXlXlXlXlXlXlXlXlXlXlXlXlXlXlXlXlXlXlXlXlXlXlXlXlXlXlXlXlXlXlXlXlXlXlXlXlXlXlXlXlXlXlXlXlXlXlXlXlXlXlXlXlXlXlXlXlXlXlXlXlXlXlXlXlXlXlXlXlXlXlXlXlXlXlXlXlXlXlXlXlXlXlXlXlXlXlXlXlXlXlXlXlXlXlXlXlXlXlXlXlXlXlXlXlXlXlXlXlXlXlXlXlXlXlXlXlXlXlX% k p i o.t.+.] 5 o X A =X5.5.4.t.t.t.t.q.e.r.p.q.q.t.t.t.p.e.r.p.p.p.p.p.t.t.p.p.p.p.t.t.q.w.p.r.r.r.r.a.p.a.p.p.p.p.p.t.t.t.t.t.p.p.p.p.q.t.p.t.t.4.*.*.4.4.4.4.;.4.4.4.4.t.t.p.t.t.t.q.q.q.q.q.t.p.p.q.q.q.t.q.t.p.p.t.t.p.w.q.t.4.4.;.&.o.&.&.&.*.%.z k J G o.;.;.;.*.o.@.t.p.t.t.t.t.t.t.4.t.4.,.t.t.t.t.t.t.q.4.4.4.t.q.q.q.t.t.q.,.,.,.q.q.q.q.q.+.#.o.@.@.,.@.,.,.@.,.,.,.@.#.[ A l j g , 5 , * X X * j j 7 5 =.P.-.P G *.t.t.p.a.a.u.u.t.p.q.t.t.t.4.4.&.G J z s P ",
"F , &.=.k Z J %.:.t.t.t.q.t.q.q.q.q.q.q.q.t.4.@.{ J z k 5.:.7 * * * > X o > , , i & i g l [ #.+.#.#.@.4.4.@.@.@.@.o.@.@.4.@.o.;.;.@.@.@.@.@.@.,.4.,.t.t.t.t.q.q.t.t.4.@.o.4.q.;.;.&.:.4.t.t.4.o.o.{ *.@.&.&.$.G G R R R P R P %.;.4.q.o.S S o.*.@.@.4.4.t.t.q.q.q.q.q.t.t.4.@.;.t.t.t.t.t.t.t.t.t.t.p.p.q.@.@.t.t.p.p.p.p.p.p.t.t.a.a.u.4.;.;.4.4.t.u.t.u.t.q.t.a.t.t.u.a.p.u.a.a.s.a.a.s.s.a.p.p.p.p.p.p.p.p.p.p.t.q.q.t.t.t.q.q.@.o.o.%.{ %.:.:.7 X # 4 l #.@.X.j E p . X X . lXlXlXlXlXlXlXlXlXlXlXlXlXlXlXlXlXlXlXlXlXlXlXlXlXlXlXlXlXlXlXlXlXlXlXlXlXlXlXlXlXlXlXlXlXlXlXlXlXlXlXlXlXlXlXlXlXlXlXlXlXlXlXlXlXlXlXlXlXlXlXlXlXlXlXlXlXlXlXlXlXlXlXlXlXlXlXlXlXlXlXlXlXlXlXlXlXlXlXlXlXlXlXlXlXlXlXlXlXlXlXlXlXlXlXlXlXlXlXlXlXlXlXlXlXlXlXlXlXlXlXlXlXlXlXlXlX  % k i i o.@.] A 5 o X A ~.5.:.:.t.u.p.p.p.p.e.e.p.t.t.t.t.t.p.e.p.p.p.p.t.t.t.t.t.t.t.t.t.p.e.r.r.r.r.r.r.p.p.p.p.p.p.p.p.t.t.q.q.t.a.a.t.t.q.t.t.4.4.t.4.4.4.;.;.;.:.*.*.*.4.t.p.t.t.@.@.t.t.w.q.t.p.p.q.q.t.p.t.t.t.p.t.t.t.e.t.t.t.4.*.o.G G $.&.*.%.k z { &.o.o.;.4.&.;.t.u.p.t.t.t.t.t.t.4.4.4.4.t.t.t.t.t.t.t.q.t.q.q.q.q.q.q.q.q.t.q.q.q.q.@.,.,.@.#.o.@.;.4.,.,.,.@.@.,.@.+.#.[ J l j 5 , 5 , * X X * g j 5 5 %.P.-.W G o.4.t.p.a.t.u.u.t.t.t.t.t.t.t.4.&.J z z k R ",
"G , *.=.Z R R $.*.4.t.t.t.t.q.t.t.t.t.q.q.t.4.o.[ l z k P.:.7 * * * > X # > , , i i i l l A  .#.#.#.o.o.o. .#.o.;.@.@.t.t.4.o.o.o.@.@.,.@.@.@.@.4.,.q.q.t.t.t.@.4.*.o.o.;.4.t.t.;.*.;.4.t.t.4.{ J G %.X.o.o.o.o.o.*.&.%.R R R R %.*.;.o.S J G G [ o.;.;.4.t.q.q.q.q.q.q.t.t.q.t.t.t.t.t.t.t.q.q.t.p.a.a.p.t.t.u.t.q.q.p.p.p.t.t.p.p.p.u.t.4.4.4.t.u.t.u.t.t.t.u.a.t.t.y.u.t.t.u.a.p.p.p.p.p.p.p.a.a.t.t.p.p.p.q.q.q.q.q.t.t.q.q.t.@.o.o.&.J G :.*.7 X # 4 0 ] #.[ i P p . X . . lXlXlXlXlXlXlXlXlXlXlXlXlXlXlXlXlXlXlXlXlXlXlXlXlXlXlXlXlXlXlXlXlXlXlXlXlXlXlXlXlXlXlXlXlXlXlXlXlXlXlXlXlXlXlXlXlXlXlXlXlXlXlXlXlXlXlXlXlXlXlXlXlXlXlXlXlXlXlXlXlXlXlXlXlXlXlXlXlXlXlXlXlXlXlXlXlXlXlXlXlXlXlXlXlXlXlXlXlXlXlXlXlXlXlXlXlXlXlXlXlXlXlXlXlXlXlXlXlXlXlXlXlXlXlXlXlXX % h a , [ #.] b 4 o . l Q.2.=.%.4.u.t.a.p.t.q.t.p.t.4.@.@.,.t.u.p.p.w.p.t.t.t.t.t.t.4.,.t.t.q.q.e.r.a.p.e.p.p.p.p.p.p.p.p.p.t.t.t.p.a.p.p.t.t.t.@.@.4.t.t.4.;.*.*.;.*.*.%.*.4.t.p.u.u.t.t.t.p.w.q.t.q.q.q.t.p.p.t.q.q.t.t.t.p.p.p.t.t.q.,.<.=.{ %.;.;.%.R o.4.t.4.4.@.;.;.;.t.t.t.t.t.t.t.t.t.4.o.@.4.t.t.q.,.4.t.t.q.q.t.t.t.q.q.,.,.q.t.t.q.q.,.,.,.,.@.@.@.o.o.o.4.4.,.@.@.@.@.#.[ A l j g , , 5 > * + X > j j 5 5 =.P.W F X.;.t.p.p.p.u.t.u.t.t.t.t.t.t.t.t.&.J z z k R ",
"R * *.=.J P R F %.4.u.u.t.t.t.t.t.t.t.@.@.4.4.o.o.A z k 5.:.g * # * > X # 4 , , i i j l l A ] #.@.@.o.o.{ [ o.@.4.4.4.t.t.<.X.X.o.@.4.t.t.,.,.,.@.@.@.q.t.t.,.4.;.;.4.4.;.;.u.u.4.*.&.;.4.4.;.S { *.;.@.@.@.,.,.,.,.;.;.;.;.*.%.$.=.4.,.;.X.{ { o.@.;.o.@.4.t.t.q.t.q.p.t.t.q.t.t.t.4.q.q.q.q.q.p.p.a.p.p.p.a.a.u.t.t.t.a.p.t.q.p.p.p.p.p.y.t.u.y.t.4.t.t.t.t.a.a.a.a.s.a.u.u.i.a.p.p.t.q.q.t.p.a.a.u.t.t.p.t.q.q.q.q.q.t.@.+.@.,.@.#.X.[ z J -.*.7 . # 4 0 ] ] A i P i . X .   lXlXlXlXlXlXlXlXlXlXlXlXlXlXlXlXlXlXlXlXlXlXlXlXlXlXlXlXlXlXlXlXlXlXlXlXlXlXlXlXlXlXlXlXlXlXlXlXlXlXlXlXlXlXlXlXlXlXlXlXlXlXlXlXlXlXlXlXlXlXlXlXlXlXlXlXlXlXlXlXlXlXlXlXlXlXlXlXlXlXlXlXlXlXlXlXlXlXlXlXlXlXlXlXlXlXlXlXlXlXlXlXlXlXlXlXlXlXlXlXlXlXlXlXlXlXlXlXlXlXlXlXlXlXlXlXlXX % j p i { @...l 5 o . l W.5.W G &.4.t.t.t.t.t.q.t.t.4.@.@.@.t.t.p.p.t.t.t.t.@.4.4.4.q.t.t.t.q.q.e.r.a.p.r.p.p.p.p.p.p.p.p.p.p.t.t.p.p.p.t.p.t.q.+.,.4.q.q.t.4.4.4.4.4.4.4.4.t.t.t.u.u.t.t.t.t.w.e.q.q.q.q.q.q.q.t.t.t.q.q.t.a.p.u.t.t.t.t.t.t.;.;.;.;.&.;.t.t.u.t.t.;.o.*.4.t.t.t.u.t.t.q.t.u.t.@.4.t.t.t.q.@.@.,.,.q.q.q.t.t.t.9.4.4.q.q.q.,.@.@.4.4.4.t.4.@.o.S [ @.4.,.,.@.@.#.#.[ J j i g , = 5 > * X . > l l 5 , =.P.W J X.4.t.a.a.a.a.p.u.t.t.t.t.,.t.t.t.*.A z z j J ",
"$.* *.*.R R R G *.t.u.u.t.t.t.t.t.t.4.@.@.4.4.@.o.[ J z 5.:.g * # * 5 X # > > , & i j l l A [ #.o.o.o.o.o.*.;.4.<.<.4.t.4.@.#.o.@.@.@.@.@.@.,.t.,.@.@.@.,.q.q.4.@.4.t.t.4.;.4.4.4.&.&.&.;.4.o.#.@.,.,.,.,.,.q.q.q.q.@.@.;.t.t.4.*.;.4.q.t.<.o.@.q.q.t.@.@.4.t.t.q.t.p.q.t.q.q.t.@.o.;.t.q.q.t.q.r.a.a.r.e.e.p.a.a.t.t.u.a.p.t.q.q.p.p.t.t.t.t.u.u.t.4.4.u.u.a.a.a.a.a.a.a.s.u.t.p.p.p.p.p.p.p.s.a.a.u.t.t.t.q.q.q.,.,.t.t.@.#.+.@.#.[ S A l { =.%.5 X # 9 ] ] ] l , Z , .       lXlXlXlXlXlXlXlXlXlXlXlXlXlXlXlXlXlXlXlXlXlXlXlXlXlXlXlXlXlXlXlXlXlXlXlXlXlXlXlXlXlXlXlXlXlXlXlXlXlXlXlXlXlXlXlXlXlXlXlXlXlXlXlXlXlXlXlXlXlXlXlXlXlXlXlXlXlXlXlXlXlXlXlXlXlXlXlXlXlXlXlXlXlXlXlXlXlXlXlXlXlXlXlXlXlXlXlXlXlXlXlXlXlXlXlXlXlXlXlXlXlXlXlXlXlXlXlXlXlXlXlXlXlXlXlXlX  % j p a &.0...0 > o . l y.5.%.G &.4.t.t.,.t.t.t.t.t.t.t.t.t.t.t.p.q.q.t.u.t.#.o.@.t.t.t.t.u.t.q.e.r.a.p.p.q.t.t.t.t.p.p.p.t.t.t.p.a.p.p.u.p.p.t.t.t.p.t.p.t.4.4.t.t.t.t.u.u.t.t.t.t.t.4.,.q.t.e.e.e.e.p.e.e.p.r.p.p.p.q.q.q.t.t.t.t.t.t.t.t.p.t.4.:.;.;.4.q.q.t.t.u.t.;.;.4.u.t.t.t.t.q.t.t.u.u.t.t.t.t.t.t.4.@.@.@.t.q.q.q.q.t.@.@.t.q.q.q.,.@.@.;.t.,.,.t.,.*.o.#.@.,.,.+.@.+.#.#.[ A j a g , = 5 > * o X > l l 5 , =.U.-.R %.4.t.a.p.a.a.p.u.t.t.4.4.,.t.u.t.;.{ J z k J ",
"$.* :.*.J J G %.4.t.u.u.t.t.,.t.t.4.;.#.@.4.t.@.@.[ J z 5.:.7 * # * 8 # + > > , & i a j J S [ o.o.+.o.o.;.4.;.@.@.@.@.4.4.;.@.@.4.<.@.+.+.@.,.,.q.,.@.@.,.,.q.,.@.@.q.t.t.t.@.@.@.&.%.&.*.4.;.<.@.,.,.t.t.q.q.q.q.t.,.@.4.t.p.t.;.o.@.t.t.4.,.t.t.p.@.@.@.;.t.q.q.q.q.q.q.t.t.t.#.A X.4.t.q.t.t.r.r.p.e.e.r.p.a.p.p.t.t.t.p.q.q.q.t.t.u.t.*.4.t.u.t.t.u.t.u.a.a.p.p.a.a.s.s.t.<.,.t.p.p.a.a.a.a.a.a.t.t.t.t.,.q.q.@.@.@.t.@.@.@.o.o.S A z z J =.%.5 X # 9 ] ] ] A , z ,       X lXlXlXlXlXlXlXlXlXlXlXlXlXlXlXlXlXlXlXlXlXlXlXlXlXlXlXlXlXlXlXlXlXlXlXlXlXlXlXlXlXlXlXlXlXlXlXlXlXlXlXlXlXlXlXlXlXlXlXlXlXlXlXlXlXlXlXlXlXlXlXlXlXlXlXlXlXlXlXlXlXlXlXlXlXlXlXlXlXlXlXlXlXlXlXlXlXlXlXlXlXlXlXlXlXlXlXlXlXlXlXlXlXlXlXlXlXlXlXlXlXlXlXlXlXlXlXlXlXlXlXlXlXlXlXlXlX  % j s a { o.] 0 , o . l W.P.=.R =.:.4.4.@.t.t.t.t.4.t.4.t.t.t.t.q.q.q.t.t.t.@.[ @.t.t.@.@.4.4.t.t.p.a.p.r.p.t.4.4.4.u.p.p.t.t.t.u.u.u.u.u.t.t.p.p.p.p.r.p.p.4.;.t.t.q.t.t.t.t.q.q.t.t.q.,.q.t.p.q.q.e.p.p.p.t.p.p.p.p.t.t.q.t.q.q.q.t.t.t.t.t.4.;.&.&.o.4.q.q.t.p.a.u.u.4.t.a.a.t.t.t.t.t.t.p.a.a.t.t.t.t.t.t.t.4.,.t.q.q.q.q.q.@.,.t.q.q.q.q.t.4.t.t.,.@.@.q.4.4.4.,.,.,.+.#.#.o.o.[ J z k g , = 5 > * o X , l l 5 , =.5.-.R &.4.t.t.t.u.p.t.t.t.4.;.@.t.a.a.t.@.o.A J z G ",
"$.= :.*.Z J G &.4.t.u.t.u.t.4.4.4.:.*.o.<.t.4.@.@.[ z z 5.:.5 * # * 8 # X * * , & i i j z J A { o.@.@.o.@.4.4.4.t.;.;.;.;.;.;.4.4.,.,.,.q.q.,.q.q.@.@.4.4.,.@.@.t.t.q.q.t.u.4.4.4.*.&.%.%.;.@.@.,.t.t.@.@.,.q.q.t.q.,.@.,.,.t.t.;.o.o.t.t.4.4.4.t.t.@.@.o.@.4.,.q.q.q.q.t.p.t.t.;.[ S ;.t.q.q.t.p.p.p.p.p.p.p.p.p.p.t.t.t.t.e.r.p.t.p.u.4.X.:.t.u.p.a.a.t.u.a.a.p.p.a.a.s.i.4.+.,.t.p.p.p.p.p.p.p.a.u.t.t.t.t.t.@.@.+.@.@.@.@.@.o.G A z z j z $.%.5 X # 4 0 A [ A , s :   X X o lXlXlXlXlXlXlXlXlXlXlXlXlXlXlXlXlXlXlXlXlXlXlXlXlXlXlXlXlXlXlXlXlXlXlXlXlXlXlXlXlXlXlXlXlXlXlXlXlXlXlXlXlXlXlXlXlXlXlXlXlXlXlXlXlXlXlXlXlXlXlXlXlXlXlXlXlXlXlXlXlXlXlXlXlXlXlXlXlXlXlXlXlXlXlXlXlXlXlXlXlXlXlXlXlXlXlXlXlXlXlXlXlXlXlXlXlXlXlXlXlXlXlXlXlXlXlXlXlXlXlXlXlXlXlXlXlX  % j s i j l 0 l 5 o . A W.U.$.R R R R &.4.t.u.u.t.,.4.4.4.t.t.t.@.t.t.t.t.t.t.@.t.u.4.o.o.;.@.t.t.p.a.p.r.p.t.o.[ o.t.t.p.p.p.a.q.@.4.u.t.q.q.e.p.p.p.p.p.p.t.;.t.t.p.p.p.p.p.e.q.e.p.t.q.t.p.t.q.q.q.q.p.t.q.p.p.p.p.p.t.t.t.t.q.q.t.t.t.t.t.@.o.[ [ o.@.t.t.p.p.p.a.a.u.t.t.u.a.t.t.t.t.t.p.a.p.t.t.p.q.q.t.t.t.t.,.q.t.q.q.,.4.,.t.t.t.q.t.4.@.4.4.4.,.@.q.q.t.t.q.q.,.@.#.#.o.o.A l j j j i = 5 > * o . > l A 7 , *.P.-.R &.4.t.u.t.t.t.t.4.4.4.;.4.t.a.u.t.@.o.A z z G ",
"=.* :.%.Z F G &.4.t.u.u.u.u.t.4.o.&.:.;.<.4.4.@.o.A l z 5.:.7 * # * 5 X X * , , & e i r a h z J o.;.;.@.@.@.4.t.t.;.*.X.X.o.;.4.4.4.4.4.q.q.t.t.q.@.@.@.4.4.@.,.t.t.q.q.q.t.;.;.<.;.&.X.X.@.@.,.,.q.,.@.#.@.q.t.q.q.,.@.@.4.t.4.@.;.:.:.*.*.o.o.o.@.t.4.@.o.@.@.q.q.t.p.t.u.u.u.t.4.@.@.q.e.e.q.t.t.t.q.t.p.p.p.p.p.p.t.t.p.p.a.a.p.u.t.;.X.4.t.u.p.p.a.a.a.p.p.a.a.a.a.a.u.t.t.u.a.p.p.a.p.p.p.t.t.u.t.t.4.4.4.q.,.+.+.@.@.@.@.z j g j k j J R R 5 . X > 7 l A A , r r         lXlXlXlXlXlXlXlXlXlXlXlXlXlXlXlXlXlXlXlXlXlXlXlXlXlXlXlXlXlXlXlXlXlXlXlXlXlXlXlXlXlXlXlXlXlXlXlXlXlXlXlXlXlXlXlXlXlXlXlXlXlXlXlXlXlXlXlXlXlXlXlXlXlXlXlXlXlXlXlXlXlXlXlXlXlXlXlXlXlXlXlXlXlXlXlXlXlXlXlXlXlXlXlXlXlXlXlXlXlXlXlXlXlXlXlXlXlXlXlXlXlXlXlXlXlXlXlXlXlXlXlXlXlXlXlXlX  o i i i j l 7 j , X . l W.U.W R z k k %.4.t.u.t.t.4.4.<.@.4.t.t.t.t.t.a.a.u.t.t.u.u.t.4.4.4.t.t.p.p.p.r.e.p.u.t.*.o.4.a.p.e.p.a.q.,.t.a.t.q.e.p.a.p.p.p.p.a.u.u.u.t.e.e.e.e.r.p.p.e.p.p.p.q.t.t.q.q.t.t.t.t.t.t.p.p.p.t.q.q.t.t.t.t.u.u.u.u.,.<.@.@.;.4.t.p.p.p.p.p.p.a.a.t.t.u.u.t.,.t.t.p.p.p.q.p.t.q.t.p.t.q.q.,.@.q.t.q.q.,.4.4.<.<.4.4.4.o.S X.*.1.*.;.t.t.q.q.t.t.,.@.@.o.[ A l l j g g , = 5 , * o . > A A 7 , *.U.-.R &.4.t.y.y.u.p.u.4.&.*.4.t.t.u.t.4.;.X.A z l G ",
"&.> :.=.Z P R %.*.4.t.t.t.t.t.4.o.o.;.;.o.@.;.o.X.A l z 5.:.7 * * * 5 X X # , , & w w e p k z G o.o.@.@.@.@.<.;.;.;.;.*.X.X.;.4.,.@.@.,.,.,.q.q.,.,.@.#.#.@.;.q.@.@.@.q.;.o.J [ o.4.;.o.#.+.@.,.,.@.@.@.@.@.q.q.q.q.q.,.@.;.0.@.@.;.:.R R %.X.{ S { t.4.@.o.@.t.t.t.q.t.t.t.u.u.t.u.t.t.q.e.e.q.q.q.q.q.q.t.p.p.p.p.p.p.t.t.p.p.p.t.t.4.@.4.t.u.p.p.p.p.a.a.a.a.s.s.a.a.a.a.p.p.a.p.p.p.a.a.a.p.t.t.t.t.4.#.#.@.t.,.@.@.@.,.@.o.A g , i g j J R R g X o > 7 j A A , f d .       lXlXlXlXlXlXlXlXlXlXlXlXlXlXlXlXlXlXlXlXlXlXlXlXlXlXlXlXlXlXlXlXlXlXlXlXlXlXlXlXlXlXlXlXlXlXlXlXlXlXlXlXlXlXlXlXlXlXlXlXlXlXlXlXlXlXlXlXlXlXlXlXlXlXlXlXlXlXlXlXlXlXlXlXlXlXlXlXlXlXlXlXlXlXlXlXlXlXlXlXlXlXlXlXlXlXlXlXlXlXlXlXlXlXlXlXlXlXlXlXlXlXlXlXlXlXlXlXlXlXlXlXlXlXlXlXlX  o i a w k l j , * o . l W.5.E R R J Z G *.@.@.4.4.4.4.@.@.,.t.t.t.u.t.p.p.t.t.t.t.p.p.p.u.u.t.p.p.a.a.p.a.p.t.u.u.u.u.u.p.u.p.a.a.p.p.p.t.e.e.e.p.e.w.p.p.a.a.a.a.q.e.e.e.e.r.p.a.p.p.p.e.q.t.t.t.t.t.t.t.t.t.t.t.t.t.t.u.t.t.@.@.@.@.@.@.4.4.t.t.t.u.t.t.t.p.p.a.p.p.a.p.p.u.t.4.@.@.t.u.p.p.p.q.p.t.t.t.t.q.q.,.q.,.q.t.t.q.@.@.4.@.o.@.;.*.*.X.o.*.%.X.o.;.t.q.q.4.4.<.@.@.o.[ A J z j g i , , g 5 * o X , J A 5 , =.U.-.R %.:.:.5.5.y.u.a.t.@.;.4.t.4.;.4.;.*.X.J z j G ",
"X.> 4.*.J R R R %.:.4.4.4.t.t.4.@.;.4.;.o.o.{ { { J l z 5.5.7 * # * 5 o o * 5 , & w w r k J G [ o.@.@.@.@.@.o.%.%.&.4.4.*.X.@.4.,.o.@.4.4.t.@.@.q.q.,.o.#.#.@.@.@.@.@.@.o.&.J S #.,.q.,.q.,.@.@.@.@.@.4.@.@.q.q.t.t.t.t.q.t.t.t.,.4.:.R R *.4.o.#.o.@.@.@.@.@.t.t.q.q.9.q.t.t.t.q.u.4.@.t.q.q.q.q.q.q.q.q.q.p.p.p.p.p.p.t.t.p.p.p.q.t.t.4.u.u.a.p.p.a.a.a.a.a.s.s.a.a.p.p.p.p.p.p.p.a.p.p.a.a.a.t.t.t.t.4.o.o.4.t.,.,.q.t.,.@.#.S A l j j l J $.$.7 . X > 5 j A l i B M.$       lXlXlXlXlXlXlXlXlXlXlXlXlXlXlXlXlXlXlXlXlXlXlXlXlXlXlXlXlXlXlXlXlXlXlXlXlXlXlXlXlXlXlXlXlXlXlXlXlXlXlXlXlXlXlXlXlXlXlXlXlXlXlXlXlXlXlXlXlXlXlXlXlXlXlXlXlXlXlXlXlXlXlXlXlXlXlXlXlXlXlXlXlXlXlXlXlXlXlXlXlXlXlXlXlXlXlXlXlXlXlXlXlXlXlXlXlXlXlXlXlXlXlXlXlXlXlXlXlXlXlXlXlXlXlXlXlX  . , i w k J j , * o X A W.5.R P W R J G %.[ #.,.4.4.4.;.@.4.t.q.4.t.u.p.t.t.a.p.p.r.a.a.p.p.p.p.p.a.a.a.a.a.p.p.p.a.a.t.4.t.u.a.a.a.r.r.e.e.e.r.r.q.q.p.p.p.a.p.p.q.e.e.e.e.e.p.p.p.p.p.p.t.t.,.q.t.p.p.t.q.t.t.t.t.t.t.u.t.t.#.@.4.@.#.#.4.t.t.t.t.p.p.r.t.t.p.a.p.p.u.p.p.u.4.o.o.@.t.t.t.t.t.t.t.t.t.q.,.q.q.t.t.q.q.p.p.q.@.@.<.4.4.@.@.o.o.4.4.;.o. .o.;.t.t.@.@.@.;.@.o.o.{ G R J z j i , = g 5 * o X , A A 5 * $.P.-.R =.=.R E =.y.i.u.u.4.4.t.t.@.o.;.*.%.G J z k G ",
"{ > :.*.J R R R R ;.4.4.,.4.t.t.4.t.t.t.;.*.o.{ { z z J P.5.j * o > 7 # X # 5 , & w w a z J S [ #.o.@.4.4.@.o.X.%.&.4.5.4.o.o.4.4.@.@.;.4.;.@.@.q.t.4.4.@.o.o.+.;.;.;.o.o.;.$.{ o.4.q.q.q.t.,.+.@.@.4.t.4.,.,.q.t.t.t.t.q.t.t.t.t.t.4.$.*.4.t.,.@.o.@.@.@.o.#.@.q.9.@.@.#.,.t.t.t.t.@.@.q.q.q.q.q.q.q.q.q.q.p.q.p.p.t.t.q.t.p.t.t.t.t.t.t.a.a.a.p.p.a.a.u.a.a.s.s.a.p.p.p.p.p.p.p.p.a.p.p.p.p.p.p.p.t.t.t.4.t.t.t.,.4.4.,.,.@.#. .A J J J J A E =.5 X # * , j l 7 i n.A.&       lXlXlXlXlXlXlXlXlXlXlXlXlXlXlXlXlXlXlXlXlXlXlXlXlXlXlXlXlXlXlXlXlXlXlXlXlXlXlXlXlXlXlXlXlXlXlXlXlXlXlXlXlXlXlXlXlXlXlXlXlXlXlXlXlXlXlXlXlXlXlXlXlXlXlXlXlXlXlXlXlXlXlXlXlXlXlXlXlXlXlXlXlXlXlXlXlXlXlXlXlXlXlXlXlXlXlXlXlXlXlXlXlXlXlXlXlXlXlXlXlXlXlXlXlXlXlXlXlXlXlXlXlXlXlXlXlX  . & i r z l 5 , * o . A W.5.R J R W G R &.S o.,.4.4.t.4.t.t.u.t.4.4.t.t.p.p.p.e.a.a.a.a.a.a.p.a.p.t.t.t.a.a.a.p.r.p.a.u.4.;.4.t.p.a.r.a.p.e.e.r.p.q.q.t.p.p.p.p.p.p.p.p.p.p.p.p.p.p.p.p.p.t.q.+.@.t.p.p.t.q.t.t.t.4.@.@.4.@.o.#.4.4.4.@.4.t.t.t.q.t.p.p.a.t.t.p.a.p.p.p.p.p.u.4.;.4.4.t.t.t.t.t.t.t.t.t.q.q.t.t.t.t.t.t.t.t.q.@.,.,.t.t.4.@.o.o.t.t.4.@.@.@.t.t.4.@.[ X.;.;.o.X.{ $.$.R k j i , , 5 > * X . , J A 5 * $.P.-.E -.=.P R $.t.i.t.t.t.t.t.t.,.@.o.%.W F Z k k P ",
"J * :.%.Z R R P W 4.t.t.4.:.;.4.t.t.t.t.t.4.;.o.{ z z z P.5.j # X 4 7 % X # , , & w w r g z A [ o.o.o.;.4.;.*.&.%.*.4.4.4.@.o.;.4.@.@.@.;.o.[ o.,.,.@.@.@.@.@.@.*.%.%.o.@.@.X.G $.;.q.q.q.q.q.@.+.@.@.,.,.4.q.q.q.t.t.t.q.q.t.t.t.4.4.*.4.t.q.q.t.@.@.@.@.#.#.@.q.q.,.@.o.@.t.t.t.t.t.t.t.t.q.q.q.q.t.t.t.p.p.t.t.t.t.q.q.t.p.p.p.u.u.u.u.a.a.a.p.p.p.a.a.p.p.a.a.a.a.a.p.p.p.p.p.a.p.p.p.p.p.a.p.p.t.t.u.u.t.t.4.t.4.<.+.@.o.o.X.S K W W P z P -.< X # # > 7 j g i n.D.&       lXlXlXlXlXlXlXlXlXlXlXlXlXlXlXlXlXlXlXlXlXlXlXlXlXlXlXlXlXlXlXlXlXlXlXlXlXlXlXlXlXlXlXlXlXlXlXlXlXlXlXlXlXlXlXlXlXlXlXlXlXlXlXlXlXlXlXlXlXlXlXlXlXlXlXlXlXlXlXlXlXlXlXlXlXlXlXlXlXlXlXlXlXlXlXlXlXlXlXlXlXlXlXlXlXlXlXlXlXlXlXlXlXlXlXlXlXlXlXlXlXlXlXlXlXlXlXlXlXlXlXlXlXlXlXlXlX  . & i , j j , , * . X l U.5.R J { %.%.&.;.o.;.@.@.4.t.t.u.s.s.u.t.t.t.a.a.a.a.p.p.p.r.r.a.a.p.a.a.t.q.t.a.a.p.p.p.p.u.t.@.@.4.t.r.r.r.p.t.p.t.e.q.t.q.q.p.a.p.t.t.p.p.p.p.p.p.p.p.q.e.e.t.t.t.q.q.t.t.p.t.t.t.t.4.4.,.4.t.4.@.0.t.4.,.,.4.t.p.t.t.t.p.p.p.p.t.t.p.p.p.p.a.t.p.t.t.t.t.t.t.t.q.t.t.t.t.q.t.t.t.t.t.t.t.q.q.q.q.q.q.t.4.t.4.,.@.@.t.t.q.,.q.q.t.q.,.@.{ { &.*.o.X.G G G R k k i , , 7 > * X X > J A 5 * R H.E R E =.E -.4.t.t.4.@.t.t.q.q.t.,.@.%.W R Z k k R ",
"G * :.=.J P $.=.:.4.4.y.y.4.o.@.4.t.q.q.q.t.4.@.{ z z J P.:.j * # > 8 * X # > , & w e i g l A [ o.o.X. .X.;.:.*.%.;.4.4.4.@.@.;.4.;.@.o.o.#. .o.@.@.@.@.@.@.t.@.o.F G o.@.@.X.{ o.;.,.q.q.q.q.,.,.,.,.@.@.@.,.q.q.q.q.q.q.t.t.4.4.4.4.%.4.t.t.t.t.t.@.@.@.@.@.,.q.q.q.,.t.t.t.t.t.t.t.t.u.t.q.q.t.t.t.t.t.p.p.p.t.t.t.q.q.t.p.p.p.t.p.p.p.a.a.a.a.a.p.p.p.p.a.a.a.a.p.p.a.a.p.p.p.p.t.t.p.p.p.a.p.p.a.t.t.t.t.4.@.,.@.@.@.@.@.*.X.W R ! H.W J E -.7 X X o % , g i i n.n.& .     lXlXlXlXlXlXlXlXlXlXlXlXlXlXlXlXlXlXlXlXlXlXlXlXlXlXlXlXlXlXlXlXlXlXlXlXlXlXlXlXlXlXlXlXlXlXlXlXlXlXlXlXlXlXlXlXlXlXlXlXlXlXlXlXlXlXlXlXlXlXlXlXlXlXlXlXlXlXlXlXlXlXlXlXlXlXlXlXlXlXlXlXlXlXlXlXlXlXlXlXlXlXlXlXlXlXlXlXlXlXlXlXlXlXlXlXlXlXlXlXlXlXlXlXlXlXlXlXlXlXlXlXlXlXlXlXlX  % m P , g g , * * o X l y.5.J Z %.*.*.4.t.@.4.4.4.4.4.4.u.s.s.u.t.t.a.p.a.a.a.p.p.r.r.r.a.a.p.a.a.a.p.p.a.p.p.p.p.p.p.q.t.t.t.p.r.r.r.p.q.q.t.t.t.t.q.p.p.q.t.t.t.p.p.p.p.t.q.q.p.p.t.q.t.t.t.t.t.t.q.q.t.t.t.4.t.t.u.t.t.4.4.q.,.@.4.4.,.t.t.t.t.t.t.p.a.a.t.p.p.a.a.p.t.p.a.u.t.4.4.t.t.t.t.t.t.t.t.q.q.t.t.t.q.q.q.q.q.q.q.q.q.4.,.,.,.q.,.,.q.q.q.q.t.t.t.t.4.@.;.*.&.o.*.&.X.[ A J z k i , , 5 > * X X > J S j = R P.W z J $.=.:.t.t.4.o.+.q.t.q.t.t.t.4.4.-.Q P k k R ",
"J * 4.*.P R $.=.:.:.*.5.5.4.o.@.t.t.q.q.q.q.@.@.o.A z z 5.:.j * # 4 6 * . o , , & & & i i l [ o.@.@.X.S [ 4.4.4.@.@.4.4.4.4.<.@.@.o.o.o.@.@.@.4.q.,.@.@.@.t.t.4.X.J G o.@.4.o.X.o.@.,.q.q.q.q.,.,.,.,.,.@.@.,.q.q.q.q.q.q.t.4.*.;.4.4.W %.;.t.t.t.4.o.o.@.@.t.q.q.q.q.q.t.t.q.@.@.t.t.u.t.t.t.q.t.t.t.t.q.t.p.q.q.q.q.q.q.t.t.p.p.p.p.p.p.p.p.a.a.p.p.p.a.s.s.a.p.t.t.p.a.a.p.a.a.p.p.p.p.p.a.a.p.t.p.p.t.t.p.t.,.@.@.@.@.o.X.=.1.W Y N.L.E J W Q g X . : : , < i i n.n.& .     lXlXlXlXlXlXlXlXlXlXlXlXlXlXlXlXlXlXlXlXlXlXlXlXlXlXlXlXlXlXlXlXlXlXlXlXlXlXlXlXlXlXlXlXlXlXlXlXlXlXlXlXlXlXlXlXlXlXlXlXlXlXlXlXlXlXlXlXlXlXlXlXlXlXlXlXlXlXlXlXlXlXlXlXlXlXlXlXlXlXlXlXlXlXlXlXlXlXlXlXlXlXlXlXlXlXlXlXlXlXlXlXlXlXlXlXlXlXlXlXlXlXlXlXlXlXlXlXlXlXlXlXlXlXlXlXlX  : v.z., = , > > * . X l 7.:.W H.U.3.2.4.i.,.q.4.4.;.4.t.i.s.s.a.t.p.p.p.p.p.p.t.p.p.p.p.a.p.a.a.a.a.a.a.a.a.r.r.p.p.p.q.q.t.p.p.e.e.r.p.q.q.q.t.t.q.t.p.t.q.q.q.q.p.p.p.p.t.q.q.t.u.t.,.t.t.t.p.p.q.q.t.t.t.4.@.4.t.u.t.t.@.,.q.,.;.4.t.t.t.p.p.a.t.t.p.a.a.p.p.p.u.t.t.t.p.a.u.4.o.o.4.t.t.t.t.t.t.q.q.t.t.t.t.q.q.q.q.t.q.q.q.t.4.@.@.q.q.q.q.q.q.,.,.q.t.t.t.t.,.4.4.;.@.o.o.o.o. .S l j 5 , , 5 > * X X > J A 7 , R 5.=.z J %.&.*.t.t.t.@.,.t.t.q.q.t.t.t.5.5.Q P x k P ",
"J * 4.*.P E =.*.:.*.*.:.4.4.4.4.t.t.q.q.q.q.@.@.o.A z z 5.5.j * # 4 6 # . o , , & & & i g A ] +.@.@.@.#.#.4.t.t.t.t.4.4.t.4.,.,.;.X.o.o.@.4.t.t.t.t.t.t.t.t.t.;.X.G X.;.4.4.*.o.o.@.4.t.t.t.4.@.,.t.t.,.+.@.,.t.q.q.q.q.t.t.;.=.4.t.4.*.G { 4.t.,.+.#.o.@.,.t.q.q.q.q.q.q.q.q.q.t.t.t.t.q.q.q.q.q.q.q.t.t.t.q.q.q.q.t.t.q.t.t.p.p.e.e.t.p.p.p.s.a.p.p.a.s.s.s.a.t.t.t.p.p.a.a.a.a.s.a.p.p.p.a.a.p.t.t.t.t.t.t.t.9.@.@.@.o.=.1.K.3.~ K. XL.E J R Q g X : I a , < , , b.n.& X     lXlXlXlXlXlXlXlXlXlXlXlXlXlXlXlXlXlXlXlXlXlXlXlXlXlXlXlXlXlXlXlXlXlXlXlXlXlXlXlXlXlXlXlXlXlXlXlXlXlXlXlXlXlXlXlXlXlXlXlXlXlXlXlXlXlXlXlXlXlXlXlXlXlXlXlXlXlXlXlXlXlXlXlXlXlXlXlXlXlXlXlXlXlXlXlXlXlXlXlXlXlXlXlXlXlXlXlXlXlXlXlXlXlXlXlXlXlXlXlXlXlXlXlXlXlXlXlXlXlXlXlXlXlXlXlXlX  r n.M , % i j i % . . l 5.2.H.}.,XOXXX[.U.@.q.@.@.q.q.t.u.u.u.t.p.p.p.e.e.q.q.q.t.p.a.a.p.p.a.a.a.a.a.a.a.a.r.e.e.r.p.e.q.q.e.e.e.e.p.p.q.q.q.u.t.t.t.p.t.u.t.t.t.p.p.p.p.t.t.t.t.t.@.@.t.t.t.q.p.t.q.t.t.t.4.4.t.t.t.q.t.,.@.t.4.o.{ &.4.t.p.a.t.t.t.p.a.a.p.p.p.t.t.t.t.a.a.u.4. .o.@.,.t.t.t.t.t.q.q.q.t.t.t.q.q.q.t.t.4.@.,.t.,.@.,.q.q.q.q.q.q.,.q.q.t.q.q.q.q.q.,.4.@.#.#.o.@.#.] l j 5 , , 5 > * X X > l l 5 * J 5.%.J { o.o.4.t.t.u.t.t.t.t.q.q.q.q.t.4.*.E P x s R ",
"{ > :.*.R =.:.4.:.4.4.t.t.t.t.t.q.q.q.p.q.q.@.o.{ A l l 5.5.l * o 4 6 X . o , , & e a g j A ] #.#.o.#.#.@.t.t.q.q.t.4.4.4.<.<.,.4.;.o.o.o.@.@.@.t.t.t.t.t.t.t.@.*.%.%.o.o.X.o.o.o.o.&.*.@.o.o.o.@.t.,.+.#.#.@.,.q.q.q.q.q.t.@.o.t.u.t.4.@.;.t.t.t.t.o.@.t.,.,.@.,.@.@.@.q.q.t.t.t.t.t.q.q.q.q.,.@.q.t.t.p.t.q.q.q.t.t.t.q.t.t.t.p.p.p.t.t.t.a.s.p.t.t.p.p.p.p.t.t.t.t.p.p.p.p.t.p.p.p.q.t.q.q.t.t.t.t.t.4.4.4.;.;.o.@.@.*.3.K.K.1.L Y N.N.E R W Q g X y n.n , i , , Y n.& X     lXlXlXlXlXlXlXlXlXlXlXlXlXlXlXlXlXlXlXlXlXlXlXlXlXlXlXlXlXlXlXlXlXlXlXlXlXlXlXlXlXlXlXlXlXlXlXlXlXlXlXlXlXlXlXlXlXlXlXlXlXlXlXlXlXlXlXlXlXlXlXlXlXlXlXlXlXlXlXlXlXlXlXlXlXlXlXlXlXlXlXlXlXlXlXlXlXlXlXlXlXlXlXlXlXlXlXlXlXlXlXlXlXlXlXlXlXlXlXlXlXlXlXlXlXlXlXlXlXlXlXlXlXlXlXlXlX. y n.M * $ P m.U , . . 0 5.3.U U ~ N.+X7XXXo.,.q.q.t.q.4.4.4.5.5.u.a.p.p.p.p.p.q.t.p.p.a.e.p.a.a.a.p.q.e.a.p.e.q.q.e.e.e.e.e.q.q.q.q.p.p.t.q.t.t.u.p.p.t.u.4.4.t.u.a.p.t.t.p.u.t.t.,.,.q.q.t.t.e.q.q.p.u.t.t.t.u.u.t.t.t.t.t.,.@.@.S A  .4.u.p.p.t.t.a.a.a.a.p.p.p.t.t.t.t.p.a.a.t.<.@.,.@.+.@.@.q.t.t.q.t.t.t.t.t.q.q.t.4.<.@.@.q.@.,.t.q.q.q.q.q.q.q.q.t.t.q.q.q.q.@.@.@.#.#.#.#.#...A A 0 7 , , 5 > # X X > l l 5 * J 5.$.J { o.@.t.t.t.t.t.t.t.t.q.q.q.t.t.4.{ J k k k J ",
"{ > 4.*.R W =.*.4.t.p.p.p.t.q.t.q.q.q.t.t.t.o.[ J j j z 5.5.l * % > 4 X . # > , & i a l l A ] ] #.o.[ #.@.;.;.4.4.4.4.;.@.@.@.;.4.4.;.o.o.@.o.o.@.@.4.4.4.4.@.@.*.X.X.X.S J o.@.@.o.J A G K X.o.@.;.@.@.o.o.@.,.q.q.q.q.,.q.q.q.t.p.t.t.t.u.u.u.t.u.t.t.t.4.,.@.4.o.[ #.9.t.t.p.p.t.t.q.q.t.t.@.@.@.q.t.t.t.t.t.q.q.q.q.q.t.t.q.q.e.t.t.4.4.u.u.t.q.p.p.p.p.p.p.t.t.p.p.a.a.t.q.q.t.w.q.q.q.q.t.t.t.t.4.4.Q.{.}.{.3.4.;.4.U.K.^ G J Z U ^ Q R R E 5 X s S.m , < < > m l.& X   . lXlXlXlXlXlXlXlXlXlXlXlXlXlXlXlXlXlXlXlXlXlXlXlXlXlXlXlXlXlXlXlXlXlXlXlXlXlXlXlXlXlXlXlXlXlXlXlXlXlXlXlXlXlXlXlXlXlXlXlXlXlXlXlXlXlXlXlXlXlXlXlXlXlXlXlXlXlXlXlXlXlXlXlXlXlXlXlXlXlXlXlXlXlXlXlXlXlXlXlXlXlXlXlXlXlXlXlXlXlXlXlXlXlXlXlXlXlXlXlXlXlXlXlXlXlXlXlXlXlXlXlXlXlXlXlXlXo u n.M % & m.A.b.y . X 7 7.P.R L W ~ B.7X+X1.,.q.t.t.4.y.%X&X}.&Xi.u.p.p.a.p.t.q.q.q.e.e.e.p.p.a.p.t.q.q.p.e.e.e.e.e.e.e.e.e.q.q.q.q.q.e.t.q.,.t.t.t.p.t.4.=.E :.t.a.a.p.t.t.t.t.t.q.q.q.q.q.t.p.q.q.q.t.q.,.t.u.t.t.t.t.p.t.t.;.4.4.,.t.p.a.p.p.t.t.p.a.a.p.t.p.p.t.q.t.t.t.p.p.t.,.t.,.,.@.@.@.t.t.t.4.4.t.t.@.@.t.t.q.,.@.@.,.q.,.,.,.q.q.q.q.q.,.,.,.,.,.t.,.,.,.q.@.+.+.o.#.[ ] ] A A A l 5 , , > * X X > l l 5 * J 5.%.z G o.4.u.p.t.q.t.t.t.t.q.t.t.t.t.<.{ J z l j J ",
"A > 4.:.P F G X.4.a.a.r.w.t.q.q.q.t.q.t.t.t.o.A J l l J U.5.j * % * > o . # 5 , & & i l A ] ] ] [ { X.X.{ S { ;.4.t.4.@.@.4.4.;.;.*.*.;.;.4.@.@.@.,.4.t.t.4.@.o.X.G X.o.o.G o.4.4.;.J J G W %.*.@.@.4.t.4.@.4.t.q.q.q.q.,.q.e.p.p.t.t.p.p.p.p.t.@.@.u.t.t.,.4.4.4.*.A ] @.t.q.t.r.t.t.t.t.t.t.@.@.,.q.q.t.p.t.t.q.q.9.q.q.q.t.q.q.q.t.4.*.*.4.4.,.q.p.p.t.p.a.a.p.p.p.p.a.a.t.,.q.t.p.q.q.t.t.t.t.t.t.4.5.{.|.[.[.*Xi.4.5.U.K.R [ o.S K K.H.P P R 5 + U 6XY 5 , < % r m & X X o lXlXlXlXlXlXlXlXlXlXlXlXlXlXlXlXlXlXlXlXlXlXlXlXlXlXlXlXlXlXlXlXlXlXlXlXlXlXlXlXlXlXlXlXlXlXlXlXlXlXlXlXlXlXlXlXlXlXlXlXlXlXlXlXlXlXlXlXlXlXlXlXlXlXlXlXlXlXlXlXlXlXlXlXlXlXlXlXlXlXlXlXlXlXlXlXlXlXlXlXlXlXlXlXlXlXlXlXlXlXlXlXlXlXlXlXlXlXlXlXlXlXlXlXlXlXlXlXlXlXlXlXlXlXlXlXlXo k M.M o : M.A.z.y . X l Q.7.=.=.4.1./ [.OX3.t.t.i.y.i.%X&X:XXX}.t.t.q.e.p.p.q.t.q.q.q.q.e.p.p.p.p.t.t.t.p.p.p.p.p.p.p.e.q.q.q.q.q.q.q.q.q.q.@.@.t.t.t.t.4.R R =.t.p.a.t.t.q.@.@.@.q.q.q.q.q.q.t.q.q.q.,.@.,.t.t.t.t.t.p.p.p.t.t.t.p.a.a.r.p.p.p.p.t.q.t.p.t.t.t.t.t.t.t.t.t.p.t.q.t.q.q.,.,.q.q.t.q.,.,.,.4.4.o.@.4.t.4.@.@.,.q.q.,.@.,.,.,.,.q.4.,.@.+.+.@.,.,.,.@.t.@.+.+.@.o.#.] ] ] A l l 5 * , * # X X > l l 5 * J 2.%.J S @.4.t.p.q.q.q.t.t.q.t.t.t.t.t.4.;.S l j g J ",
"J = 5.*.J J G o.t.t.p.p.t.4.t.q.t.t.t.q.q.q.@.o.[ J l Z 5.7.l * o * * o . o 5 5 & & & l A A ] #.[ [ [ { J J X.4.t.q.4.@.t.4.;.;.*.%.G %.;.,.@.,.<.4.q.,.@.;.*.G J J o.q.@.,.q.q.q.4.@.#.o.o.X.o.@.4.q.q.q.q.q.q.t.,.@.@.q.q.p.p.p.p.t.t.t.p.u.t.o.X.t.t.4.4.@.t.t.4. .#.@.t.t.t.p.t.t.t.t.t.,.,.q.q.t.t.t.t.t.t.t.q.q.t.p.t.t.q.q.q.u.y.4.5.7.4.+.,.u.u.p.a.a.p.t.t.p.p.p.p.p.w.q.q.q.q.q.t.t.t.t.t.9.@.4.7.7.3.2.4.4.4.1.3.2.K o.o.K W H.I.E L F , o m 6Xz.< > 5 % & k $   o * lXlXlXlXlXlXlXlXlXlXlXlXlXlXlXlXlXlXlXlXlXlXlXlXlXlXlXlXlXlXlXlXlXlXlXlXlXlXlXlXlXlXlXlXlXlXlXlXlXlXlXlXlXlXlXlXlXlXlXlXlXlXlXlXlXlXlXlXlXlXlXlXlXlXlXlXlXlXlXlXlXlXlXlXlXlXlXlXlXlXlXlXlXlXlXlXlXlXlXlXlXlXlXlXlXlXlXlXlXlXlXlXlXlXlXlXlXlXlXlXlXlXlXlXlXlXlXlXlXlXlXlXlXlXlXlXlX$ u m.M o : M.b.m , X X 0 i.3.W W =.1.3.K.U.1.4.4.4.y.i.i.Q.Q.Q.U.q.q.q.q.q.q.q.q.q.q.q.t.p.q.t.p.t.p.p.t.t.e.q.q.q.t.p.e.q.q.q.q.q.q.q.q.p.4.*.%.S 4.t.t.t.4.4.t.u.p.p.p.t.t.@.+.@.q.q.q.q.,.q.q.t.t.@.o.<.4.4.;.o.4.t.p.p.t.t.t.a.p.p.p.p.p.a.p.p.p.p.t.t.t.t.t.t.t.4.4.,.q.t.q.q.q.q.q.q.q.q.q.t.,.o.o.,.t.t.o.@.4.4.4.,.q.,.,.,.@.o.@.@.@.@.,.4.@.@.@.q.q.,.,.@.,.,.@.+.+.+.o...A A A A l j , % , * 4 X X > l l 4 > G 5.$.J [ @.4.t.t.t.@.9.q.t.t.t.t.t.t.t.t.@.[ z j g J ",
"J = 5.*.J F %.;.t.u.p.t.,.<.t.t.t.t.t.q.q.q.t.@.o.A z z 5.5.l % # * > * . o 5 , & & & g l ] ....] [  .[ [ A X.4.t.4.;.4.t.4.@.@.o.G J { &.@.@.;.;.@.,.@.@.;.o.J J J o.,.q.4.t.@.,.,.@.o.@.*.X.S o.4.4.4.4.4.q.t.t.#.#.@.q.t.t.q.q.q.t.t.t.t.p.t.@.;.@.@.t.t.t.t.t.4.@.@.@.,.t.t.q.t.t.p.t.t.q.q.q.t.p.t.t.p.p.p.p.p.p.p.p.p.q.q.q.p.u.s.s.y.y.t.,.q.p.t.t.p.p.p.p.p.p.p.p.p.p.p.p.p.q.9.@.q.t.t.q.q.+.@.,.4.4.4.;.o.o. .K W W R o.o.=.2.H.H.P k F 5 # m `.Y , , , % , a . . o o lXlXlXlXlXlXlXlXlXlXlXlXlXlXlXlXlXlXlXlXlXlXlXlXlXlXlXlXlXlXlXlXlXlXlXlXlXlXlXlXlXlXlXlXlXlXlXlXlXlXlXlXlXlXlXlXlXlXlXlXlXlXlXlXlXlXlXlXlXlXlXlXlXlXlXlXlXlXlXlXlXlXlXlXlXlXlXlXlXlXlXlXlXlXlXlXlXlXlXlXlXlXlXlXlXlXlXlXlXlXlXlXlXlXlXlXlXlXlXlXlXlXlXlXlXlXlXlXlXlXlXlXlXlXlXlXlX. & s y o i M.z.n : X X 0 Q.3.~ ^ 3.U.}.L.K.G #.#.+.,.4.t.t.t.4.4.q.q.q.q.q.t.t.q.q.,.,.q.u.t.q.q.r.r.p.e.p.q.q.t.t.q.q.q.q.e.q.q.q.9.q.q.q.t.4.*.[ 4.u.t.t.t.u.p.p.a.p.p.p.t.t.t.t.q.q.t.q.q.q.q.,.@.#.@.4.@.;.4.o.4.t.t.p.t.t.t.t.a.p.p.p.p.p.p.p.a.a.a.a.t.u.t.@.@.@.t.,.q.t.t.t.q.q.q.q.q.q.t.t.,.o.o.4.t.t.4.;.*.*.;.;.4.,.,.@.#.#.o.@.@.,.4.@.@.@.q.t.q.,.,.,.,.,.@.+.+.#.#.] ] A A l l 5 , % , * * X X > l l 5 > G 5.$.J [ @.,.t.q.q.,.@.q.q.t.t.t.t.t.t.4.@.o.A z j J ",
"z * :.=.J R =.;.4.u.q.q.,.<.t.p.t.t.q.q.q.q.q.@.o.S z z 2.:.g % o * * # . o 5 , % & & g A ] ......#.#.#.#.[  .@.@.@.o.@.,.,.@.@.o.{ J { o.@.@.;.;.o.@.,.@.o.[ J J J o.,.,.,.o.#.@.<.@.@.@.@.o. .*.4.4.*.o.;.;.t.t.@.@.t.q.t.q.q.q.q.q.,.q.t.p.t.t.t.@.,.q.t.t.q.q.@.4.t.,.@.t.t.t.t.t.p.p.p.q.t.p.p.p.e.e.e.p.t.p.p.p.p.p.p.t.q.q.p.p.u.u.t.t.p.p.p.p.t.q.p.p.p.p.q.q.p.p.q.t.p.p.t.q.9.9.9.t.t.@.@.,.+.,.,.q.9.9.#.] A C L W W o.o.=.^ Q Q R z P 5 # P n.s , , , $ : i . . % o lXlXlXlXlXlXlXlXlXlXlXlXlXlXlXlXlXlXlXlXlXlXlXlXlXlXlXlXlXlXlXlXlXlXlXlXlXlXlXlXlXlXlXlXlXlXlXlXlXlXlXlXlXlXlXlXlXlXlXlXlXlXlXlXlXlXlXlXlXlXlXlXlXlXlXlXlXlXlXlXlXlXlXlXlXlXlXlXlXlXlXlXlXlXlXlXlXlXlXlXlXlXlXlXlXlXlXlXlXlXlXlXlXlXlXlXlXlXlXlXlXlXlXlXlXlXlXlXlXlXlXlXlXlXlXlXlX. . & & $ r b.z.m , X X 0 Q.U.! ^ K.K.{. XL.=.#.O.@.@.q.q.t.t.u.u.t.q.q.q.e.q.t.q.q.@.+.,.t.,.q.q.r.r.e.e.e.e.q.q.q.q.q.q.q.q.q.q.9.@.q.q.,.,.4.;.@.t.t.t.t.p.p.r.p.a.p.p.q.t.t.t.t.t.t.t.q.q.q.q.@.+.+.4.4.#.@.4.4.t.t.t.t.t.t.t.t.p.p.t.t.a.p.p.p.p.a.p.p.t.u.t.@.@.4.u.t.t.t.u.t.,.@.@.,.q.q.t.t.q.@.4.t.t.4.4.:.X.X.o.@.4.;.4.4.+.+.@.@.@.@.@.@.,.q.q.q.@.@.@.,.,.,.@.+.....#.....] A l 7 , * % , % #   X > l l 5 > G :.R z { @.@.,.q.q.q.q.q.q.q.t.t.@.t.t.t.@.o.G J z F ",
"z % :.=.Z R =.*.4.t.t.,.,.4.t.t.t.t.t.t.t.t.t.@.o.A l z 5.5.l % o # * # X o 5 5 % & i j l A A ..#.+.@.@.@.o.o.@.@.;.@.@.4.t.4.4.4.;.&.o.@.<.,.4.;.#.o.4.4.@.#.G F J o.,.,.@.o.@.,.t.t.,.@.,.,.,.4.4.4.;.&.;.4.,.q.q.q.q.q.q.q.q.t.t.t.@.q.t.p.t.t.t.q.q.q.q.t.q.q.9.q.t.t.@.,.t.q.t.t.p.a.p.t.q.t.t.q.e.e.e.p.p.p.p.p.p.p.p.p.q.q.p.p.q.t.p.e.e.e.e.e.p.t.t.p.q.q.q.q.q.t.t.t.t.q.q.q.q.q.q.q.q.q.q.q.@.@.@.q.q.q.[ b 0 C F E W *.i.%XK.Y P z z F , + P b.s , , , $ : i % * % . lXlXlXlXlXlXlXlXlXlXlXlXlXlXlXlXlXlXlXlXlXlXlXlXlXlXlXlXlXlXlXlXlXlXlXlXlXlXlXlXlXlXlXlXlXlXlXlXlXlXlXlXlXlXlXlXlXlXlXlXlXlXlXlXlXlXlXlXlXlXlXlXlXlXlXlXlXlXlXlXlXlXlXlXlXlXlXlXlXlXlXlXlXlXlXlXlXlXlXlXlXlXlXlXlXlXlXlXlXlXlXlXlXlXlXlXlXlXlXlXlXlXlXlXlXlXlXlXlXlXlXlXlXlXlXlXlX. . $ & $ r z.Y Z , X X l W.U.^ m.^ ^ m.b.N.3.;.O.#.#.@.t.t.t.t.t.q.q.t.q.q.q.q.q.q.q.,.,.t.4.q.q.p.p.e.e.e.e.q.@.+.@.q.q.q.q.q.q.@.@.q.t.,.@.4.4.t.t.t.4.t.p.w.p.p.a.p.p.q.q.q.q.q.q.q.q.q.t.t.q.@.@.@.t.4.#.@.t.t.t.q.q.t.t.u.t.t.t.q.q.t.a.p.p.t.p.a.p.t.t.u.t.@.4.t.a.t.q.q.t.4.@.o.@.@.q.t.q.q.t.q.t.t.,.@.;.4.4.4.4.4.4.,.,.4.,.@.@.@.@.#.o.@.,.q.q.@.+.+.+.@.,.,.@.+.#...+.+.+.o...A 7 , > * , o # X X > l A 5 > G 2.R z { *.;.,.q.t.t.q.q.q.q.q.q.t.u.u.t.@.{ A J z R ",
"Z * :.=.Z J R R &.4.4.t.4.4.t.t.t.t.t.t.t.t.,.@.o.A j z U.7.l * o # * o X o 5 5 % & i i g j A ] ..#.@.@.@.,.4.t.t.4.4.4.t.t.t.t.4.4.4.,.,.,.,.<.@. . .o.;.;.&.%.R J X.4.t.,.t.t.t.t.t.t.t.,.q.q.q.t.t.t.;.;.4.@.q.q.q.,.@.@.@.q.t.t.t.@.t.t.p.p.p.p.p.q.q.q.t.t.q.q.q.q.t.@.+.,.,.q.t.p.p.p.q.q.t.t.t.p.p.a.p.p.p.q.p.p.p.p.e.p.t.q.q.q.p.p.r.e.e.e.q.t.t.t.q.q.q.q.r.w.t.p.t.q.q.q.q.q.q.q.q.@.@.@.9.@.o.@.@.@.o.A 0 0 J P P F A o.7.3.Y U Z j Z < + k f.u 5 5 , $ w i : * . . lXlXlXlXlXlXlXlXlXlXlXlXlXlXlXlXlXlXlXlXlXlXlXlXlXlXlXlXlXlXlXlXlXlXlXlXlXlXlXlXlXlXlXlXlXlXlXlXlXlXlXlXlXlXlXlXlXlXlXlXlXlXlXlXlXlXlXlXlXlXlXlXlXlXlXlXlXlXlXlXlXlXlXlXlXlXlXlXlXlXlXlXlXlXlXlXlXlXlXlXlXlXlXlXlXlXlXlXlXlXlXlXlXlXlXlXlXlXlXlXlXlXlXlXlXlXlXlXlXlXlXlXlXlXlXlX. . . % : $ i Y m a , . X l W.H.Y Y m.H.L.B.B.2. .0 l A #.y.s.t.;.;.,.4.t.t.q.q.q.q.q.t.t.t.t.u.q.t.t.t.q.q.e.e.q.,.@.@.,.q.q.q.q.q.,.q.t.t.o.@.t.t.u.t.4.;.t.u.p.p.u.t.q.q.q.q.q.q.q.q.q.q.t.t.t.t.@.q.t.,.@.@.@.4.t.t.t.t.t.t.t.t.t.t.q.q.t.a.p.p.p.a.a.t.q.t.t.t.4.t.t.t.t.q.q.q.@.@.o.#.@.q.q.q.q.q.t.q.q.t.@.@.4.t.t.t.t.q.,.,.@.@.@.@.@.@.@.@.@.,.,.@.@.+.+.+.@.,.,.@.+.o...+.+.+.+...A 7 5 , , , o # X X > l l 5 > G 2.P z J X.@.4.t.t.t.t.q.t.t.t.t.t.u.t.4.X.G J z z P ",
"J * :.=.Z Z J R W *.4.t.t.t.t.t.t.t.t.t.4.@.o.[ { z l J U.7.l % o * * o X o 5 5 % & i , g l A ] ] ..+.@.@.q.q.t.t.;.4.t.t.t.t.t.t.4.4.4.,.,.@.o.o.X.G G R R J %.W G { ,.t.t.t.t.t.t.q.q.t.,.,.,.@.@.q.t.,.@.,.q.q.q.q.@.+.+.@.@.@.,.@.t.t.p.q.e.p.p.e.p.t.q.q.p.t.q.q.q.q.q.@.q.q.q.q.q.t.t.t.t.q.t.t.t.p.p.p.p.q.q.p.p.p.p.e.e.t.@.+.q.p.q.p.p.p.p.t.t.t.t.t.t.w.w.r.p.p.p.t.q.q.q.t.4.4.t.,.@.#.#.@.o.o.o.o.o.#.J A A D R P D C b 0 J P P z j Z < o k l.d 5 5 , $ & i % . .   lXlXlXlXlXlXlXlXlXlXlXlXlXlXlXlXlXlXlXlXlXlXlXlXlXlXlXlXlXlXlXlXlXlXlXlXlXlXlXlXlXlXlXlXlXlXlXlXlXlXlXlXlXlXlXlXlXlXlXlXlXlXlXlXlXlXlXlXlXlXlXlXlXlXlXlXlXlXlXlXlXlXlXlXlXlXlXlXlXlXlXlXlXlXlXlXlXlXlXlXlXlXlXlXlXlXlXlXlXlXlXlXlXlXlXlXlXlXlXlXlXlXlXlXlXlXlXlXlXlXlXlXlXlXlXlXo . . & & $ , x s a , .   l Q.3.P U m.J.[. XL.F 7 6 6 0 #.y.i.4.&.*.;.;.;.;.@.,.q.9.q.t.t.t.t.t.t.t.t.t.t.t.q.e.t.t.4.4.,.q.q.q.q.q.q.t.t.;.o.;.t.t.t.4.4.<.4.t.t.p.t.q.q.q.t.q.t.t.q.q.q.q.p.t.t.t.q.t.t.@.,.t.t.t.t.t.t.p.p.t.t.t.t.q.q.q.t.a.p.p.p.p.p.t.q.t.t.4.t.t.t.q.t.t.t.t.t.t.q.@.o.@.q.q.q.q.q.q.t.t.q.@.t.t.t.t.t.q.q.,.@.@.@.@.,.,.,.q.,.,.@.@.@.@.@.+.,.,.,.@.+.+.+.+.+.#...] A l 5 , , , o # + X > l A 5 > R 2.R k z A o.,.t.t.t.t.t.t.4.@.4.4.4.4.o.{ J J z k R ",
"z * :.=.Z Z Z P E %.*.4.t.t.t.t.t.t.t.4.@.@.o.[ G J l J U.7.l * o > > * X o 5 , % & , a z G [ ] ] #.@.+.@.,.q.q.9.@.4.u.u.t.t.t.t.4.4.t.t.t.;.&.*.:.=.R k p t S W W &.;.t.t.t.p.p.t.t.q.t.4.4.4.,.4.t.4.q.q.q.q.p.q.9.q.t.t.t.q.@.@.@.t.p.t.q.q.p.a.q.a.a.t.t.p.t.t.q.q.q.q.t.t.t.t.q.q.q.t.t.t.q.q.q.t.p.p.p.p.p.p.p.p.p.a.e.q.t.@.,.t.p.p.p.t.q.q.t.t.t.t.p.p.p.w.r.p.p.t.q.q.,.4.;.o.o.;.t.4.@.#.S G G J { { X.G S S D L L D S ] l l J R Z l Z < o P M.I g , , & r i $     . lXlXlXlXlXlXlXlXlXlXlXlXlXlXlXlXlXlXlXlXlXlXlXlXlXlXlXlXlXlXlXlXlXlXlXlXlXlXlXlXlXlXlXlXlXlXlXlXlXlXlXlXlXlXlXlXlXlXlXlXlXlXlXlXlXlXlXlXlXlXlXlXlXlXlXlXlXlXlXlXlXlXlXlXlXlXlXlXlXlXlXlXlXlXlXlXlXlXlXlXlXlXlXlXlXlXlXlXlXlXlXlXlXlXlXlXlXlXlXlXlXlXlXlXlXlXlXlXlXlXlXlXlXlXlXlXo . . = i % & u s z l o   0 W.3.P n Z P Y m.P = 4 0 l [ t.y.4.4.5.*.:.%.G A { @.t.,.t.t.t.t.t.q.u.t.t.t.t.t.q.p.t.@.@.4.u.q.q.q.t.t.t.t.:.;.;.;.q.q.t.t.4.t.t.t.p.p.q.w.p.t.q.q.t.t.p.q.q.t.p.p.t.,.q.t.q.,.t.t.u.p.p.p.a.a.a.a.a.t.t.t.t.q.q.a.p.p.a.p.p.p.a.t.t.t.t.t.t.t.t.u.t.t.u.p.p.9.o.o.@.q.q.q.q.t.t.t.t.q.q.q.t.t.t.t.t.4.@.@.@.@.,.,.q.q.q.,.@.@.@.@.+.+.,.,.@.@.+.+.#.o.#.[ [ S A l j , , 5 % # + X > A A 5 , =.P.E z z J o.4.u.t.t.t.t.;.@.#.o.;.;.o.X.$.J z z k R ",
"z % &.=.J R { G %.%.%.;.t.t.4.;.o.o.4.4.@.o.%.{ J l k J 7.7.l % X * > > . o 5 5 & & a a l [  .A A [  .#.@.,.,.,.4.t.t.u.t.t.4.;.;.;.@.@.4.@.*.:.;.;.;.&.z k k G o.o.@.@.@.,.t.4.q.q.t.t.t.t.t.t.,.,.t.4.@.@.@.q.q.9.@.@.q.q.q.q.q.+.@.t.t.q.q.q.q.t.p.a.p.t.t.p.t.q.q.q.q.q.t.t.p.q.q.q.t.t.q.t.t.,.t.t.t.t.p.p.p.p.p.p.t.t.p.p.q.+.,.t.t.t.t.t.q.q.t.t.,.t.t.e.e.r.e.p.u.t.@.,.4.@.S J { @.t.,.@.@.#.J k F 4.4.,.o.#.A J R P P G J a s W R l l Z < X 5 Z a , , , & r u % X . . lXlXlXlXlXlXlXlXlXlXlXlXlXlXlXlXlXlXlXlXlXlXlXlXlXlXlXlXlXlXlXlXlXlXlXlXlXlXlXlXlXlXlXlXlXlXlXlXlXlXlXlXlXlXlXlXlXlXlXlXlXlXlXlXlXlXlXlXlXlXlXlXlXlXlXlXlXlXlXlXlXlXlXlXlXlXlXlXlXlXlXlXlXlXlXlXlXlXlXlXlXlXlXlXlXlXlXlXlXlXlXlXlXlXlXlXlXlXlXlXlXlXlXlXlXlXlXlXlXlXlXlXlXlXlXlX. . . , i $ & , , , , % X l 5.^ Y v.n.M.Q Z , , 7 l A ;.5.4.%.5.*.*.4.4.o.A [ @.,.:.;.@.,.,.t.4.t.t.:.;.4.4.4.:.$.J F ;.t.4.*.P P %.;.4.@.@.@.,.,.@.;.t.t.4.4.t.u.p.t.q.t.t.t.t.p.e.t.q.q.4.4.;.#.9.q.q.t.t.@.@.;.,.q.t.p.p.p.a.a.t.q.t.t.t.t.p.p.p.a.p.p.t.t.t.t.q.q.q.t.t.q.q.q.q.q.q.q.@.#.#.9.q.q.t.t.t.t.t.q.q.q.q.;.#.@.4.@.,.t.4.+.@.q.q.q.q.t.,.@.@.@.@.o.@.,.@. .[ o.#.S J J J J J J l j , , , o * X X , l A 5 , E P.R k J G X.4.t.t.t.@.o.o.@.t.t.t.;.@.X.G J J z k P ",
"z * ;.*.F %.&.%.%.*.*.;.4.t.4.o.o.;.4.4.@.o.{ S J l z J 5.5.l # o * > # . o 5 5 = , a a A  .#.A A ] #.#.#.@.t.t.t.t.t.t.t.4.@.;.;.*.o.o.o.o.X.%.;.o.*.%.R J { o.@.4.t.t.@.@.4.,.q.q.t.t.t.t.t.q.q.q.q.q.@.+.@.q.q.9.@.9.9.q.q.q.t.,.#.q.q.q.q.q.q.t.t.t.t.q.q.t.t.q.q.q.q.q.t.t.t.q.q.t.t.q.q.t.t.q.t.p.t.t.p.t.t.q.e.p.p.p.q.t.t.,.,.t.t.t.q.q.q.t.t.t.+.q.t.t.e.r.t.t.q.q.q.q.t.@.o.o.@.@.q.@.@.@.o.J R =.4.4.4.4.@.#.A J P U Z P R Q Q Z j j l 7 X # % % , 7 j : r P , . . o lXlXlXlXlXlXlXlXlXlXlXlXlXlXlXlXlXlXlXlXlXlXlXlXlXlXlXlXlXlXlXlXlXlXlXlXlXlXlXlXlXlXlXlXlXlXlXlXlXlXlXlXlXlXlXlXlXlXlXlXlXlXlXlXlXlXlXlXlXlXlXlXlXlXlXlXlXlXlXlXlXlXlXlXlXlXlXlXlXlXlXlXlXlXlXlXlXlXlXlXlXlXlXlXlXlXlXlXlXlXlXlXlXlXlXlXlXlXlXlXlXlXlXlXlXlXlXlXlXlXlXlXlXlXlXlX. . $ a s & = , % $ o . o l P.H.M.T.T.L.R , 5 l A { *.5.y.4.4.4.*.;.;.4.:.&.o.@.<.&.{ #.@.4.@.;.*.:.4.4.4.4.4.{ J J W 4.4.4.o.G G *.t.t.q.4.;.4.@.;.;.4.4.4.4.4.4.t.t.t.q.t.4.t.p.p.t.4.4.4.4.@.@.q.q.q.q.q.4.4.4.t.t.t.p.p.p.t.p.p.q.q.t.p.t.p.p.p.p.p.w.t.p.u.t.q.q.t.t.p.t.t.q.q.q.q.q.@.#.@.q.t.q.,.,.,.q.q.q.q.q.t.@.#.@.,.,.,.@.@.@.,.,.,.,.,.@.@.,.,.@.o.#.@.@.o.] #.o.+.#.A J J J J J l , , , , % * X X > l l 5 , =.P.E k R %.o.4.t.t.t.@.[ #.q.q.q.t.t.;.o.{ A J J z J ",
"z * :.&.J $.=.:.*.*.*.@.;.t.4.o.o.4.t.t.q.@.#.[ [ A z J 5.5.l * # > * o . o 5 j = , j l A #.#. .[ ..+.+.+.+.,.t.t.t.t.t.t.t.4.@.o.G X.;.;.o.o.&.@.X.G J J G o.o.@.,.t.t.4.4.,.q.t.t.t.t.t.t.t.,.t.q.q.q.q.@.q.q.q.q.q.q.9.q.q.q.q.q.#.q.q.q.e.e.p.p.t.t.t.q.t.t.q.p.t.t.q.q.t.t.q.@.,.t.t.q.p.p.p.p.p.p.t.t.p.t.q.q.e.e.p.q.q.q.t.t.q.q.t.q.q.q.q.t.q.@.+.,.t.t.q.q.q.q.q.q.q.q.q.q.q.,.q.q.q.@.o.o.o.G R W X. .o.@.@.@.#.G P P P U Q H.E k j l z j + + o * 5 l J i t P , . . o lXlXlXlXlXlXlXlXlXlXlXlXlXlXlXlXlXlXlXlXlXlXlXlXlXlXlXlXlXlXlXlXlXlXlXlXlXlXlXlXlXlXlXlXlXlXlXlXlXlXlXlXlXlXlXlXlXlXlXlXlXlXlXlXlXlXlXlXlXlXlXlXlXlXlXlXlXlXlXlXlXlXlXlXlXlXlXlXlXlXlXlXlXlXlXlXlXlXlXlXlXlXlXlXlXlXlXlXlXlXlXlXlXlXlXlXlXlXlXlXlXlXlXlXlXlXlXlXlXlXlXlXlXlXlXlX. . $ a s & , , % . . o . g 2.Q Y Q Y P l j [ *.%.%.:.5.y.i.4.;.o.4.;.;.4.4.;.@.@.{ { *.4.4.o.o.%.*.4.t.t.4.;.*.*.*.*.4.4.4.@.@.*.4.t.t.t.t.;.@.<.;.;.4.4.4.4.4.4.4.4.4.q.4.@.q.p.p.t.=.=.;.4.t.t.t.t.t.q.t.t.t.t.u.u.a.p.t.q.q.t.t.q.q.t.t.t.t.p.p.e.r.q.q.q.t.,.q.q.t.p.r.t.q.q.q.q.q.q.@.@.9.q.t.q.@.@.,.q.q.q.q.q.q.,.@.@.,.@.@.#.@.@.;.o.o.@.@.+.@.,.,.@.@.o.@.@.#...+.@.@.#.#.A J A J z j 5 , , , % % X . > l l 5 , :.P.W k G o.@.4.q.t.u.;.S #.q.q.q.q.q.t.@.o.[ G J z Z ",
"z * ;.%.Z J %.*.:.&.&.;.4.t.4.o.@.t.t.q.q.q.@.#.] A z A 5.7.l * # > * o . o 5 5 = , j l A #.+.@.@.#.@.,.@.+.@.q.t.t.t.t.t.t.4.;.X.J G :.4.;.o.;.;.X.F k k J #.@.@.t.t.t.4.4.t.t.t.t.t.t.t.t.t.,.t.t.t.q.q.q.q.q.q.q.q.q.q.@.9.9.q.q.@.q.q.e.p.a.a.p.a.p.t.t.t.t.t.t.p.p.p.p.p.p.q.@.q.q.t.q.e.e.e.p.p.p.q.q.t.q.q.q.p.p.t.q.q.q.t.q.q.q.q.q.q.q.q.q.q.9.@.q.t.t.q.q.t.t.q.q.t.q.,.q.q.q.q.q.q.@.o.o.[ K R G A A S #.+.+.o. .G R P k J P Z l l z Z l + # * , 5 l A i t P , . . . lXlXlXlXlXlXlXlXlXlXlXlXlXlXlXlXlXlXlXlXlXlXlXlXlXlXlXlXlXlXlXlXlXlXlXlXlXlXlXlXlXlXlXlXlXlXlXlXlXlXlXlXlXlXlXlXlXlXlXlXlXlXlXlXlXlXlXlXlXlXlXlXlXlXlXlXlXlXlXlXlXlXlXlXlXlXlXlXlXlXlXlXlXlXlXlXlXlXlXlXlXlXlXlXlXlXlXlXlXlXlXlXlXlXlXlXlXlXlXlXlXlXlXlXlXlXlXlXlXlXlXlXlXlXlXlX. . % a p & g j > % o o o 7 -.P k z z z A o.o.*.*.*.*.*.5.5.4.;.o.t.4.@.;.:.4.@.#.X.o.;.4.4.;.;.;.4.t.u.t.4.=.=.*.2.4.t.q.t.4.4.;.o.,.t.q.@.;.@.,.4.4.t.t.4.t.4.4.;.:.4.t.4.;.4.u.u.t.%.*.t.u.p.p.p.t.t.t.t.t.t.u.u.u.a.p.t.q.q.q.q.q.q.q.q.q.p.a.e.q.p.t.q.q.,.@.q.t.p.r.e.q.q.q.q.q.q.q.q.9.q.q.t.,.@.,.q.q.q.t.q.q.q.q.q.q.q.@.@.@.@.@.&.G G o.@.@.@.@.@.@.@.@.@.#.#.+.@.@.@.@.+.#.[ [ S A l j , , , % % X X > l l 5 , :.U.-.z G o.@.t.t.t.t.;.X.o.q.q.q.q.q.q.,.@.@.o.A z J ",
"z * :.&.z J G %.%.%.&.4.4.4.@.@.@.,.q.q.q.q.q.+.#.] A J 5.7.l * # > > # X o 5 5 = , g l S +.+.#.#.+.@.,.,.+.#.,.t.t.t.t.t.t.4.4.o.{ [ ;.;.#.[ *.;.&.R k k z { @.4.t.t.t.@.@.t.t.t.4.,.t.t.t.t.,.q.t.t.q.q.q.q.q.q.q.q.q.q.#.@.q.q.q.q.q.q.e.p.p.a.a.a.t.q.q.t.p.t.q.t.t.p.a.p.p.t.t.t.t.t.t.t.t.e.p.p.p.q.q.q.q.q.q.q.q.q.q.q.t.t.q.q.t.t.q.q.q.q.q.q.t.t.q.t.4.@.@.4.q.q.4.;.@.@.q.q.q.q.q.,.;.o.X.A A A [ #. .A #.#.#.#. .G R A j j j l J A z L Z X # * > 5 l A i t P , . . . lXlXlXlXlXlXlXlXlXlXlXlXlXlXlXlXlXlXlXlXlXlXlXlXlXlXlXlXlXlXlXlXlXlXlXlXlXlXlXlXlXlXlXlXlXlXlXlXlXlXlXlXlXlXlXlXlXlXlXlXlXlXlXlXlXlXlXlXlXlXlXlXlXlXlXlXlXlXlXlXlXlXlXlXlXlXlXlXlXlXlXlXlXlXlXlXlXlXlXlXlXlXlXlXlXlXlXlXlXlXlXlXlXlXlXlXlXlXlXlXlXlXlXlXlXlXlXlXlXlXlXlXlXlXlXlX. . $ a i & l l 5 > % . . 5 *.%.l l A [ o.;.4.4.*.%.{ R R R W :.;.4.4.;.;.;.;.;.;.@.;.;.@.q.t.t.t.t.t.t.t.4.=.G K *.4.t.t.t.t.4.*.X.#.@.o.X.o.@.q.t.t.u.a.t.t.4.;.&.&.*.;.*.*.4.t.t.4.4.4.s.a.a.p.p.t.q.t.t.t.t.p.t.t.a.p.t.q.q.q.q.q.t.p.p.p.p.q.p.p.t.q.,.q.q.q.q.q.q.q.q.q.q.q.q.q.q.q.q.q.q.q.q.,.q.q.q.t.t.t.q.t.t.t.q.q.,.+.@.,.@.;.&.{ { o.@.@.o.#. .#.+.+.+.#.+.@.,.@.@.+.+.+.+.o. .S A l , , , % * X X > l l 5 , :.U.=.z A o.;.t.u.t.t.4.;.@.q.q.q.q.q.q.4.4.;.X.A l J ",
"A * ;.%.z J G G %.%.*.*.;.;.@.@.@.,.,.q.q.q.q.@.#.] A J 5.7.l * # > > # . o 5 5 , , g z S o.+.#.#.+.@.,.4.#.#.@.,.q.t.t.t.t.,.<.@.@.o.@.@.] [ o.@.@.&.G z z J o.;.4.;.@.#.o.t.t.4.,.,.4.t.t.t.@.,.t.4.@.,.t.t.@.@.9.q.q.q.@.@.t.t.q.q.q.q.p.p.p.a.a.p.q.q.p.p.p.p.@.@.q.t.p.p.p.t.t.t.t.t.t.u.t.t.t.p.p.q.e.q.q.q.q.q.q.q.q.,.t.q.q.q.q.q.q.t.q.q.q.t.p.t.t.t.4.@.o.o.,.,.o.{ { o.4.,.,.,.,.@.*.o.X.G A S #.#.#.[ ] ..#.#.[ J J A l l l l A A z R J X X ; 5 7 A A i t x , . . . lXlXlXlXlXlXlXlXlXlXlXlXlXlXlXlXlXlXlXlXlXlXlXlXlXlXlXlXlXlXlXlXlXlXlXlXlXlXlXlXlXlXlXlXlXlXlXlXlXlXlXlXlXlXlXlXlXlXlXlXlXlXlXlXlXlXlXlXlXlXlXlXlXlXlXlXlXlXlXlXlXlXlXlXlXlXlXlXlXlXlXlXlXlXlXlXlXlXlXlXlXlXlXlXlXlXlXlXlXlXlXlXlXlXlXlXlXlXlXlXlXlXlXlXlXlXlXlXlXlXlXlXlXlXlXlX. . % i r , A [ 0 4 * . . , 2.5.J l A  .o.*.:.*.%.%.&.R J J G 4.;.,.4.4.4.;.@.;.4.;.;.@.@.q.q.t.t.t.t.t.t.t.;.*.*.;.4.t.t.t.t.4.4.o.o.;.o.S o.@.q.t.t.t.u.t.t.4.&.%.%.%.&.%.%.*.;.;.4.4.y.y.u.u.u.u.t.t.u.t.t.t.t.t.t.p.p.p.q.q.q.q.t.p.p.p.e.e.q.t.t.t.@.+.q.t.q.q.q.@.,.,.,.q.q.q.q.q.q.q.q.q.q.q.q.q.q.q.t.t.,.q.t.t.4.@.,.@.+.@.@.@.@.@.@.o.o.o.o.#. . .#.+.+.+.+.@.q.,.@.#.] ] ..o.@.o.S A g , , , % * X X , l l 5 , =.5.R z J X.;.4.4.t.t.t.t.,.9.q.q.q.q.4.@.o.{ J J z J ",
"A * ;.%.z J $.{ $.%.%.X.X.;.4.@.@.,.@.+.@.q.q.@.#.A l z 5.5.l * # 4 > # X X 5 7 , , g j l A ..@.@.+.@.q.@.o.o.@.4.q.q.t.t.,.@.o.o.@.,.,.@.@.4.4.t.,.4.*.A z J o.;.;.@.o.@.4.t.t.4.;.@.4.t.t.q.@.4.;.o.@.t.t.4.@.#.@.q.q.q.,.+.@.q.q.e.q.q.q.t.p.p.a.a.p.p.a.a.p.p.t.q.t.p.p.p.p.p.p.t.q.@.@.t.t.t.t.t.p.p.e.e.p.p.q.q.@.+.@.,.,.q.q.q.q.t.q.t.t.t.q.q.p.q.q.4.4.4.;.@.@.4.*.G R *.4.<.<.@.o.o.o.o.X.X.G o.@.+.#.@...#.#.#.A J G D l l l l l [ { W l   + > 5 l  .[ i t P , . o o lXlXlXlXlXlXlXlXlXlXlXlXlXlXlXlXlXlXlXlXlXlXlXlXlXlXlXlXlXlXlXlXlXlXlXlXlXlXlXlXlXlXlXlXlXlXlXlXlXlXlXlXlXlXlXlXlXlXlXlXlXlXlXlXlXlXlXlXlXlXlXlXlXlXlXlXlXlXlXlXlXlXlXlXlXlXlXlXlXlXlXlXlXlXlXlXlXlXlXlXlXlXlXlXlXlXlXlXlXlXlXlXlXlXlXlXlXlXlXlXlXlXlXlXlXlXlXlXlXlXlXlXlXlXlXlX. . $ i w : %.*.A 6 * o . , -.3.F J G X.X.{ G F G &.&.=.%.%.&.4.,.q.t.t.t.;.@.o.o.S A [ ;.t.,.,.q.t.t.t.t.t.p.t.4.4.4.q.q.t.,.,.4.4.4.4.@.G { ;.4.@.o.@.4.t.t.4.4.*.%.W %.R W =.&.X.*.4.4.4.:.4.5.4.t.u.u.t.t.t.t.t.t.t.t.t.t.t.q.q.q.q.q.p.e.e.t.q.9.t.@.t.t.t.q.q.,.@.,.4.+.q.q.q.q.,.,.q.q.q.q.q.q.q.q.q.t.t.@.,.t.p.;.@.@.,.,.,.@.<.<.<.,.@.o.o.#.#.o.o.@.,.,.@.+.@.,.,.@.#.S A [ o.@.o.A j , , = , % * o X 5 A l 5 , =.:.R z J $.X.o.X.@.t.p.t.t.@.q.q.t.t.4.o.J l l z z G ",
"z = &.%.Z R R E W W R G X.;.4.,.,.,.@.#.#.@.+.#.A j j z :.5.j * # * > * . o , 7 , , g j j l A [ o.@.,.4.;.o.o.@.t.q.q.t.4.@.#.#.@.@.@.,.,.q.q.q.t.t.t.4.o.G Z R &.;.@.@.t.t.t.t.q.t.t.t.t.4.4.4.t.t.q.,.q.q.,.@.+.,.q.q.q.q.q.@.#.+.@.q.,.t.t.p.a.a.p.p.a.a.a.p.q.q.p.p.p.p.p.t.t.t.p.p.t.t.@.@.t.t.t.t.q.q.q.e.p.t.t.,.#.#.,.q.q.q.q.q.q.t.t.t.@.@.t.t.9.@.<.t.t.t.4.;.o.o.@.4.4.t.t.@.@.@.o.#.#.#.+.#.#.@.@.@.#.[ { { A J J J J A j l l l l z z 7   X 4 0 ] o.4.g r P & . o o lXlXlXlXlXlXlXlXlXlXlXlXlXlXlXlXlXlXlXlXlXlXlXlXlXlXlXlXlXlXlXlXlXlXlXlXlXlXlXlXlXlXlXlXlXlXlXlXlXlXlXlXlXlXlXlXlXlXlXlXlXlXlXlXlXlXlXlXlXlXlXlXlXlXlXlXlXlXlXlXlXlXlXlXlXlXlXlXlXlXlXlXlXlXlXlXlXlXlXlXlXlXlXlXlXlXlXlXlXlXlXlXlXlXlXlXlXlXlXlXlXlXlXlXlXlXlXlXlXlXlXlXlXlXlXlX% $ $ , & , %.o.A 8 * o . , -.:.R l G X.X.X.X.S { &.*.*.&.=.4.4.@.t.t.t.@.@.4.*.[ l G &.o.@.4.t.,.q.q.q.t.t.t.q.q.4.4.t.,.@.4.,.9.9.t.4.@.o.@.4.4.@.o.@.4.t.t.4.t.t.;.=.P R $.&.;.o.<.4.4.4.:.*.*.=.%.:.t.u.t.p.p.t.t.t.t.t.t.t.q.#...,.t.p.p.p.a.q.@.q.t.q.r.t.t.q.q.q.q.q.q.q.q.q.q.q.q.q.,.,.q.q.,.,.q.q.q.q.@.#.q.t.@.+.,.,.t.t.4.<.@.@.,.@.@.@.o.o.o.@.@.,.,.,.o. .o.o.o. .S J A [ o.S l j i , * , * > o X 5 A A 7 , %.5.R k J o.o.&.*.@.t.u.u.t.@.o.@.t.t.4.{ J z l l j G ",
"J = &.{ z J J R R R %.*.;.@.@.@.@.,.@.#.+.,.+.[ A l z z :.5.7 o # * > o . o 5 7 , , g g l z [ [ o.o.o.o.o.*.o.@.4.t.t.t.,.@.@.@.@.@.@.@.9.q.q.q.q.;.@.@.o.G P J X.@.4.4.4.@.<.4.t.t.t.t.t.@.@.@.4.t.t.t.t.t.t.t.t.q.q.q.q.q.q.,.+.<.4.t.t.t.t.a.a.a.p.p.p.p.t.t.t.q.p.q.e.p.p.p.p.p.p.p.a.u.t.t.t.t.t.q.t.p.e.q.q.q.q.t.t.,.t.t.q.q.t.t.q.t.q.4.4.4.t.t.;.@.,.t.t.q.,.@.o.@.4.t.,.4.t.,.@.@.@.@.@.@.+.+.#.#.#.#.[ A A A J J J J J J l l l l l k z j X X > l #.@.4.j r x % . . o lXlXlXlXlXlXlXlXlXlXlXlXlXlXlXlXlXlXlXlXlXlXlXlXlXlXlXlXlXlXlXlXlXlXlXlXlXlXlXlXlXlXlXlXlXlXlXlXlXlXlXlXlXlXlXlXlXlXlXlXlXlXlXlXlXlXlXlXlXlXlXlXlXlXlXlXlXlXlXlXlXlXlXlXlXlXlXlXlXlXlXlXlXlXlXlXlXlXlXlXlXlXlXlXlXlXlXlXlXlXlXlXlXlXlXlXlXlXlXlXlXlXlXlXlXlXlXlXlXlXlXlXlXlXlXlXo o $ , & , *.o.A 5 * o . , :.2.R l A [ o.&.;.*.X.X.&.;.=.G X.4.4.4.@.0.0.@.<.4.;.{ &.;.;.@.@.@.@.t.e.p.t.t.q.q.t.4.4.4.,.@.;.,.t.4.;.*.*.4.t.4.4.4.4.t.t.t.t.4.q.t.4.:.E R &.;.4.4.4.4.4.4.4.4.*.%.X.;.t.t.t.t.p.t.t.t.t.t.t.q.,.o.,.q.q.q.q.p.t.t.q.t.t.q.q.t.t.q.q.q.q.q.q.q.q.q.q.q.q.q.,.@.,.t.@.+.@.q.;.4.4.,.@.@.#.@.t.t.,.,.,.@.@.@.@.<.4.<.o.#.#.o.@.@.,.@.#.[  .X.o.o.[ A S  .[ A j g i , , , * > # X 5 l l 7 , %.5.R k J o.;.y.4.t.u.t.t.t.@.#.@.t.u.4.&.G J l l l { ",
"J , &.G z J J J G *.:.4.;.,.@.+.@.,.@.#.@.q.@.#.A z z k :.5.7 o # * * o . o 5 7 , , g j l A S [ #.#.o.{  .o.X. .o.4.t.4.@.#.@.@.q.9.9.9.q.q.q.q.@.o.o.o.[ J x J S o.4.4.;.o.o.4.4.4.t.t.,.@.@.@.4.t.t.t.t.t.t.t.t.t.q.q.q.q.q.q.t.4.4.t.t.t.t.t.p.r.p.p.p.t.t.t.t.t.t.q.q.p.p.p.p.a.t.t.p.u.t.q.t.p.p.t.t.q.q.q.q.q.q.t.t.t.4.4.t.t.t.t.t.,.@.4.4.4.t.t.;.;.;.,.q.q.,.@.@.<.t.t.,.,.4.,.@.o.o.@.,.,.,.@.#.#.#. .[ S { G A J G G J l l J A j g j z j X X > A o.4.4.j r x $ . . o lXlXlXlXlXlXlXlXlXlXlXlXlXlXlXlXlXlXlXlXlXlXlXlXlXlXlXlXlXlXlXlXlXlXlXlXlXlXlXlXlXlXlXlXlXlXlXlXlXlXlXlXlXlXlXlXlXlXlXlXlXlXlXlXlXlXlXlXlXlXlXlXlXlXlXlXlXlXlXlXlXlXlXlXlXlXlXlXlXlXlXlXlXlXlXlXlXlXlXlXlXlXlXlXlXlXlXlXlXlXlXlXlXlXlXlXlXlXlXlXlXlXlXlXlXlXlXlXlXlXlXlXlXlXlXlXo . $ a i , *.o.A 5 * X X , :.2.R l J S o.;.4.:.&.{ X.&.R k z &.;.;.@.@.t.4.@.<.t.o.#.@.@.@.o.@.4.t.p.t.t.t.q.q.t.;.@.t.q.@.;.4.4.4.W G *.4.4.4.4.4.t.t.t.t.t.4.,.,.4.*.E %.4.4.4.4.*.%.*.4.4.4.;.o.#.,.t.t.t.t.p.t.,.q.t.t.t.q.q.,.t.t.q.q.t.p.p.t.q.t.t.t.w.t.q.q.q.t.t.q.q.t.t.,.@.@.@.@.+.@.,.t.q.+.#.@.;.4.4.4.,.,.@.@.4.o.o.<.<.,.@.o.o.@.@.@. . .#.o.@.@.@.@.#.[ [ [  . .] A [ [ A l j j , , , , o > o X > l l 5 , =.5.F z D o.;.5.t.u.u.t.t.t.@.#.@.t.u.t.&.G J z z l G ",
"z , &.G k Z J { &.;.4.4.4.q.@.@.#.4.@.#.+.,.,.#.A z k Z 2.5.g * # * * o . o , 7 > , g j J J A [ o.@.o.*.;.@.@.#.#.#.@.,.@.....@.,.q.@.9.9.q.q.,.o.X.%.;.:.R k J { *.&.%.%.*.%.*.4.4.t.q.@.@.@.@.@.4.,.@.@.@.@.@.q.q.t.t.q.q.q.t.t.@. .@.t.t.4.t.p.p.p.p.t.t.t.t.t.t.t.t.q.p.t.q.p.p.t.t.t.p.t.t.t.p.u.4.@.@.t.t.,.@.q.t.t.t.@.@.@.t.t.t.4.@.,.,.t.t.t.4.;.o.o.@.q.q.,.@.@.,.t.q.@.@.@.@.@.o.o.@.@.@.@.o.o.#.o.o.o.{ o.%.{ G G G z j g J J j g k J l X X 4 A @.4.t.j r d $ . . . lXlXlXlXlXlXlXlXlXlXlXlXlXlXlXlXlXlXlXlXlXlXlXlXlXlXlXlXlXlXlXlXlXlXlXlXlXlXlXlXlXlXlXlXlXlXlXlXlXlXlXlXlXlXlXlXlXlXlXlXlXlXlXlXlXlXlXlXlXlXlXlXlXlXlXlXlXlXlXlXlXlXlXlXlXlXlXlXlXlXlXlXlXlXlXlXlXlXlXlXlXlXlXlXlXlXlXlXlXlXlXlXlXlXlXlXlXlXlXlXlXlXlXlXlXlXlXlXlXlXlXlXlXlXlXlXo . $ z Z , 1.<.] 7 > X   , :.-.R l J G o.;.4.;.&.X.X.X.R k z $.*.4.4.q.t.t.4.@.@.#.#.@.@.@.@.o.*.4.t.t.4.,.q.t.t.;.o.t.t.t.4.4.4.*.K K ;.4.4.@.<.4.t.t.q.t.4.@.@.,.;.*.$.%.4.4.4.;.&.G %.;.4.t.t.4.t.u.u.t.t.t.t.q.,.,.,.q.t.q.q.q.t.t.t.t.t.t.p.q.@.q.t.t.t.q.q.q.q.t.q.@.@.,.t.,.@.@.@.@.+.@.q.q.q.@.+.@.4.4.;.@.4.4.4.;.o.[ #.<.,.4.@.+.o.@.o.X.S  .#.o.@.@.@.@.o.#.o.o.#.#.[ #.{ A l j j j , , , > o > o X 4 l l 5 , =.5.R k G &.o.*.4.u.u.t.t.t.4.,.4.t.t.4.&.G J z z l G ",
"z * &.G z J J *.;.o.o.@.t.q.@.@.#.@.4.@.#.@.,.#.A z k Z 5.5.j * # * > o . . , 7 * , i g z z A G X.&.{ *.4.4.,.,.+.+.@.,.@.+.#.+.@.@.@.@.9.q.q.@.&.G %.:.:.$.k J *.:.%.J R =.G X.;.t.t.q.t.;.o.@.@.4.t.t.,.@.@.@.@.,.q.q.q.q.q.q.,.@.#.q.t.t.,.,.t.a.p.t.t.t.q.q.q.t.t.q.,.t.t.t.p.p.p.p.p.p.p.t.t.u.t.o.o.@.t.q.,.@.q.q.q.q.+.@.@.@.,.,.,.4.4.t.t.t.t.,.;.o.o.@.4.t.t.4.,.@.,.,.@.@.@.o.#.o.@.@.@.+.#.#.o.X.{ { X.[ o.o.{ G G G A A l Z J j l R R l X + 4 A @.4.y.j t d $ . . . lXlXlXlXlXlXlXlXlXlXlXlXlXlXlXlXlXlXlXlXlXlXlXlXlXlXlXlXlXlXlXlXlXlXlXlXlXlXlXlXlXlXlXlXlXlXlXlXlXlXlXlXlXlXlXlXlXlXlXlXlXlXlXlXlXlXlXlXlXlXlXlXlXlXlXlXlXlXlXlXlXlXlXlXlXlXlXlXlXlXlXlXlXlXlXlXlXlXlXlXlXlXlXlXlXlXlXlXlXlXlXlXlXlXlXlXlXlXlXlXlXlXlXlXlXlXlXlXlXlXlXlXlXlXlXlXo . $ Z P , 5.u.#.7 * X X , :.-.R J R R { o.;.;.;.*.*.X.R R =.&.o.*.4.t.t.t.;.;.,.@.<.4.,.4.4.@.X.@.t.t.t.4.t.t.t.@.o.,.t.t.t.q.,.4.4.5.t.t.4.4.4.4.t.t.e.4.@.@.@.t.4.4.=.&.4.,.4.4.4.=.*.;.t.t.t.t.t.t.t.4.,.t.t.t.,.,.,.q.t.t.t.q.t.t.q.,.q.a.t.q.q.q.t.q.q.q.q.q.,.q.q.@.+.@.4.4.4.,.@.+.@.q.q.q.q.t.,.,.,.,.;.&.=.&.o.@.o.o.#.4.4.4.,.,.@.@.o.o.#.#.o.o.@.@.@.@.o.o.o.o.o.{ [ X.{ J z z j g i , , > o > # . 5 l A 5 , =.5.R k R &.o.X.@.t.t.t.t.t.t.t.4.4.4.;.&.G J z z j J ",
"z * o.{ z J { o.*.*.X.o.@.t.@.@.@.@.4.@.#.@.@.[ J z k R P.5.j * # * > % . o > 5 = & i i j k z J G J z { @.@.,.,.+.@.,.,.,.,.,.@.@.@.@.@.@.@.4.4.&.%.%.*.o.{ J J :.:.&.G R %.{ o.4.t.t.t.t.4.@.@.@.q.t.t.4.@.@.,.t.t.,.@.@.q.q.q.q.t.t.t.t.t.t.,.t.a.p.t.t.t.t.q.,.t.t.@.@.4.t.t.p.a.a.p.p.p.t.t.t.u.t.;.4.t.t.q.q.q.q.q.q.q.@.@.@.@.q.q.,.t.t.q.q.q.t.t.t.4.4.;.4.t.t.4.,.@.@.@.@.@.o.o.o.o.@.;.@.o.#.#.#.[ S A G o.o.o.o.X.{ { { %.J J z z J E W l X + 4 A @.t.y.j u d $ . . . lXlXlXlXlXlXlXlXlXlXlXlXlXlXlXlXlXlXlXlXlXlXlXlXlXlXlXlXlXlXlXlXlXlXlXlXlXlXlXlXlXlXlXlXlXlXlXlXlXlXlXlXlXlXlXlXlXlXlXlXlXlXlXlXlXlXlXlXlXlXlXlXlXlXlXlXlXlXlXlXlXlXlXlXlXlXlXlXlXlXlXlXlXlXlXlXlXlXlXlXlXlXlXlXlXlXlXlXlXlXlXlXlXlXlXlXlXlXlXlXlXlXlXlXlXlXlXlXlXlXlXlXlXlXlXlX. . $ Z P , i.i.o.6 * o X 7 2.2.W J R R J { *.;.@.;.;.*.%.=.:.;.o.&.;.4.t.;.%.%.4.@.@.4.t.t.t.4.{ @.t.u.u.t.t.p.t.@.o.@.,.4.4.,.4.4.5.5.u.u.4.4.4.4.t.t.q.q.;.;.t.t.4.4.*.*.o.@.4.t.u.4.4.t.t.t.t.t.t.t.,.@.,.t.t.t.t.t.4.t.t.t.q.,.,.,.@.#.@.p.q.t.t.t.q.q.q.q.q.q.@.,.q.t.4.<.<.,.,.@.#.#.@.q.q.q.q.t.t.q.q.,.4.:.=.G { ;.4.@.+.@.@.,.,.4.4.<.@.@.@.@.o.o.@.@.@.@.@.o.o.{ J J J J J z z J z j i , , , % > # o 5 l A 5 , :.5.R k R ;.@.@.@.t.t.t.t.4.;.4.;.@.@.&.$.J k k j j J ",
"l * o.{ z J $.&.&.&.X.o.@.@.@.@.@.@.@.@.@.#.#.[ J z k R P.5.j * * > > * . o > 5 = i i i p k k R R z z J X.o.#.#.[ #.+.@.,.,.,.,.@.@.,.@.@.o.o.;.o.*.4.;.o.%.=.%.*.;.;.*.*.4.&.:.t.t.t.t.t.4.<.@.,.t.q.q.t.4.,.q.t.t.t.@.@.,.q.q.q.t.q.e.q.t.t.t.t.p.a.t.t.t.t.q.,.t.u.4.4.t.t.p.p.a.p.e.p.p.p.t.t.t.4.4.4.t.t.t.t.q.q.q.t.t.,.,.@.t.t.q.,.q.q.q.q.q.q.t.q.t.4.@.@.t.t.,.@.@.@.@.o.o.o.o.o.o.@.;.@.#. .o.o.[ A J A @.@.o.#.o.o.X.$.&.R J J z J >.-.l   X 4 ] @.t.y.z u d $ . . . lXlXlXlXlXlXlXlXlXlXlXlXlXlXlXlXlXlXlXlXlXlXlXlXlXlXlXlXlXlXlXlXlXlXlXlXlXlXlXlXlXlXlXlXlXlXlXlXlXlXlXlXlXlXlXlXlXlXlXlXlXlXlXlXlXlXlXlXlXlXlXlXlXlXlXlXlXlXlXlXlXlXlXlXlXlXlXlXlXlXlXlXlXlXlXlXlXlXlXlXlXlXlXlXlXlXlXlXlXlXlXlXlXlXlXlXlXlXlXlXlXlXlXlXlXlXlXlXlXlXlXlXlXlXlXlX. . $ Z P , 5.4.] 7 > o . g P.F.R k R Z J { ;.@.@.;.;.;.&.o.4.t.4.;.;.4.4.&.R R =.;.@.4.t.4.4.4.*.4.t.t.t.t.t.q.t.4.4.4.,.@.;.4.t.t.*.*.4.u.t.t.4.t.t.t.q.q.t.t.t.q.q.,.;.4.;.;.t.t.t.t.t.t.u.u.t.t.t.t.4.4.t.t.t.t.4.,.,.t.t.,.@.+.@.o.#.o.q.p.p.p.p.p.t.t.t.q.t.q.q.,.q.t.4.@.@.4.4.;.o.#.@.q.q.q.q.t.t.t.q.q.4.4.*.%.:.4.4.,.+.@.@.@.<.,.,.@.+.+.@.@.@.@.@.@.@.@.@.;.[ J J J J J z k k J J j , , , 5 % > * o 5 l l 5 , :.:.R z G @.,.t.t.t.q.t.t.@.;.4.4.o.o.&.R R k j j j G ",
"l * *.G z J J G %.@.@.@.@.@.o.o.o.@.@.@.;.@.o.[ J k k R P.5.g % * > > % . X > 5 = & i a k k k Z S [ [ [ [  . . . .o.@.@.9.q.@.@.@.@.@.@.@.#.{ { @.4.4.;.;.4.4.4.@.@.@.o.;.4.4.4.4.4.,.@.@.o.+.@.4.t.4.,.,.,.,.4.4.4.4.@.4.t.q.,.q.q.q.q.t.t.t.q.q.t.t.u.t.t.t.t.t.t.t.t.u.u.t.t.p.p.t.p.t.q.p.t.4.@.4.4.4.4.t.t.t.t.q.q.q.t.q.q.q.q.q.,.,.t.q.q.q.q.,.4.4.4.;.o.@.,.,.@.@.o.;.o.S { o.o.o.o.o.o.*.*.o.o.#...] [ S @.@.o.X.X.X.&.G $.J J J J l R R j X @ 4 A @.t.5.s s s $ . . . lXlXlXlXlXlXlXlXlXlXlXlXlXlXlXlXlXlXlXlXlXlXlXlXlXlXlXlXlXlXlXlXlXlXlXlXlXlXlXlXlXlXlXlXlXlXlXlXlXlXlXlXlXlXlXlXlXlXlXlXlXlXlXlXlXlXlXlXlXlXlXlXlXlXlXlXlXlXlXlXlXlXlXlXlXlXlXlXlXlXlXlXlXlXlXlXlXlXlXlXlXlXlXlXlXlXlXlXlXlXlXlXlXlXlXlXlXlXlXlXlXlXlXlXlXlXlXlXlXlXlXlXlXlXlX. . . $ Z L , 1.o.A 7 5 o X , :.Q R k k k J X.@.;.;.;.@.@.&.X.*.4.y.4.4.4.4.&.%.&.&.@.@.4.4.;.,.q.;.4.t.t.t.4.4.q.q.q.t.t.q.4.4.t.t.:.{ %.*.4.4.4.4.4.t.t.t.q.q.q.t.q.q.,.@.4.t.t.t.t.q.t.t.q.t.u.t.4.;.4.t.u.t.t.t.t.@.@.@.@.,.@.@.@.@.@.#.@.t.u.t.p.p.p.p.t.p.t.t.t.,.@.o.*.;.@.@.;.4.4.t.t.q.q.t.,.#.#.@.t.t.4.@.;.4.4.t.t.t.,.,.t.t.@.o.@.@.+.<.+.o.,.,.,.@.#.o.#.<.4.o.A A G X.X.S z z z z j i , , , % > * o > 7 j , , *.:.J z S o.@.q.q.q.q.t.;.{ { ;.4.;.&.&.$.R x k j j G ",
"j * *.J j k J G %.;.4.4.4.4.%.G A [ @.,.q.@. .A z k k R P.5.g * * > > # . . > 5 % & i g k x k J X.@.#.#. . .#.o.@.@.@.@.@.@.+.#.#.#.@.t.t.;.&.o.4.4.;.o.;.4.4.t.@.@.@.@.o.;.4.4.4.q.,.@.@.o.#.#.o.;.@.@.<.,.,.4.4.<.<.@.4.t.q.q.q.t.q.q.t.t.q.q.t.u.t.u.t.4.4.q.t.t.t.t.t.t.t.q.t.t.t.u.t.q.q.t.4.@.t.t.@.@.@.,.q.q.q.q.q.q.q.q.q.q.q.,.@.<.,.q.q.,.o.o.4.4.;.o.@.4.,.@.@.;.;.o.A [ o.o.o.o.o.o.X.X.o.o.@.@.+.@.*.o.o.X.G G G $.J J j z J J l z z 5   X 3 0 #.4.1.s s a $ o % % lXlXlXlXlXlXlXlXlXlXlXlXlXlXlXlXlXlXlXlXlXlXlXlXlXlXlXlXlXlXlXlXlXlXlXlXlXlXlXlXlXlXlXlXlXlXlXlXlXlXlXlXlXlXlXlXlXlXlXlXlXlXlXlXlXlXlXlXlXlXlXlXlXlXlXlXlXlXlXlXlXlXlXlXlXlXlXlXlXlXlXlXlXlXlXlXlXlXlXlXlXlXlXlXlXlXlXlXlXlXlXlXlXlXlXlXlXlXlXlXlXlXlXlXlXlXlXlXlXlXlXlXlXlXlXlXo . $ Z Z , 1.o.A 7 > o X 5 -.-.R k k k G o.@.o.X.o.@.@.o.X.G &.:.4.4.4.;.;.;.;.;.@.4.4.4.4.4.4.t.t.4.t.t.4.4.t.t.t.t.t.4.4.4.4.4.;.o.;.4.4.;.4.4.4.4.t.t.q.q.q.q.q.q.,.@.;.t.t.t.t.q.t.u.t.e.t.t.@.o.@.4.u.t.q.q.t.t.t.t.t.@.@.@.q.t.@.#.#.,.t.t.t.t.t.t.q.q.q.q.t.t.o.[ [ *.;.@.;.4.4.4.t.q.q.q.,.#...#.q.t.t.;.;.4.4.t.t.t.,.4.t.t.,.@.@.@.@.4.<.,.q.t.q.<.o.#.#.@.4.@.o. .o.o.@.*.%.J z z j i , , , % * # o * 7 j , , =.-.J l A o.,.q.q.q.q.;.&.J S ;.;.;.&.o.$.R P k k k $.",
"l * *.J k k R R R *.4.t.4.o.J k l [ @.,.,.o.A l z j z J W.5.g * * * > o . . , 5 % & & i k k k J o.@.@.@.#...] ..#.+.<.,.,.+.#.#.#...#.4.4.;.&.;.4.@.#.[ o.@.4.,.,.4.4.@.X.X.,.q.q.q.q.q.,.@.@.o.o.o.o.@.@.o.o.@.@.4.t.t.q.q.t.t.q.q.q.e.q.q.q.t.t.p.p.t.,.@.4.t.t.t.t.t.t.q.q.t.t.q.t.t.t.p.p.t.t.t.t.t.t.,.q.q.q.q.q.q.q.,.4.t.t.t.@.o.[ @.4.4.4.;.X.G o.;.;.;.@.4.t.9.;.;.;.o.[ o.;.@.o.o.o.o.[ [ A [ #.@.@.@.@.{ X.{ G J J J J A j z A A l l z g   O 4 0 ] @.=.a P a $ * * , lXlXlXlXlXlXlXlXlXlXlXlXlXlXlXlXlXlXlXlXlXlXlXlXlXlXlXlXlXlXlXlXlXlXlXlXlXlXlXlXlXlXlXlXlXlXlXlXlXlXlXlXlXlXlXlXlXlXlXlXlXlXlXlXlXlXlXlXlXlXlXlXlXlXlXlXlXlXlXlXlXlXlXlXlXlXlXlXlXlXlXlXlXlXlXlXlXlXlXlXlXlXlXlXlXlXlXlXlXlXlXlXlXlXlXlXlXlXlXlXlXlXlXlXlXlXlXlXlXlXlXlXlXlXlXlXlX% % Z Z , 1.o.A 7 > o X , -.-.E k s k J o.@.#.[ o.@.@.o.%.G G o.4.4.@.@.;.4.4.t.@.;.;.;.4.4.t.t.t.t.t.t.4.;.;.4.4.4.4.;.;.4.t.t.4.4.t.t.4.;.;.:.;.@.@.t.q.q.q.q.q.t.t.@.@.4.4.t.t.t.t.t.p.t.q.,.@.;.@.4.t.t.t.t.t.q.t.t.t.q.,.q.q.t.,.+.+.q.t.q.q.p.t.t.q.q.@.,.t.t.@.#.[ 4.t.@.@.4.@.@.@.@.@.q.q.@.@.@.q.t.t.t.t.4.@.t.t.4.@.,.q.t.q.+.+.@.<.4.4.q.q.q.,.o.o. . .@.<.@.@.@.o.#.@.4.;.{ z l j g , , , * > # o > l l 5 , W :.R z J X.@.@.;.q.@.o.{ G { o.;.&.%.o.%.R x x x k R ",
"z = *.J k k R R E %.:.5.4.{ z z J &.;.@.o.o.G z z j j J W.7.g * * * * o . o , g = & i a k z j A #.+.@.@.+.#.#.+.@.@.,.,.@.+.+.@.@.#.#.o.o.o.o.@.,.@.#.#.#.@.4.9.@.@.@.o.X.{ @.q.q.q.q.q.q.q.@.#.@.@.@.@.@.o.#.@.@.t.t.t.9.q.t.t.q.q.q.t.q.q.q.q.t.t.p.t.q.4.4.4.t.4.t.t.t.q.q.t.t.t.t.@.t.t.p.t.t.q.t.t.t.q.q.q.t.q.q.,.+.+.@.t.t.t.;.@.o.<.t.t.t.4.o.X.o.@.4.;.@.;.@.@.@.@.o.o.X.X.o.o.o.o.o.o.o.[ A [ o.@.@.#.o.X.X.{ G J J z J A l l z A A J G l . + 4 0 ] @.=.s R i . * % % % lXlXlXlXlXlXlXlXlXlXlXlXlXlXlXlXlXlXlXlXlXlXlXlXlXlXlXlXlXlXlXlXlXlXlXlXlXlXlXlXlXlXlXlXlXlXlXlXlXlXlXlXlXlXlXlXlXlXlXlXlXlXlXlXlXlXlXlXlXlXlXlXlXlXlXlXlXlXlXlXlXlXlXlXlXlXlXlXlXlXlXlXlXlXlXlXlXlXlXlXlXlXlXlXlXlXlXlXlXlXlXlXlXlXlXlXlXlXlXlXlXlXlXlXlXlXlXlXlXlXlXlXlXlXlXlX% % z k , =.o.A 7 > o   5 :.F.W z k k z { o.#.#.@.t.@.@.@.o.X.o.;.@.@.;.4.t.t.t.4.@.#.#.o.;.4.t.t.t.t.t.t.0.@.o.@.;.@.@.@.t.t.t.t.t.t.q.t.;.*.;.;.o.@.t.q.e.q.q.q.p.p.t.;.;.;.@.q.t.t.q.t.t.q.q.t.t.t.t.t.,.@.t.t.@.@.,.q.q.q.q.q.q.,.@.q.t.t.q.t.t.t.t.q.q.q.q.q.t.t.q.@.t.t.,.4.4.@.#.@.,.,.q.q.q.q.q.q.q.t.t.u.t.,.;.4.,.,.,.,.t.,.#.#.@.@.@.4.*.*.*.o.#.#. . .o.@.@.@.@.+.+.@.4.@.[ A A z j , , , * > # o > l A g , W -.R z J X.@.@.;.@.@.o.R %.*.o.o.G X.o.%.P x x x k R ",
"z = :.G k k v R E %.*.4.4.*.S S [ ;.;.=.=.%.R J J j j J W.7.l * * * * o . o 5 j = & i g j l A A ] #.#.#.+.#.#.o.#.o.@.@.@.@.@.q.,.<.#.o.o.o.@.,.q.,.,.@.@.@.t.@.@.@.@.@.o.o.@.,.q.q.q.q.q.,.,.@.@.q.@.@.,.@.+.@.q.q.q.q.q.q.t.q.q.q.q.q.t.t.t.t.t.u.q.t.t.t.t.4.;.<.4.t.t.t.,.,.t.t.t.@.,.t.t.t.t.q.q.t.q.q.q.p.p.p.q.q.@.@.+.,.t.t.t.t.4.q.q.q.q.t.@.@.@.4.4.@.@.;.@.#.@.o.#.o.o.#.[ #.o.o.;.&.o.X.A A #.@.o.#.[ X.X.X.S S J J l J z z J J A R R l   X 4 0 A *.%.k P & . * % % % lXlXlXlXlXlXlXlXlXlXlXlXlXlXlXlXlXlXlXlXlXlXlXlXlXlXlXlXlXlXlXlXlXlXlXlXlXlXlXlXlXlXlXlXlXlXlXlXlXlXlXlXlXlXlXlXlXlXlXlXlXlXlXlXlXlXlXlXlXlXlXlXlXlXlXlXlXlXlXlXlXlXlXlXlXlXlXlXlXlXlXlXlXlXlXlXlXlXlXlXlXlXlXlXlXlXlXlXlXlXlXlXlXlXlXlXlXlXlXlXlXlXlXlXlXlXlXlXlXlXlXlXlXlXlXlXlX% k s , %. .A 7 > .   7 :.2.E J k k J { o.o.o.@.q.,.@.@.@.@.4.,.4.4.4.t.t.t.p.t.@.#.#.o.o.@.t.t.t.t.t.t.t.;.@.@.4.t.9.q.q.,.@.@.@.q.e.t.;.*.;.4.;.4.t.q.q.q.e.e.q.q.u.t.;.o.@.t.t.t.q.t.t.t.t.u.u.u.t.t.4.@.@.4.q.@.,.q.q.,.q.q.q.q.q.q.q.q.q.q.q.q.q.q.t.q.q.q.t.q.t.t.q.q.q.4.@.#.] #.,.t.q.q.q.9.q.q.t.t.t.t.u.t.@.t.4.4.,.,.t.@.+.#.@.@.@.4.3.3.2.=.X.#.#. .#.@.@.@.@.,.@.@.@.o.#.[ A A z g g 5 * > * o > A A , , =.-.R z J { o.;.;.;.;.&.%.*.4.;.o.X.%.;.*.E x s s k R ",
"z * :.G k k v R R %.*.4.4.4.@.#.#.o.&.$.R R Z z z j j J U.7.j % # * * o . o 5 j = & a j j l A ] ] #.#.#.o.o.*.*.=.*.*.@.@.t.t.t.q.,.@.@.;.@.,.q.q.q.,.,.@.@.q.,.4.4.4.;.@.@.@.,.,.q.q.q.@.@.q.@.@.q.q.,.@.@.+.q.t.t.q.q.q.,.,.@.q.q.q.q.q.t.t.t.t.u.,.q.t.u.u.4.@.@.<.t.u.t.t.,.q.q.t.,.4.t.t.t.t.t.q.q.q.q.q.t.p.p.t.q.q.@.t.t.t.t.4.4.t.q.q.q.q.t.t.@.@.4.;.@.@.@.@.#.@.@.o.;.;.o.#.#.o.o.;.&.o.o.G { o.@.&.$.G G %.X.[ S J J J R J R J J l J R g   X 4 0 A o.G j k & . * * * * lXlXlXlXlXlXlXlXlXlXlXlXlXlXlXlXlXlXlXlXlXlXlXlXlXlXlXlXlXlXlXlXlXlXlXlXlXlXlXlXlXlXlXlXlXlXlXlXlXlXlXlXlXlXlXlXlXlXlXlXlXlXlXlXlXlXlXlXlXlXlXlXlXlXlXlXlXlXlXlXlXlXlXlXlXlXlXlXlXlXlXlXlXlXlXlXlXlXlXlXlXlXlXlXlXlXlXlXlXlXlXlXlXlXlXlXlXlXlXlXlXlXlXlXlXlXlXlXlXlXlXlXlXlXlXlXlX% j a i %.A l 7 > . X 5 :.-.R Z Z P R o.@.@.@.@.@.,.@.+.@.,.t.,.4.4.,.t.t.t.q.t.q.@.;.,.4.q.q.t.t.q.q.q.q.t.t.t.t.t.q.q.q.t.4.;.@.t.t.t.t.@.4.t.t.t.t.t.t.q.e.e.t.p.t.t.4.;.4.t.t.q.t.t.t.t.t.t.p.p.u.u.4.@.@.@.@.@.,.t.,.@.,.q.q.q.t.q.q.q.q.q.q.q.q.q.q.q.q.q.,.@.,.t.q.q.,.,.@.#.A  .@.,.q.q.q.,.,.,.t.t.t.u.u.t.t.t.t.4.@.@.t.o.;.o.o.o.o.4.K.K.H.2.*.o.#.#.#.@.@.@.@.,.@.@.@.+.#.[ A A J l l , % > * X 4 A l , , =.-.J j z J S X.;.4.4.&.%.*.4.4.;.%.*.4.:.=.x s p a k ",
"l > ;.G k k R R R *.1.*.o.o.@.@.+.@.o.G J Z k k k a a k P.5.g % # * > o . o 5 j = & i g l A A #.#.o.#.#.#.*.5.U.K.P.1.X.o.<.t.t.t.q.q.t.q.,.q.q.q.q.,.,.@.@.,.4.@.@.@.@.@.;.o.o.@.@.@.@.@.@.q.@.#.@.q.@.@.+.@.q.9.t.4.,.,.@.@.o.@.t.t.q.q.t.t.q.q.t.4.t.t.t.t.4.4.@.@.4.u.t.t.,.q.q.q.t.4.,.,.4.@.@.q.t.q.q.q.t.t.p.p.t.t.,.4.4.;.;.@.@.,.@.4.@.@.4.4.@.@.@.@.#.#.@.@.@.@.@.o.o.o.@.@.@.o.;.;.;.o.X.%.o.o.&.%.R P J R %.{ G G F %.E Z J J z g j z , . + 4 0 A S J a k $ $ * * * * lXlXlXlXlXlXlXlXlXlXlXlXlXlXlXlXlXlXlXlXlXlXlXlXlXlXlXlXlXlXlXlXlXlXlXlXlXlXlXlXlXlXlXlXlXlXlXlXlXlXlXlXlXlXlXlXlXlXlXlXlXlXlXlXlXlXlXlXlXlXlXlXlXlXlXlXlXlXlXlXlXlXlXlXlXlXlXlXlXlXlXlXlXlXlXlXlXlXlXlXlXlXlXlXlXlXlXlXlXlXlXlXlXlXlXlXlXlXlXlXlXlXlXlXlXlXlXlXlXlXlXlXlXlXlXlX% & k p , J l 5 5 > X X 5 :.-.P Z Z R G o.o.@.@.@.@.o. .o.;.@.,.4.@.4.4.4.t.t.q.t.t.t.4.4.t.t.,.q.q.q.q.q.q.t.4.@.@.;.;.4.t.t.4.@.@.t.t.t.t.t.t.t.u.t.q.t.t.t.t.t.q.p.q.t.;.;.4.t.t.q.t.p.t.t.t.p.p.p.t.t.4.;.;.@.@.@.@.@.@.,.q.9.@.,.,.,.q.t.q.q.q.q.q.q.q.q.q.@.#.#.@.4.,.,.@.@.@.#. .#.@.,.@.,.@.@.@.@.,.t.t.t.t.t.t.q.,.<.@.@.4.2.7.1.o.#.X.1.U.3.2.*.*.o.o.o.o.<.@.@.@.@.+.+.+.+.#. .[ A l l g , % > * o 5 A l , , W :.J j z z J G o.t.4.&.%.&.@.4.;.X.o.;.:.%.J k k p z ",
"z > :.$.k R J $.&.4.4.o.#.o.+.@.,.,.@.o.X.G J z k k a k 5.5.7 % o * > % . o 5 j % & i j l A ] o.@.4.,.o.=.=.2.5.3.5.1.X. .o.@.4.@.@.,.,.,.,.,.@.q.q.,.@.+.@.;.4.@.o.#.#.@.@.o.[ [ #.+.+.@.@.@.@.#.#.@.@.+.@.@.@.@.#.@.4.,.@.X.S o.@.9.q.q.,.,.@.+.@.t.4.@.@.4.t.t.,.@.@.4.;.@.@.@.@.@.;.4.;.@.o.#.#.@.t.t.q.q.q.p.p.p.t.q.,.@.;.o.o.o.;.;.;.;.o.X.&.o.o.#.@.@.#.] #.o.@.@.@.o.{ o.o.@.@.@.*.&.X.{ { R $.G J J k k k R $.{ G J P P R k k J j 5 , i % . + 4 0 A A l i s $ o * * % * lXlXlXlXlXlXlXlXlXlXlXlXlXlXlXlXlXlXlXlXlXlXlXlXlXlXlXlXlXlXlXlXlXlXlXlXlXlXlXlXlXlXlXlXlXlXlXlXlXlXlXlXlXlXlXlXlXlXlXlXlXlXlXlXlXlXlXlXlXlXlXlXlXlXlXlXlXlXlXlXlXlXlXlXlXlXlXlXlXlXlXlXlXlXlXlXlXlXlXlXlXlXlXlXlXlXlXlXlXlXlXlXlXlXlXlXlXlXlXlXlXlXlXlXlXlXlXlXlXlXlXlXlXlXlXlXlX& k p i l 7 5 5 > X X 5 :.-.R z z J J S [ #.#.+.#.A S o.;.o.o.;.@.4.4.4.;.;.4.t.t.,.,.,.@.9.,.,.t.t.t.t.t.t.@.#.[ o.*.;.@.o.o.o.@.t.t.q.q.t.t.4.@.,.,.t.t.t.q.t.q.q.q.9.;.;.*.4.t.t.t.p.t.t.t.u.t.t.t.4.4.4.@.@.@.@.@.@.@.@.,.@.@.#.#.+.q.t.q.q.q.q.q.q.q.q.q.+.#.#.@.@.@.@.@.+.@.@.+.@.@.@.,.,.+.#.#.@.,.4.t.t.q.q.q.,.,.@.+.@.@.U.U.1. .#.#.o.4.4.*.*.o.o.o.*.5.1.;.@.+.#.#.+.@.@.+.#.[ A j g 5 , o > # o 5 A A , , E :.J j z G { X.;.4.4.;.&.&.;.o.o.o.#.o.*.%.J k z j Z ",
"A * :.$.J R R &.;.4.4.;.@.<.,.,.,.,.@.@.o.o.[ z j p j J 7.5.g % o * 5 % . o 5 j * % g l A ..#.#.o.<.<.1.3.H.~ =.1.;.;.o.o.o.o.o.o.o.o.;.;.@.#.#.@.,.,.+.#.o.o.@.o.{ { #.#.@.o.[ [ #.#.o.@.@.@.@.#.#.o.o.o.#.@.@.#.#.@.4.@.o.{ J S @.@.@.@.@.,.@.@.@.,.@.@.o.@.;.q.t.4.@.@.;.@.;.;.@.@.<.;.o.#.#.o.#.@.t.t.q.q.q.t.p.q.q.q.t.t.4.o.#.o.o.;.@.;.&.G $.o.#.@.@.@.o.#.#.o.@.@.;.X.{ X.o.o.o.;.*.W G { { J R R R Z Z J k J G { G J P J k k R J j 5 , , % . + 6 l A ] l a j $ . * , , , lXlXlXlXlXlXlXlXlXlXlXlXlXlXlXlXlXlXlXlXlXlXlXlXlXlXlXlXlXlXlXlXlXlXlXlXlXlXlXlXlXlXlXlXlXlXlXlXlXlXlXlXlXlXlXlXlXlXlXlXlXlXlXlXlXlXlXlXlXlXlXlXlXlXlXlXlXlXlXlXlXlXlXlXlXlXlXlXlXlXlXlXlXlXlXlXlXlXlXlXlXlXlXlXlXlXlXlXlXlXlXlXlXlXlXlXlXlXlXlXlXlXlXlXlXlXlXlXlXlXlXlXlXlXlXlXlX% a p i l l 0 7 > X X 5 :.-.R z z J S S  .#.#.o.[ A A X.o.S [ o.,.,.4.4.@.o.;.,.4.@.@.,.@.@.,.q.;.o.o.@.t.t.@.o.o.o.o.o.o.o.o.;.4.t.t.q.q.t.t.@.#.@.,.q.t.t.q.t.t.,.q.t.;.%.G X.@.t.t.t.t.t.t.t.t.t.t.t.t.t.,.,.4.;.@.@.@.,.,.@.[ ] #.@.q.q.q.q.@.+.,.q.q.q.,.@.@.@.@.@.#.o.@.#.+.@.,.@.@.@.,.@.#. .#.@.@.4.t.@.,.t.q.,.,.@.o.o.@.3.5.o. .#.#.#.@.@.@.@.o.o.o.2.K.2.*.@.@.4.5.4.,.t.,.o.{ A j i 5 5 o > * o 7 A A 7 , -.P.R j J X.o.@.t.4.t.4.@.@.@.o.o.@.o.o.o.G Z z z j J ",
"A * ;.&.J R =.*.4.t.t.4.4.,.q.q.q.q.,.@.@.o.o.z j a j R U.7.7 % o * 5 % . o 5 j = = g l A #.@.o. . . .1.U.K.=.K o.@.o.o.@.@.o.o.o.{ o.&.&.[ S [ +.@.@.#.[ [ X.o.G G %.o.#.#.o.{ [ [ X.o.;.@.#.#.o.#.#.#.#.#.o.@.#...#.@.@.#.o.{ ] +.,.@.@.,.,.@.,.@.@.@.@.@.@.@.@.@.<.o.;.;.@.@.o.#.@.<.o.[ #.@.4.4.,.t.q.q.t.t.q.t.t.q.q.t.t.4.o.o.;.o.o.o.;.=.G A [ #.@.@.@.@.#.#.#.@.o.&.$.%.%.{ [  .*.=.R G X.X.J z k v x Z J J J A { { J J G J J R J j 5 , j , . + 6 A [ [ J i j % . % % , , lXlXlXlXlXlXlXlXlXlXlXlXlXlXlXlXlXlXlXlXlXlXlXlXlXlXlXlXlXlXlXlXlXlXlXlXlXlXlXlXlXlXlXlXlXlXlXlXlXlXlXlXlXlXlXlXlXlXlXlXlXlXlXlXlXlXlXlXlXlXlXlXlXlXlXlXlXlXlXlXlXlXlXlXlXlXlXlXlXlXlXlXlXlXlXlXlXlXlXlXlXlXlXlXlXlXlXlXlXlXlXlXlXlXlXlXlXlXlXlXlXlXlXlXlXlXlXlXlXlXlXlXlXlXlXlXlX$ i k i l ] 0 0 > X X 5 5.-.R z z G o.o.o.#. .o.o.[ [ X.{ A ] @.@.,.4.4.@.o.#.,.@.@.;.4.@.@.@.q.4.@.o.@.4.t.t.@.;.*.X.{ o.@.;.;.4.4.t.t.q.t.@.@.@.,.q.q.q.t.t.4.t.t.,.;.*.{ S  .4.t.t.t.t.t.,.,.t.q.,.t.t.t.t.t.t.@.@.@.@.,.,.@.] [ @.@.,.q.q.q.@.+.@.,.q.@.@.@.,.4.@.#.#.#.#...#.@.;.o.o.@.@.o.#.+.@.@.@.,.@.@.,.t.t.q.4.@.+.o.@.=.*. .#.....#.#.o.o.o.X.X. .^ J.H.%.%.1.K.}.5.o.4.4.o.X.J j i 5 5 o > # o 7 A J 5 i 5.U.P j J X.@.4.q.q.q.,.,.@.@.@.o.+.@.@.X.G J k z j G ",
"A > :.%.J R =.*.4.4.4.4.t.q.q.q.,.q.t.,.@.o.{ z k k k R U.7.7 % o % , o . X 5 j , , g l A  .o.o.[ X.[ %.2.2.=.o.<.@.o.#.#.@.@.@.@.{ { { X.X.X.o.o.@.@.o. .[ G %.J J {  .#.#.o.[ S S S { { X.[ [ o.o.#.o.#.[ #.@.@.#.@.@.@.@.*.*.#.#.@.+.+.,.t.,.q.@.@.4.4.4.4.@.@.@.@.X.o.;.;.@.@.@.@.@. . .@.4.@.4.@.@.q.q.t.t.@.,.q.@.@.4.4.;.o.;.;.;.@.o.&.%.A J [ @.#.#.o.@.o.#.#.o.$.G J R W G S X.%.R z G o.o.J z k k p k J J A S { { J J %.%.J R J j 5 g z , X + 9 A A A l i k % $ * , , , lXlXlXlXlXlXlXlXlXlXlXlXlXlXlXlXlXlXlXlXlXlXlXlXlXlXlXlXlXlXlXlXlXlXlXlXlXlXlXlXlXlXlXlXlXlXlXlXlXlXlXlXlXlXlXlXlXlXlXlXlXlXlXlXlXlXlXlXlXlXlXlXlXlXlXlXlXlXlXlXlXlXlXlXlXlXlXlXlXlXlXlXlXlXlXlXlXlXlXlXlXlXlXlXlXlXlXlXlXlXlXlXlXlXlXlXlXlXlXlXlXlXlXlXlXlXlXlXlXlXlXlXlXlXlXlX* $ i k , l ] A 0 > X X 5 :.-.G l z { @.@.@.#. .o.o.[ { X.X.[ o.4.@.4.4.4.4.,.@.t.4.o.o.@.@.@.+.@.t.t.t.4.,.t.t.4.4.*.G G *.4.4.@.o.@.;.,.@.@.@.@.@.q.t.q.q.t.q.@.;.4.,.4.;.&.X.;.t.t.q.t.t.u.t.4.t.t.@.@.,.4.@.@.@.@.@.@.@.@.@.@.#.@.@.@.@.q.q.q.@.+.@.q.9.@.@.+.@.@.@.[ #.#.[ [ o.o.{ S [ o.@.o.+.@.@.@.#.o.#.@.@.@.,.4.4.4.@.#.#.#.o.#.#.#.#.#.#.o.o.[ [ { [ R ^ 2.W %.1.[.{.1.S o.o.K [ A g i , 5 o > o . 5 A A , i 5.U.R j J [ +.q.q.t.,.,.q.,.@.@.@.@.@.;.o.{ J z z l G ",
"A > 4.=.J J F =.:.:.;.4.t.t.t.,.,.4.t.@.#.#.A l j k k P U.7.5 % o % > o   o 5 j , , g j l A #.X.X.X.o.K W W =.@.@.o.@.o.#.@.;.;.o.X.G S K *.4.o.#.#.o.o.&.X.G G J k J S o.o.S A z J J J J J J S  .#.#.#.#.[  .o.;.4.4.4.@.@.;.;.;.#.#.] #.@.4.t.q.,.@.@.@.4.4.4.;.o.X.S [ *.;.4.;.4.4.o. .o.,.@.@.@.@.@.,.4.4.@.@.@.@.@.o.[ S { o.;.4.;.;.$.$.J J A o.o.o.#.o.o.o.o.o.X.G J J J R %.%.=.R J z G o.X.J z k k a j J G G { { { J J X.%.R R J l l l Z , X + 6 0 l A l g k $ $ * , , , lXlXlXlXlXlXlXlXlXlXlXlXlXlXlXlXlXlXlXlXlXlXlXlXlXlXlXlXlXlXlXlXlXlXlXlXlXlXlXlXlXlXlXlXlXlXlXlXlXlXlXlXlXlXlXlXlXlXlXlXlXlXlXlXlXlXlXlXlXlXlXlXlXlXlXlXlXlXlXlXlXlXlXlXlXlXlXlXlXlXlXlXlXlXlXlXlXlXlXlXlXlXlXlXlXlXlXlXlXlXlXlXlXlXlXlXlXlXlXlXlXlXlXlXlXlXlXlXlXlXlXlXlXlXlXlX* % i k i l ] A 0 > X X 5 *.=.G l l [ o.#.#. .o.o.o.o.{ { o.;.@.@.@.4.4.4.4.t.t.4.;.{ [ #.#.+.@.@.@.4.4.4.4.,.@.@.;.*.G G *.<.@.#.#.o.;.@.@.@.@.@.@.q.q.q.q.q.,.@.o.:.4.4.4.4.4.4.t.4.,.t.u.u.t.4.t.4.@.@.@.@.@.o.@.@.;.;.@.@.@.@.@.@.@.@.@.#.@.@.@.@.@.@.@.@.+.#.#.o.o.o.#.#.o.o.o.{ A J S o.o.#.@.@.@.#.#.#.#.@.@.@.@.@.4.4.@.#.[ [ #.#.#.#.;.;.S [ { S S [ [ F W :.X.o.1.K.3.*.[  .[  .#.A j i , , o > # . 5 A J 5 , :.U.R z F X.@.t.t.t.t.,.4.@.@.;.t.t.;.*.&.$.J J z j G ",
"A > 4.=.k k J P E $.&.;.t.t.t.<.@.4.4.@.#.#.A l a p k R U.5.5 % o % > o   o 5 j , = g j l A #.X.X.S  .S K %.*.@.@.#. .#.#.@.o.[ S [ { S K *.@...[  .#.o.o.X.{ S J z z J X.&.J Z z z J J z l J G S [ #.#.#. .[  .X.&.&.o.&.*.&.*.*. .[ [ #.@.@.@.,.@.@.@.@.4.;.@.o.[ S F G &.&.G { o.;.o.o.;.@.@.@.@.@.#.o.@.@.o.@.@.@.o.{ J J G X.*.*.&.&.J J z J { &.o.A [ o.#.#.o.X.{ A J J J F %.%.F J z z J J J z z J J z z J D G G G J J z S G J z z j j l z , X + 4 0 A A J j j $ % , , , , lXlXlXlXlXlXlXlXlXlXlXlXlXlXlXlXlXlXlXlXlXlXlXlXlXlXlXlXlXlXlXlXlXlXlXlXlXlXlXlXlXlXlXlXlXlXlXlXlXlXlXlXlXlXlXlXlXlXlXlXlXlXlXlXlXlXlXlXlXlXlXlXlXlXlXlXlXlXlXlXlXlXlXlXlXlXlXlXlXlXlXlXlXlXlXlXlXlXlXlXlXlXlXlXlXlXlXlXlXlXlXlXlXlXlXlXlXlXlXlXlXlXlXlXlXlXlXlXlXlXlXlXlXlXlX* * % g k i l ] b 6 > X X > =.%.G l A [ #.[ [ [ X.o.o.o.o.{ o.;.;.+.#.#.#.@.@.@.4.@.o.X.X.o.#.#.@.+.@.@.@.@.@.o.o.o.*.*.{ { o.@.o.o.o.;.;.@.o.@.@.@.@.,.q.q.q.,.<.o.X.&.@.@.@.4.4.4.t.4.,.t.t.t.4.4.4.4.4.@.@.o.o.o.@.@.;.o. .#.o.#.#.#.#.@.o.[ #.@.@.@.o.o.o.o.#.#.o.[ [ { [ o.;.&.{ J G G S { o.#.o.#.#.#.[ [ #.o.o.o.o.o.;.;.o. .[ [ o.#.] [ &.{ l A A S G G { S %.%.X.#.<.2.1.o.#.#.[ #.#.A j , , , o > # X 5 l J g , -.5.R k J K o.t.;.@.@.@.@.@.o.o.4.4.&.%.=.E R k l j G ",
"G > 4.=.k k J P R E =.<.,.t.4.o.@.4.4.@.@.o.S z j s k J 7.5.5 % % o > # . o 5 5 * = g j l A [ [ S S ..[ K =.*.;.o.[ [ #.#.[ A A J [ { G G o.#.] A ] [ #.#.X.o.S F Z z z J J z k k k z k k j l A A [ [ [ [ [ [ [ G G G G %.&.%.%.{ A X.o.o.o.@.@.@.@.;.@.@.@.o.[ G { %.G F G J z l A { &.*.;.;.@.@.o.o.#.[ [ [ { o.@.@.o.{ J J G { %.%.G G J J z z J $.{ z J S X.[ S A A J J J R J J J Z z z l l k k k z J F J J J G R J J J J Z A J j j l g 7 j l , o + 6 A ]  .J i a $ % , , , < lXlXlXlXlXlXlXlXlXlXlXlXlXlXlXlXlXlXlXlXlXlXlXlXlXlXlXlXlXlXlXlXlXlXlXlXlXlXlXlXlXlXlXlXlXlXlXlXlXlXlXlXlXlXlXlXlXlXlXlXlXlXlXlXlXlXlXlXlXlXlXlXlXlXlXlXlXlXlXlXlXlXlXlXlXlXlXlXlXlXlXlXlXlXlXlXlXlXlXlXlXlXlXlXlXlXlXlXlXlXlXlXlXlXlXlXlXlXlXlXlXlXlXlXlXlXlXlXlXlXlXlXlXlXlX* % % g k , l ..] 6 > X X > =.=.%.A A A [ [ [ [ [ { o.o.&.{ { *.@.@.#.#.#.@.o.o.@.o.&.*.4.4.o.#.#.o.@.@.o.#.o.o.o.o.o.*.X.[ o.o.o.;.;.;.;.@.o.o.@.@.@.@.@.@.@.@.@.*.%.{ o.o.@.@.<.4.q.;.@.t.t.t.,.,.@.;.4.@. .[ X.o.#.o.*.X.A A  .#.#.#.#.o.o.o.#.o.o.o.[ [  .{  .o.{ A J G [ { %.$.{ { &.&.X.S [  .#. .[ [ [ [ [ { X.X.{ X.X.X.X.X.[ [ X.{ S J G l j j l J J A S A { G %. .#.*.o.X.#.#.{ G A A g , , , o > # X 5 l J g , *.5.R k Z R *.4.o.#.@.,.,.@.#.[ o.*.%.R E E R z j j G ",
"J * :.%.k P R P R -.*.4.,.,.@.o.o.;.;.;.;.*.{ J k k k J 5.1.5 * % % > * X o , 5 % , i j l A A A A A #. .G K X.o.{ S [  .[ A A J A A A J G G [ A l A A S S G G S F J k k k k k k k k k k s j j z J J A A A A A J J J J J G G G G J J %.o.&.X.o.*.*.;.&.o.o.X.G F G *.*.W J z z z k z A X.&.&.&.@.@.#.#.[ S A A J S o.*.X.S G F G G R R R P R J J z k J J z z J S S J J A A J F R J z l l l j j j j z z J F S S G G F F J z J J J J z j j j j 5 g l , o + 6 ] #. .l i g $ % , , , lXlXlXlXlXlXlXlXlXlXlXlXlXlXlXlXlXlXlXlXlXlXlXlXlXlXlXlXlXlXlXlXlXlXlXlXlXlXlXlXlXlXlXlXlXlXlXlXlXlXlXlXlXlXlXlXlXlXlXlXlXlXlXlXlXlXlXlXlXlXlXlXlXlXlXlXlXlXlXlXlXlXlXlXlXlXlXlXlXlXlXlXlXlXlXlXlXlXlXlXlXlXlXlXlXlXlXlXlXlXlXlXlXlXlXlXlXlXlXlXlXlXlXlXlXlXlXlXlXlXlXlXlXlXlXlX% % % a k , A #.] 6 > X X 5 =.=.*.S J J A G G S A A { { &.{ A o.o.o.#. .o.o.o.o.X.o.&.*.;.4.#.[ [  .o.o.#.o.*.*.o.X.S X.X.o.o.o.o.o.o.o.o.@.o.o.o.o.o.o.@.o.o.o.o.&.%.R ;.;.@.@.@.@.@.@.4.t.t.t.,.@.@.;.4.o.S A { X.X.o.&.X.A A S  .[ [ [ S S %.S A A J A A A J { $.G z z J R J J J J $.&.=.%.J A S S S [ [ [ A A A A G D G G G G G { A S G A J J l j j l J J A A J J G %. .#.o.X. .[ { G J z z j , , 5 * > o X 5 l l g i -.U.W Z P P =.4.;.@.4.q.,.@.#.[ o.*.=.R E P x z j l G ",
"J % :.*.J P R R E =.=.4.4.,.o.X.;.t.t.4.;.{ G J k k k k 5.2.5 * % % > * X X > , : i a a j l l l J J G G J G R W R R R R G J J J J J R P R R R J Z Z Z Z Z k k Z R P x k k k s s s s k x k k k k Z k k k k z J z z k k R R P P J J J $.W W %.%.=.*.*.=.%.R R R P P -.-.-.R J R R z z Z P R =.=.=.=.W G G R R Z z P =.-.W R R E E P R P R E E R P P P P R P k Z J R R R J k Z R E R Z J J z z z z G { { %.%.%.%.*.4.W R J J J J J J l j j j l 7 j J 7 X + 6 A ] ] l i g $ $ , , = lXlXlXlXlXlXlXlXlXlXlXlXlXlXlXlXlXlXlXlXlXlXlXlXlXlXlXlXlXlXlXlXlXlXlXlXlXlXlXlXlXlXlXlXlXlXlXlXlXlXlXlXlXlXlXlXlXlXlXlXlXlXlXlXlXlXlXlXlXlXlXlXlXlXlXlXlXlXlXlXlXlXlXlXlXlXlXlXlXlXlXlXlXlXlXlXlXlXlXlXlXlXlXlXlXlXlXlXlXlXlXlXlXlXlXlXlXlXlXlXlXlXlXlXlXlXlXlXlXlXlXlXlXlXlXlX% % % i k = A ] b 5 * o   5 %.W *.R J J R =.:.*.G z A { &.$.G { &.&.%.%.{ { $.R P R G R %.%.%.G S G G G $.=.=.=.%.G G %.%.%.=.=.*.&.{ $.=.=.$.%.X.&.*.=.=.$.%.=.W W =.=.*.*.*.=.%.*.*.*.4.5.5.5.5.:.*.*.*.X.F G G R R R R R G G G %.%.J J J z F Z J J R R k k P R R k k k R P k k R R =.=.$.E J z z J J G G J J z z z Z Z J P R F G G J J J J J J z l l A A A A A J G W W W W W R G G G G z z k a , , , * > o X , l l g i -.Q.W P P P P =.o.4.t.q.,.@.o.#.*.*.R P I I x k k j F ",
"z * 4.:.J R W Q -.-.=.*.4.4.*.X.;.t.t.,.o.[ A J R k s k 5.2.5 * % % > * . . , i a k k k k k k P R E E E R R Q Q Q Q E E Q E E E E E E E E E E E R R R R P P P P E E I P P P I I x I I E E E E I P P P E E E P R x x P E Q Q Q E E E E Q Q -.:.:.:.:.-.-.-.-.-.-.-.Q F.F.-.Q Q E E E E -.-.H.P.H.F.F.F.F.H.x.x.x.F.J.I.I.G.F.-.-.Q E Q x.F.G.F.F.F.x.Q Q E E E E -.F.F.Q Q x.J.J.F.x.Q Q E P E :.y.y.5.:.*.:.7.U.7.-.E R P R J J z z l l l A 7 j J 7 X + 4 0 A A l g k % $ * & = lXlXlXlXlXlXlXlXlXlXlXlXlXlXlXlXlXlXlXlXlXlXlXlXlXlXlXlXlXlXlXlXlXlXlXlXlXlXlXlXlXlXlXlXlXlXlXlXlXlXlXlXlXlXlXlXlXlXlXlXlXlXlXlXlXlXlXlXlXlXlXlXlXlXlXlXlXlXlXlXlXlXlXlXlXlXlXlXlXlXlXlXlXlXlXlXlXlXlXlXlXlXlXlXlXlXlXlXlXlXlXlXlXlXlXlXlXlXlXlXlXlXlXlXlXlXlXlXlXlXlXlXlXlXlX, ; % % i k = l ] 9 4 > #   , R %.=.R W -.-.2.H.2.=.J J =.5.2.-.:.:.5.5.5.:.-.:.-.-.-.-.-.-.2.H.H.-.-.-.Q -.H.I.H.F.-.F.H.H.P.H.H.H.F.-.-.G.H.:.-.Q -.-.-.-.Q Q Q -.H.H.P.P.H.H.F.F.H.P.H.H.F.H.Y.Y.H.-.-.2.-.Q Q Q Q Q Q Q Q Q Q Q -.-.Q R R R R R Q Q F.-.Q E E E E I I E E E R R Q -.H.H.F.-.E R P R Q Q Q Q E E E Q Q x.x.x.x.F.F.Q R E E E E E E =.=.:.:.=.%.{ %.=.-.Q m.m.c.Q R E Q E E R R k z l 5 % > o . > l l g i -.U.W P P P P R ;.4.q.q.q.4.@.@.:.%.z x P I P R k z J ",
"l * y.4.J R %.=.:.:.%.%.*.*.*.o.4.t.,.@.#.] A J R k k k 2.*.5 * > , 7 # . . , i a s s x x k k P R E E E E E Q Q R R P R W W W R R R R W Q Q E R P P P R P P P I E I I I P P I P x P E E E E E I P P E Q Q E P v v v k P E E E E P P R E E Q -.:.:.:.-.=.E =.-.-.-.Q Q -.-.Q R W =.=.$.=.-.:.2.:.:.:.:.:.:.:.-.-.:.P.P.P.H.-.-.-.E E E Q -.G.F.H.F.F.-.-.-.-.=.=.-.:.-.-.Q -.H.H.-.Q E I I P R -.5.4.:.&.%.=.:.:.=.R R R R R R R R W Z j J A 7 g j 5 X O 4 9 0 A l g j % $ % $ % lXlXlXlXlXlXlXlXlXlXlXlXlXlXlXlXlXlXlXlXlXlXlXlXlXlXlXlXlXlXlXlXlXlXlXlXlXlXlXlXlXlXlXlXlXlXlXlXlXlXlXlXlXlXlXlXlXlXlXlXlXlXlXlXlXlXlXlXlXlXlXlXlXlXlXlXlXlXlXlXlXlXlXlXlXlXlXlXlXlXlXlXlXlXlXlXlXlXlXlXlXlXlXlXlXlXlXlXlXlXlXlXlXlXlXlXlXlXlXlXlXlXlXlXlXlXlXlXlXlXlXlXlXlXlX% % % % g g * l ] 0 5 > X   , R =.*.G =.:.-.-.Q E R R R =.:.:.-.-.-.-.=.*.=.=.=.=.=.W W -.:.2.P.H.-.-.W Q -.H.H.H.H.:.F.H.H.H.P.H.2.-.-.:.H.P.P.-.Q Q -.Q -.Q E Q -.H.P.P.5.3.2.2.2.2.2.:.:.:.2.5.5.2.=.:.2.2.-.W E E -.-.-.W W W -.-.-.E R R z k P W Q Q Q E E E E E E E E E R R R E -.-.F.F.-.E R P R Q -.Q E E E E Q Q x.x.x.x.F.F.Q R E E E Q Q Q -.:.:.:.=.%.%.*.*.=.Q m.M.M.x.R R E R R R R R J z 5 % 4 % X > l l 5 i -.P.W F W W G X.4.t.t.q.q.q.@.@.4.&.G R R P P E R J J ",
"l * y.4.J F { :.4.4.;.;.4.4.@.4.t.t.q.9.@.#.[ J J k k z 5.5.7 > 4 A A #   . > 5 , , i a a j j k z Z Z Z J G R $.{ S A A ]  .[ ] A A A S S S A l g g g j j a i k k k k k k k j a i j k l l z z k j j Z J J J l g j j g j z k k k k J J J J G G { o.o.X.X.[ [ [ S G G G { { S A [ [ ] A A A S { o.#.#.#.O...#.[ A A ] [ [ [ [ { G A z z J J $.$.R R G S S S S ] ] A A A A A S S S S S D Z k z k z A X.o.&.{ F J J k J J J J J J J -.:.R k z l g , g , X O 4 9 0 A l 5 j % . % % lXlXlXlXlXlXlXlXlXlXlXlXlXlXlXlXlXlXlXlXlXlXlXlXlXlXlXlXlXlXlXlXlXlXlXlXlXlXlXlXlXlXlXlXlXlXlXlXlXlXlXlXlXlXlXlXlXlXlXlXlXlXlXlXlXlXlXlXlXlXlXlXlXlXlXlXlXlXlXlXlXlXlXlXlXlXlXlXlXlXlXlXlXlXlXlXlXlXlXlXlXlXlXlXlXlXlXlXlXlXlXlXlXlXlXlXlXlXlXlXlXlXlXlXlXlXlXlXlXlXlXlXlXlXlX% % % % % i g % l ] 0 5 * X   > R =.%.J R =.E J J G %.$.G G G G G G G { o.;.4.4.;.o.X.A [ { o.&.&.&.[ [ A [ %.=.%.&.&.X.{ [ { o.&.*.o. .[ [  .X.X.G J G G G W J J J G X.&.o. . . . . . .] ] #.@.o.#.#.#.#.[ o.o.[ [ [ [ [ [ [ A A A A K %.G l g , 7 l A A A z z J Z J J Z z z Z J Z z z Z J R R R k z k R R %.G J J J J J J G G J J F F J z Z J J J J F G G G G S A ] o.&.%.G F R R P J J J l l l j j g g * * 7 4 o 5 l l 5 i -.U.*.X.;.@.@.;.q.q.t.t.t.t.t.@.,.4.o.%.G J R $.R J D ",
"l * 5.:.J G X.4.t.t.t.t.t.4.@.4.t.t.q.9.@.,.@.o.{ J z J W.5.0 * 4 A ] # X + 8 7 , , , i , g l A A D A A A A [ #.o.o.[ [ #.#.#.#.#.] A ] o.o.[ A l l l l l j 5 5 g g j j j l j 5 7 j l l l 7 7 l l l l A A A l 6 7 0 0 l l l l l J A [ [ [ [ ] #.#.@.+.+.+.#.#...#.............#.+.#.+.+.#.+.@.@.@.@.@.@.#.#.#.#.........#.#.#...A l l A ] ] [  . .] ] ..#.#.....] ] A ] ] ] #.#.#.#.#.[ A l z l G o.o.o.{ J z J J [ S A A G J z R P k h k j g , g , X O 4 6 0 0 j 5 z = . $ % lXlXlXlXlXlXlXlXlXlXlXlXlXlXlXlXlXlXlXlXlXlXlXlXlXlXlXlXlXlXlXlXlXlXlXlXlXlXlXlXlXlXlXlXlXlXlXlXlXlXlXlXlXlXlXlXlXlXlXlXlXlXlXlXlXlXlXlXlXlXlXlXlXlXlXlXlXlXlXlXlXlXlXlXlXlXlXlXlXlXlXlXlXlXlXlXlXlXlXlXlXlXlXlXlXlXlXlXlXlXlXlXlXlXlXlXlXlXlXlXlXlXlXlXlXlXlXlXlXlXlXlXlXlXlXlX> % % % , g * l A 0 5 * X   > G W $.l J J J G { o.;.;.o.o.{ { { { { #.o.,.t.t.q.+.+.@.@.@.@.@.9.9.@.+...+.@.@.@.+.@.+.+...+.+.@.;.@.@.@.#.#.#.] ] ] ] #.#.#.] A ] ..#.#.#.] ] ] ] ..#.#.#.#.@.@.o.o.o.#.#.#.#.#.#.#.#.O.+.+...] ] ] ] #.#.] A 6 6 A ..#.#...] [ A S A A A A [ S A l l A A [ S A l l J X.o.o.#.] ] ....] ] ..#.#.] ] ....A A A A S S ] ] ] [ [ ] ] ..#.o.o.[ A A A A A A S A A 0 7 j g , * * 6 > o , l j 5 , =.Q.5.#.@.q.q.t.t.t.t.t.t.q.q.,.,.,.4.4.*.W G J J J D ",
"l % 4.*.J G X.;.4.4.4.t.4.;.#.<.4.q.q.q.@.,.,.#.[ z J G W.5.7 > 4 A A #   X 5 5 * = , i , g l A A S [ ] A A A [ X.[ A [ [ #.[ #.#.] A ] o.o.{ A l j l A A l j 5 j l j j l l l j 7 l A A A l l A A A A ] ] ] A 0 l A A A l l j g l A A [ A ] ] #.#.@.+.+.+.+.+.#...] ....#...#.#.@.@.@.@.,.@.@.@.@.@.4.4.@.o.o.@.#.....#.o.o.#.#.] ] ] ] [ ..#.#.#.#.#.#.@.#.......#...] ] ] #.#.] ] #.[ A l A [ #.#.#.[ [ A l A A #.#.] [ { { J j j j i j j j 5 g > X + 4 9 9 0 7 , l = . . $ lXlXlXlXlXlXlXlXlXlXlXlXlXlXlXlXlXlXlXlXlXlXlXlXlXlXlXlXlXlXlXlXlXlXlXlXlXlXlXlXlXlXlXlXlXlXlXlXlXlXlXlXlXlXlXlXlXlXlXlXlXlXlXlXlXlXlXlXlXlXlXlXlXlXlXlXlXlXlXlXlXlXlXlXlXlXlXlXlXlXlXlXlXlXlXlXlXlXlXlXlXlXlXlXlXlXlXlXlXlXlXlXlXlXlXlXlXlXlXlXlXlXlXlXlXlXlXlXlXlXlXlXlXlXlXlXlX% % % , , * l A 0 5 * X   > A F G l l z J %.o.o.o.;.@.[ { X.X.{  .#.#.o.@.q.@.@.@.,.@.+.+.@.@.@.+.+...#.@.@.+.@.@.@.@.@.@.q.4.;.@.@.,.,.@.@.#.#...#.#.#.#.#.......#.+.+.#...] ] #.#.@.@.@.o.@.@.@.@.@.+.+.+.+.#.+.....+.+.+.+.+...+.+...#.#.l 0 A #.#.#...] ] ] A A A A ] #.[ [ [ [ [ [ #.[ A A A o.#.#.+.+.#.+.#.+.+.+.+.+...] ] ] ] ] ] ] [ [ ] ] ] ] ] ] ] ] ..o.@.@.#.] #.#.] ] ] [ S l 7 5 , , = % % 4 * . , l l 5 , =.U.*.S #.q.q.u.u.t.t.t.t.t.q.,.t.4.,.4.;.%.J z j z J ",
"l % 4.=.Z J G &.*.*.4.4.4.;.@.4.q.q.t.q.@.@.+.] l l J G 7.4.7 4 6 A A 4 . o , 5 * , , i i j z A S G [ [ [ S S G G S A A  .#.] ....] ] ] o.o.[ A l l l A S J j l l A J l l A A j j A { S A A A A A A A [ [ [ [ ] [ { { S A A l l l A S A A A [ o.o.@.4.<.<.@.@.o.#.] #.o.#.#.o.o.;.;.t.t.t.t.@.@.@.q.t.t.q.@.@.@.@.#.#.o.@.o.o.o.o.o.#.o.o.#.#.#.o.@.@.o.@.#.] ] #.@.+.......#.o.#... .X.G A [ o.@.#.[ A A [ A A A #.+.#.] S G G J l j g j z J g g > X + 4 6 0 0 7 , j * % % % lXlXlXlXlXlXlXlXlXlXlXlXlXlXlXlXlXlXlXlXlXlXlXlXlXlXlXlXlXlXlXlXlXlXlXlXlXlXlXlXlXlXlXlXlXlXlXlXlXlXlXlXlXlXlXlXlXlXlXlXlXlXlXlXlXlXlXlXlXlXlXlXlXlXlXlXlXlXlXlXlXlXlXlXlXlXlXlXlXlXlXlXlXlXlXlXlXlXlXlXlXlXlXlXlXlXlXlXlXlXlXlXlXlXlXlXlXlXlXlXlXlXlXlXlXlXlXlXlXlXlXlXlXlXlXlXlX% % % , g * l A 0 5 * X X > J J G l l l z J S  .o.X.[ [ { X.X.{ o.o.o.o.@.@.@.@.@.t.@.@.@.;.@.@.@.+.+.@.;.@.@.@.@.@.@.@.@.@.<.,.,.,.,.,.,.,.@.o.#.o.;.@.@.@.@.#.#.@.@.@.o.......#.@.,.@.@.@.@.@.,.,.,.@.@.@.;.o.#...#.#.@.@.@.+.o.+.+.#.o.o.[ [ [ o.o.o.o. .[ A A A [ [ [ [ [ [ [ [ o.o.@.o. . .o.o.#.#.+.o.#.#.@.#.#.+.#.#.#.] ] [ [ #.#.#.#.o.#.] A ] ] [ [ ] ] o.;.o.] ] [  .#.#.[ [ S l j g i , , * o 4 # . , A l 7 , =.2.W J o.t.t.t.t.q.,.t.u.u.t.t.t.4.@.4.;.$.J z k z R ",
"z * 4.*.J J G o.;.4.u.u.u.t.4.@.,.t.t.q.q.@.#.] A l l { U.4.0 4 6 A A * . o > 5 * = , i i g j l A [ [ [ o.[ [ [ A A A A ] ....] ] ..] ]  .[ A A A A A A A A l A A A A A A ] [ l l ] [ ] A A A A A A A ] ] ] ] ] ] ..#.#.A A [ A l A A A A A [ o.#.+.@.,.,.,.@.@.#...@.q.@.#.@.@.@.q.t.t.t.t.,.@.@.,.t.t.q.q.q.9.q.@.#.#.@.@.@.@.@.@.+.@.@.#...#.@.@.@.@.#.#...] ..@.+.#.O...#.o.o.#.#.#.#.#.#.#.o.o.[ A S G S A A ..#.[ A S G J J J j a k k z i i , . X 4 8 0 7 > , g % * = = lXlXlXlXlXlXlXlXlXlXlXlXlXlXlXlXlXlXlXlXlXlXlXlXlXlXlXlXlXlXlXlXlXlXlXlXlXlXlXlXlXlXlXlXlXlXlXlXlXlXlXlXlXlXlXlXlXlXlXlXlXlXlXlXlXlXlXlXlXlXlXlXlXlXlXlXlXlXlXlXlXlXlXlXlXlXlXlXlXlXlXlXlXlXlXlXlXlXlXlXlXlXlXlXlXlXlXlXlXlXlXlXlXlXlXlXlXlXlXlXlXlXlXlXlXlXlXlXlXlXlXlXlXlXlXlXlX* o % 5 g = 7 A 0 4 * .   * z z { l l z z A X.X.o.o.[ [ #.[ K X.X.[ #.#.#.#.#.#.@.@.@.@.@.+.@.,.@.,.,.,.,.,.@.@.+.@.,.@.@.@.@.@.,.@.@.@.,.@.9.@.#.#.#.#.@.+.@.+.+.@.@.@.+.+.+.#.+.@.@.,.@.@.@.q.,.,.q.,.#.+.@.+...#.#.@.+.+.@.@.@.#.+.@.+.+.+.+. .#.#.#.#.[ A l A A [ [ #.#. .#.#.#.o.@.@.#.#.#.#.#.#.#.#.#.#.+.@.+.+.+.#.#.....] ..#.#.#. .[ [ [ A A A ] ] ] ] #.&.o.[ ] ....[ ] ] [ [ A l j g i i , % o > # X > l A 5 , :.H.=.A #.@.,.4.t.t.t.u.p.t.q.q.,.4.4.,.@.[ A A J z k ",
"z * 4.*.J G X.;.4.u.a.a.u.u.t.t.q.t.q.q.q.q.@.#.A A l &.Q.5.l 4 6 A A 4   X > > * = , i i j j l A A [ [ o.[ A A A A A A A ] ] ] ] ] A A A A A A [ [ [ [ A A A A A A l A A [ A l A [ A l l A A A A A A A A A ] ]  .#.#.#.] A A A J J J z J J S [  .#.+.,.q.,.,.@.#.@.q.,.@.@.@.@.9.q.q.t.t.q.,.@.,.t.t.q.q.q.q.q.q.@.+.#.@.@.@.,.@.@.,.q.q.#.#.#.@.@.@.@.#.#.#.#.#.@.@.#.#.#.#.#.#.#.#.o.#.#.#.#.#.#.[ A G { [ [ [ #.] A A S { J k J k a k k k , , , . X > 5 7 7 > > j % . o lXlXlXlXlXlXlXlXlXlXlXlXlXlXlXlXlXlXlXlXlXlXlXlXlXlXlXlXlXlXlXlXlXlXlXlXlXlXlXlXlXlXlXlXlXlXlXlXlXlXlXlXlXlXlXlXlXlXlXlXlXlXlXlXlXlXlXlXlXlXlXlXlXlXlXlXlXlXlXlXlXlXlXlXlXlXlXlXlXlXlXlXlXlXlXlXlXlXlXlXlXlXlXlXlXlXlXlXlXlXlXlXlXlXlXlXlXlXlXlXlXlXlXlXlXlXlXlXlXlXlXlXlXlXlXlXlXlXX . o 5 g * j A 9 > * o   * z z J l j z J { X.{ [ { S [ { { X.S A [ #.o.#...] #.@.,.,.@.#.#.@.@.,.,.q.,.@.@.@.@.@.+.#.@.@.@.@.@.+.@.,.@.@.@.@.@.@.o.#.#.#.@.@.@.@.,.,.@.+.@.@.@.+.@.q.@.@.@.@.q.q.q.q.,.@.@.@.+.#.+.@.@.@.@.@.@.@.+.+.@.@.+.+.+.#.#.#.[ [ A A l l z A [ X.[  .#.#.#.o.o.#.#.#.+.+.+.+.........+.@.+.+.+.#.#.#.#.....#.,.#.[ A [ [ A A A A A ] ] #.o.X.A ] ..#.[ A A S S A j g g g i , % o 4 # X > A l 5 g 5.P.-.G #.@.,.t.t.u.a.a.t.t.q.q.,.4.t.t.@.#.[ { J Z J ",
"z * 4.*.J R %.;.t.u.u.u.t.u.t.t.q.q.q.q.t.p.q.@...] A %.U.5.j > 6 A A 4   X > > % = , i a a j j l A [ [ [ [ A A A S [  .] A A A A A A l l l A #.[ [ [ A A A [ [ A A l l l A l l A S A l l l A A A l l l l l A ] [ #.#.[ [ A A J Z j z z z l z A A #.+.,.q.,.,.@.@.@.,.@.+.#.@.,.,.q.q.q.q.q.q.,.,.q.q.q.q.q.q.q.q.@.@.@.#.@.q.@.@.@.q.q.q.+.#.@.@.@.#.#.+.@.,.@.@.+.@.@.#.+.#.....#.+.o.#.#.#.#.#.#.o.[ S [ [ [ #.#.[ ] A A G { J J z j j z j = = * . X * 4 5 6 > > l o     lXlXlXlXlXlXlXlXlXlXlXlXlXlXlXlXlXlXlXlXlXlXlXlXlXlXlXlXlXlXlXlXlXlXlXlXlXlXlXlXlXlXlXlXlXlXlXlXlXlXlXlXlXlXlXlXlXlXlXlXlXlXlXlXlXlXlXlXlXlXlXlXlXlXlXlXlXlXlXlXlXlXlXlXlXlXlXlXlXlXlXlXlXlXlXlXlXlXlXlXlXlXlXlXlXlXlXlXlXlXlXlXlXlXlXlXlXlXlXlXlXlXlXlXlXlXlXlXlXlXlXlXlXlXlXlXlXlXlX  . 5 5 * 5 l 8 > * .   > l z A j j z J G A A A A J A A { S l A o.@.@.@.#.#.+.,.,.@.#.+.#.+.#.@.@.q.@.@.@.+.@.@.#.#.#.@.o.#.o.@.@.@.+.@.@.@.@.o.o.#.#.@.@.@.@.@.@.,.@.#.@.@.@.@.@.@.q.9.9.q.q.q.q.q.,.@.@.@.@.@.@.@.q.@.@.@.@.@.+.#.#.#.#.#.+.+.#.] A A J J l l z J A S A [ o.o.o.#. .#.#.#.+.#.#.#...#.....#.@.@.#.#.#.#.#.+.+.#...,.+.[ [ S S G S [ X.[ A ] [ o. .] ..#.#.[ A A A A z j j g i , , % o > # X 5 l l 5 g 5.P.-.G o.@.t.p.p.a.a.a.t.q.q.q.,.4.t.t.q.@.#.{ J J J ",
"z * 4.*.J G X.;.t.t.t.4.t.t.p.t.q.,.t.t.p.p.q.q.#.[ l G P.:.g > 6 l l *   X > > % = i p a a a g l A A [ [ A A [ [ S X.@.o.] A A [ J A z z l A [ #.[ ] A A [ [ [ A l J J A l j l J A A A A l A A A A A l l l A A [ [ ] ] [ S A J z a k Z z k z J S o.@.,.,.+.+.@.@.@.@.@.#.#.@.q.q.q.q.q.q.q.@.@.,.q.q.q.q.q.,.q.@.#.@.@.+.,.@.+.#.+.@.q.,.@.@.@.@.#.....#.@.,.@.+.+.@.@.+.#.........+.o.#.#.#.o.#.#.o.{ S G { [ #.o.[ ] [ A A J G J z i a z j & = > . X * > 5 7 , , A *     lXlXlXlXlXlXlXlXlXlXlXlXlXlXlXlXlXlXlXlXlXlXlXlXlXlXlXlXlXlXlXlXlXlXlXlXlXlXlXlXlXlXlXlXlXlXlXlXlXlXlXlXlXlXlXlXlXlXlXlXlXlXlXlXlXlXlXlXlXlXlXlXlXlXlXlXlXlXlXlXlXlXlXlXlXlXlXlXlXlXlXlXlXlXlXlXlXlXlXlXlXlXlXlXlXlXlXlXlXlXlXlXlXlXlXlXlXlXlXlXlXlXlXlXlXlXlXlXlXlXlXlXlXlXlXlXlXlXlXlX  > 5 % , 7 5 4 > .   > l j l j l J J J z J J J J J J J J l A o.o.@.@.@.@.#.@.@.+.#.#.#.#.#.+.+.@.@.@.#.#.#.@.#.#.#.o.o.o.o.o.#.[  .#.@.#.#. .o.o.o.@.@.@.@.@.,.@.#...#.@.@.+.+.@.9.q.q.q.@.@.@.q.@.+.+.@.@.@.@.q.q.@.@.+.#.#.#.#.#.#.] [ o.o.#.] A A Z Z J J J z z J A A [ &.o. .S #.@.o.#.[ #.[ #.o.#.....o.@.#.#.#.#.#.@.@.#.] +.#.o.{ { G %.=.4.4.*.[ [ #.o.o.o.@.#.[ ] A A z z z j j g , , = % o > + X 5 A l 5 , :.H.W J o.;.t.p.t.t.t.t.t.t.q.q.,.4.t.t.t.,.o.{ J J P ",
"z * 5.*.J G K ;.4.4.4.@.,.t.p.q.,.@.t.t.t.p.t.4.#.[ z R U.2.g * 4 0 0 *   X > > * , , i i a g g j l A [ [ A A [ [ A S o.o.[ A A G J J z J z l A [ [ A A A [ [ [ l l A G S A l l A A S [ A A l l z G G l l J A l A S ] A A A A J j j k Z Z Z J G [ o.o.@.#.#.#.#.#.#.@.@.#.#.+.@.@.@.@.q.@.+.#.@.@.@.@.@.@.@.@.@.@.#.#.@.@.4.o.#.#.#.@.@.@.@.+.+.@.#.#.#.#.#.@.@.#.#.+.#.#...........#.#.#.o.#.#.o.#.#.[ S S [ [ #.[ A A A A A J J z j i g Z j = , * X X # > 4 5 > , A *   X lXlXlXlXlXlXlXlXlXlXlXlXlXlXlXlXlXlXlXlXlXlXlXlXlXlXlXlXlXlXlXlXlXlXlXlXlXlXlXlXlXlXlXlXlXlXlXlXlXlXlXlXlXlXlXlXlXlXlXlXlXlXlXlXlXlXlXlXlXlXlXlXlXlXlXlXlXlXlXlXlXlXlXlXlXlXlXlXlXlXlXlXlXlXlXlXlXlXlXlXlXlXlXlXlXlXlXlXlXlXlXlXlXlXlXlXlXlXlXlXlXlXlXlXlXlXlXlXlXlXlXlXlXlXlXlXlXlXlXlX  * , . * 8 5 > * X   * j g j g j z J z z J R J z J R R J J S o.[ [ o.o.#.[ [ #.#.#.#.o.#.#...#.o.o.o.#.#.#.#.#.{ A [ o.{ { S l l S X. .o.{ { &.*.o.#.#.@.@.@.@.#.] ] [ #.o.#.#.#.+.+.+.@.#.#.#.o.#...#.+.+.+.#.@.@.o.#.#...] ] #.o.o.S A  .[ S A A l k k k R R z z z A J S $.%.S S #.#.] A A { [ [  .#.#.[ o.o.o. .[ #.#.+.@.#.] ] o.&.&.X.X.&.o.o.&.&.o.o.o.o.;.@.o.] A A A A l z k j g , , = = % o * + X 5 A l 5 , :.H.R J X.;.t.t.t.q.q.q.t.t.t.t.,.,.t.t.t.;.o.J J J E ",
"z * 5.*.J J G o.;.4.4.@.,.t.p.t.t.@.4.t.p.p.t.,. .A J W Y.2.g * > 7 7 *   X * * % = = & , i g j j 7 l A A A A [ A l l A A A J l l l z k J z l A A A A l A A A A l l J A A [ A A l l A [ ] A l 5 j J J j l A A l l l A A l l l z l z z z J z J { [ A [ [ ] ] ] #.] ..#.#.#.] ] ....+.+.#.#...] #.o.o.o.#.] ] #.#.o.#.[ o.;.o.[ [ [ [ #.o.#.....[ #.[ ] [ #.#.#.#.] A A ] ] ] ] [ ..] A A ] [ [ [ [ A l A A J S A A l l A A l z R l i i g j J i * * * X X # > 4 > * , A o     lXlXlXlXlXlXlXlXlX                    lXlXlXlXlXlXlXlXlXlXlXlXlXlXlXlXlXlXlXlXlXlXlXlXlXlXlXlXlXlXlXlXlXlXlXlXlXlXlXlXlXlXlXlXlXlXlXlXlXlXlXlXlXlXlXlXlXlXlXlXlXlXlXlXlXlXlXlXlXlXlXlXlXlXlXlXlXlXlXlXlXlXlXlXlXlXlXlXlXlXlXlXlXlXlXlXlXlXlXlXlXlXlXlXlXlXlXlXlXlXlXlXlXlXlXlXlXlXlXlXlX  * , . o * > > * X X > l g j 5 i k z z J J J J z J $.R R J J S A A S { A l A #.[ [ [ #.#.] ] ] { { S A ] ] A A J l l l A J z j j J S S { J J G %.G A A [ [ [ [ A A l A A [ #.#.[ ] ] ] [ [ ] A ] A A ] #.#.#.#.#.o.#.] A A A A ] { { l l S J A A l l j a k k k k j z A Z J J J J J [ A l l z z z J A [ [ [ o.X.S A A ] ..#.#.[ A A [ o.&.o.{ [ A A l A [ o.#.#.o.{ A l A A A l l j a i i , = = = % o # X X > A A 5 , :.Q P Z { ;.t.t.t.t.t.t.t.t.4.t.4.,.4.t.,.o.G J z Z E ",
"z * 5.*.J J G X.%.1.1.4.4.t.p.p.t.4.4.t.u.u.t.<.[ J z E Y.2.j * > 7 7 >   . * * % % % = = , g l l l 7 j l l A l l l l j l z l j g j z k k z l l l A J l l l A A j j j j l A ] A l l l A A l 7 7 j g g j l l A j j l l l 7 7 l l l z l A A l A { [ l l l A A [ [ A A ] ] [ ] A A ] ] ....] l l A [ [ { A 7 l A ] [ [ A S o.A A A A [ [ [ [ ] ] A A l l A [ ] ] A A A A A A A A A ] ] A A A ] A A A A l l l J A A ] l j l J J J k j i g l Z F i % * * X X # > 4 * * 5 A o . lXlXlXlXlXlX% * # * * * * # # % % % * % % lXlXlXlX% % % * lXlXlXlXlXlXlXlXlXlXlXlXi g i i i i i i i lXlXlXlXlXlXlXlXlXlXlXlXlXlXlXlXlXlXlXlXlXlXlXlXlXlXlXlXlXlXlXlXlXlXlXlXlXlXlXlXlXlXlXlXlXlXlXlXlXlXlXlXlXlXlXlXlXlXlXlXlXlX, , , , i , , = = * * * * * = , , * * * > > * # # X X X X X * > o . . * > > X X 4 l g j , , g k J R z z G J z z z J k J A z z J J j g l [ A A A [ [ A A A A J l l A A l j l j i g j z z z j j z A A z j z J A l A A A l l l l j j l A S A A A A A A A l l l l l ] [ ....] ]  .[ A l A A l l l l 5 g S l l l l l a i a k k a j z l Z Z z j j l l l j j j j g j l A A [ { S l j l A A A A A C l A G { { [ l A A l l A [ [ A [ A l l J J l l l g , , i , , , , * X # X   * A [ 7 , 2.Q P J G ;.,.t.t.t.t.t.@.4.4.t.t.4.4.4.@.[ J z z k E ",
"z * 4.*.J D X.o.*.*.4.4.t.q.t.u.4.%.*.4.u.t.;.o.[ J z R P.-.g * > 5 7 #   X * % $ % % % * = g l l 7 5 5 5 5 5 g j , , i g i , : , g g g g g g g j g j j j l l 7 7 5 , , , j A l 0 6 7 l g , , , , , , , , 5 5 7 7 7 j j 7 5 7 j l j j l j j l l l g g 7 7 g C J A l l l l l l l l l l l 7 8 7 j l A l 7 5 7 j A A A j g l l l l l l l l l 0 0 j j 5 7 j l J A A l j g j l l A A A l j j l l A l g g g j l l l l j j g g z J z k g j z z J J , % > * X X o , , % . , l < 7 , , , , i a i a i i i a j a j i i a a s s lXu s s a a s k k k lXlXlXlXlXlXlXlXlXP E E E P P P U E Y Q Y Q Q E P P E Q E E E E Q Q -.Q -.2.-.W R Q E R P P P P Y P lXlXlXlXlXlXlXlXlXlXlXlXlXlXlXP P U U P P P P P E P P P P P Z Z Z P P Z k k k s a a i i a j a i i i i i i i , , , , , , , , * . . . % > * X . > l j g g , i a k z J J z z k j a g k k k g g j k g , g l l l l j j l l l j g g l l j 5 g , , & , i g g g g g g j g g j j a g j g l l l j j g g i , g l l l 7 , g z l , , g j l A ] ] A A A A l l l j 7 j g , , , i j j z z l g , : , i i i i g l l g g g g g g 7 7 , , , , , , g l l j i i g j l l l j j j g j z z g g l l j 7 j l l j j j j j g g j l z j , , g j 5 , , 4 % + # +   * l l 5 , -.Q P z G ;.t.q.t.t.q.t.t.o.o.4.t.4.;.o.X.X.{ z j k W ",
"z % 4.*.J G o.4.4.5.5.5.t.u.t.4.@.X.;.t.t.t.;.o. .J z R P.-.g * > 5 7 #     * % $ % * % & , , 5 7 5 5 5 , = = , , , , , , , % % , j j , , 5 5 g 5 g j j j j j 5 > , , 5 5 7 7 7 5 5 7 7 5 , > * * , , , , , , , , 5 5 5 5 5 5 5 g g g , , , , g g 5 , , , , 5 g 5 , , 5 5 j j 5 5 5 5 5 5 5 5 5 g g g 7 , g g j j g g i i g g j j g 5 5 5 , , , , , , g j g j 7 7 , i i g g g g g g , i g j l j , & i g g g g g 5 j g 5 g j k j j J z J G l % % * * X X o % % % % , 7 5 l g g g g j z j k j j j z Z k j k z k s k k P k k k Z Z Z Z k k Z Z Z Z P P E E E E Q E U P U Y Y Q 2.2.2.-.Q Q E E E E E U P E E Y Q Q 2.2.Q P P R P s s s P E E E E E P P E Y E E P P E Y Q Y Y Y Q m.Q E P P P P P E E W W W W P P E R P P Z Z k k k Z z z k j i i a a a a a i , i i i , , , % % % % * > * X . > 7 * , j g i i g z z z j j l j i i a p k , , i i , , , g g g , , , , 5 g g g 5 5 , = = , = = = = , , , = , , , , , g 5 , , , , , , 5 g 5 5 , , , , , , , , , , , g i , , , , 5 7 j l j g l l l g 5 5 5 5 g i & & i i a i i , , & & & i i i , , 5 5 , , 5 5 5 , 5 5 , , , , , , , i g i , i g i i i , , , , , , g g , , 5 7 5 5 5 5 5 5 5 g j j 5 , , 5 5 5 , i g 5 , > * > # # 4 +   * j l 5 , :.-.P z G ;.t.q.q.t.q.t.;.o.o.t.t.4.@.o.o.*.&.J z z E ",
"l % 4.*.J G *.4.4.5.1.1.4.5.4.4.;.@.t.t.t.4.@.@.o.S z P P.-.5 * * > 5 #     # % $ $ % % = , , , , 5 5 g , , , i i , , , , , , , , j 5 , , 5 5 g i i i 5 , , , > * , 5 j j 7 , g 5 7 7 j 5 , , = , , , , , , , , , , , , , 5 g g g i i , , , , g g g 5 , , , g g g i , , , j j g , , 5 5 5 5 g g i , , , i g g g i i a a i i i k k g , , , i i i , , , , i i , , , i i i j k j i i i i i i i j a w w a a a i , , , , , , i i j j j J z J A , X . o X X X o o % % * * , g J J G G G G G J J G J l z J z z j k z k k k P Z Z Z Z F Z k k Z R R L Z P W W E R E 2.Q E W Q Q Q 2.2.2.2.2.-.W E E Q 2.H.2.Q Q 2.2.3.3.3.2.E P R Q E P P P Q Q Q Q -.Q W Q E E Q Q E Q Q Q -.m.Y E Q H.-.Q P E E E P Q Q W =.=.=.W W W W W P P Z k Z P F J J Z z z l a Z Z k s a j j l l g , , % o . . o o X X   o * . o , j j i i g g g j j l j g , i i a , & & , i i : : , i , , : : , , i , , , , = , , & = = , , , , = , , , , i g g i , , , , , , , i , , , , , , , , , , , i a g i i i i i g g i i j k z j i , i i g g a i i i i r w & & & & & & i i i e & & , i g i , = , = & , , , & , , i i i i i i a a a i , , , i 5 , , , & , , 5 5 , , , , , , , g g , , , = , , i i g , = , * * # o > +   * j l 7 , :.-.P J { ;.4.q.q.t.4.:.;.o.;.4.4.@.@.4.4.;.o.{ J z E ",
"l * 4.*.J G *.4.t.4.1.=.*.5.*.1.4.t.t.t.,.+.#.@.o.S Z R P.-.5 # # > > o     % % % % * & = , , = 5 g g j j j k z k j i g j z z j j j l j l z z z k j j k z z j g g j z J J z j l l A J J l j j j k k z z z l l l l l l l l J G $.R J J J A J J G G G z l l z J J J G J l J R W R J A J G G G J J J J J J G R J J J R R R R R R E E R k z J F R R J J J J z z z z z z k k J z k k k z z k j j k k k k k k z k j l z l l l j j l l l l Z J 5 o X . X o # * * * * = , , g l J J G G %.%.%.G *.=.G J F R G J j z k k k Z P F Z Z F P P Z Z P W W F L W -.2.W P P Q Y W Q ^ Y E -.P.5.2.-.=.W Q Q Q -.H.2.2.2.2.2.2.2.2.Q P Z R E E R R R Q -.2.2.Q E Q 2.Q P Q Q Q Q Q -.2.H.Q P E E R R P E Q E P Q 2.-.=.=.=.=.W W W E W W P Z P =.W P P P J Z Z Z R P k a j J J J Z l l 5 > * * * % o o X X       . o , j l j g g g l z A l j g j j j j j j j k k j j k z Z z z z k k a a k k k z z z k k k k k k j j z z z z z k z k k k k k z z Z Z z z z k J F J J J z J R R R R R Z J J J J J R P E P k k k k k J J R x k k k k k k z z k k k k x k k k k k R E k a a k k k v R R k z k x x v k k k k k k z z l z z z k k g g g g j j a a g j g g g g i i i a g a a a a a a i , , , % o * X   * j l 7 5 :.-.W W %.;.4.t.t.4.;.;.:.;.4.4.4.o.@.;.4.;.&.{ J z W ",
"l * 4.&.J G &.4.4.4.4.*.*.*.=.*.;.,.t.t.4.@.#.@.#.S Z W U.*.5 + # * > X   X # * * * > , , , , 5 5 g g j j l j l l j j j j z z z j j z z z z z z k k z J R R J l l z J R J J Z J J A S S S J z J R R R J J J J J J J A A A { &.&.%.%.$.{ X.o.o.&.&.&.G G G G $.%.K %.G G %.*.*.*.&.&.&.=.=.&.&.&.&.&.&.&.=.=.=.%.=.=.=.=.=.=.$.%.$.R J J J J G R J J S A J z J J J J J J J J J J J J J J z z J J R R J J J J J J G J J J J J J J J J J 5 % o X o % > 5 5 , i g , g l Z J F R G G =.%.F J W W P P W =.P J Z Z P Z Z L R R P P P P P P P P E W P F W Q Q R E P Q E Q Q Q E U Q P.P.3.2.2.2.2.2.Q W Q 2.2.Q E E Q 2.-.E Z s Z P P P P Z P Q Q Q Q E Q ^ Q P P E Q Q Q -.H.m.Q E E E E Q P E E P P E 2.-.=.=.=.W W P P P R E R L P W -.R P P P Z k J F Z s a j l z Z Z J J l j g g g 5 , > > # X X X     X , j l l l l l A A l l l l l l l l z z z z z z J J J J J J J k k k k R R R R R R R Z J J k J J R R R R R R E E E P R F R W W R R R R W =.=.=.W W W %.=.=.=.=.=.$.$.=.=.W %.=.=.=.W R P P P P R W W E E E E R R R $.$.R R R =.=.E R R =.$.E E R k k k k v R E E R R R P R R R R J J J J J J J J J J J z k z k k k k k z k k z k k k k j k z k j j a a a i i , , , % . % X   % g l 7 5 *.:.E G %.;.4.4.t.@.o.&.:.4.@.;.;.@.o.o.o.o.{ J z z R ",
"l * ;.&.J J X.;.4.t.t.4.o.o.o.o.@.@.4.t.t.t.t.@.o.S l F 5.%.> X + # * X     o o % o * * * * * * * * * * > > > > , , * * > > > * = , , , , , = , = = = , , , * * * * , , > , > > > > > , , > > , , , , , , , , , , , , > > , 5 , , , , 4 5 5 5 8 8 5 , , , 5 5 5 , > , , 5 5 5 5 5 5 7 7 7 5 5 5 5 5 5 5 5 5 5 5 5 5 , , , , 5 5 , , , , , > , , , > > * > > > > > > > * > > > , , , , , , , 5 , , , , , , , , 5 g , , , , , 5 , , 7 , % . o o * , 7 g l j j z l Z J J W W =.%.%.=.W P Z R R P P P P Z x Z P P P s P P E R P P k k P P P E E E E W Q Q E Q E E P E Q Y E E E 2.P.K.K.I.H.H.^ Y U U W Q E P P P U E P P P P m m P U P P P E E Q Q Q Q Y U P E Q Q Y Q Q Q Q Q m.H.Q Q P E Q I P E Q 2.2.2.Q E I P P m P P P P P E E P P R R Z k k Z s s s k z k Z F F P P Z j Z Z J l j g , > # X X     . % > , , , , , > > > > > > > * > > , , , , , , 5 , , , , * * = = = , , , , , , , , , , , , , 5 , , , 5 g g g i , , , , 5 5 5 , 5 5 5 5 5 5 5 , 5 5 5 5 5 5 5 5 5 5 g 5 5 5 7 5 , , , , , , , , , , , , , , 5 5 5 5 5 5 5 7 5 , , 5 5 5 , = = = = = = = , , , , , , , , , , , , , , , , 5 , , , 5 5 , , , , , = = , , , , , = = , , , , = , > = = = * * % % % % .   # X   # 5 7 5 , -.-.R z J *.;.4.4.;.o.o.;.;.@.#.#.@.@.o.[ A J z k a k ",
"l * ;.&.J J X.;.@.4.t.t.@.#.@.<.@.@.4.4.q.q.@.@.#.J l z =.G * X + o * X             X           X         . .   X                 . . . X .     . .                                     .               X X   . . .                         X X     X X         X X X       X   . .   . . . .   X . X X X X X X X X     X X X X X X X . X X X X     X   X X X X X X X   X X X X . . . . . . . . . . . . . $ % $ $ . $ % $ $ $ % o * $ % , , 5 g l z Z J F L F J R R =.5.%.W =.=.-.Q 2.E E E E P P d s x d x d t t s m P P s u r p s s P E E Q -.Q Q Q E Q Q Q E E E Q Q E Q 2.H.2.Q E E Q m.m.Q W Q ^ E P m P P I P d P d d m I Y Y Y E Q Q Q I m m P P P I Y Y E E E Q Q Q m.m.Q U P Q Q Y Y I E -.-.Q E P d d d d m I E E P P U P I I P P s P Y z.I I P P F W W W -.Q W R R R W P J Z Z j , > * X X X . . . . . . . . . . . . . . X     . . . . . .               X . . . . . X . . . X       X   .   . . . . . . . .         . . .   X X     X X X X           X X X . . . . . . X X         X X X                       X X   . . . .         X X . X X     . X                     . . . . . . . X X X X   . . X X X       X       X .                               # X   o 5 5 * = -.-.R z z { ;.4.4.t.4.4.@.@.@.@.+.@.@.;.&.G J z s i k ",
"l * o.*.G R %.;.;.t.q.q.q.@.,.,.@.@.@.4.4.@.#.{ R Z k k P J % X . o * X                                       X X   .   . .           . .                             . X   . .   X . . . X X   . .             . .       X X     X X       . . .   X X X .         . .       X     X X . . . . . o X . X . . + o o o o X o . . X X . . . o . . . . . . . . . . . X . . . o o o o o o . o % % % % $ $ $ o % * * % & & = , , , & , , , , i j l z J J J W E E W W P W -.W R P W W =.W -.E E Q P U P m d d x s t t s d m d P P m d d m d P E Q Q Q Q E E Q Q Q Q Y E Y Y Q E E E Q E I Y Y Y Q m.W 2.2.2.Q E E P P P x s s d s s P P P P Y E E P m m P Y I U I I m U Y x.x.x.x.z.M M M U P Q Q E Q Q E Q E I P m I m P Q -.Q Y U P m d m I I P m m z.z.I I Q Q =.W -.2.P.2.-.Q W Q Q W R F F F j j i , , , , & % $ % % % % % % o . . . . . . X   . . . . . . X     . . . . . . . . . . .       .   . .     . .   .   . .     . X         . X X . . X X X X X X . X X . . . . . . . . . . . . . . . . X X X X X X X . . . X X . .     .         X X     . . . . . . o o . . . X . . . X   . . . . X . .   . X X . . . .   . . X X   X . .     X X X . . X . . .             X # #   o > , * = *.-.z k z G %.*.4.4.4.4.@.,.4.@.o.o.#.9.4.%.Z k s i k ",
"l * o.X.l J R ;.:.t.q.q.q.q.q.t.4.@.@.4.;.@.#.[ R k j k P J % X . o *               . . . . .   . . X o o o o o o * * % * * * * * % * * * * * * % % % % % * * , * * * > * * > > * > > > > > * * , , * * * * * * > > > , , , > > 4 > > 5 5 , > , , 5 , , , , , , , , , , , , , , , , 5 , , 5 5 , , , , , 7 , 5 5 5 5 g 5 5 5 7 5 5 5 5 5 5 , 5 g 5 , = , = , , , > > , , , , , 5 7 g 7 5 5 5 , , , , i g g 5 7 j j J J J J J Z j l l F R F J Z J R =.=.W =.=.W W =.-.-.W W W W -.-.=.2.2.2.Y P P P d s u f d d d P P U P P P P U P U P P P P R P P P P Y Y U E Y Q E E Q E E Q Q E I Y Y E E E Q Q E E Y Q Q Y E E P s s P P P P I E Y Y Q Q Y Y Y Q Q Q Q Y I m m P I Y U m m m Y Q P E Q ^ Q Q E Q Q E Q Y Y Y I I Y E P P U P m d m I m I I I m M m P Y Q 3.3.2.2.-.-.2.Q ^ 2.2.Q W =.W W F W G J l J R J J j l l l l 7 7 5 5 , 7 g 5 , , , , , : , , 5 , , , , , , , , , , 5 5 5 5 , > * , , , , , , , , * , , , , , , , > > > , , , , , , 5 , , , 5 5 5 > , , 5 , 5 5 5 , , , , 5 j 7 7 7 5 5 5 j j g 7 g 7 5 7 7 7 5 , , 5 5 , > * > > > > , , = , , , , , , , , , , , , , , , , , = * , , * > ; % = * * % % % * * * * * * * % % % % % % % o o . o X X X X         X # #   o * * % = :.-.z k z G %.*.;.4.4.,.,.t.,.@.@.#.#.@.;.$.P k s p k ",
"l * X.S g z G &.;.4.t.q.q.q.t.t.4.@.o.@.@.@.o.S J k j j R z o X . . o         . . . . o o o o o o o % % * , * % * , , % % * , , * = , , i i i , , , , , i , , 5 5 g g g g g g 7 5 7 7 j j g g j l l j g i i g g g g j j g l l l j l l l l g g l l z z l l l l l g j l j j z z j g g l l z z z J J z z z Z z J z z J Z z z A z l l l A J J D F F J l j l j j l l l j j i i i i j J J l j g i i g i g j Z Z j j Z F J J J J G %.*.W =.:.-.W W W W =.*.*.=.W W =.=.=.=.=.-.-.-.-.-.:.:.:.Q W P U P P d s s s d P P x x P P x P P P P P P P P P P P P P P P P P P E E P P Y Q Q Q Q Q Q I Y Q Q Q Q R P P E Q Q Q Q Q E P P E P P P P Y Y I P P I I I Y x.x.Q E P P P P U P m m P P P P P U W Q 2.2.2.^ ^ E E Y Q Y E P P Z Z P P P P d P I P P P P m m P P P Q 2.2.2.-.Q -.2.2.H.H.H.-.Q -.-.=.P =.=.W F R R J R J G G G J j l J l l S J Z z j z Z J z z z Z Z z j j j j j j j Z J S X.X.S A A J J l l l A l g j z z k j j z l l l g g j j Z J F Z j j Z J J J l l l z l l J J l j j j z z l z J J J J R P k z z J Z A A A J A l j j j j i i g j j k s p p k k l z z z j j j k k k j j j a a i i g , , i i g a i i i i i i , , , , , * * = = % % * * % % % % % # o . . .     X .   o * * % , 2.-.k j z G %.*.4.4.,.t.q.,.@.@.@.#.#.#.o.G k k k p x ",
"l * [ J g l J { &.@.,.q.q.q.t.4.;.o.o.o.@.@.o.A z j j j J z o               . . . . X % % % % % % % * = , 5 , , , 5 , , % , , , , , 5 g g 5 , , , , g g g , , 5 7 j j j j l l l A A J J J J J z z z z j g l z J l l l J G X.G l l A S A A A A G G G G G { G J J J G G J J Z Z z l J G G G G R E E J J R R J R $.=.R J Z S { S S S [ o.&.%.G G J Z J J J J l l J G G J z z z j Z G F l j g l J F Z z j z z z Z F R J J J G =.:.:.=.-.-.R P Q -.R J R -.:.2.2.-.-.-.W =.2.5.3.-.-.:.5.2.R P P P P P P P P s s s k x P P P m s s x P E R P Z P W E R P P P P P P P Z Z Z P Q -.E Q Q Q P P I E Q R P P P R E E P P P P P P P P d P P P P d d d d d d I I I I I I I I I I m I I Q Q Q E Q ^ Y E Q Q Q Q Q Y P P E E E P P P R E P P x x I I x d P P P P P E E E W W W Q Q 2.H.Q E E Q 2.H.H.3.2.W -.-.W W =.W J P W :.=.%.J J J G J J F J F F F R W =.=.F J G %.W Z Z J J Z Z J G %.%.%.%.G G S G G G G { { G G R J Z Z Z J G X.{ G G F J J F %.%.J z z J G %.%.S A J J z z J z l j l z Z J J J R P R W =.W J z J F J J S o.*.%.G k z k k k j l Z Z k s p s k J J G G J z z z J J z k k R R k k k k k k j s k p p p k p i , g l j 5 5 5 g g , , = , , , , , > * * * % o o X X       . % % % * *.E k z J R %.*.4.t.t.t.t.@.#.#.o.@.o.#.{ J k k k s P ",
"l * S J g z C J G [ @.@.@.@.@.@.o.o.o.o.o.@.o.A l j j i z z o           . . . . . o o % % % * = , , * * , > * * * , , , , , , , 5 5 5 5 , , , , 5 7 j j j 5 5 7 A A l l l j j z J G F J J G J l j z J l j l A A J l l J { { A l l A [ A [ [ A A S { { X.{ S A S { &.{ S A J G A J G { { S G $.$.R k R $.$.J $.%.{ G G G [ [ [  .o.@.;.o.X.J G J l z J J l l J G G J z z z k j z J z j i j J R R k z z k Z J R J J Z Z R =.=.R R J P P k x P E Z k Z W -.-.Q P P R P P E -.Q R P W =.W k k P P P P P R R k k s k P P x u s u u s P R P Z Z F W R P P k s d P P s a Z P P E Q P P Q Q P s P P E P P P P P P P P x s P E P P P P P R E P m d d d d d I Y Q Q I I I I I I m I I Y I P P E Y U P P I E E Y P P x R Q E P P E Y Q E P d P P P x x P P P P P E Q W R W Q Q Q Q 2.Q E P R Q 2.2.-.-.P W P P P P J k Z Z P F F G F J Z z k z F R R G F G W %.G J G W G C J J J J J R %.%.G F G G J J Z J J G G G G R %.J z J G G S o.X.X.{ G G S J %.%.z l J J { *.*.[ A A [ { A l l J z l j j z J R R J J F F J z z l z J { &.:.:.%.J k k k k k k J J J R x s s k J { { A l l l J G $.J z J R R k z j g z J k i a k k k s i , 5 l A l j j l l g , , = = , i , , * > * * % o % o X .     . o % % * =.R k z J F R $.;.4.t.4.@.#.#.#.o.o.#.[ A z k j k s P ",
"A * S J g l l l z A [ o.o.{ [ { G G G G { [ A l j j j g z z o           . . $ $ % o o % * * * = , = % * , * * * * * , g g , , , , 5 > * , , , 5 , 5 j j g 7 5 l A A l j j g i j J F J z z J l g j z J z j g l z z l l z J l g j l A A l A l j g l A A A l j j l A A A l l J J J J J J A l l J J J k R R R J A A l J %.*.&.{ S { o.@.o.[ J l G J j i a j g l A A l , , i a g j k z k j a j k k a k k k k k P k k j k Z R P R Z k k P P P P P P P P E Q E R P P P R P R R P P P P R P P P P P R P R E W %.Z k k k k s i r p u u s x P k k k z Z Z s s y u s P x s a Z P P R Q P P P E R P P R E P P P P P P P P R P R Q R Z P P W W W R P P P k s P E -.-.Q E P P U P P m P Y E P P P P P P P P P P P I P P P I Q Q P P E Q Q E P P P P R P P E P P U E Q Q Q P -.2.2.-.W E Q Y Q Q Q Q Q E W P E P P Z Z Z Z P k Z Z J P R k k k k k z Z J Z z z J J J J Z J J z l z Z J J G G J z z J G F Z l l J J F J J F G z z G W G A S S S J J J J l G A z l Z Z z J J A l A [ %.G l l J J j i i a k R Z k j l j j j j g g j J %.$.J z j j k a a k J J z j k x x s s Z J z j g g j j z %.%.z k k h k j i i z J k : i k k s a a i g l J l 5 5 , , , , , , , i i , * * , , > % . % % o . .   . o o o % %.R j j j z z z [ o.*.&.{ [ #.#.o.{ A A A z z l j k P ",
"A * S J g j j j j l A [ S l l l z z z l l l j g j j j g J Z %         o % % % % * * * > , , , , , & & & , = , , , , g g 5 , , , , , = = , i i i i i i i g g i 5 g g i i i i , i l z l g g i i i j k k z k a a j k k k j j i i i j l j j j i i i j k l g i i i g j l l j l J k z g g l l z z z Z P Z P R R z z l g l J R G J Z J G G A J l l j j i i i a j j z z a i i i i a k k k k k a a a a s k k k k P P k s k k P R P R P R E P R P P P R P R E E Q E R E E E E E E E I E E W W Q R R P P P P Z z z j a s s k p i a s s s s k s s k s a s s u i a k P E R P k z Z R P P P R P P R P R E E P P P P P P P P R Z Z P Z Z Z F F F F P P P P Z Z P W -.=.W W R P E E R P P E Q Q Q Q E P R E E E Q E E E Q E Q Q -.Q E Q Q Q Q E Q Q E Q W Q W E E Y ^ 2.Q Q W -.2.2.2.-.W Q Q -.-.-.Q Q Q -.W Q Q Q P R W R E P P Z P P P P P P P P Z Z P Z k k Z P Z Z Z P R P Z Z Z Z Z Z Z Z Z Z F F J Z z Z J J J Z k j j j k Z G G J l l z z z z z l l z k z z z j j j g g l Z J z k k k k s a i a s k k a j k k k k s a i a k z l g i a a a r i k F J j a s d d p p s k a a a j a i j J R k r r p p s a a k k k i i a k h a j a a j j g i i i , i g i i i i , , , , g j 7 > * % % % % o X . o . . % %.%.j i j j k z J A G A A A [ [ S J A l l l l j j k R ",
"l % A l , g g g g g l A l l g g j j j j j j 7 j j j j j A J %       . o % % % * * * * * > * * * * * % * * * * > , , , > * * * * * * * * * * = = = = , , , , , , , , , , , , = , , , , , , , : , , i a a i , , i i i i , , , , , , , , , , , , , , i , , , , 5 5 , 5 g g 5 g g , , , , 5 5 5 g i i j j j g g , , , , , 5 , , , g 7 7 j g 7 , , , , , i i i a j g i , i , , i a j j k j i i i j j k k k k Z Z k k k s Z L Z Z Z Z L Z Z Z k Z Z z z Z Z Z z k z k k k k k z z z k k k z k k j j s s a a i g i i j k k s a a a a s s s a k k j a a a i i j Z Z Z z j j k Z Z Z Z Z Z Z Z Z Z Z Z Z Z Z Z F F Z Z J Z Z Z z j l l l C C J J Z Z Z Z Z F F D D D S K K W R P F F P P R R P P P P W W W P E E E E W W W W W E E E E E W W W R W W W P P P W W P E K K K K K K K P R W W W W W R W P P P P L L F F R F Z Z Z Z Z Z Z Z Z Z Z k Z Z Z Z Z j j j j Z Z Z Z C k k j a j Z l l l l j j j j j j j i i i , i g g l l g g 5 g g g g g < < , i g g i a i i , 5 , , , , , i i i i , , i i i i i g g g g i i i i i i g g < i i 5 5 g i g j g , , i i i i , , , , , i i , , i g g i , , i i i i , , , , , , , , , i i , , , , , , , , , g g g g , = & & = , , 5 5 , > , , , * * % o . . . % %.=.j i j l l z A A l A l A A J J J A A l l g 7 g j J ",
"l * S l , , , > > > > 5 , > > , , , , > > > > > > > * > 7 g o         X . . . . . . . o o o . . . . . . o o o o o o o o X X . . . . . . . . . o o . . o o o . . . % % o o $ $ % $ o o $ . . . o o % $ $ $ $ $ $ $ $ $ . . . . . . o % % % % $ $ $ $ % % % % % % % % % % % % * % % % % % % o $ $ % % % % % $ o o o o % % % % $ $ $ o % $ $ $ $ $ $ $ $ $ % % % % % $ $ $ $ $ % % & & & & & : : & & & = = = , , , , , , , , , , , , , , = , , , , > , , > > , , , , , , , , , , , > > > , > > > > , , , , , , , , i i i i , , , , , i , , , , , , , % % = , g g 5 5 g g g j j g g g g g g g g g 7 < < 7 j l j 7 l g l g g , , , , , i j j j a a a a a i g g g g l l l k l l l C C A A l J l l A A l j j j 7 j < 7 7 g g < < < < < 7 7 7 < 7 7 7 g g 7 7 g g g , , , i g g g 7 7 7 7 7 < < < i i g g < < , i i i i i i i i i i i i i i i i i , , , , , , , , , , , , , , , , , , , , & & % % % % % % & % % % $ % $ % % % % % % % % % % % % % % % % % % * & % % * * % % % $ $ $ $ $ $ $ % % % % % % % % % % % $ % % % % % % % % % o o % $ % % % % % % % % % % % o % $ $ % % % % % % $ . . $ $ $ . . . . . o o % % % $ $ . o % $ % % % % % % % % $ $ $ $ . . . o % % $ $ $ $ $ $ $ o . . . . % A G j 5 5 5 5 , , 5 5 5 5 5 5 , , 5 5 5 5 , > > > , l ",
"l * A 7 . .                     . . . .     X . . . . o > 5 > > > > > > > > > > > > > ; ; * % % % % % % % % % % % % o o o o % % $ % o o o o o % % o . o % o o . . $ $ % % % % % % % % % o o % * * * * * * * % % % % % o o o o o o * * * % % % % % % % % % % % % * % % % % % % * * * * * * * > * % % % % * % % * % % % * , , , , = , , , & , , , , , , , , , , , , , , , , , , , , , i i i i i i i i g g j j j j j j l l j j j j j j j j j k k g i j j j j j j i i i i i j < , , < < , , , , , , , g g l i i i i i i i a a j k k z k k k k j k k j j j z J R R R P J J F F R F Z Z J P R R P W W W W P P P F F R F W W F Z Z P P P P P P P P P P P P P P k P P P P x d Z Z L P P F F W W F L F Z Z Z J Z C Z C C l l Z Z Z C j j k Z Z L P P P P P L Z F P Z R P R E E R R Z Z F F J Z Z Z Z Z Z J J Z Z J Z Z Z k k k k k k Z Z Z Z k k Z k k a i i i g g g g j j j j j j i i g i , , i i i , , , , , , , : , : & % % ; > , , , , , , : & % % % % % > : % * * * * * % % % % % * , , > , , > * % % % % % % % > > = * % % % % % * * , = = > > , , > * * % % % # % % % # * > , > * % % % % * * % % % % % o % % % % $ $ $ % * * > > > > > > > * * * * * * * * ; > , , , , , , , , ; , > > > % > > * o o X X o . . . . o o . . o X X X o o o X . o , ",
"l * G A g g j j j j j j j l l j g j l l j j j j l l l A G J G $.&.=.%.R F G %.%.*.*.@.1.*.*.=.%.R W $.R E R R R R R R R %.%.W W E R J J J J G G G J J G $.%.$.$.R G J J F G R %.=.*.*.*.&.A J A J A J G X.K G D S S G G J J z l J G %.=.%.$.%.%.%.%.=.=.=.W %.%.*.:.:.*.=.%.W -.=.=.=.=.%.%.*.*.:.=.%.*.5.:.=.R R J J F %.*.=.-.=.:.:.:.-.=.-.-.-.:.:.:.:.2.2.5.5.5.5.5.5.5.5.2.5.U.U.Y.K.K.K.I.I.I.K.I.I.K.K.K.K.K.K.Y.Y.Y.Y.Y.I.K.K.K.K.K.J.Y.Y.Y.Y.Y.Y.Y.Y.L.L.L.L.L.L.L.J.J.I.I.I.I.I.J.J.J.J.L.Y.Y.Y.I.P.P.I.K.K.H.L.J.L.Y.XXXXXXY.L.L.Y.Y.Y.Y.J.I.Y.XXXXXXY.Y.Y.XXOX:X:XOXXXXXXXXXXX:X:XoX<X<X<X+X<XoX>X3XoX>X>XXXY.XX>X>X>X>X>X>X>X>X>X<X<X<X>XOXXX<X<X<X<XXXXXoX>XoXoXoX>X<X>X>XoXoXoXXXXXR.XXR.R.R.R.R.R.R.R.R.R.R.R.R.R.R.XXoX>X<X>X>X>X>X>X<X<X<X3X3X3X3X<XXXXXT.T.XX>X>XXXR.R.R.R.R.R.R.R.Y.Y.}.XXXXY.L.I.Y.Y.Y.Y.Y.Y.Y.Y.R././.Y.Y.I.L.J.K.J.I.Y.Y.Y.Y.Y.I.J.K.K.P.P.P.P.K.U.U.U.P.U.U.Q.U.P.P.H.H.H.2.:.2.5.5.2.:.2.H.P.H.:.:.-.W W =.:.:.=.%.X.%.%.%.G G G Z Z G %.%.%.K %.*.*.%.G R R %.%.%.*.*.=.%.X.%.%.%.%.W %.W W R R %.:.:.*.%.R W =.=.%.W R F F X.%.%.R G G %.%.%.%.%.%.%.R F F W =.*.*.*.=.*.:.=.W R X.%.&.*.*.*.*.%.W R G { R R G G o.;.=.%.%.%.=.=.*.=.=.=.=.%.J l l l l l l l j j j j l l l l l l l l l l l l 7 7 j J ",
"l > $.=.=.=.=.=.*.*.*.:.5.5.5.:.=.:.:.:.*.*.*.*.*.=.=.*.:.=.:.:.:.:.-.W W W -.:.2.5.5.7.7.7.U.P.:.:.2.2.F.-.F.H.P.U.U.U.U.U.P.H.H.:.:.-.-.-.:.5.5.:.:.5.P.U.P.U.5.:.-.-.-.-.-.-.:.2.2.2.:.=.%.=.=.%.=.1.2.2.2.2.5.5.5.5.2.2.:.=.=.=.:.P.P.P.P.P.2.2.5.P.P.P.P.U.W.U.U.!.U.U.U.U.U.I.Y.U.P.P.U.U.U.U.U.U.Q.U.P.2.2.-.Q Q 2.U.P.7.5.7.U.U.U.H.H.H.H.H.H.H.H.P.P.P.P.P.H.2.2.H.H.H.P.K.Y.Y.K.P.P.I.I.I.Y.Y.Y.Y.I.I.I.Y.Y.XXXXXX!.Y.Y.Y.Y.Y.Y.Y.Y.Y.Y.Y.Y.Y.Y.Y.Y.R.R.T.R.R.R.R.XXXX:X:X>X:X:X>X>XoXoX>X3X3X:X:XY.Y.:X:X:XXXR.XXXXXXXXXXXXT.T.R.XXXXR.Y.Y.Y.Y.R.R.Y.Y.Y.Y.Y.XX:X>X:X:X:XXX}.Y.}.&XXXXXoX>X>X>X>X>X3X>X<X>XXXY.&X&X&X&X&X&X&X&X&X:X:X:X:X,X&XY.&X,X:X:X}.Y.R.XXXXR.XXXX:X>X>XXX>X<X<X<X>X>X>X>X>X:X:X>X>X:XXX>X>XoXoXXX:X>X>X>X<X3X>X>X>X<X<X<X3X,X,X:X>X>XXXR.T.R.XX:X>XXXR.Y.Y.Y.Y.Y.Y.Y.Y.Y.}.:X:X:XXX:X:X:X:XR.XX:XY.Y.R.R.:X:XR.R.T.L.Y.L.Y.Y.Y.R.XXXXR.Y.R.XX:X/./.R.R.Y.Y.Y.Y.Y.!.!.!./.!.!.!.Y.Y.K.U.U.U.P.I.P.Y.Y.Y.Y.I.H.H.H.I.Y.Y.P.2.2.5.5.5.5.U.P.-.W :.5.5.2.:.2.P.U.U.U.U.P.5.5.5.5.5.5.2.2.5.5.5.2.2.2.H.-.-.:.5.5.7.5.:.-.H.P.I.I.H.F.-.-.2.5.2.2.2.5.5.5.5.5.5.P.5.:.Q W H.U.!.!.U.Q.!.!.U.2.-.=.:.:.5.5.5.5.5.2.-.=.:.:.:.=.=.5.5.5.5.:.:.2.2.2.2.:.-.:.=.%.$.%.%.*.:.2.2.*.%.%.*.*.5.5.5.*.=.*.5.5.:.*.=.%.%.$.-.",
"l , R R R J Z z J J G G G R %.G Z J R R J J J J J R J G G F J J R R k z k Z J J J F G %.%.%.$.$.E v k k k k k R R =.=.=.=.*.=.=.E R R J J J R R R R J R R R R R R J Z Z J P R P P R R P R k Z J J J J R W W E E E R R R W W W R R F G =.=.=.=.R F J G R W W W =.=.=.-.-.-.-.W E E W -.=.R R =.-.-.=.E =.=.R J J R P P Z R =.*.*.%.%.%.=.-.R P R R E Q E W W -.-.-.W E W =.=.=.W =.-.2.:.-.-.=.-.Q Q -.:.:.:.-.-.:.:.:.H.H.F.:.:.:.:.:.-.:.:.:.=.*.*.*.*.*.*.*.*.:.-.-.:.5.2.:.2.2.5.5.5.2.5.P.P.P.P.P.P.I.H.-.-.H.H.H.-.-.:.-.:.:.-.-.Q Q -.-.-.-.-.-.-.:.:.:.:.-.-.-.-.-.F.F.:.:.:.:.:.:.:.:.=.-.:.2.5.5.2.5.5.*.5.2.*.*.*.:.:.:.*.*.:.*.=.=.:.2.2.:.:.=.:.5.5.:.:.:.2.:.-.-.2.2.5.2.2.:.:.P.P.P.2.2.2.2.P.P.U.U.5.5.2.P.P.P.P.2.5.5.5.U.U.U.5.5.5.P.P.P.5.5.5.5.5.:.:.2.2.2.2.5.5.:.*.*.:.:.:.:.:.2.:.:.:.:.:.:.:.5.5.H.H.F.H.H.H.H.H.I.P.I.I.I.H.H.:.:.:.P.P.F.H.H.-.-.-.F.F.-.-.-.H.-.-.-.Q -.-.:.:.-.-.:.-.-.Q Q =.-.-.E R R Q Q Q Q R P P P E Q Q E P R R =.W %.=.W R P P R =.W R R P =.=.=.=.R J J G %.=.W R R R R P Z P R R R R P R W =.E R k P R E R P x x x R E R R R R R R R %.%.=.E R Z Z R E =.E J J R W P Z z z J J R %.%.=.=.E J J R R R R R %.&.%.$.G J J J Z J z Z z z z z J J J P R G J A A S S X.X.{ F J G %.%.R F J J J J R ",
"7 , G z i g i g 7 7 j j l l j 7 g j k j g g g j j j j l l l g g l j g g 5 j j j j j l l l l l z J j g 5 g g g 5 7 j l l l A l l j j j j j j l l l j j j j g g j j g g g g g g j j j l j j i i g g g j j l l j l j j j g l z z l j l l l A A A l l A l A J J z l A J J J z J J l l l z l l l l z J z l l l l j j j j j j j l A A A l l z z j j j l z J J l l z z z l l A A A A J J J G R R R J J R R J R R R J J G J J R E R G G X.G G G R R R J G %.*.*.o.o.X.X.%.K G %.%.%.%.%.*.*.;.o.o.&.&.=.=.=.=.=.W W W R $.=.R G { G W %.K W W R R =.W R R W W W R W %.W R R G R R W Q W W %.=.%.%.%.*.%.G %.*.*.%.%.*.*.{ X.%.X.X.&.*.*.*.*.;.*.&.%.W W W W W R { &.*.*.*.&.%.=.=.=.=.=.=.%.W %.=.E =.=.=.%.%.G G *.*.*.*.*.%.%.*.=.=.%.%.%.%.=.5.5.5.5.:.-.-.2.2.=.*.*.*.=.%.=.=.W W %.&.*.*.%.W W W W W %.%.%.%.%.%.%.X.X.o.o.$.R R R W R R G R W =.E E E P G F G %.%.W =.W E R E E $.R R P R J J J J z J J J J J J J k k z z A l l l z z z k z z j j j k z z z l l l l l j j j j a j j l j l j j g j j j j g j l z A A l j j j j g j j j j j j g g j j g g j k j j g a a i g j j g g g g g g l l l j g g g i g g g g 5 g g g g g g j j l l l l j j j l l z z z z l A J z l j k j g j j j g g l 7 j j g j j g j l l l l l l l g 5 j l l j g g 7 g g j ",
"j , A g & , : 5 7 7 7 7 7 7 5 , , , g 5 , 5 5 5 5 5 5 7 l 7 , , g g g g 5 5 7 7 7 7 7 7 7 7 j l z j 5 5 g g , , 5 5 7 0 7 7 7 j j 7 5 5 5 5 8 7 7 7 5 5 5 5 5 j 7 5 , , , , , , g g g g , , , , , , g g g g g g g g g j g g g g 7 7 j l l l l l A ] A l l l l l l l l z z z z l j l l l j l l j l g g j l l l j g i i g g g j l A l g i g g g g j l l l j j j j j l A A A A A l l l J G R R z l z J Z J G J J J J J J J J J J A G G G F J J Z J G %.*.o.X.{ G W G J J R R =.%.%.%.&.*.*.*.*.%.W E E R =.W *.=.R J J G G G G G G G G W F F W R F F G X.%.W W K G G F F Z J P R E W =.%.K K %.=.%.R R =.=.=.=.*.*.=.=.=.%.%.%.*.*.*.*.*.*.*.=.P R E P P P G *.*.*.%.W R $.=.=.=.W R %.W =.=.E E W =.-.=.G %.%.*.%.=.*.*.%.%.R R R W W W W =.2.5.2.2.W Q H.2.W =.=.=.=.W W W E P W =.*.=.%.=.R R W W W R R W %.%.X.o.X.o.o.{ J z J J A A A J J J J P P F S J J G W R Q W P J G F $.R J J z z z J J A z l z z l j j g i g l l j j g g a a k z j i i i g j j j g g 5 5 , 5 i i i i i i 5 5 g g i , , i , , 5 7 7 7 0 j j 5 , , , g j 5 , , 5 , , , , , , i g g g g , , , , , 5 , , , , , , 7 7 7 5 5 , , , , , 5 5 5 5 5 7 j 5 7 5 7 7 7 l l g 5 5 j l l l j g j j l l l g g i a g g l g g 7 j j 7 g g j g i g 7 0 7 7 7 7 7 5 5 5 j j 7 5 5 5 g j j ",
"7 , J g , , i i l l l l j l l g , i g g j l j 7 j j l A A l 5 7 l l l l g 7 7 l l l l A A A l l l j j j g j j j j j A A l l l J J l j j j 7 l A l j g g j j l j g 5 g j j i i g j l l g , , 5 , i i l j j g l l z z z z j g l l l l l A S A l A [ [ A A A J A A A J A J k k k l j j l l l l J J k z l A S { A j j j k j j j l A G z g i j j l z A A A A l z l z l l S X.S A S S A J G =.=.R z z z R G R G J J G G F J J J R J G *.%.G R R R J J $.%.&.[ { G W =.F J J R W -.=.%.%.*.5.7.5.=.=.W Q -.=.=.:.U.2.Q R R R R =.=.%.%.W %.W P J =.W =.W =.*.W W =.=.=.%.R P Z P W Q Q 2.=.R G *.:.:.=.%.W W W W =.=.=.-.-.-.-.-.=.:.2.*.*.*.*.2.-.P E W W W W %.*.*.%.%.W =.R =.-.=.W %.*.:.=.=.E E W -.:.-.R *.*.:.*.:.:.2.*.W W W W W -.-.W :.2.U.2.-.E Q H.H.2.=.=.=.-.-.Q Q Q W =.2.2.=.W =.R P W W R R W 1.5.:.o.&.o.o.{ R F J J G $.G R R R R R W Q W R G { =.=.Q -.Q P P R G $.R G F J J G R W R J l J J J l z j k J J A l j g j k s x P k a a j z k k k g g g g j l k a a a k k j g i j a g j k j g j l 0 l l l l g g i g l l 7 5 g j j j l g g , , g j l j g , g g j g i i , , , g A l l j g g g a a g g 5 , 5 j j j 5 7 7 7 7 l S A j j j l A [ A l j A A S J l j g g k z l l l l j j l j j j k k k j j j 7 7 j j l j g g l j g j j l z J J ",
"7 , G z j j j j J J A A J A J J j k z z J F J l l A { { S z j l J J J J l l l J S [ o.%.&.{ z l l l l j g g j k z z { X.{ { G G G z z l z l A { G z j l z J G z l j l J J l a j z z J z g g g , j j Z z l j z J R R P J z z J G S J J G G G J J { { A S G G G G %.$.R F k k x Z l l l A l J J R R R J G %.G J l z k k k Z Z J J G J z k R J R G G $.{ J J J J J J J { &.X.{ X.%.%.$.%.-.=.E J P R :.=.-.W J G =.:.W E R R R W =.5.*.R W -.-.R P =.%.%.S X.R =.-.R P P E Q 2.-.=.=.*.5.5.2.W Q F.H.H.2.2.2.U.P.2.-.-.-.-.5.5.2.*.=.-.-.P J -.-.2.:.5.5.W W -.2.2.:.:.=.E Q -.-.Q 2.-.W =.5.5.5.-.-.-.2.-.Q Q -.-.-.-.2.2.2.-.2.2.*.*.4.5.2.Q E Q Q Q -.=.=.=.=.%.=.-.-.E W -.-.-.:.5.2.-.-.-.-.-.-.-.-.-.5.2.5.5.5.5.5.:.-.-.Q Q -.2.2.-.5.P.P.2.Q Q H.H.H.H.H.2.2.-.-.-.Q E -.2.U.5.=.W Q R R Q Q W R W 2.5.5.%.=.%.=.%.=.W P P =.*.%.=.W =.Q W -.2.-.:.*.2.5.:.R Q Q Q -.:.5.:.W R E W W =.=.W J z l J R R R J k Z E =.R J J z z k x x k s a j z J R R Z z l l l J R J k s k k R J z z Z k Z J R R J G [ [ A S J J Z z z z J J l j l z z J J Z j i i j z z l j j j z z z j g i i g z { [ S A z l z k k k z g 5 g z z z j l j l l A { { z z z z G &.{ J z G %.&.G J z z z Z P P G G J l l l l z k k k k z l l l l l l l z k z z z j j z J R R =.",
"g , =.R Z Z Z Z R R R R J J J J Z Z R J R R G z z J G A J k k J R R Z J z z Z J G { X.G G A l l l J A z j k k z z J G $.X.%.R J J z z z z z A G J Z z Z J J R J J z z J z k j k j j z z j j j j k k Z Z z k z J E E P P k J G G G G J J J J J J J J G { $.R G G %.E P Z k x R J A A A A z z J R R P F G R F J J Z k P P Z Z Z J J J R P E R R J F G R R J J J R R J R =.%.%.%.%.R R R -.-.W E =.=.-.-.-.-.E E =.:.W W E Q Q Q :.5.:.=.=.W W W E -.=.=.K %.%.-.2.E Q E Q Q ^ -.-.-.-.2.2.Q Q Q H.H.I.H.H.2.U.P.I.H.H.H.F.P.P.2.2.-.:.-.E P Q -.2.:.2.2.-.-.2.H.H.2.2.-.-.H.H.-.Q 2.2.2.5.U.P.P.:.2.H.K.I.H.H.2.2.-.-.H.2.-.-.2.2.*.:.5.5.3.Q E Q -.-.-.-.=.:.:.:.2.-.-.-.-.-.2.H.H.P.H.-.F.H.H.H.Q Q -.-.5.2.5.H.2.:.2.2.-.-.Q Q H.H.I.2.P.P.P.H.Q H.H.J.I.K.H.H.2.H.-.F.F.Q H.P.U.5.-.-.Q Q E Q Q Q E E Q 2.-.R =.=.:.-.-.Q E E W -.=.=.W Q -.Q Q -.-.:.5.P.P.-.Q Q Q F.H.H.2.-.=.W W W W E E E P J J R =.=.$.R P P E E J J J J R P x x P x k z J J R R Z J J A A J J J k k k P R Z J J E R R R R R J G { S A J J J R x k k R J z z z z z z z z k j j k k z j j j k k k k k k k k k z G G G J J z k k x k z j g j J J z l z l l l z J R z k k k J $.G J J R $.%.R J J J R P R P P F J l l l J J k Z R Z Z z J J l l l z z z J J J z z Z J J R R "
};
