/* XPM */
static const char *door4[] = {
/* columns rows colors chars-per-pixel */
"600 448 227 2 ",
"   c #040302",
".  c #0A0603",
"X  c #070805",
"o  c #0D0906",
"O  c #070708",
"+  c #0A0708",
"@  c #070909",
"#  c #0D0C0A",
"$  c #110703",
"%  c #120B06",
"&  c #1A0E05",
"*  c #130E0A",
"=  c #190F09",
"-  c #100609",
";  c #0E100E",
":  c #161007",
">  c #1C1105",
",  c #15110D",
"<  c #1B130D",
"1  c #1D180F",
"2  c #0E0F10",
"3  c #110F10",
"4  c #0E1111",
"5  c #0F1518",
"6  c #0F1819",
"7  c #151412",
"8  c #1B1612",
"9  c #161815",
"0  c #1D1915",
"q  c #151719",
"w  c #1A1718",
"e  c #161919",
"r  c #1D1C1A",
"t  c #220E04",
"y  c #210F09",
"u  c #241305",
"i  c #2A1405",
"p  c #261A05",
"a  c #2B1A05",
"s  c #23150D",
"d  c #2A160B",
"f  c #24190E",
"g  c #2B1A0D",
"h  c #331B04",
"j  c #321D0D",
"k  c #391E0B",
"l  c #32170A",
"z  c #221711",
"x  c #2A1710",
"c  c #221C16",
"v  c #251C14",
"b  c #251D16",
"n  c #261E17",
"m  c #261D16",
"M  c #241B14",
"N  c #281F17",
"B  c #2B1D14",
"V  c #251F18",
"C  c #271F18",
"Z  c #251E19",
"A  c #231E19",
"S  c #281F19",
"D  c #2A1F19",
"F  c #311E13",
"G  c #391E12",
"H  c #311F18",
"J  c #1E201E",
"K  c #2C210D",
"L  c #27200E",
"P  c #342305",
"I  c #3B2305",
"U  c #34220D",
"Y  c #3A230D",
"T  c #3B290D",
"R  c #34280E",
"E  c #262016",
"W  c #2D2116",
"Q  c #262019",
"!  c #26201A",
"~  c #25211A",
"^  c #27211C",
"/  c #25211C",
"(  c #282018",
")  c #29211A",
"_  c #2A221A",
"`  c #2A221C",
"'  c #2C231C",
"]  c #2E281E",
"[  c #26281F",
"{  c #332215",
"}  c #3A2414",
"|  c #352915",
" . c #3C2915",
".. c #33251B",
"X. c #39261A",
"o. c #34291E",
"O. c #3A2A1D",
"+. c #3D311E",
"@. c #38311C",
"#. c #1E1F20",
"$. c #241F20",
"%. c #1E2122",
"&. c #1F2529",
"*. c #252522",
"=. c #2B2621",
"-. c #262825",
";. c #2D2A25",
":. c #242629",
">. c #2A2729",
",. c #262A2A",
"<. c #2D2D2B",
"1. c #312721",
"2. c #342B23",
"3. c #3A2D23",
"4. c #322E2A",
"5. c #392F29",
"6. c #3A2720",
"7. c #2E302E",
"8. c #2F3027",
"9. c #363126",
"0. c #3C3125",
"q. c #3D3926",
"w. c #33322D",
"e. c #3B332B",
"r. c #37392E",
"t. c #3D392D",
"y. c #2C2F30",
"u. c #262E30",
"i. c #312F30",
"p. c #2E3232",
"a. c #2F3836",
"s. c #2E3639",
"d. c #2F383A",
"f. c #333533",
"g. c #3A3632",
"h. c #353836",
"j. c #3B3A34",
"k. c #323639",
"l. c #393738",
"z. c #353A3A",
"x. c #3A3C3B",
"c. c #45290B",
"v. c #412614",
"b. c #432C15",
"n. c #412619",
"m. c #422C1C",
"M. c #492E1C",
"N. c #4D2E16",
"B. c #443115",
"V. c #4A3315",
"C. c #43321D",
"Z. c #4B341C",
"A. c #4B3A1E",
"S. c #463B1C",
"D. c #533B1D",
"F. c #573915",
"G. c #4F350E",
"H. c #422E22",
"J. c #492E21",
"K. c #412F29",
"L. c #433325",
"P. c #4A3525",
"I. c #443A25",
"U. c #4B3B24",
"Y. c #43352A",
"T. c #49362A",
"R. c #443A2D",
"E. c #4B3B2C",
"W. c #513622",
"Q. c #523C24",
"!. c #513E2C",
"~. c #413730",
"^. c #423B33",
"/. c #4B3D31",
"(. c #413E3A",
"). c #523F30",
"_. c #663E16",
"`. c #3F4034",
"'. c #37403E",
"]. c #3D403E",
"[. c #4E401E",
"{. c #5A411C",
"}. c #63441C",
"|. c #66471A",
" X c #764A19",
".X c #4C4225",
"XX c #46412D",
"oX c #4C422D",
"OX c #4C462A",
"+X c #534324",
"@X c #5C4324",
"#X c #53432C",
"$X c #59452B",
"%X c #544A2C",
"&X c #5B4B2D",
"*X c #594923",
"=X c #5C512F",
"-X c #454134",
";X c #4B4333",
":X c #4D4834",
">X c #43423C",
",X c #4A443B",
"<X c #4D4A3B",
"1X c #534432",
"2X c #544A32",
"3X c #5A4B33",
"4X c #524A39",
"5X c #574837",
"6X c #5C5136",
"7X c #644925",
"8X c #68502D",
"9X c #363E41",
"0X c #3A3E41",
"qX c #374143",
"wX c #3C4243",
"eX c #3E4648",
"rX c #3F484A",
"tX c #3F4847",
"yX c #414443",
"uX c #494641",
"iX c #424946",
"pX c #4A4943",
"aX c #414649",
"sX c #41494A",
"dX c #554E42",
"fX c #635946",
"gX c None",
/* pixels */
"                                                                                                                                                                                                                                                                                                                                                                                                                                                                                                                                                                                                                                                                                                                                                                                                                                                                                                                                                                                                                                                                                                                                                                                                                                                ",
"c m m V m m m c m m m V V ~ ~ V V V ~ _ ~ ~ m m V ~ ~ V V m V c M m m v m m V V ~ ~ V ^ ` _ V m m V m V _ _ _ _ V V m m m m m m M M M m N m m m m D D m z M m m m m m m m m z m m z c c M c c m m m m m m m V A A c c m ~ _ _ m m m A N V V V m c z c c c m M c A c c c c c z 0 0 0 8 z 0 8 8 8 8 1 1 0 8 < < 8 8 z c c 0 0 8 0 0 0 0 z z z z m m M V c m m m m M M m M m D D ' ' ` ` _ _ ~ ~ ~ _ D ` _ _ _ ` ' ` _ ` ` _ _ D V V ^ _ ' ' _ _ _ E V ~ ^ _ _ ~ _ ` ' ` _ ~ ~ _ _ _ V m c c c m m m m ~ ~ ( ( ( m m m m _ _ ` [ ` ` ` _ ( _ _ _ N m m _ _ D _ ` ^ V D D D V V V _ D _ ` ` ' _ _ _ ` _ V V m V V _ _ _ ~ ` ` _ _ ~ ^ V A c m ~ ~ _ _ _ V V ~ ~ _ N m m m D _ _ _ _ ` ^ _ ~ V V ~ _ D _ D N _ ( N N V ~ m m m E m _ m _ _ _ _ _ _ _ _ V m m m _ V ~ _ _ _ ~ ~ ~ ~ ~ ~ V m m m m _ _ _ ~ ~ V V V m c c c c m m V V V V m m V D m V m c m m m D _ _ ` _ _ D V V V m V ~ V V m m V D N m c V V V D V D N N N N m m z c c c c c c c c c z 0 z z z 8 8 8 z f 0 0 m m m N _ D N ( m V D _ _ _ m m D m m m m m m m c z z z z m N N D _ N N N m v m N V ~ _ ( _ ( V m m _ m V _ ~ _ ` ` ' ' _ _ ~ D D ~ V V ~ ^ ~ _ ` ' ' _ _ ~ ` ' _ m _ _ ~ E _ _ _ ~ ~ ^ ^ ^ ~ V m m m ~ V _ _ _ ~ ~ V V m c c m m m V D D _ ` ^ ^ ~ ~ ~ ~ ~ ~ ~ ~ ~ _ _ ",
"Y.Y.Y.Y.Y.0.0.0.0.Y.Y.Y.Y.Y.R.R.R.R.R.E.R.T.T.T.T.Y.T.Y.T.R.T.T.T.T.T.T.Y.Y.R.R.R.R.R.^.^.R.Y.Y.Y.Y.Y.Y.0.Y.Y.Y.Y.Y.T.L.L.L.L.L.K.K.L.Y.Y.Y.T.Y.T.E.E.T.L.T.T.T.Y.L.Y.L.0.0.L.T.T.Y.L.0.Y.T.Y.L.L.T.R.T.Y.Y.^.^.~.Y.Y.Y.Y.R.T.L.0.0.0.T.T.T.R.T.L.0.0.Y.T.R.T.R.R.E./.E.R.R.T.T.T.T.R.R.R.Y.Y.Y.0.0.0.Y.e.3.3.2.3.0.0.Y.e.e.0.e.Y.R.Y.Y.T.Y.L.Y.R.Y.R.Y.T.T.T.T.L.L.L.L.L.L.Y.T.E.R.R.^.R.R.R.R.R.R.R.R.R.Y.R.R.Y.Y.R.E.R.T.Y.Y.0.Y.T.T.E.E.R.T.T.T.R.Y.Y.0.L.Y.T.T.T.Y.Y.L.L.Y.Y.Y.K.3.3.3.3.K.H.H.0.Y.R.R.E.T.T.T.T.Y.Y.Y.Y.Y.Y.T.R.E.E.E.T.Y.Y.L.T.T.L.L.T.R.Y.Y.Y.Y.Y.L.L.Y.Y.Y.Y.Y.T.T.Y.Y.T.Y.Y.Y.3.0.Y.Y.Y.Y.Y.Y.R.T.T.Y.Y.0.0.0.0.0.0.0.0.0.0.0.Y.R.R.T.L.H.3.3.L.K.3.L.Y.Y.R.Y.Y.Y.Y.T.Y.Y.Y.L.L.L.L.L.L.T.T.T.3.L.L.T.Y.Y.T.T.T.R.R.E./.Y.0.Y.Y.Y.Y.Y.Y.Y.Y.Y.e.L.L.Y.Y.0.3.3.3.3.H.H.K.0.0.0.0.Y.Y.0.0.0.Y.L.0.0.0.L.Y.L.L.T.T.T.T.Y.L.L.L.L.Y.T.R.R./.E.R.R.R.R.R.R.T.T.T.T.T.R.E.E.T.L.R.R.E.E.R.T.T.E.E.E.E.T.L.Y.R.T.T.T.Y.Y.R.R.Y.R.R.R.R.R././.E.T.Y.Y.E.E.E.E.R.T.T.T.T.T.E././.Y.L.L.Y.Y.L.0.L.0.Y.Y.L.3.3.O.3.H.H.H.L.L.L.L.L.O.O.L.L.0.3.3.L.L.L.L.Y.T.T.T.Y.Y.Y.Y.Y.Y.T.T.T.T.Y.Y.T.T.Y.Y.Y.R.Y.Y.Y.T.T.Y.Y.0.E./.T.3.0.L.0.0.0.0.0.3.0.0.Y.Y.Y.L.3.3.0.e.L.L.L.L.0.Y.T.R.R.Y.Y.Y.L.Y.L.Y.T.R.~.~.^.^.~.R.R.R./.R.R.R.T.T.",
"D ' ' _ _ ' ' ' ' ' ' ' ' ' =.=.' ......................' ....{ { ..O...W ' ..........2.2.o...........' ' W D ' ......{ { { { { F D D W ................W { ..o...{ W D D D g { ....D B { ....D D ............1.1...........{ F { { D { ..........W ' ' ....................D { ..........' ' ' ......o...D N D D D W ......' ' 2.o...........W ' ' ..' { { { { B D ......W D W ....' ' ' ' _ D D D D ..' D D ' ' D ......{ { ..' W W { { ............' W W W ......D F D D B { ..{ D B N N N B B B B D ........{ F { { ....D D ............{ F F { D F B B W ....{ { F D D D ........D ......{ ........D D D ' ' ' ' ........' ' ' ' ' ......W W ' ' ' ' ......{ B B D H D x D ' ....' ..' ' { { ....{ g B { B B W { D z x B D N x B N D ' ' o.3...W W ' ' ....W D W ....N N W D B g x B B x x B D W W ' ....' D D ' { D B B W ..{ B B { { { D B D D D F ................' ....{ W D D F { { { B x D W W { D g g g F G } B g x B B B F ' ' D B B F { F F { { ..{ F B F { { { { F B F F B D ..o.......' ......W ' W ' ....D N x B B g B F F g F F d g B { W v g g B B B F { { { D ..' ' ' W B B { { { { ....' D W ....' ' W ' ' ' W ..o.{ B B B W W D B D N ' ' ........D D W ....{ B B D D B ......{ W D { W W ' ' =.;.;.;.2.' ..o.o.o.........",
"8 c ^ c A ^ ` [ [ ` ` ` -.-.-.;.;.=.=.1.....' ' _ _ ' ' _ D ' N D 2.3.o.V _ ` -.=.=.=.=.=.=.=.2.2.' ' ` D V V D ` _ N N N W W D N m m m m D _ _ _ _ ' D m V _ ' _ V m N N m f N N N z z N ' ' N m m D D D D ' ' ' D D D D ' D x D D N B N ' D D m m V V m m M M V m _ _ _ N z M N N N N m m V N N ' D ' D M c A A M M D ` D Z ` ` ` D N N m m m m V ` ^ m N N M z M N D V m M V V ^ Z _ ` ^ V c M m M m m D D D D M D _ N M m D V D N N ' ' D N _ ' ' _ m m V D V M m D N z z N ' N M c c c M M z x N D N W ' ' D D ' D ' _ D D D ` ' D D ....B x v v N M M D ` _ N D D m M N _ ' ' D D ` ' ' _ _ D D D N N M V V V V ` =.' _ ` ^ ~ V _ ' ' _ _ D _ ` ` V D _ ' N N N M D m M M V ^ D ` ` _ D D D ' ..' z x W D z N N m z z z D D M M V D D _ ' ..' D m V _ ` ' ' N N _ [ M M z z z z z x z z z M D _ V V _ _ D m m m N N N M N ' ' N m N N D N N D D N N D ' *.' ' ' ' ` _ ' ' ' _ N N N N v x x z M B N N W N z g g F F D N z z v N W ' D v x d B F B B d x B x x z v F ..{ F x x v v v N ' ' ' ' ' ' _ _ _ _ m m m D D N M M z z x B D x s d x d d x N V c z z x x x B B D x N N N _ V m z z B D N v D _ _ m m _ _ _ _ _ _ ` ` D N _ _ m z N _ D m M m V ` ` ' ' ' _ m N D ' ....D D D z x D ..' ' ' ' D _ _ ` -.=.<.<.;.;.=.' ' ' ' ` _ D V ",
"< c =.[ [ [ ' =.' ' [ -.-.-.-.-.=.=.=.1.2.2.=.' _ V ` =.` _ _ N _ 1.2.o._ ` ` =.=.=.=.=.=.=.2.2.2...' ` _ D N N D N z z N N W ' _ m m M M m D _ _ _ _ D D _ _ [ ' ' _ N D N N N M M z z N ' ' _ m m V D _ _ ` ` ` ` _ D _ ' N x N N D D N N N D V m A A V V m V _ _ _ ' ' ' N m m D D D m V D D ...._ _ _ V V V V M M D ` ` ` ` ` ' ` N N m m D V D ` _ D D D N M M v V D D D D D _ _ _ ' ' ` V m m D N N N D D D D _ _ V m m V c D _ ' ' ' ' _ _ ` [ ` V m V V V M m _ N z z N D D c z c c M M z x N ..B B W ' D N D N ' ' _ V V D _ _ _ ' D x x v N D M M D ` ` D D D m m D _ ' ' ' _ ` ' ' ' ' D N D N N V D _ _ V ` 1.1.' ` ` ^ ^ ` ` ' ' ' ' ` ' =.V m N D ' ' ' V D D D m V ` D ` _ ~ D D _ ' ' ..N x D D N N m V c c M ' ' N M m V D ` ' ' ` _ V V _ _ ' ' N N _ [ D A c z z z z z v z z M M V _ ` ' ` _ D V V N D D N N ' ' m M M M M M m V D N N D ' =.' ' 1.=.' _ ' _ _ _ D N N D ' ' N N N N N ' ' ' D x B { { { ..D z N ' ......D D D ..{ F B B D D D x D ........D z x v M N D D _ ` ' ' ' ' ' ' ' m m m D _ D D M z z x D D x g d B B x x N V m m x B D D B F F B v v N _ ` D N x B B B v D ' N m N ' _ _ _ ' _ _ ` _ _ _ N v z N _ D m M z m ` [ ' ' ` _ N N N _ ....D D D v x D D D D D _ _ ' ' ` ` -.<.<.-.;.=.=.` ` ' =.=.=.=.",
"> ( e.e.e.0.0.0.0.3.3.3.2.2.2.2.2.2.2.3.3.3.3.3...' ..2.3.o.....o.3.3.3.2.2.2.2.2.3.2.3.3.3.3.3.3.2.3.2.....{ { ......X.X.O.O.3.O.....{ W ................6...2.3.2.W N { ..X.{ B x x B ..3.3.2.' _ _ ' ....' ' ..o...' ......B B ......{ D ......' ' ' ........o.o.o...2.3.......2...' ' ' ....O.o.W ' ..' ' ' ' ( N ' 2.2.2.2.2.2.2.............' ........................{ B B F { { ......' B B N W ' D N ..........' ' _ ' ' 2.3...{ { ....' ' ' ' ' ' ' ' ' D W ..B B D { ..' D N m N ' ..F g B { { { X.X...{ ' ..3.3...' ' ' ..o.o...F { F ..o...F D ..2.2.........................o.2.o.o.....o.........2...' ..3.3.....................D F ...._ N { ..........D D D N _ 1.' ' N ( ' ' ........{ F B { ....D N z z B ..o...' D N ' ......' ' N N ....o...W W ..2.6...D N x x D { o.X...v N ' ..........' ' ' ' ....D { ....' N N ' ' ' ' ' ....{ ....6...o.o.................D D ..X...D x B D D { ..o.{ g F } v.} X.{ B F O.O.O.{ B B { ....} F j B F { ..O.O.{ B { B g D B x D ..W ' ............o...D D ....{ ......N B F { F { F j F G F g B ' ' W g g j F j j j j F B B ..2...{ B F { { { { ..W B D ............' ..' ..' B B D ..........W ' ..2.2.o...........2.2.O...{ { ..{ { ..o...' ' ..2.2...' 2.w.5.2.2.2.2.o.2.3.0.0.t.t.",
"< N R.R./.^.E.R.R.R.R.R.~.^.~.~.Y.E.R.T.Y.T.T.T.0.3.3.0.Y.L.0.0.0.Y.L.L.T.T.R.R.R.R.R.R.R.E.T.L.L.Y.T.Y.T.L.O.X.H.L.L.L.0.0.0.0.0.3.X.O.{ X.L.m...{ X.O.H.L.L.3.3.O.{ { ..O.L.O.F F ..O.3.3.0.0.2.....3.3.0.0.0.Y.0.3.3.0.L.0.O.....o.O.X.O.3.0.0.3.2.3.0.L.L.3.0.0.o.2.0.0.3.2.3.3.2...' o.2.3.3.2.2.2.9.2.2.2.2...' 2.3.2.0.2.2.0.0.3.3.2.3.3.2.2.2.2.3.2.2.3.3.3.3.3.O.{ j j } X.O.O.O.O.O.X.{ { { O.X.{ { 3.Y.O.O.O.O.O.O.3.3.K.H.m.O.O.O.O.O.3.0.0.3.3.3.O.O.O.3.O.X.X.O.O.3.3.3.2.3.2.3.O.{ F F 3.Y.L.C.0.O.O.3.2.Y.R.0.....2.Y.Y.L.O.X.X.3.L.Y.Y.3.o.3.Y.Y.3.3.2.3.3.3.L.H.L.3.....O.3.3.O.O.L.L.L.L.3.L.L.O.X.O.3.3.3.3.5.0.e.0.Y.T.L.O.{ { ..o.2.3.3.3.H.m.m.O.X.X...{ ..3.O.....o.3.3.3.O.L.P.b.G j O.H.H...F ' { { O.O.O.......3.0.0.O.....o.3.L.L.3.O.O.X.O.3.0.3.3.......3.O.m.m.X.{ ..3.e.e.0.0.0.3.3.3.3.3.3.X.X.m.m.X.{ ..O.3.H.m.O.m.m.m.X.O.L.L.L.O.O.L.L.L.L.T.Y.O.{ X.3.3.X.F B D o.2.2.2.2...{ o.3.3.O...{ { ..O.3.O...D B F { { { { { ..o.3.0.0.2.o.o.o.o.....' ' ....1.1.2.2...o.2.e.0.0.2.2.2.e.0.e.e.w.5.2.0.3.2.9.0.O...{ ....o.2.2.2.......X.X.{ X...o.o.o.3.0.3.3.O.3.0.0.L.0.3.o.o.0.e.Y.Y.0.3.3.3.0.0.3...W X.O.3.3.3.3.3.o.2.0.Y.0.3.2.3.0.Y.T.R.Y.L.L.O.3.0.L.L.L.0.0.3.3.3.0.0.0.3.e.t.t.e.e.Y.Y.e.Y.R.^.^.^.^.",
"8 V ~.t.e.e.e.e.e.e.e.e.e.e.w.e.e.t.0.3.3.3.2.3.2.2.2.2.0.3.3.2.3.3.3.3.3.3.3.3.3.e.e.e.t.t.0.3.3.0.0.0.3.3.o.o.3.3.3.3.e.e.0.e.e.2.2.2...2.Y.3.o...2.3.3.3.0.0.3.2.2.2.2.3.3.3.2.2.2.3.3.2.3.3.2.2.2.2.t.R.Y.e.Y.0.3.3.e.0.0.3.3.2.2.3.3.3.3.0.e.2.2.2.e.0.Y.Y.Y.0.2.9.e.e.e.9.e.e.2.2.2.2.e.e.e.e.5.w.e.e.w.w.5.2.2.5.e.e.e.e.e.t.t.e.0.5.5.2.2.3.e.e.2.2.3.3.5.e.0.0.3.O.{ { O.H.L.L.L.H.H.H.O.X.O.L.3.O.3.Y.R.3.2.2.3.3.3.3.3.3.3.H.3.3.3.3.0.Y.~.t.0.3.3.3.3.3.3.3.3.2.2.3.3.2.2.2.2.2.2.o.......3.L.0.0.0.0.0.0.e.R.R.0.2.2.2.0.0.e.3.2.2.3.3.0.3.2.2.2.e.5.2.....2.2.3.0.0.0.3.......3.......o.O.o.o...6.....{ ..2.X.....2.2.2.3.0.0.3...........2.2.2.3.3.3.O.O.3.3.....o.2.3.....o.2.2.3.3.3.L.m.{ { 3.3.3...' ......3.2.o...' 1.2.w.3.2...' ..o.2.2.2.o.....2.2.2.2.2.' ' ..2.o.o.O.......2.e.e.e.e.5.3.3.2.2.2.2...o.3.3.o.....2.3.3.3.3.H.L.3.O.3.0.Y.Y.3.0.R.R.R.Y.R.R.0.3.3.0.3.3.o.2.2.e.e.5.5.5.2.2.0.~.Y.0.3.3.0.e.Y.Y.e.0.3.2.3.3.3.3.L.3.0.0.0.0.0.5.e.0.3.3.3.3.2.2.2.w.w.w.w.e.5.5.e.t.e.e.e.w.e.e.t.g.g.w.w.0.0.2.2.e.0.2.o.2.2.2.w.e.e.9.3.3.3.3.3.2.3.2.2.2.2.3.5.2.2.2.3.0.3.3.2.2.2.2.2.2.5.e.e.2.2.e.e.e.0.o.' 2.3.3.2.2.2.2.2.2.w.e.e.2.2.3.0.Y.0.e.3.3.2.o.2.2.2.0.3.2.2.2.2.2.5.5.2.2.2.5.5.5.2.2.2.2.2.2.2.2.2.e.",
"8 c t.2.A A A r A A A A r r r r A A c c 8 c z c c 0 A A c c c c A V c c c c c c c c A A A ^ V V c c A c c c c c V V V V ^ ~ ~ ^ ^ A A ^ A ~ -.-.` _ ` ` ` ` [ [ ~ V ^ ` V V V V ^ ^ ^ Z ~ ` ^ ^ ~ ^ ^ ` ` _ _ D D N M M V V D D V V A V D ` ^ Z A A A A A V ` ` ` ` ` ` -.[ ` ` ` ` ` ` ` =.*.=.=.=.-.-.-.-.-.-.*.=.=.=.=.4.;.;.;.;.2.2.=.=.=.` ` =.2.=.' ' [ =.=.' ' ' _ m z v N _ _ N v v v x M M N D D N N ' ' V m V ~ ~ Z D V _ _ _ _ _ D N ' 2.2.[ _ N D V D _ ` D V D ~ ~ _ _ Z V V A V M N N N ' D _ _ _ _ ` Z ` ` ` _ V V c V V V V V M M M c c V V V V A c c A c c M m m m m z m m m m m m m V m m c c z z v D D v z z M m m v v v M z z c c c m V V m m m M m m m M c A c M c c c c z m c c v z z M V V V V A Z A Z V m c c c A A A c 0 0 8 8 8 0 8 0 0 8 0 0 0 0 0 0 0 0 c c c M c M c c A A c c c c c c c c c c c m m m M c c A V m N m _ ' ( V V V V V V V V V V ^ ` [ _ _ ` ` ` ' ` ` ` =.` ` ^ ^ ^ ` [ 1.1.' _ ' =.=.=.=.=.=.2.2.] ' o.o.2...2.2.2.2.2.=.2.2.....' =.=.=.-.=.;.;.;.2.=.=.=.=.-.-.-.` ` ` ' ' ` D D D N N N _ m m m m _ ~ ~ ^ Z V m N D V M M M M m m c M m M M m D m c z c c c c 0 0 8 8 8 8 z c A c c 0 8 0 0 0 0 c 0 0 c A A A V V V V D D V ^ ~ V V m m V c V c c c c c c c 0 0 0 0 9 0 0 0 0 c 0 0 8 8 8 8 D ",
"0 c t.=.9 9 0 0 9 0 r r 0 9 8 0 0 0 8 8 8 8 8 8 8 8 c c c c 0 0 0 0 c c 0 0 0 0 0 0 0 9 r r 0 0 0 0 0 0 0 0 c 0 0 0 0 0 0 8 0 0 0 0 0 0 A 0 0 r c 0 c c c A A c c c c 0 0 0 0 0 0 9 0 0 c c c c 0 0 0 c c c c z z c c c 8 8 z z 8 8 8 c c c 0 0 8 8 8 8 8 8 8 8 z z z z 8 8 8 8 z z z z z z z z z z z z z z c c c m m m m ~ V A M m m m M M M z c m V m M c M M M M M c z z z M z 0 0 c z 8 8 8 z z z 8 z z z 1 < 0 0 0 c 0 c c 0 0 c c c c c M M c A A A c c 0 0 c c c c 0 0 0 0 0 8 8 8 8 8 8 z z z z z z c c c c c c 8 8 z z c 8 8 z z z z 8 z 8 z 8 8 0 0 z c z c c 0 c z z 8 0 z c m m c A A A c c c c c c 8 z c M c c c c c c c z z z z c c c c c c c c 0 0 0 0 0 0 0 8 0 c c c c c c c c c c c c c c A A 0 r c A A A c c 0 0 0 0 0 0 0 0 0 0 9 8 9 9 0 0 0 0 0 0 9 0 8 8 8 8 0 0 0 0 0 c c c c c c c c c c r 0 0 0 0 c c z 0 0 0 c c c c c m V V V V V A A A V V c c V A c z c M c c c c c c 1 z z z z z z z z z z z z z z c c c 0 c A V c c m m m z V m V _ ` V V N N D m V V c c c c c c M M c M M M M c c m M M M M z v x x z z v z v z M M c c c c M M M M c c c M c c c z z z z z z z z s z z z z z 8 1 8 8 8 8 0 0 0 0 c c 0 0 r 0 0 0 0 0 0 r 0 0 c 0 c A A V A A A c c c c c c c 0 0 0 8 0 0 0 0 0 0 0 0 r A A A A c c 0 8 8 8 ` ",
"c z e.2.0 A A ^ ^ ^ ^ [ -.^ ^ *.^ ` V V c V c c V m V ~ _ ` ` ^ ^ ` ` ' V V Z ^ ^ V A V ^ ^ ^ ^ ~ ^ ~ ~ V V V V A ^ ` ` ~ m _ _ V V ` ` =.` V ~ ^ ^ ^ ^ V ^ ` ^ ^ ^ ^ A A A A A A A A V D M m D D m m m D M M M c M M c c M M v M M m z M N M M M m M z z z z z N x x x z z z z s z x x x z x x x x B x x x x x N D D D D B D N B x B D D D D D D D D N N N D ' D D D _ D D _ _ ~ V V V V V ~ ^ ` [ ^ V V V V c c A V ^ V A A V V V V ~ ~ ~ _ _ ` ^ ^ ^ ^ ^ Z V V V V V M V A A m c c m V V M M M M m m V m m D V V ` V m V D V V m M N D D V V N M m V V m M M N N N D D D N N m V D D ` ` _ -.-.=.` ` ` ` [ ^ ^ ~ ~ ` ^ ^ ^ ^ ^ ^ ` ` ` _ V _ _ V V V ` ` ^ ^ V ^ ^ ~ ~ A A A V V m m c c m m m c V _ V V A A A A Z Z V ^ ^ V A c c c c c c A A A 0 0 0 r c A A A A r r c c 0 0 c A A Z Z V V V V ~ _ _ _ _ V V c V V V _ _ _ V V _ _ ` ` ` ` _ _ ` [ ' ' ' ` [ ` ` _ D _ ' ' D N D ' N N D D m M z N v x x z z z z x D D N x z z v N A V D D m M D V ^ V ` V V _ =.D D D N N m D N N N N B N N x x x x N D D V V N N N D D v D D ' D D D D W W D ' ' ' ' ' ' D D N D m c m V ^ ~ v x x x N N x z z v N N v x z M M z M V V V V V ~ _ V V ^ ^ A Z ` [ [ [ -.-.[ [ -.-.;.;.;.*.*.*.*.` ` V V D V V _ ~ _ c V V Z V ^ ^ / Z *.-.^ V A A 0 0 0 ` ",
"c s e.2.A ^ *.-.-.-.;.<.4.;.=.;.-.;.-.-.^ [ ` ^ [ ` ^ -.=.=.;.;.-.-.=.;.*.*.=.=.=.-.` ` -.-.=.-.-.=.=.[ ` ' [ ^ ^ -.;.=.[ ` 2.2.=.=.2.=.2.2.2.=.-.-.=.-.-.-.;.;.-.-.=.=.=.-.*.-.=.=.-.=.' D _ ' ' _ _ ' 1.' D ' ' D ' D D D D D D D D B D D D D D ..D x z z x B F F B B x x x x x x x B x x x B F F F F D B B D ..{ F { { F { F F B B D F F { { ..F F D W ' ......' ' ' ' ' ' ' [ [ [ ~ ^ [ -.-.-.;.;.-.-.-.[ ` ^ ` =.;.-.[ -.=._ ` ` -.` ` _ ` -.;.=.-.-.-.-.-.*.-.` ^ ` ` [ [ ` ^ ^ [ =.` _ ` ' ` ' ` ' ' ' ' _ ' ' ' =.-.=.*._ D ' ' ' ' ' =.' D ` =.=.' ' ' ' ' ' ' ' _ _ ' ' ' ' =.=.=.=.<.4.4.4.;.=.2.<.;.;.;.;.;.<.<.;.;.;.;.-.;.<.2.;.;.=.` ` -.;.;.;.-.-.-.;.;.;.;.-.;.-.=.=.=.[ _ _ [ =.` [ =.=.` ^ ^ *.*.-.-.^ -.;.*.V Z ` ` ^ ^ *.^ ^ ^ ^ ^ ^ ^ ^ ^ ^ [ ^ ^ *.*.^ ^ ~ ^ -.=.-.-.^ ^ ^ ^ [ =.=.=.=.` ` ^ ` [ ' =.=.' ' =.=.=.=.' =.=.2.=.=.2.2.;.=.2.2.1.2.' _ ' ..' ' ......W N ( _ _ _ N ..N x B x z z x B F B B x s f v D D ` ' ' D M v V -.` =.` ` ` =.` ' ' B B ( ' D ' D D D W W F F F D F { { ' W D F F ....D D ' ....' ' { ..' ' ' ' ' ' ' ' ' D D D D ~ _ ` ;.=.' N x N D ' _ N N m N D D v N D ' D _ ' [ ` ` ' ' ' ` ` =.=.` *.;.2.;.;.4.4.=.;.;.;.<.4.4.;.;.<.<.;.-.-.` =.` [ =.;.=.=.-.=.;.;.;.-.-.=.<.<.<.-.-.` A A c ' ",
"0 z e.;.A *.-.;.<.<.<.7.f.7.<.<.<.f.<.-.-.;.;.-.<.-.*.-.<.<.w.f.<.<.<.<.<.<.<.;.;.;.-.=.;.4.4.;.;.2.4.=.[ 2.2.-.<.<.<.<.;.=.4.w.4.<.4.<.;.w.w.4.<.<.<.<.;.<.4.5.<.<.<.<.<.<.<.<.<.<.<.4.4.=.=.2.2.=.=.2.2...' o...' ..6.2...........{ F F H H H ......D v v D D F F B g x x x x x x x D D D x D { { { { ..W N ' ....{ F { { ..{ F F { { F { ........D D ' ' 6.6.1.' ' =.2.4.2.;.;.;.=.[ -.;.<.<.<.<.4.2.;.;.;.;.-.-.4.4.<.;.4.4.-.;.;.4.;.-.' -.;.;.;.4.<.;.=.-.<.<.-.-.-.;.;.;.;.-.-.<.4.<.-.;.4.2.2.=.;.5.2.=.=.2.;.2.4.<.<.4.;.-.1.1.' =.2.5.1.*.;.4.4.2.2.1.' ..2.5.2.-.=.2.4.2.;.;.4.4.<.w.w.w.w.<.<.w.g.w.<.4.4.4.f.f.4.4.4.4.<.w.f.f.f.f.4.<.<.4.p.f.p.<.<.<.f.<.<.7.f.w.<.<.<.4.2.=.-.;.4.;.;.;.4.;.*.-.-.<.-.;.-.;.4.;.*.=.;.;.=.<.<.-.-.-.=.=.-.*.=.*.-.-.-.-.<.<.-.*.*.-.;.<.;.-.;.-.-.-.-.;.-.;.;.-.-.-.-.;.;.4.2.=.=.2.4.4.2.2.2.5.w.2.4.w.f.4.;.2.2.2.2.2._ ' ............' ' ' =.[ ` _ 1.` N B B v v D F F F F D x z N ' ' ' ' ' _ D ' [ ;.=.=.' ' D ' ' ' W B D ' ' W W ' ' ..' ' ......H ....' ....{ { { ......' ..2.2.' ' ......=.=.=.' =.1.=.' ' ' ' ' =.=.;.<.;.[ _ D D ` =.=.=.' ` ' ' N N ` =.=.` ` ;.;.=.=.;.=.=.-.;.4.4.=.;.4.w.w.f.f.w.2.4.4.4.f.f.f.4.<.<.f.<.<.;.;.4.;.-.4.4.<.<.<.<.<.f.f.p.<.<.<.f.f.w.<.-.V V m ' ",
"0 8 e.2.A *.-.<.<.y.y.f.f.f.p.p.p.f.7.<.<.<.;.<.4.<.-.<.<.7.f.f.f.<.<.w.<.<.4.<.;.-.;.-.;.4.4.<.;.4.4.;.' 2.4.<.<.7.p.4.<.<.4.w.w.w.w.w.w.g.f.f.7.f.w.<.<.f.f.f.f.f.f.f.f.f.7.f.f.f.f.w.w.<.<.4.w.;.;.4.4.2.2.2.2.' ..2.5.2...........{ ........{ { ..D D F D D { { F D x B B B B B B D { F D H ..{ { ......W ' ....{ F { { { { { { ............F ....W W ..2.2.2.1...=.4.4.4.;.;.;.=.-.-.;.4.4.<.4.w.4.<.<.4.<.<.-.<.4.<.<.4.w.;.<.w.5.;.=.=.;.;.;.<.4.<.<.-.<.4.w.-.-.;.4.<.<.;.-.;.<.w.<.<.<.w.w.4.4.;.w.4.=.4.w.4.w.w.<.w.w.4.;.2.1.' 1.5.5.4.2.4.5.4.2.2.2.;.;.4.w.5.<.<.w.f.w.<.<.w.w.w.w.f.f.f.4.4.f.f.f.w.4.w.f.f.w.4.w.f.4.w.g.h.f.f.f.f.y.y.f.f.f.f.w.<.7.p.<.y.f.f.f.<.<.-.4.4.;.<.4.f.w.<.4.w.<.<.-.<.-.=.;.4.4.<.<.<.<.-.<.<.<.,.-.<.<.<.<.-.<.<.<.<.<.<.-.<.<.<.<.-.*.-.<.<.-.,.<.<.-.-.;.<.;.;.;.<.<.<.<.<.w.4.;.;.4.w.w.4.2.4.w.w.4.<.f.g.<.;.2.2.2.2.=.[ =.2.2.........' ' ..=.=.[ [ =.` N B B v D F F F D D D D B ' ..' ' =.1.' ' ' ;.<.;.;.=.' _ ' ..F F B W W ' ..' ......' D ....' ' ............{ { { ........2.........' =.2.4.;.=.2.2.1.=.=.;.;.=.;.;.;.<.;.' ' ' D D *.<.<.-.=.=.' N _ =.2.;.=.-.;.4.4.<.4.2.;.;.4.w.w.<.;.4.g.g.f.f.w.4.4.4.f.f.f.f.<.7.f.f.7.<.<.<.<.-.=.<.f.<.<.y.<.<.f.f.f.f.f.k.k.z.f.p.<.` D V 1.",
"0 1 e.2.Z *.-.<.<.f.f.f.f.f.p.f.f.f.f.w.<.<.<.<.w.w.<.<.w.f.f.f.f.<.w.w.f.f.4.4.<.;.<.;.;.w.4.<.;.4.f.4.=.2.4.<.<.y.p.w.5.4.5.w.w.f.f.f.f.f.l.f.f.f.f.w.w.f.z.z.f.f.f.f.f.f.f.f.f.f.f.f.g.w.w.w.g.4.4.4.w.w.w.w.4.;.2.2.5.5.2.....o.o...o.2...{ X.X...W ..{ F F ..{ { D D D F F F F F F { F D H ......{ { ..........F F { { { { ..{ { { ..2.2...H { { ......3.2.2.2.2.2.4.w.w.4.<.4.4.;.;.;.4.4.w.f.w.<.<.4.w.w.<.<.<.<.<.4.4.w.4.<.w.w.2.2.2.;.-.<.w.w.4.4.<.4.w.4.-.;.;.4.<.<.;.;.4.w.w.w.f.f.f.f.w.4.w.w.w.4.w.g.f.g.g.f.f.w.4.4.2.2.' 1.5.5.5.4.4.5.2.2.4.5.4.<.w.w.w.w.f.f.g.f.w.w.f.f.f.w.f.g.f.w.w.g.f.g.f.f.f.f.f.w.f.g.g.f.f.f.l.f.f.f.h.f.f.f.f.f.f.w.w.f.f.f.f.f.f.f.f.4.-.<.<.4.w.f.f.g.7.f.f.w.4.<.<.-.-.4.w.f.w.i.4.w.<.<.7.<.:.<.<.<.<.<.<.<.y.<.<.<.<.<.f.<.<.<.;.;.<.<.;.-.<.p.p.-.-.;.;.;.-.-.<.4.4.4.w.w.4.1.4.f.f.w.4.4.w.g.g.w.<.f.f.<.;.2.2.2.2.' =.2.5.2.2.2.2...' ' ' =.=.;.;.2.' D F D D D D F F { D ' ..' ..3.2.2.1.1.....' ;.4.4.;.=.' ' ' ' F F F { ' ' ....................W ..............} { ........2.6.........1.2.5.4.2.2.2.2.2.2.4.4.;.;.;.<.<.;.=.1.=.' D ` <.<.<.-.=.` _ ' 2.4.<.4.;.2.2.4.4.w.4.4.4.w.g.g.w.4.f.g.f.g.g.w.w.w.w.f.g.g.f.f.f.f.f.f.<.4.<.;.-.-.f.f.7.f.f.w.7.f.f.f.f.f.k.z.z.z.f.<.*.` N 1.",
"8 s 0.2.` *.-.<.<.p.p.f.f.f.p.f.f.f.f.4.4.4.w.<.w.f.<.<.w.f.f.f.w.7.7.w.f.p.<.<.<.<.<.;.<.4.4.;.2.w.g.w.2.2.<.<.4.y.f.w.w.w.5.4.4.f.g.f.f.h.z.z.f.f.f.f.f.h.z.l.z.f.f.k.k.k.f.f.z.z.z.h.f.f.f.f.f.f.f.w.f.f.h.f.w.8.w.w.4.4.2.2.2.2.2.2.2.2.2.......3.......{ ....{ { F D F { { } { { F { { { { ..X.....X...........{ { { } { ..........o.9.2...............2.2.2.5.5.4.w.w.w.7.<.w.w.w.<.<.4.4.f.f.g.4.<.w.f.f.<.<.p.<.<.4.5.w.5.4.5.4.;.;.2.2.4.4.w.4.4.4.w.w.w.<.<.<.<.<.<.<.4.4.4.w.f.f.f.f.f.f.g.f.f.f.w.w.f.g.f.f.f.f.f.g.w.w.e.5.2.2.5.2.2.2.4.2.2.w.w.w.w.w.w.4.w.w.w.g.g.f.f.f.f.f.g.w.f.g.f.f.f.f.f.f.g.f.f.g.g.f.h.h.h.h.f.f.l.f.f.f.z.f.f.f.f.f.f.w.w.w.g.f.f.w.7.f.g.f.8.<.w.f.f.f.f.f.w.f.f.f.f.<.<.<.<.4.w.w.f.f.f.f.<.<.<.<.,.<.<.<.p.7.<.<.f.f.p.7.7.p.f.p.<.<.4.w.4.;.<.4.w.f.w.-.;.;.;.;.-.-.w.w.f.w.w.w.4.4.4.f.f.w.w.w.w.g.f.g.w.f.w.<.<.4.2.2.=.=.2.w.w.2.2.2.2.2.' ' ' =.;.4.2.2...' F D B N N B D W W ........3.2.2.2.1.....=.2.4.;.=.=...........{ { ....' ' ' ........o.o...{ ......2.......X.} { { { ........1.=.2.2.=.4.4.4.4.4.2.2.2.4.w.w.4.<.<.<.4.<.;.2.;.=.=.-.<.<.4.<.;.=.=.2.4.<.4.4.;.;.;.4.w.w.4.4.5.w.g.g.g.g.f.f.g.g.g.w.f.w.w.g.g.f.f.f.f.f.f.f.f.f.<.-.-.<.f.f.f.g.g.f.f.f.f.f.z.h.k.z.z.h.f.<.-.` D ..",
"z s e.2.*.-.-.<.p.a.a.f.f.a.p.a.f.f.f.f.<.w.w.w.w.f.w.7.w.f.h.f.f.f.7.7.f.7.<.<.<.7.<.4.4.4.2.2.2.5.w.2.2.2.<.<.<.f.f.w.9.2.5.4.4.w.g.f.f.f.f.f.f.f.f.f.f.z.z.z.h.h.z.z.z.z.z.z.z.z.z.f.g.z.z.f.z.f.f.f.f.k.h.f.f.f.f.f.w.7.<.<.<.4.4.w.w.4.2.2...2.5.2.o...{ ....{ { F F { { { { } } F { { { { X.X.6.X.X.O.O...2.3.3.O.X.X.O.O.O.O.o.O.o.0.3.o...2.2.2.2.2.2.2.4.4.w.f.f.f.f.7.7.w.r.r.w.w.w.4.w.g.g.4.<.w.f.f.y.y.f.f.w.4.2.2.5.e.e.w.;.;.5.w.w.;.;.<.4.<.<.4.4.4.w.7.<.<.w.<.4.4.4.4.f.f.k.z.z.f.f.f.f.f.f.g.f.f.f.f.f.f.f.g.f.g.g.g.g.e.2.' =.4.4.;.4.w.w.w.f.e.4.2.4.4.w.f.f.f.f.f.z.z.f.p.f.f.f.f.f.h.h.h.h.z.l.z.f.z.z.z.z.l.z.h.f.f.f.f.f.f.f.f.f.g.f.w.w.w.w.w.w.7.<.7.f.f.g.f.f.f.f.f.k.f.4.f.f.f.f.w.<.<.4.w.<.<.f.f.f.f.<.<.<.<.<.<.7.p.p.p.<.<.f.f.f.f.p.p.p.f.f.w.w.<.;.=.;.4.<.<.<.<.8.w.<.<.w.w.w.w.g.f.w.w.w.w.f.z.g.w.g.g.g.g.f.f.f.g.w.<.4.4.2.2.;.;.4.w.w.2.2.2.w.9.2.' 2.2.w.w.w.2.1...........................o.3.3.2.2.1.....2.2.2.=.=.' ' ..........' ......' ' ......{ ....{ ..........{ ......{ { { ........' =.;.;.2.;.<.w.w.w.4.4.4.4.w.w.w.w.4.4.w.w.<.<.<.<.;.;.<.<.-.=.<.4.4.<.4.<.y.4.4.;.;.-.<.<.<.w.w.5.4.4.w.w.f.f.g.w.w.g.g.g.w.w.f.f.f.f.g.f.f.f.f.f.f.f.<.<.f.f.f.f.f.f.f.f.f.k.z.z.z.z.z.z.f.w.<.-.[ D ' ",
"z s e.2.` -.-.7.f.f.f.f.f.f.p.f.k.k.k.f.p.7.w.w.w.f.w.f.f.z.z.z.f.a.f.f.f.f.w.4.4.w.f.w.5.2.2.2.2.;.1.1.2.2.w.7.7.f.w.2.2.w.w.w.w.w.f.g.f.f.f.f.f.f.f.f.k.z.z.f.f.f.z.z.z.z.z.z.z.z.k.f.f.f.z.z.z.f.f.f.f.z.z.f.f.z.z.f.f.f.f.w.f.f.f.f.f.w.w.w.4.w.w.2.2.......' ......F { { } F { F F ......{ ......X.X.X.O.o.2.0.Y.0.O.O.H.3.3.3.3.O.O.3.3.3.2.w.w.w.w.5.4.w.w.w.g.f.f.f.f.f.w.w.w.w.w.w.f.w.w.w.<.<.<.<.f.f.f.f.f.f.w.;.=.=.2.2.4.w.4.4.4.4.4.4.4.w.f.w.w.4.4.w.f.f.f.f.w.4.4.4.4.4.f.k.k.f.f.f.f.f.f.z.f.g.g.f.f.g.f.f.f.f.g.f.w.f.g.w.2.;.4.g.w.<.w.w.w.g.g.w.2.;.4.w.f.f.f.f.f.f.z.f.f.f.f.f.f.f.h.z.h.h.h.z.z.z.h.z.z.z.z.z.z.z.z.f.f.g.f.g.f.g.w.w.w.4.4.w.w.w.w.7.7.f.f.f.p.f.f.f.p.p.f.f.w.f.z.f.f.f.f.f.f.f.w.f.f.z.z.f.f.<.<.p.p.p.p.p.p.p.<.<.<.w.w.f.f.f.f.f.w.w.7.<.;.4.;.;.<.<.w.w.<.<.w.w.w.w.4.w.w.7.w.w.g.f.f.f.w.w.r.g.g.g.f.f.h.f.w.w.4.w.w.w.4.4.<.4.w.4.4.2.4.2.2.2.2.5.w.w.w.=.2.o.......o.3.' D o.2.2.o...X.L.L.3.2.2.0.3.2.2.2.;.;.2.2.o.....2.2.o.............2...{ ........o.2.2.....2.2.2.....2.2.2.2.2.2.w.w.w.w.w.w.f.f.g.w.4.4.w.f.f.f.w.4.4.4.w.w.w.w.7.<.4.w.<.-.-.<.w.4.4.<.<.y.4.2.=.<.<.4.w.w.r.e.4.2.2.w.w.f.g.w.w.w.g.f.g.g.g.f.f.g.f.f.f.f.f.h.f.f.f.f.f.f.f.f.f.p.a.k.k.k.k.k.z.z.z.z.z.z.f.f.;.=._ 2.",
"z 1 0.2.^ -.;.w.f.f.f.f.f.f.w.w.f.f.p.p.7.7.w.w.w.w.f.f.f.f.h.g.w.r.r.t.w.w.w.w.<.<.w.4.;.=.;.4.<.;.=.1.2.2.w.7.8.4.2.2.2.g.f.g.w.w.f.w.f.f.f.f.g.g.f.k.z.z.z.f.f.f.k.k.z.z.z.z.9Xz.z.k.f.f.z.z.z.f.f.f.f.k.k.f.f.z.z.h.f.f.f.f.f.f.k.f.f.f.h.h.h.h.f.w.5.2.2.2.4.2.2.......{ } { { { X.O.O...........X.m.m.O.2.2.w.t.0.O.3.3.3.5.5.5.3.2.2.3.3.e.e.r.w.w.w.w.w.w.w.g.w.w.w.f.f.w.w.w.w.w.f.g.f.w.w.f.f.w.w.w.w.f.f.f.g.w.<.<.4.<.;.;.<.w.w.<.<.w.f.w.7.f.f.f.f.f.p.f.f.f.f.w.<.4.4.4.<.f.f.f.f.p.f.f.f.f.f.g.f.f.g.f.f.f.p.f.f.g.f.f.g.f.w.w.f.f.f.f.w.w.w.w.w.w.4.2.;.w.g.f.z.f.f.f.f.f.f.f.f.f.f.h.l.z.z.z.z.z.z.z.z.z.z.z.z.z.z.z.z.z.f.f.f.f.g.g.g.w.w.f.f.f.f.f.f.p.p.a.f.f.f.p.f.h.h.f.p.p.f.<.f.f.f.f.g.f.f.f.f.f.f.z.z.z.f.f.<.<.p.a.a.a.p.p.p.7.<.<.w.w.w.w.f.f.g.f.f.f.f.f.w.w.w.<.;.4.w.<.<.4.4.w.w.7.7.7.7.4.4.w.f.f.f.8.w.w.w.f.g.f.z.z.f.4.4.4.w.w.w.w.7.<.<.w.4.4.;.;.2.2.2.2.2.w.w.4.;.2.2.0.3.2.0.0.o...o.3.3.o...X.m.H.3.3.0.Y.e.2.<.w.w.w.w.4.2.2.2.2.2.2.2.2.o.o.2.e.2.2.2.3.2.2.2.2.3.3.2.2.w.g.w.5.5.w.f.g.e.5.4.w.g.w.f.f.f.f.f.f.w.4.w.f.f.f.f.w.w.w.w.f.f.g.f.f.<.4.w.7.<.;.<.4.;.4.w.w.f.4.4.=.4.w.w.w.w.w.w.2.5.w.w.f.g.g.w.w.w.f.f.g.h.h.f.g.g.f.z.z.f.g.f.z.z.f.f.g.f.f.f.f.f.a.k.z.z.z.h.z.x.z.z.z.z.z.f.w.2.' 2.",
"z 1 2.' ~ -.;.w.f.f.f.f.f.h.t.t.e.r.g.g.r.g.w.w.w.w.f.f.g.g.j.t.R.R.XXR.w.w.w.w.;.-.<.2.=.=.;.4.4.w.<.2.2.2.4.4.2.2.2.2.w.f.f.f.w.w.w.f.f.f.f.f.w.f.f.z.z.z.z.f.f.f.k.k.z.z.z.z.z.z.z.z.f.f.z.z.z.f.h.h.k.k.k.k.z.z.z.z.f.f.f.z.f.k.z.h.f.h.z.z.z.z.z.z.g.w.w.w.p.w.r.w.2.2.o.O.O.X.O.C.P.+.O.3.2.2.3.L.A.C.O.3.e.e.g.e.2.3.0.e.e.g.g.g.e.w.w.2.4.w.w.4.w.w.g.w.w.w.w.4.<.<.f.g.w.w.w.r.g.g.f.g.f.f.f.z.h.w.4.w.g.w.<.w.f.g.w.w.w.4.w.w.f.g.w.w.g.f.f.f.f.z.f.p.p.p.f.f.p.<.<.8.w.w.w.w.f.f.f.f.f.f.h.f.f.w.w.g.g.f.f.f.f.f.f.h.h.g.f.h.h.f.f.z.f.f.f.f.w.w.w.w.w.w.2.4.g.h.z.z.l.z.f.f.g.g.f.h.f.f.f.l.l.z.z.z.z.z.z.z.z.z.h.h.h.h.z.z.z.z.f.f.f.g.f.w.4.r.f.f.k.k.k.k.k.k.h.h.f.f.f.h.z.h.f.f.f.w.<.p.a.f.f.g.f.f.f.f.f.f.k.k.z.f.<.<.y.a.a.p.a.p.p.p.4.w.w.w.w.w.w.<.4.w.f.f.f.f.f.f.f.f.w.<.4.f.f.4.;.4.4.w.f.f.f.f.w.4.w.w.g.f.w.w.w.w.w.f.h.z.f.f.w.w.4.4.w.4.4.w.w.w.f.f.p.<.;.;.2.2.2.2.2.w.w.w.w.2.0.0.0.0.0.O.0.2.3.3.O.O.m.m.m.3.0.e.R.e.5.w.g.h.h.f.w.w.4.2.2.3.e.0.9.2.w.g.g.g.r.w.g.w.5.2.w.w.w.w.g.f.z.z.f.g.f.z.z.g.w.w.w.f.f.f.h.k.k.z.h.f.w.f.f.z.h.f.f.g.g.g.g.g.f.f.p.w.w.w.f.f.w.4.;.-.;.w.w.f.4.4.<.w.w.4.2.2.2.e.w.5.w.w.g.g.w.4.w.f.p.f.f.f.h.h.h.f.g.j.-XXXXXXX^.x.z.h.h.h.z.z.h.h.h.h.l.x.x.-X`.].x.z.z.z.h.g.w.2.' 2.",
"z < 2.' ^ -.<.w.f.k.f.g.t.`..X.XR.t.j.j.j.j.h.g.w.g.h.h.h.-X;XOXOX%X#XU.r.w.w.w.;.;.<.2.;.;.;.<.w.w.w.;.=.2.2.2.2.2.2.4.w.f.f.f.7.f.f.f.f.f.f.w.w.f.f.z.z.k.k.k.f.f.f.f.k.z.z.z.z.z.z.z.f.k.z.z.z.z.z.z.k.k.k.z.z.z.z.z.f.f.f.h.z.k.z.h.f.z.z.z.z.z.z.k.g.w.w.f.h.h.h.f.w.w.9.0.3.O.+.A.A.C.0.e.t.t.Y.T.U.P.L.3.t.g.g.e.2.e.w.e.g.h.h.h.h.g.w.w.2.4.4.4.g.g.g.f.w.w.w.w.4.w.f.h.g.w.g.g.h.h.f.f.f.f.f.f.f.w.4.4.f.w.<.w.g.g.f.w.w.w.f.f.f.g.f.f.f.f.f.f.f.f.f.p.p.p.f.p.<.<.w.f.g.f.g.g.f.z.f.f.f.z.z.z.w.f.g.f.f.f.z.z.z.f.f.g.h.g.f.z.l.l.h.f.f.f.f.f.f.w.r.w.w.r.w.w.h.l.z.z.x.z.z.f.f.g.w.h.f.g.g.h.h.h.z.z.z.x.z.z.z.z.h.g.f.f.h.z.z.g.g.f.f.g.g.w.w.f.h.f.f.z.z.z.z.k.k.h.f.f.z.l.z.k.z.z.z.g.<.y.p.k.f.g.f.f.f.f.f.f.f.k.f.f.w.<.p.p.a.p.a.p.p.p.4.w.f.f.g.f.w.<.4.<.<.f.f.f.f.f.f.f.f.w.f.f.f.w.4.4.w.f.f.f.f.f.w.w.f.g.f.g.f.f.g.w.w.g.h.z.f.f.g.g.w.4.<.<.7.w.f.f.f.f.f.f.7.w.w.2.2.2.w.w.w.w.w.w.w.w.0.0.0.0.Y.0.0.0.L.L.L.C.O.0.e.R.t.e.w.h.l.z.z.h.h.g.w.4.4.e.t.e.r.r.g.h.h.h.h.h.h.g.w.w.r.r.g.g.f.z.z.z.z.h.k.k.z.f.g.f.f.f.f.f.z.k.k.z.z.f.f.f.z.z.z.h.h.h.h.f.f.g.f.f.p.w.w.f.f.f.f.4.;.=.;.w.4.4.4.4.4.w.4.2.=.2.2.5.w.w.4.w.w.w.2.2.w.g.f.f.f.f.f.f.h.f.g.oX%X%X%X%X:X;Xz.h.j.x.x.x.x.j.x.h.x.-X;X2X:X:X`.h.z.z.h.g.w.2.' 2.",
"z > 2.' ` ;.<.f.f.z.z.g.`..X+X+XI.e.g.h.h.g.f.f.f.g.h.h.h.-X;XOXOXOX#XU.r.w.w.w.4.4.4.4.4.;.;.2.4.4.4.<.<.2.2.2.4.w.w.8.w.w.w.4.w.f.g.g.f.p.w.w.w.w.f.f.z.k.k.z.k.h.f.f.f.z.z.z.z.z.z.z.z.k.z.z.z.x.z.h.k.z.z.z.z.z.z.z.f.f.f.f.z.z.z.z.z.z.z.z.z.z.z.f.f.f.f.f.h.l.h.f.f.g.e.t.e.0.0.T.S.L.t.^.j.j.R.E.U.T.L.e.t.j.t.e.e.t.e.t.g.h.g.g.g.g.g.r.w.w.4.w.g.g.f.f.g.f.f.f.f.f.f.g.f.g.g.f.f.h.f.f.w.w.w.g.f.r.w.w.f.w.w.g.g.w.4.w.w.w.w.f.g.f.f.f.f.f.w.w.w.f.f.f.f.p.f.f.w.w.f.z.z.z.f.f.f.f.f.f.f.z.z.z.f.f.z.z.z.k.z.z.z.f.g.g.h.h.z.z.l.l.f.f.g.g.g.g.g.g.g.w.w.g.g.g.l.x.z.0Xx.z.x.z.l.f.f.h.h.f.w.g.g.f.h.z.l.x.z.z.x.z.h.f.g.g.f.z.l.g.f.w.w.g.f.h.z.z.z.f.f.f.f.k.z.z.z.f.g.w.l.x.z.z.z.z.k.f.f.p.f.f.f.f.w.f.f.f.f.f.f.k.f.f.f.f.f.p.a.a.a.f.f.f.4.4.f.f.f.f.w.w.g.f.f.f.f.f.w.4.4.w.w.f.f.f.f.f.r.f.f.g.f.w.f.f.7.f.f.z.f.g.f.h.f.f.w.w.g.l.f.f.h.g.w.4.7.w.w.w.w.w.f.f.f.f.f.w.w.2.2.2.r.g.w.w.w.w.w.2.0.0.0.0.e.e.9.0.L.P.P.P.0.Y.Y.t.t.e.g.j.x.z.z.z.h.h.f.f.w.e.j.x.h.h.h.h.h.h.h.h.h.g.g.g.g.f.l.l.f.z.z.z.h.z.z.z.z.z.h.f.f.f.z.z.z.z.z.z.z.k.f.k.z.z.z.z.h.h.h.h.h.f.<.4.p.4.4.f.f.p.f.4.4.4.4.w.4.4.4.4.w.w.<.4.5.2.2.2.w.w.w.5.2.2.=.2.4.w.w.w.f.h.f.f.f.f.g.;X%X%X#X%XoX-Xf.f.h.h.h.h.h.f.g.g.t.XX%X&X&X3X-Xh.z.l.h.g.w...W o.",
"M < 2.' ` ;.w.g.h.z.z.x.`.XXXXXXt.<.7.p.<.7.<.p.p.p.p.f.f.h.j.j.t.R.;XR.r.w.w.w.4.4.4.4.4.2.2.2.2.2.2.4.7.<.2.2.4.<.4.w.w.2.2.2.4.w.w.w.w.p.w.w.w.w.f.f.f.f.z.k.k.z.z.h.z.z.z.z.z.x.z.f.h.z.z.l.l.l.f.f.h.z.z.z.z.z.z.z.z.f.f.f.h.z.z.z.z.z.z.z.z.z.f.f.f.f.h.h.z.l.h.f.p.f.g.t.R.Y.0.R.I.R.t.-X^.t.t.R.E.E.Y.t.t.t.e.e.t.t.R.t.t.g.g.g.g.g.f.e.e.e.e.e.g.h.h.h.h.f.f.g.f.g.f.f.f.f.g.g.g.h.h.h.g.g.w.f.f.g.r.w.f.w.w.g.g.w.w.w.w.w.g.g.g.g.g.g.f.f.g.g.g.f.f.f.f.f.z.g.w.g.z.z.z.z.z.f.f.a.f.h.h.h.h.z.f.h.z.z.z.k.k.k.f.f.f.g.f.z.l.l.l.l.h.g.g.g.f.f.f.h.x.g.w.h.h.l.x.x.z.z.x.x.x.x.x.l.h.x.x.h.g.g.g.g.g.g.h.h.l.x.h.z.z.l.l.h.h.z.f.g.w.w.g.g.f.h.z.z.z.z.k.k.k.f.z.z.g.g.g.r.l.l.z.h.h.h.h.f.z.k.f.k.z.f.w.g.g.f.g.g.f.h.f.f.f.f.f.a.f.k.k.k.k.f.f.w.p.f.g.f.g.f.z.z.f.f.f.f.f.w.w.4.4.w.g.f.f.f.g.g.f.h.f.f.f.f.w.f.z.z.z.f.g.g.h.g.w.4.r.f.f.f.h.g.f.w.f.g.g.w.<.<.w.f.f.f.f.w.w.w.5.w.g.g.g.w.w.w.w.9.0.L.T.0.0.e.e.0.0.0.L.Y.T.R.R.R.t.j.^.-Xj.h.f.h.h.h.l.h.g.~.^.^.x.h.h.h.h.h.h.h.h.f.f.l.l.l.l.x.l.z.f.f.z.z.z.z.z.k.z.z.z.z.z.z.9Xz.z.z.z.z.z.z.z.z.z.z.h.h.g.g.h.g.w.4.f.2.2.w.f.7.w.2.2.w.w.w.<.<.;.4.4.4.4.4.w.w.2.2.5.5.4.w.2.2.;.w.w.w.<.4.f.f.f.f.f.f.f.,X:X;X^.j.t.w.7.<.<.<.7.7.7.8.7.p.g.j.XXOX%X2X-Xx.z.z.h.g.4...W 2.",
"0 < 2.' [ ;.w.f.z.z.z.z.h.w.e.r.w.,.p.y.<.7.p.<.<.y.p.p.s.s.k.z.h.h.-XXXh.w.f.w.w.w.f.4.w.w.4.4.2.=.2.2.<.7.w.w.;.4.w.w.4.2.2.2.4.w.4.w.w.7.w.w.w.w.f.f.f.f.z.k.k.z.z.h.h.z.z.z.z.x.z.f.h.z.z.z.h.h.h.f.z.z.x.z.z.z.z.z.z.f.f.f.z.z.z.z.z.z.z.z.z.z.f.f.f.h.l.z.z.l.l.z.h.z.h.R.-XXXq.R.t.^.^.-X-Xj.`.-X-X-X-Xx.g.e.e.t.R.t.R.Y.t.j.g.g.h.f.f.w.e.e.e.w.h.h.f.f.h.l.f.g.g.f.h.h.h.h.g.h.h.z.x.z.z.h.g.f.f.h.r.w.f.g.w.g.f.f.g.f.4.w.g.g.g.f.f.g.g.g.f.f.h.f.f.f.f.z.l.g.w.f.z.z.z.z.z.f.f.a.f.h.g.g.h.h.f.h.l.z.z.f.f.k.z.l.h.f.f.x.x.z.x.x.z.h.h.f.z.l.f.h.l.g.f.h.l.l.l.x.z.z.z.x.x.l.l.x.x.wXwXx.x.x.h.h.g.g.g.g.h.l.h.z.x.x.l.l.l.l.l.g.w.e.g.g.g.h.z.z.z.x.0Xz.z.z.z.h.f.g.g.g.z.l.z.h.h.h.h.f.z.z.f.k.z.h.g.h.h.f.g.g.f.z.f.f.f.f.k.k.k.z.k.k.k.f.f.f.a.f.g.r.g.h.z.z.z.z.f.f.f.f.w.w.4.w.f.f.f.f.f.f.f.k.f.f.f.f.f.f.z.z.z.f.f.f.g.g.w.w.r.f.f.g.f.f.f.f.f.f.f.w.4.4.w.f.f.w.f.w.w.e.w.w.f.g.g.w.w.r.g.w.9.Y.L.O.9.e.t.R.e.e.0.Y.R.-X-X/.^.j.-X-Xj.f.g.x.x.x.x.x.x.^.^.^.x.h.x.x.x.x.x.x.l.f.z.x.x.z.z.x.x.h.f.h.z.z.z.z.z.z.z.x.x.z.z.z.0X9X9Xz.z.z.z.z.x.x.z.l.x.h.g.g.h.h.g.f.g.2.2.5.w.<.w.2.2.4.w.w.<.<.;.;.2.4.w.w.7.7.w.2.2.5.4.w.w.w.w.w.<.w.<.7.f.f.f.h.f.f.f.>X,X].k.f.f.a.p.<.<.<.<.<.<.7.7.p.f.h.g.g.-X:X,Xx.z.z.h.g.w.2.' 2.",
"0 < 2.] [ ;.w.f.h.k.h.h.p.p.7.w.7.<.p.p.<.<.,.<.7.f.p.p.p.d.z.z.k.f.-XXXg.g.g.g.w.w.f.f.f.f.f.w.2.=.2.2.<.f.w.2.;.w.w.w.4.2.4.w.w.w.2.2.w.f.f.r.r.r.g.r.w.f.f.k.z.f.f.f.z.z.x.z.z.z.z.z.z.z.z.z.z.z.z.z.z.z.z.z.f.f.z.z.h.f.f.f.z.z.z.z.k.k.z.x.x.z.f.g.h.l.x.x.l.f.h.h.h.h.j.XX;X;XXX-X-X-X-X-XR.x.].`.^.-X,XpX>Xg.e.t././.^.t.g.j.l.h.h.x.g.w.w.r.r.w.g.g.h.h.f.f.g.w.4.g.l.h.h.g.g.f.l.x.x.x.x.z.g.g.f.g.w.4.w.f.f.l.z.f.f.f.5.w.g.h.h.h.f.g.r.g.h.h.h.h.z.z.z.l.l.g.w.h.x.x.z.z.z.h.f.z.g.g.e.w.g.h.f.h.z.l.h.f.g.f.h.h.g.g.f.z.z.z.z.z.z.z.x.z.h.h.h.h.h.h.h.h.h.g.f.l.l.x.x.x.j.g.g.h.x.0XwXwXx.x.l.l.h.g.f.l.x.l.l.l.l.x.x.l.l.x.x.j.g.t.t.e.g.h.z.x.x.x.z.z.0Xx.z.z.l.l.h.g.z.l.x.h.h.h.z.z.z.z.h.f.h.z.f.h.h.l.g.g.f.z.f.h.z.k.k.k.z.h.z.z.k.f.f.f.a.f.w.w.g.z.9Xz.z.z.z.h.f.f.f.f.f.f.f.f.f.f.f.f.f.k.f.f.f.f.f.f.z.x.z.f.f.z.f.f.f.g.f.5.f.f.h.f.f.f.f.f.f.w.w.w.w.f.f.g.w.4.w.w.g.f.a.f.f.f.f.f.f.g.e.t.t.0.e.e.t.t.t.t.e.e.XX;X,X,X-X^.-X,X-Xx.x.x.x.x.x.x.x.^.^.x.x.x.x.wX0XwXwX0Xx.f.l.0X0Xx.x.x.j.h.h.h.z.x.z.z.z.x.x.0Xx.z.z.x.0X0X9X0Xx.x.l.x.wXx.x.x.x.x.h.h.x.z.z.l.5.2.2.w.f.w.r.4.<.<.<.f.f.f.w.4.4.5.f.f.a.f.w.2.6.2.5.w.f.f.f.f.f.f.g.f.<.f.f.h.f.f.h.(.,X].k.s.a.k.p.p.<.<.,.,.,.<.<.7.f.k.f.h.-X,X>Xx.z.z.l.g.w.2.' 2.",
"0 < 5.] ~ [ ;.<.f.f.f.a.a.f.g.w.w.<.-.-.<.<.-.-.-.-.;.7.f.k.z.z.k.f./.E.g.w.f.w.4.<.f.f.f.f.f.w.4.=...2.4.w.;.[ 2.w.f.g.w.2.2.w.e.2.o.2.5.r.g.g.w.4.w.w.r.r.g.f.g.r.r.g.l.x.x.z.z.z.z.x.z.x.z.f.f.x.z.z.z.z.z.f.f.f.h.h.f.g.f.g.z.x.z.z.f.f.z.x.x.z.w.g.h.x.x.x.x.l.x.x.x.x.-XoXoXoXXXOXXXXXR.R.-X,X,X-X-X<XpX,X>Xx.j.j.-X-X^.t.g.l.x.l.h.l.g.w.w.w.g.g.w.e.g.h.j.h.g.5.5.e.j.j.h.e.w.g.l.x.x.x.x.l.j.l.j.j.e.e.g.w.g.l.x.x.l.l.w.w.r.g.h.g.f.w.w.f.h.z.f.h.h.z.z.f.f.w.w.g.h.x.x.z.z.h.f.g.e.2.2.5.g.h.h.g.g.g.g.g.r.e.g.g.e.h.x.x.z.z.z.z.z.x.l.g.w.g.h.g.h.h.x.h.g.r.g.h.h.x.h.x.j.e.e.j.x.x.yXx.x.x.x.x.g.w.f.x.x.l.l.l.l.l.l.l.h.l.l.j.g.0.e.e.g.h.h.l.l.l.z.z.x.z.z.z.x.(.x.g.h.j.j.g.g.f.z.g.g.g.g.g.g.h.h.f.f.h.r.g.g.f.w.h.z.k.z.z.z.z.z.z.z.f.f.g.f.g.4.4.g.z.x.x.l.x.h.g.f.f.p.p.a.f.f.f.f.f.h.z.z.f.f.f.f.f.f.g.h.z.f.f.f.l.f.f.g.f.g.4.w.g.h.f.f.f.g.w.4.4.w.w.w.g.f.g.4.4.w.g.h.z.h.f.w.f.f.f.f.r.e.e.t.t.^.9.t.t.t.t.t.t.XX;X-X-X^.^.-X,X>Xx.x.x.x.z.z.x.x.^.^.x.].'.wXx.x.wXwXwXz.f.h.x.].x.x.x.h.h.h.l.x.x.z.z.z.x.x.x.x.z.z.x.x.0X0Xx.x.x.h.l.yX].x.x.x.x.l.l.x.h.f.f.;.2.5.e.g.w.w.4.;.-.<.<.f.w.<.4.<.<.<.f.z.h.w.2...2.2.w.4.<.4.f.f.f.f.f.f.f.f.f.w.w.g.j.,X>Xz.p.7.y.p.<.<.-.-.-.,.<.<.<.f.k.k.h.`.,X].z.z.l.h.w.;.' D 2.",
"8 < 2.' m ` =.<.p.f.p.p.f.f.r.w.w.;.9 9 9 0 0 0 8 * 9 -.f.f.z.z.k.f.^.E.e.w.w.w.<.4.w.w.w.r.w.w.2.2...1.2.2.o.' 2.4.w.w.w.2.2.2.2.....o.2.w.g.e.2.2.2.2.2.w.g.w.w.5.w.g.x.x.l.z.z.x.x.l.h.h.h.g.g.l.x.l.x.x.l.f.g.g.g.g.f.g.g.f.z.z.z.z.h.f.h.z.z.z.w.r.h.x.x.x.x.h.h.h.j.^.R..X.XOX.X#XoXoXXXXX-X-X;X;X:X,X>X`.`.>X-Xj.j.-X^.t.r.g.j.j.j.g.w.w.w.w.e.g.g.g.g.g.g.j.w.2.5.e.g.(.j.e.e.g.j.x.x.l.h.h.h.h.g.e.0.e.e.w.w.g.h.j.h.g.e.g.g.g.g.g.g.g.g.f.z.z.f.g.f.h.f.f.g.g.g.g.h.l.z.h.h.g.g.w.w.2.3.e.h.z.h.h.g.g.g.g.e.2.3.0.e.e.g.h.h.g.g.h.x.x.g.w.3.e.e.g.g.j.h.t.e.w.e.w.e.j.g.t.0.0.~.^.x.^.^.(.g.j.j.x.j.e.g.x.x.j.h.h.h.l.x.l.l.h.h.j.e.3.3.t.h.h.h.h.h.h.h.l.l.g.g.g.x.(.(.t.e.0.3.2.3.e.g.g.e.w.w.e.j.j.g.g.g.g.e.0.2.w.4.g.l.z.z.f.h.h.h.h.h.g.w.w.w.w.4.w.g.z.l.x.x.h.h.g.g.f.7.7.f.h.h.f.g.g.h.h.f.h.f.g.w.4.4.w.g.f.f.g.w.g.r.w.w.w.w.4.4.g.h.g.h.h.g.w.4.4.w.w.w.w.f.w.w.w.g.h.h.h.h.e.w.r.g.g.r.e.e.t.Y.Y.Y.Y.R.t.t.R.R.R.R.XXR.^.^.^./.;X-X(.x.x.x.j.h.x.^./.^.^.].].].x.x.'.'.wXx.h.h.x.x.x.x.l.l.h.h.l.x.l.z.f.h.x.x.x.x.x.x.x.x.x.z.x.x.h.g.h.x.].x.x.x.j.h.h.x.g.w.5.5.3.3.e.w.4.2.2.4.;.;.<.w.8.<.4.;.;.;.w.f.g.e.3.o.o.2.5.4.4.4.w.4.w.4.w.g.f.w.w.w.w.g.x.,X>Xl.f.7.<.<.*.r 8 0 0 0 r A [ 7.k.a.h.-X,Xj.f.z.l.g.4.=.W x ..",
"8 > 2.' N ` =.;.w.f.p.f.w.w.e.w.w.-.#   . . o % o . # *.f.f.k.z.k.h.^.E.e.5.5.w.4.w.f.9.w.w.w.5.3.2.2.2.2.2.3.3.5.5.4.2.2.2.2.2.1...O.3.0.e.e.e.3.3.3.3.2.5.e.w.2.2.e.g.j.x.j.g.h.x.j.j.~.j.j.t.t.^.^.^.x.x.j.g.e.e.e.e.g.j.j.j.j.x.x.x.j.j.j.j.j.h.e.t.~.^.x.x.x.x.x.j.^.,XOX.XOX%X#X%X%X%X#X;X;X;X2X3X3X;X-X-X-X-X-X^.t.-X-X/.~.j.~.~.R.R.Y.Y.Y.Y.e.t.~.^.~.t.e.e.e.0.Y.Y.Y.^.^.~.~.j.^.^.x.x.^.x.h.j.g.t.t.t.t.t.R.t.e.e.t.t.g.~.j.g.g.h.h.h.h.h.z.l.h.r.r.g.g.r.g.h.h.g.g.h.h.h.h.f.r.w.e.e.t.j.j.z.x.j.g.e.t.t.e.3.3.Y.R.t.j.j.j.t.e.g.j.~.e.3.3.Y.e.t.~.g.t.e.e.e.3.2.2.0.e.0.3.Y.R.^.(.R.R.Y.0.t.t.~.~.~.~.~.~.j.j.j.g.h.x.x.j.j.g.g.e.3.3.t.g.g.~.j.g.g.g.g.g.t.t.t.t.R.R.Y.K.O.X.X.3.0.e.t.t.0.0.t.^.^.j.~.e.t.L.0.2.2.2.g.x.g.h.g.g.h.h.h.h.g.w.2.2.2.5.g.x.x.x.j.j.g.g.g.j.h.g.r.r.g.j.e.e.e.g.g.g.g.g.g.w.5.w.w.e.f.g.g.e.w.w.e.e.e.e.5.w.g.g.e.g.g.j.e.w.w.w.w.w.w.w.w.e.e.r.g.j.e.e.0.0.e.t.j.R.Y.I.T.E.E.E./.-XR.R.R.R.XXXX-X/.;X;X;X;XOXXX/.(.>X^.^.^.;X;X/.R./.-X>X>Xx.j.x.>Xx.x.x.x.x.x.x.x.x.x.x.h.h.j.j.h.h.j.j.x.x.x.x.x.x.x.x.x.l.z.h.g.h.x.x.x.j.x.^.j.t.^.R.0.0.t.Y.0.0.e.0.3.9.e.e.2.5.w.w.5.4.2.2.w.w.w.e.e.0.3.o.2.5.5.0.2.2.4.w.e.e.w.w.4.w.w.g.g.x.-Xx.h.f.7.<.<.c * . $ $ o o o , *.p.a.h.-X-Xh.f.h.h.w.2.=.' B ..",
"0 > 3..._ ' ' 4.w.f.f.w.w.w.w.e.9.[ * O o % * o % . * -.w.p.k.k.z.j.R.I.0.0.0.5.w.w.w.t.0.e.3.3.3.2.0.L.0.L.Y.Y.Y.0.0.0.0.Y.0.0.0.L.Y.T.T.T.T.T.R.Y.L.L.Y.t.j.e.t.Y.R.R.R./.R.R.^.^./.R.T.E.E.E./././.-X-X/.E.E.T.Y.E././.E.E.E.E.E.E.;X/.E.E.E.E.R.E.U.E.XX-X;X,X;X/.R.oX#X#X*X$X3X%X+X6X6X&X&X$X3X3X3X3X%X$X3X3X$X3X3XoXXXOX1X1X1X#XE.E./.E.#X!.!.E./.;XE.E.T.T.R.E.E.E.E.E.E./.,X,X-X/.R.^.^.(.^.j.g.j.(.>X>Xx.^./.R.t.t.Y.^.~.^.^.^.^.^.x.j.j.h.h.j.t.0.0.t.t.e.t.j.x.(.e.e.e.h.j.g.e.0.t.t.t.t.j.j.j.~.R.Y.Y.L.L.Y.R.~.~.~.~.~.Y.Y.e.e.e.Y.Y.3.H.L.e.Y.Y.L.0.0.L.3.3.3.3.0.0.0.0.0.Y.Y.R.T.L.L.T.Y.Y.Y.Y.Y.Y.Y.Y.R.R.Y.0.e.e.t.t.t.e.0.0.Y.0.0.0.0.Y.0.3.0.e.e.e.3.3.0.L.L.L.L.L.L.0.0.0.e.e.0.0.0.t.Y.Y.Y.Y.Y.Y.e.t.e.e.e.t.Y.Y.Y.R.R.R.R.R.^.^.t.0.2.O.O.3.t.^.(.t.R.R.R.Y.Y.R.R.R.Y.e.Y.Y.~.~.~.Y.t.t.t.Y.Y.e.0.Y.Y.R.R.~.^.R.0.0.Y.^.R.R.R.^.R.T.T.R.E.R.E.R.T.R.Y.e.Y.R.Y.Y.R.E.E.E.R.R.T.P.T.#X1X#X#X+XQ.#X$X$X!.#XOXE.E.oX%X#X#X1X1X3X&X8X$X#X;X;X-X/./././.;XE.E./.;X-X>X^./.^.~.^.(.^.^./.^.^././.;X;X~.e.e.~.~.~.R.R.R.~.^.(.>X].x.j.e.e.g.h.j.x.x.j.~.^.^./.R.R./.E.L.Y.Y.Y.R.Y.Y.~.~.g.Y.Y.Y.L.Y.Y.e.t.t.~.~.j.t.e.e.Y.0.0.0.e.e.0.w.e.e.5.3.0.2.2.e.e.e.e.r.e.j.r.f.f.f.<.-.r % % & < < & - % r p.s.f.^.j.g.f.g.g.5.=.' ..D ..",
"0 : 3...' ' =.4.w.h.h.g.t.r.w.w.2.=., , < 1 1 > * o * *.w.g.f.f.f.j.R.T.0.0.0.0.t.t.t.0.0.0.0.0.3.3.Y.0.3.L.T.Y.Y.0.0.0.0.0.e.t.Y.Y.T.T.T.T.T.R.,X^.Y.Y.Y.g.g.g.e.e.Y.Y.~.^.R.Y.R.~.Y.0.L.t.^.(.^.^.^.^.(.>X^.Y.Y.Y.~.^.~.j.t.~.^.;X;X;XE.L.0.Y.R.t.0.Y.R./.^.>X>X^.^.x.^.-XXXXX:X4X,XR.,X<X:X;X;X;X;X;X4X4X5X3X3X$X$X1XoXXX-X;X;X-XR.Y.0.~.^./.R.R.R.~.^.Y.e.e.t.t.R.^.R.Y.Y.~.^.x.(.^.e.e.e.j.j.g.g.w.e.j.x.x.h.j.h.g.g.g.g.g.j.x.j.h.j.h.h.f.g.f.h.g.e.w.e.e.t.t.t.e.j.g.0.0.e.(.(.g.5.3.0.Y.~.~.g.t.^.~.Y.3.3.0.0.t.j.x.x.x.x.j.j.j.j.g.x.(.e.2.e.j.x.x.x.j.j.^.j.e.e.j.j.j.j.j.j.j.j.^.>X^.e.e.^.x.g.j.j.j.j.j.j.j.j.g.e.w.g.g.j.h.g.g.t.t.t.t.t.t.Y.t.t.g.j.j.g.g.g.j.j.j.j.j.R.t.e.t.g.j.j.t.t.t.j.j.g.t.g.j.j.t.e.t.g.g.j.j.g.j.~.~.t.K.Y.Y.~.~.Y.Y.O.3.0.e.t.e.0.t.j.t.t.t.g.j.e.e.e.e.t.j.^.j.g.e.e.g.g.e.e.t.t.e.t.~.(.>Xt.e.e.t.~.~.^.R.Y.Y.Y.T.T.R.E.E.T.L.T.T.Y.R.T.Y.L.T.E.E.T.T.E.P.C.P.E.1X1X$X#XQ.#X$X$X3X3X%X#X1X2X%X2X2X;X;X2X3X=X3X;X;X>X-Xj.j.(.^.~.~.^.(.x.x.>X^.~.t.e.j.(.x.j.j.(.^.^.^././.R.e.0.Y.Y.t.t.t.t.j.^.(.>X>X(.5.2.5.g.j.x.x.j.g.g.(.(.j.~.~./.~.e.t.j.j.j.t.g.g.h.h.j.t.e.e.e.j.j.g.g.g.g.t.e.e.e.0.0.e.t.e.2.2.e.j.e.2.3.e.e.e.e.w.4.4.5.w.g.w.f.f.f.<.<.r * < z v _ z % $ c 7.p.h.-XR.r.f.f.w.2.2.1...' ..",
"z = 2..._ ' =.;.w.f.g.r.w.w.<.;.2.=.* 8 ' ' W E < o * -.w.f.f.w.w.w.e.3.9.9.w.e.e.e.e.0.0.e.e.e.e.0.0.2.o.3.0.0.0.e.e.0.2.2.e.j.j.e.e.0.Y.Y.Y.t.x.g.e.g.j.h.h.l.h.h.g.g.x.x.x.l.x.x.h.g.g.h.x.x.x.].].x.x.].x.h.h.j.x.x.h.h.l.x.x.(.>X>Xj.e.e.j.x.g.4.g.j.x.(.].x.x.x.x.x.x.j.j.].].x.h.h.x.x.x.].].>X-X-X-X-X-X-XE.R.;X,X>X^.~.j.g.e.5.2.g.j.^.g.g.g.h.j.e.r.g.h.h.g.g.r.r.g.l.x.0Xx.x.h.g.g.h.l.l.h.g.g.f.l.l.x.x.z.z.z.z.h.f.x.x.x.x.l.l.z.z.z.z.z.z.h.h.g.g.g.g.g.g.j.j.j.j.x.x.x.g.w.w.e.h.x.x.x.x.x.].x.j.g.g.g.x.'.wXwXwXwX].wXyXyXyXyXx.r.w.z.wXeXeXeXwXyXyX].j.x.wX].wXyXaXaXyXwXyXiXyXx.].iXaXwXwX].].>X].].yXyXyXx.x.].yXaXaXyX>Xx.x.x.].x.x.j.(.(.>X].].x.'.wXwXwXwXwXwXx.j.h.x.x.>X].x.h.h.x.].x.l.l.z.g.g.g.h.j.j.x.h.h.j.x.x.j.e.e.g.j.j.j.j.e.e.g.h.h.h.h.h.h.h.h.h.g.g.g.g.r.r.g.h.h.g.w.w.f.g.f.f.g.f.g.g.g.g.g.j.g.g.g.g.g.g.h.h.g.w.w.g.g.g.(.g.5.2.5.f.g.g.g.e.w.e.t.t.e.e.0.2.2.e.j.(.^.-XR.R.R.E.XX1X1X;X-X;X;X,X,X>X>Xx.>X>X,X-X-X>X].].x.x.].].x.x.].'.wX'.].].j.g.g.x.>X].x.x.].>X].].x.x.x.x.x.x.x.x.x.x.x.j.x.x.>X>Xx.g.r.g.x.'.'.x.x.x.x.x.x.>X(.j.g.g.g.h.z.h.h.h.h.h.z.z.h.g.w.w.g.h.x.l.f.f.w.w.w.9.e.e.g.g.w.5.2.5.g.j.t.e.e.e.g.g.g.w.4.4.w.r.g.w.f.f.f.7.<.r * _ 0.0.0.2.* % E 8.f.t.R.Y.w.g.w.4.2.2.2.1.' ..",
"c > 2.' _ ' =.2.w.g.w.w.w.e.r.e.e.=.# A -X;XR.Y.m o * ;.w.w.g.h.r.w.w.e.r.r.w.w.e.e.e.t.e.e.e.e.e.r.w.w.5.w.e.w.w.r.g.g.r.r.g.x.x.h.g.j.j.j.j.h.z.z.x.x.x.x.z.'.z.z.z.k.z.qXqXqXwXwX9Xz.z.0Xx.x.wXwXwXwXwXwXwXx.x.x.x.x.x.z.x.x.x.x.l.l.l.z.l.l.l.z.f.z.x.x.x.'.x.x.wXwXx.x.x.x.wXx.0X0Xz.x.0X0XwXwX'.x.x.>X>X-X^.^.^.>X>X>X>X^.j.j.j.j.g.w.h.x.h.h.h.g.j.x.x.x.wX'.x.h.g.g.h.x.0X0Xz.x.x.x.l.h.x.x.f.f.h.l.x.x.x.x.z.z.z.z.f.f.z.9X0X0X0X9X0Xz.z.z.z.x.x.x.l.z.l.f.z.l.l.x.'.wXwXwXz.z.z.z.x.'.wXwXwXwXqXqXwXwXwXwXqXwXwXwXwXwXwXeXeXeXaXaXaXx.f.f.0XwXeXeXeXeXeXaXwX'.wXsXaXsXiXsXsXiXeXiXsXsXsXsXsXsXsXrXsXsXsXaXaXeXeXaXeXeXsXrXsXsXaXaXeXwXwXeXeX0Xx.x.wXwXwXwXwXwXeXeXeXeXeXwXwXwXx.wXwXwXwX].'.'.wXwXwXz.z.k.f.f.z.x.x.x.x.x.x.x.z.z.z.h.h.z.'.'.'.z.z.z.x.0X9X9X9Xz.x.x.x.x.l.f.f.z.l.h.h.z.z.z.g.f.z.z.z.z.z.z.x.l.l.l.f.h.h.l.x.z.z.z.z.z.k.f.f.z.z.x.x.x.f.p.f.z.z.f.f.f.f.z.h.h.h.j.w.;.f.x.x.x.x.x.x.j.j.^.^.~.~.^.^.^.>X>X>X>X>XyXyXyXuX>X>XwXwXwXwXwXwXwXwXwXwXwXwXwXwXwXx.x.x.wXeXwXwXwXwXwXwXeXqXwXeXqXqXqXqXwXwXwX].].].wX'.wX].'.'.qXqXqXwXwXwXwXwXwXwX0XwXx.h.h.x.x.0Xz.z.z.x.x.x.z.z.l.h.f.z.x.wXx.z.f.g.g.r.w.g.x.z.k.f.g.w.w.g.e.g.j.h.h.g.h.h.g.w.w.f.r.r.w.f.f.f.w.y.r * 2.1XoXoXY.% $ ^ w.g.t.I.L.e.g.w.r.w.5.2.1._ o.",
"c = 2.=._ =.2.w.g.h.f.w.t.^.j.t.e.;.# ^ dXfXfX4X' o * ;.g.j.].].h.r.e.j.h.h.g.g.g.g.g.g.g.j.g.g.g.f.g.g.g.r.w.w.w.f.g.f.f.g.f.l.z.z.f.h.h.g.f.z.z.z.z.z.z.z.z.x.x.x.x.z.x.z.x.x.wXwXx.z.x.0Xx.x.wXwXz.wXwXwXwX'.'.x.z.z.x.x.0XwXx.z.z.z.z.x.x.z.z.z.z.'.x.x.z.x.x.x.x.x.l.x.x.x.x.l.x.x.z.z.x.x.x.x.z.h.x.>X>X/./.R.R.Y.t.e.g.j.t.e.j.j.g.g.h.x.x.x.x.h.g.h.x.wXwX0Xx.x.h.h.l.l.x.x.z.z.z.z.z.z.l.h.f.f.h.z.z.x.z.h.z.l.x.z.h.z.9X9XwXwX0X0X0Xz.z.z.z.z.0Xx.z.z.z.z.9X0Xz.z.z.0X0X0X0X0XwXwXwXwXwXwXwX9X'.wXwXwXwXwXwXwXeXeXaXwXwXwXwXaXeXaXaXwXx.0XeXeXeXeXaXaXeXaXaXeXaXaXaXsXsXsXsXiXeXwXaXeXsXsXsXsXsXsXsXsXsXsXeXeXeXeXeXrXsXrXrXsXsXsXeXeXeXeXeXwXx.wXeXeXeXeXrXeXeXeXeXaXeXwXeXeXwXwXeXwXwXwXwXwXwXwXqX9Xz.z.z.x.x.0X0Xx.z.x.x.z.k.k.z.x.x.x.x.0Xx.f.l.l.x.x.x.x.0X0Xz.x.wX0Xz.f.k.z.x.l.z.z.z.z.z.z.z.z.k.f.k.z.z.z.z.z.f.f.h.z.z.z.z.k.k.h.f.f.r.g.h.h.g.h.g.f.h.h.f.f.f.g.g.g.g.g.g.t.e.5.e.x.x.l.x.j.j.j.~.R.Y.t.t.j.R.-X-X>X`.>X>X].>X>X>XyXwXwXwXwXwXwXwXwXwXwXwXwXwXwX'.wXwXwXwXwXwXwXwXwXwXwXwXwXwXwXwXwX'.'.'.qXqXqXwXwXwXwXwXwX0Xx.0XwXwXwXwX0X0X0Xx.x.x.0XwX0Xz.z.x.x.0X0Xx.l.x.x.0Xz.z.z.z.z.z.wXwXz.z.f.h.f.f.f.f.z.9Xz.k.f.w.r.r.w.w.e.j.h.h.z.z.h.f.f.f.j.j.r.g.f.f.f.<.r * 3.6X6X6XXX> * ;.h.x.j.0.0.e.h.f.h.g.w.2.=.` 2.",
"c = 2.' [ =.4.w.f.h.g.g.^.^.g.e.e.<.o 7 t.4X5X4Xm . * <.g.x.].x.h.w.e.-Xx.h.h.h.g.g.g.e.t.t.e.r.g.r.g.g.g.r.w.w.w.g.f.g.h.h.g.h.h.g.g.g.g.g.f.z.wXx.x.x.x.x.wX0Xx.l.x.wXwX0Xx.x.x.wXx.x.x.wXwXwX0Xx.x.wXwXeXeXwXeXwXwXwXz.0XwXwXwXwXwX].].].x.x.x.x.z.z.x.x.z.h.x.x.x.g.w.h.x.x.x.l.h.l.f.f.h.x.x.j.j.x.(.>X>X/.E.Y.Y.L.0.0.g.g.e.e.t.j.g.g.f.z.x.x.h.g.e.g.x.wXwX'.x.l.x.x.x.x.x.x.x.z.z.z.z.x.h.g.h.z.h.h.z.x.0Xh.h.l.x.x.x.0XwX0X0XwXwXwX0Xz.z.z.z.9X0X0Xz.x.0X0XwXwXwX0X0X0X0X0X0XwXwXwXwXwXwXwX0Xx.wXwXwXwXwXwXwXeXeXaXaXeXwXwXwXeXeXaXeXwX0XwXeXeXwXwXaXeXeXaXaXaXsXsXeXsXsXsXsXsXtXtXtXsXsXsXsXsXsXsXsXsXsXsXsXsXsXeXeXrXsXrXrXsXaXaXaXaXaXaXaXaXwXwXeXeXeXeXeXeXeXeXeXwXwXwXeXeXwXwXwXeXwXwXwXwXeXeXwXwXwXwXwXwXx.x.0Xx.l.l.x.x.z.z.x.x.0X0Xx.x.l.f.l.x.h.h.h.x.x.0X0X0XwXx.z.f.z.x.x.z.f.z.z.0X'.qXwX0Xk.f.f.x.0Xz.z.z.k.f.k.z.z.z.z.z.k.h.h.g.e.j.j.g.w.g.g.h.h.h.f.g.g.g.h.g.g.e.w.2.e.t.g.j.x.l.g.e.e.e.t.e.0.e.e.t.R.XXXXj.>X>X>X].].yXwX].0XwXx.x.'.wXwXwXwXwX].].x.x.j.x.x.x.0XwXwXwXeXeXeXwXwXwXwXwXwXwX'.'.wXwXwXwXwXwXwXwXwX0Xx.x.0XwXeXwX0X0Xx.x.x.x.x.wX0Xx.z.z.0X0X0X0Xx.f.f.l.x.z.z.z.z.z.z.x.wX9Xz.z.z.z.z.z.z.z.z.z.f.f.f.g.w.9.2.w.g.z.z.z.z.z.z.f.w.R.-Xt.h.f.f.<.<.$.* ' E.oXXX0.* * ;.f.z.j.q.t.g.x.f.h.g.w.4.=.` 2.",
"c > 2.=.[ ;.4.w.f.l.h.j.^.R.e.e.w.<.2 8 e.1X1X;X( # * <.g.r.h.f.g.r.^.<X(.x.h.j.j.j.e.3.0.e.e.e.e.g.g.g.g.e.r.r.g.h.h.h.g.g.j.j.j.t.j.j.g.g.h.x.0X0Xx.0Xx.x.x.z.z.h.z.wXwXqXqX9XqXwXwXqXwXwXwXwX9XwXeXwXwXwXwXeXeXwX0XwXwXwXwXwXeXwXwXeXwXwX0XwXwX0X0X0XwX'.l.z.x.x.x.g.w.g.x.x.h.h.g.g.h.g.g.g.g.e.g.x.>X-X^.>X^.t.e.e.e.~.(.j.t.t.j.j.(.x.x.wXwXwXx.h.e.g.x.wXwXx.h.x.wX0XwXwX'.x.x.'.wXwXwXx.h.w.h.x.x.x.z.z.z.h.z.x.0X0XwXwXwXx.z.0XwXwXx.z.z.x.0X0XwXwXwXx.x.0XwXwXeXwX'.'.'.wXeXeXwXwXwXwXwXwX].x.wXwXeXeXeXeXeXeXeXeXeXwXwXwXwXeXaXsXeXeXeXeXeXeXaXeXaXaXeXrXsXsXsXsXrXsXsXsXsXsXsXsXsXsXsXsXsXsXsXsXsXsXsXsXaXaXaXaXeXsXsXsXsXsXaXaXaXaXaXeXeXaXaXaXaXsXsXaXsXrXeXeXeXeXeXwXeXeXeXwXwXwX].wXwXwXwXwXwXwXwXqXqX'.qXwXwX0Xx.x.x.x.x.x.wXqXwXwX0Xx.x.'.wX0Xz.z.z.9XwXwXwXwXwXx.x.z.z.0X0Xz.f.x.wXwXwXwXwXwXz.f.h.x.x.x.0XwXx.x.x.x.x.x.x.z.h.z.z.f.h.x.x.f.p.f.z.z.z.z.z.z.f.k.9X9Xz.f.f.g.g.l.h.x.wX0Xx.l.f.g.h.j.t.~.j.~.;X1X;X^.].>X>X>X>XyX>X].wXwXwX].].wXwXeXwXx.h.h.h.g.t.j.x.].wXwXwXwXwXwXeXeXwXqXeXeXwXwXqXqXwXwX'.'.x.x.x.wX'.wX'.'.'.wXwXwXwXwXqXwXwXwXwX0Xx.].x.x.x.x.0XwXx.g.g.l.x.z.z.z.x.z.z.x.0Xz.z.z.z.z.z.f.f.h.h.g.f.f.g.g.w.0.3.5.g.l.x.z.f.l.l.g.w.q.XXt.r.f.f.<.,.%., c 9.@.@.] % , -.p.f.j.XX;Xx.z.k.z.f.g.w.2.' 2.",
"z > w.=.[ ;.;.f.f.h.g.g.g.g.w.w.w.-.# 8 e./.;X/.v % * <.g.g.h.h.h.g.-X;X-Xh.l.h.j.t.e.e.e.e.e.r.g.g.j.g.e.e.g.h.l.l.l.h.h.g.h.l.l.x.x.x.x.x.x.'.x.'.wXx.x.x.x.x.h.h.x.eXeXwXwXwXwXwXwXwXwXwXwXwXwXeXeXeXwXwXwXwXwXwXwXwXwXwXwXwXwXwXwXwXwXwXwXwXwXwXx.0Xx.z.z.x.x.z.x.l.g.f.l.l.h.g.g.g.r.g.g.e.2.5.h.>Xx.x.x.].>X^.t.^.].].].x.j.g.^.x.0X0X0XwXwXx.x.x.x.h.h.x.].l.h.x.x.x.wXx.h.h.x.wXwX0Xx.h.e.w.l.z.z.z.9X0XwXx.z.z.x.wXwXwXaX0Xz.0XwXwX0XwXwXwXwXwXwXwXwX0XwXwXeXeXeXeXwXwXeXeXeXeXwXwXwXwXwXwXwXwXeXwXwXeXeXeXeXeXeXeXeXeXeXsXsXsXaXaXaXaXaXaXaXwXwXeXaXaXaXsXsXsXsXsXsXsXsXsXsXsXsXsXsXsXsXsXsXsXsXsXsXsXsXsXaXaXaXaXeXeXsXsXsXsXsXaXaXaXaXaXaXaXaXaXaXaXaXsXsXeXeXeXeXeXaXaXeXeXeXwX'.x.].wXwXwX0X0XwXwX0X0XwXwX9X9XwXwXwXx.x.0XwXwXwXwXwX0X0X0XwXwXwX0X0X0X0X0XwXwXwXwX0X0XwXwX0X0X0X0Xz.9XwXwXwXwXwX0Xx.z.z.z.0XwXwXwXwXwX'.x.z.9X9Xz.z.z.f.k.z.x.x.l.k.z.x.z.z.x.z.z.z.z.0Xx.z.g.h.h.h.z.z.x.x.x.x.x.x.x.g.j./.>Xj.R.oX3X#XXXx.(.>X>X>X>Xx.].].x.'.wXwXwX0XwX].x.h.h.x.(.j.j.x.wXwXwXx.x.x.wXeXwXwXwXwXeXwXwXwXwXwXeXwXz.z.x.wXwXwXwXwXwXwXwXeXwXwXwXwXwXwXwXwXwXwXx.z.x.wX'.wXx.z.z.f.g.h.z.z.z.z.z.z.z.z.9Xz.z.z.z.z.h.z.f.g.f.f.f.f.f.g.w.w.w.w.g.z.h.h.f.f.f.r.E.%XR.w.p.<.p.,.r * ^ t.`.-Xe.% % -.7.p.h.XX:X].z.z.h.g.f.4.2.' 2.",
"c < w.=.[ =.<.f.z.l.h.g.f.f.7.w.w.-.# 8 e.R.-XR.z % * <.g.h.j.j.j.x.-X:Xj.g.h.h.j.e.e.e.e.e.r.g.e.j.g.g.e.g.j.j.x.x.x.x.h.g.h.x.x.x.].x.x.x.x.wXwXwXwXwXx.x.x.x.x.x.wXwXwXwX0XwXwXwXwXwXwXwXwXwXwXwXwXeXeXeXwXwXwXwXwXwXeXwXwXwXwXwXwXwXwXwXwXwXwXwXwXwXx.z.x.0Xz.x.x.l.h.h.l.l.h.g.g.g.h.l.x.x.h.h.x.].].x.x.].x.x.x.(.>X>X].>Xj.g.j.x.0X0X0XwXx.x.x.x.x.x.l.x.x.l.h.x.x.x.].x.z.z.x.wXwX0Xx.l.g.w.h.x.x.0XwXwXwXx.x.x.wXwXwXwXwX0X0XwXwXwX0X0X0XwXwXwXwXwXwXwXwXwXeXeXeXeXwXwXeXeXaXaXeXwXwXwXwXwXwXeXeXeXeXeXeXeXeXeXeXeXeXeXeXeXsXsXsXsXaXaXaXaXaXeXwXaXaXaXaXeXsXsXsXsXsXeXsXsXsXsXsXsXsXsXsXsXsXsXsXsXsXsXaXaXaXaXaXeXeXeXeXaXaXaXaXaXaXaXaXaXaXaXaXaXaXaXeXeXsXeXeXeXeXeXaXaXeXeXeXeX'.x.x.wXwXwX0X0XwXwXwXwXwX0X0X0X0XwXwXwXwXwXwXwXwXwXwXwX0Xx.x.wXwXwXwXwXwXwXwXwXwXwXwXwXwXwXwXwXwX0X0XwXwXwXwXwXwXwXwXx.z.z.x.wXwX0XwXwXx.z.z.0X0Xx.x.x.l.z.l.x.x.z.z.z.x.x.z.z.z.z.z.z.x.0Xl.h.g.h.x.x.x.x.x.x.x.x.x.x.j.^.^.^.j.j.,X4X4X;XR.;X4X-X-X>X>X].wXwXwXwXwXwXwXwXwXx.x.x.x.x.x.x.x.wXwXwXx.h.z.0XwXwXwXwXwXeXwXwXwXwXwXwXwXx.x.wXwXwXwXwXwXwXwXwXeXwX0XwXwXwXwXwXwXwXwX0Xx.wXwXwXx.z.z.l.l.h.f.z.x.x.'.z.z.z.z.z.z.z.z.z.z.z.f.f.w.f.f.f.f.g.g.g.g.r.w.g.f.f.f.f.f.g.r.U.=XoXr.p.7.<.y.r * ~ e.t.t.9.o % -.7.f.h.XX:X`.z.z.h.g.g.w.2.' 2.",
"c < e.=.[ -.<.f.z.l.h.f.f.a.p.w.w.-.# 0 9.t.R.e.1 o * <.g.h.].>X>X>X-XoXj.e.h.g.e.e.g.h.j.g.g.e.w.e.e.e.e.j.j.x.x.j.x.x.j.g.g.x.x.x.x.wX0X0X0X0XwXwX0X0Xx.x.x.'.wXwXwXwXwXwX0XwXwXwXwXwXwXwXwXwXwXwXwXwXeXeXeXwXwXwXeXeXeXwXwXwXwXwXwXwXwXwXwXwXwXwXwXwX0Xx.x.0X0Xx.l.x.x.x.h.h.g.e.g.x.j.l.x.].'.'.z.'.z.x.x.x.x.x.x.x.~.~.].x.j.e.g.h.x.x.x.x.z.z.x.x.].].z.x.x.x.x.x.x.].x.x.x.x.x.wXwX0Xx.l.g.e.e.j.h.h.l.x.x.x.x.x.wXwXwXwXwXwXwXwXwX0XwX0X0XwXwXwXwXwXwXwXwXwXeXeXeXeXwXwXeXeXaXaXeXwXwXwXwXwXwXaXeXeXeXeXeXeXeXeXeXeXeXeXaXaXaXaXaXaXaXaXaXaXaXaXaXaXaXaXaXeXsXsXsXsXsXeXaXaXsXsXsXsXsXsXaXaXaXsXsXsXsXsXaXaXaXaXaXeXeXeXeXeXaXaXaXaXaXaXaXaXaXaXaXaXaXaXeXeXeXeXeXeXeXeXaXaXeXeXeXeXwX'.'.wXwXwX0X0XwXwXwXwX0X0X0X0X0XwXwXwXwXwXwXwXwXwXwXwX0X0Xx.0XwXwXwXwXwXwXeXwXwXwXwXwXwXwXwXwXwXwXwXwXwXwXwXqX9XqXwX0Xz.x.x.x.0X0X0X0Xx.z.z.z.x.x.x.h.f.f.l.x.x.z.z.z.z.z.z.z.z.f.g.h.l.x.l.h.r.r.g.l.x.x.x.x.x.x.x.x.h.j.R.~.j.x.>X,X>X-XXX%X&X#X/.(.>X].wXwXwXwXwXwXwXqX0X0X0X].x.x.x.].x.'.wXwXwXx.x.0XwXwXwXwXwXwXwXwXwXwXwXwXwXwXwXwXwXwXwXwXwXwXwXwXwXwX0XwXwXwXwXwXwXwXwX0XwXwXwXwXx.x.x.x.x.z.f.z.x.0Xx.x.x.z.z.z.z.z.z.z.z.z.g.w.w.w.f.f.g.g.w.e.e.w.5.w.g.f.f.f.g.g.r.I.%XoXr.f.7.<.<.r % 0 ;.9.9.=.o % *.p.f.h.XXoXx.z.z.z.f.f.4.2._ o.",
"c < w.=.[ -.4.f.z.l.h.f.a.p.p.p.7.*.# 8 2.e.e.9.< o * 7.w.g.x.>X>X>X-XoX^.e.g.g.e.e.g.f.h.h.h.g.w.e.g.g.g.j.j.j.g.g.h.x.x.h.g.h.h.g.x.x.wXwXwXwXwXwXwXwXx.x.x.wXwXwXwXwXwXwXwXwXwXwXwXwXwXwXwXwXwXwXwXwXeXeXeXeXeXwXwXwXwXwXwXwXwXeXwXwXwXwXwXwXwXwXwX].x.x.x.x.x.l.x.x.x.x.h.h.e.3.0.R.^.x.x.x.wX'.z.z.x.x.x.x.x.x.x.j.e.0.g.x.j.g.g.h.0Xx.l.h.l.x.x.0XwX'.x.x.wXx.x.x.x.].x.x.wXwX0X0XwXwXx.x.x.g.e.e.e.g.g.l.x.x.x.wXwXwXwXwXwXwXwXwXwX0X0X0X0XwXwXwXwXwXwXwXwXwXeXeXeXeXwXeXeXaXaXaXeXeXwXeXwXwXwXeXwXwXwXaXaXaXaXaXaXeXaXaXaXaXaXaXaXaXaXaXaXaXaXaXaXaXaXaXaXsXsXsXsXsXsXaXaXaXaXaXaXaXaXsXaXaXaXaXaXsXsXsXaXaXaXaXaXeXeXeXeXeXaXaXaXaXaXaXaXaXaXaXaXaXeXeXeXeXeXeXeXeXeXeXaXaXeXeXeXaXeXwXwXwXwXwX0X0XwXwXwXwX0X0XwXwXx.x.wXwXwXwXwXwXwXwXwXwXwX0X0XwXwXwXwXwXwXwXwXwXwXwXwXwXwXwXwXwXwXwXwXwXwXwXwXqX9XqXwXwX0Xx.0X0X0X0X0X0Xx.9Xz.z.l.f.h.g.g.f.l.x.x.z.x.x.z.f.f.z.z.g.g.g.f.l.l.h.r.w.w.f.x.x.x.x.x.x.x.x.h.t.e.Y.g.x.].>Xx.x.^.1X&XoX^.(.>XwXwXeXwXwXwXwXwXwX0X0X0Xx.g.j.>X].].'.wXwXwXwXwXwXwXqX'.'.wX0Xx.0XwXwXwXwXwXwXwXwXwXwX0XwXwXwX0XwXwXwXwXwXwXwXwXwXwXwXwXwXwXwXwXwX0X0Xx.x.x.l.z.z.x.x.z.x.x.z.z.z.x.z.z.z.z.z.f.g.g.g.f.f.g.r.w.w.w.4.4.w.g.g.g.g.g.w.r.I.OXI.e.f.7.<.,.r o 8 [ ;.2.[ o % *.7.p.h.XXXXj.h.x.l.f.w.;.1._ 2.",
"z > w.=.-.;.4.f.h.h.h.f.f.f.p.7.<.*.# < [ =.2.' : o # <.w.w.r.t.g.j./.-Xj.e.w.w.e.e.g.g.h.h.h.h.e.j.h.h.j.h.h.g.g.g.l.x.x.x.x.x.j.g.j.'.'.x.x.x.x.wXwXwXx.x.wXeXwXwXwXwXwXwXwXwXwXwXwXwXwX0XwXwXwXwXwXwXeXeXeXwXwXwXwXwXwX0Xx.wXwXeXeXwX'.'.wXwXwXwX].h.g.j.j.j.g.f.x.x.z.l.l.h.e.3.3.0.Y.j.j.l.x.x.z.z.x.x.l.x.x.x.^.~.e.0.g.x.j.j.h.h.wX].h.h.x.x.x.wXwXwXx.x.].].x.x.x.x.x.x.wXwXwXx.0X0X'.x.x.x.e.g.g.h.h.z.wXwXwXwXwXwXx.x.wXwXwXwXwX0X9X9X0X9XwXwXwXwXwXwXwXwXeXeXeXeXeXeXeXaXaXeXaXeXeXeXeXwXwXwXwXwXeXaXaXaXeXaXaXeXaXaXaXaXaXaXaXaXaXaXaXaXaXaXaXaXaXaXaXsXeXeXeXeXsXaXaXaXaXaXaXaXaXaXsXaXaXaXaXaXiXiXaXaXaXeXeXeXeXeXeXeXaXaXaXaXaXaXaXaXaXaXaXaXeXeXeXeXeXeXeXeXeXeXaXaXeXwXwXeXaXwXwXwXwXwXwXwXwXwXwXwXwXwXwXwXx.x.wXwXwXwXwXwXwXwXwXwXwXwXwXwXwXwXwXwXwXwXwXwXwXwXx.wXwXwXwXwXwXwXwXwXqXwXwXwXwXwXwXwXwXwXwXwX0X0X9X0X0Xz.z.x.x.h.h.x.l.l.l.l.x.x.l.x.z.f.f.l.z.f.g.g.f.h.h.h.g.r.g.l.x.x.x.x.x.x.x.h.j.t.e.0.j.x.x.x.x.].x.^.-X^.(.].].].yXwXwXwXwXwX'.'.0X0Xx.h.e.h.].].].].wXwXwXwXwXwXwXx.z.z.wXx.z.x.wXwXwXwXwXwXwXwXwX0Xz.0XwXwX0XwXwXwXwXwXwXwXwXwXwXwXwXwXwXwX0Xx.9X0XwX0Xx.x.0X0Xx.0Xz.x.0Xz.z.z.z.z.z.z.z.z.z.l.h.f.f.h.g.r.e.e.w.w.w.w.f.g.g.g.r.w.w.XX2XXXg.f.7.y.<.r o , A ~ ` 0 . * *.7.p.h.-X,X-Xl.z.h.g.4.;.1.' 2.",
"z < w.=.-.;.4.f.f.h.h.g.h.j.g.w.;.*.o # 8 8 8 < . . # <.w.g.f.w.w.g.j.R.t.e.w.w.e.e.g.g.h.h.h.h.h.j.h.h.h.h.j.j.x.x.x.x.x.x.].].x.x.].wXx.z.z.z.x.wXwXwX].x.wXeXwXwXwXwXwXeXwXwXwXwXwXwXwXwXwXwXwXwXwXwXeXeXeXwXwXwXwXwXwX0XwXwXwXeXwXwXwX'.wXwXwXwX].h.g.g.j.g.w.g.l.x.z.z.l.h.g.e.e.0.3.e.g.h.l.z.z.l.z.z.x.x.x.x.j.^.~.j.x.x.x.x.].x.x.>Xj.h.x.x.x.wXwX].x.l.x.].x.x.x.x.x.0XwXwXwXx.x.x.].].x.x.h.h.x.x.x.x.wXwXwXwXwXwXx.x.wXwXwXwXwX0X0Xz.z.qXwXwXwXwXwXwXwXwXeXeXeXeXeXeXaXeXeXwXwXeXeXeXeXwXwXwXeXeXeXaXaXaXeXeXeXeXaXaXaXaXaXaXaXaXaXaXaXaXaXaXeXeXaXaXaXeXeXeXeXeXeXeXaXeXeXeXaXaXaXaXsXaXaXaXaXaXaXaXaXaXeXeXrXeXeXeXeXeXeXeXeXeXeXeXeXeXeXeXaXaXeXeXeXeXeXeXeXeXeXeXaXaXwXwXwXwXwXwXwXwXwXwXwXwXwXwXwXwXwXwXwXwXwXwXwXwXwXwXwXwXwXwXwXwXwXwXwXwXwXwXwXwXwXwXwXwXwXwXx.wXwXwXwXwXwXwXwXwXqX0X0XwXwXwXwXwXwXwXwXwX0X9X9X9Xx.z.z.0X0Xx.z.x.x.l.l.l.x.x.l.x.x.h.h.l.l.z.h.h.h.h.h.h.h.h.x.x.x.x.x.x.h.l.l.x.j.t.0.e.j.x.x.x.x.x.].x.(.x.x.x.x.x.x.].x.x.x.x.0Xx.0Xx.x.h.h.x.wX'.].wX].wX0X'.wXwXwX0X0XwXwXwXx.wXwXeXeXwXwXwXwXwXwXwXx.0Xx.x.wXwXwXwXwXwXwXwXwXwXwXwX0Xx.x.x.x.x.0X0XwX0Xz.9X0XwX0X'.'.0XwXx.z.z.z.z.z.k.k.k.z.z.h.f.f.z.f.r.w.w.e.r.g.g.w.w.w.w.w.w.w.^.:X-Xf.f.7.<.,.r o o , : , *   * *.p.f.h.-X<X>Xl.z.f.f.4.;.1.' 2.",
"M < e.=.[ -.<.w.g.h.g.r.g.^.g.w.;.-..   . . . .   . 2 <.h.h.h.h.h.h.g.t.e.w.e.w.e.r.g.w.e.j.h.h.h.h.z.h.z.x.x.x.x.x.x.x.x.wX].].].>XwXwX0X0X0Xx.x.x.wXwXwX].x.wXwXwXwXwXwXwXwXwXeXwXwXwXwXeXeXeXwXwXwXwXeXeXeXeXwXwXwXeXyXwXwXwXeXeXwXwXwX'.wXwXwXwXwXx.x.x.j.h.h.h.l.x.x.z.h.h.l.j.j.e.0.t.x.l.h.f.h.z.z.z.z.'.x.g.e.x.>X].x.x.x.x.x.l.x.>Xx.x.x.x.x.0Xx.x.l.f.x.x.wXx.l.l.x.wXwXwXwXx.x.x.x.x.x.z.x.x.x.x.x.wXqXwXx.x.wXwXwXwXwXwXwXwXwXwXwXwXwXwXwXwXwXwXwXwXwXwXeXeXeXeXeXaXwXwXwXwXwXwXeXeXeXwXwXeXwXwXwXaXaXaXaXwXeXaXaXaXaXaXaXsXaXaXaXaXaXaXaXeXeXeXaXaXaXeXeXeXeXeXeXeXaXeXeXeXaXaXaXaXaXaXaXeXeXaXaXaXaXeXeXeXeXeXeXeXeXeXeXwXwXwXwXwXwXwXwXwXeXeXeXeXeXeXeXeXeXeXeXeXaXaXwXwXwXwXwXwXwXwXwXwXwXwXwXwXwXwXwXwXwXwXwXwXwXwXwXwXwXwXwXwXeXwXwXwXwXwXwXwXwXwXwXwXwXwXwXwXwXwXwXwXwXwXwXwXwXwXqX0X0X0XwXwXwXwX0XwXwXwX0X9X9X9X0Xz.z.9X0Xx.x.z.x.x.x.x.l.l.l.x.x.x.h.l.l.z.z.z.z.h.h.h.h.l.l.z.x.].].x.l.l.l.x.^.e.3.0.j.x.-X-X^.j.-Xj.].].].x.x.x.j.x.x.x.x.0X0X9Xz.z.x.x.x.0X0X'.'.].].0Xx.'.'.x.x.0X0XwXwXwXwXwXeXwXwXwXwXwXwXwXwXwXwXwXx.z.wXwXwXwXwXwXwXwXwX0XwXwXwXl.h.x.x.'.0X0XwXwX9Xz.0Xx.z.z.z.'.x.x.x.z.z.z.k.k.z.z.z.z.f.f.z.z.h.g.w.w.w.g.h.g.w.4.5.w.w.5.w.g.t.e.f.k.7.p.p.*.o . o . . .   , -.a.f.h.t.t.j.l.l.h.g.w.2.2.' 2.",
"c < e.2.=.-.;.<.w.h.g.w.8.w.8.8.2.^ *   X o . .     ; -.h.p.f.a.a.h.w.w.5.2.2.3.e.e.3.w.e.e.e.w.g.h.f.h.x.x.l.h.h.h.l.x.0Xx.x.x.x.x.x.wXwX9XqXwX0X0Xx.x.wX].wXwXwX'.'.wXwXwXwXwXwXwXwXwXwXwXwXwXwXwXwXwXwXwXwXwXwXeXwXwXwXwXwXwXwXwXwXyX0X0XwXwXwXwX'.x.x.l.z.z.l.l.z.z.x.l.g.g.g.g.e.e.e.e.g.x.z.f.h.l.l.x.x.j.t.0.0.j.x.x.x.x.x.l.x.x.x.j.j.j.l.l.x.x.x.x.h.l.l.0X0Xx.l.l.l.].wX].x.l.l.x.x.l.h.x.l.l.h.j.h.l.wXx.x.wXwX0XwXwXwXwXwX].x.x.wXwXwX0XwXwX0Xx.].wXwXwXeXeXeXeXwXeXwXwXwX0XwXx.x.(.>X].wXwXwXwXwXwXeXaXaXyXyXwXaXaXaXiXiXwX0XwXaXeXeXeXeXeXwXwXaXaXaXeXeXeXaXaXaXeXaXwXeXaXaXaXaXyXuXx.x.yXyXaXaXeXeXeXeXwXwXwXwXwXwXwXwXwXwXwXwXwXwXwXwX0XwXeXeXwXwXwXwXwXeXwXwXaXaXwXx.wXwXwXwXwXwXwXeXwXwXwXx.x.x.x.l.h.x.x.wXwXwX].0X0XwXwXwXwXwXwX0X0X0XeXwXwXwXwXwXwXwXwXwXwXwX0XwXwXwXwX0X0XwX0X9X9X9X9X0XwXwX0X0X0X0Xx.x.z.9XwX0Xz.z.z.z.x.x.x.x.l.x.l.f.f.z.z.x.l.l.z.z.l.l.l.l.f.w.g.z.z.z.x.x.x.l.h.h.j.x.^.R.0.3.9.t.^.^.^.x.x.x.x.x.x.j.x.j.j.g.t.j.x.z.'.wXwX0Xz.z.z.l.l.x.wXwXx.wXx.x.x.l.l.x.0Xx.wXwXwXwXwXwXyXwXwXwX].].x.0XwXwXwXwXl.x.wXwXwX0XwXwXwXx.x.x.0Xx.].x.z.z.x.'.wXwXz.z.z.9Xz.z.z.x.x.x.x.z.z.z.z.z.z.z.k.z.f.i.f.f.z.h.g.w.2.2.w.g.w.2...2.3.2.2.2.0.w.w.f.f.p.<.8.J # . . . . . . 7 -.f.h.h.f.w.f.l.z.z.f.f.2.' ' 2.",
"c < e.2.[ -.;.<.g.h.r.e.j.e.w.w.w.4.;.;.;.-.-.;.=.-.*.7.f.g.f.7.7.w.r.9.2.2.O.o.O.3.3.2.3.e.e.w.w.g.f.f.g.f.h.h.j.j.l.x.x.x.x.x.x.h.h.h.z.x.'.wX0X0Xx.x.x.0XwXwXwXwXx.x.0X0XwXwXwXx.x.x.wX'.wXwXwXwXwXeXwXwXwXwXwXwXeXeXwXwXwXwXwXwXwXx.wXwXwX].].wXx.x.x.x.l.g.f.h.l.l.l.h.g.r.g.r.w.e.e.r.g.h.h.h.h.l.l.z.z.g.t.0.t.x.x.x.x.].x.l.h.j.(.j.j.(.x.l.l.l.l.x.x.x.l.0X0Xx.l.l.l.x.l.l.l.l.x.h.g.h.x.x.l.x.h.f.w.f.z.z.x.0XwXwXwXwXwX'.x.x.x.x.x.0X0X0XwXwXx.x.x.wXwXwXeXwXwXwXwXwXwX].].wX].x.h.(.(.x.wXwX0XwXwXwXwXwXyXx.x.wXeXeXaXaXwXx.x.wXeXwXwXwXwXwXwXwXwXwXeXwXwXyXwXwXwXeXwXwXwXwXwXyXyXx.x.x.x.yXyXwX].].wXwXwXwXaXwXwXeXwXwXwXwXwX].'.wXwXwX].x.wXwXyXwXwXyXaXeXaXwXwX0X0X0XwXwXwXwX0X0X0XwXwXx.wX0Xl.h.x.x.x.l.x.x.wX].].0Xx.0XwXwXwXwXx.x.x.x.0XwXqXqXwXwXwXwXwXwXwXwX0XwXwXwXwXx.z.x.wXwX0Xz.z.x.x.x.0X0XwX0X0Xl.z.x.0X9Xz.z.z.x.x.x.z.z.z.z.x.z.f.g.h.l.x.l.z.z.l.h.h.h.g.r.w.h.z.l.x.z.z.h.h.x.j.j.h.g.e.e.0.w.e.e.w.e.g.x.h.j.x.j.g.h.x.j.t.e.t.j.l.x.x.x.l.x.l.l.l.l.l.x.x.x.x.x.x.x.l.h.x.x.x.wXwXwXwXwXwXwXwXwXwXx.x.x.x.x.z.0X0Xx.x.].wX0Xx.x.x.x.x.x.x.x.x.x.x.l.l.l.x.x.x.l.z.z.z.z.z.z.z.z.z.z.z.z.z.z.z.z.k.h.h.w.5.w.g.h.g.w.w.2.2.2.w.w.2.2.2.........2.2.w.w.f.f.f.<.;.^ ^ ` ^ ~ ` ^ *.<.f.h.z.h.h.g.f.z.z.g.w.2.' ' o.",
"c < t.2.[ -.;.<.f.g.e.j.~.t.r.w.w.<.w.w.w.w.w.w.w.w.4.<.w.4.<.<.4.w.9.2.....{ { { o.3.2.3.3.3.2.4.w.w.g.g.f.g.h.j.r.g.h.l.x.x.x.j.j.h.f.h.x.x.z.z.z.x.x.x.x.wX0XwXx.x.z.x.0Xx.wXx.l.h.l.x.x.x.x.x.z.wXwXwXwXqX9XwXwXwXwX'.x.x.'.'.'.'.z.z.x.].>Xx.h.x.z.x.x.l.g.w.g.l.h.g.g.r.w.w.w.w.w.e.e.g.h.g.g.g.h.x.z.z.r.e.3.e.j.x.x.x.x.x.h.g.g.g.g.j.(.j.j.g.h.l.x.x.x.x.x.l.f.f.h.g.w.g.f.f.g.g.g.g.l.h.h.l.l.g.5.5.g.h.l.x.x.wX0Xx.z.l.h.g.g.x.l.x.z.z.z.x.x.x.l.x.x.x.x.wXwXwXwX0Xx.x.x.x.x.l.g.e.j.j.h.x.].0X0X0Xx.x.x.x.h.x.].wXwXeXaXwXx.x.x.x.x.x.x.x.x.x.].x.l.x.x.x.x.x.x.x.x.x.x.x.].x.x.x.h.x.h.x.(.x.x.x.x.x.x.x.x.0X0X0Xx.x.z.h.h.h.j.x.x.'.x.x.h.h.x.x.x.x.x.wXwXwXx.x.g.g.l.l.l.x.x.l.l.x.'.x.z.0Xx.g.g.j.l.l.l.x.x.x.x.l.l.l.l.x.x.'.x.z.z.x.x.z.'.0XwX0Xz.wXwXwX9X9X9X0X0Xx.x.x.x.z.z.'.'.x.z.z.l.l.x.0X0X0X0Xx.f.f.l.x.z.z.k.z.z.h.f.g.z.z.x.x.h.g.r.h.h.h.h.h.h.h.g.g.g.e.e.2.e.h.l.f.f.z.h.h.g.t.e.r.g.h.x.j.w.w.w.w.w.g.g.t.t.j.j.j.h.h.j.e.0.0.g.j.j.e.e.e.g.j.x.l.h.h.h.x.x.h.h.x.x.l.g.g.x.x.wX0X0X0X0XwXwXwXyX].x.h.h.l.z.z.x.x.h.h.x.x.x.l.h.h.h.h.g.h.x.x.x.x.x.h.g.g.g.g.g.g.g.h.l.z.z.z.z.z.z.z.f.f.f.f.h.f.g.w.2.3.e.e.e.w.2.2.2.2.2.2.5.3.2.o.W D W ..2.2.2.2.4.2.2.2.4.5.5.5.2.4.w.w.4.7.f.h.h.h.f.f.f.f.f.f.4.=.......",
"z > e.1.=.;.;.4.w.w.e.e.e.9.r.w.w.;.;.2.2.2.4.2.2.2.2.4.4.=.2.2.5.5.3.o.{ F F { ....2.3.o...o.2.5.w.g.g.w.w.w.e.g.e.e.g.x.x.j.g.e.g.j.h.f.l.x.z.z.z.h.h.h.f.x.'.x.x.h.z.z.x.x.x.x.l.z.l.x.x.l.x.h.z.l.x.x.'.x.x.x.(.x.j.x.(.x.x.x.].x.j.h.h.j.t.e.e.x.x.x.x.x.h.g.g.g.g.g.g.r.w.w.w.w.e.e.e.e.e.e.e.w.g.x.x.x.g.e.3.e.g.x.x.x.x.j.j.t.0.0.~.(.~.g.e.e.e.h.x.l.x.l.x.g.g.g.g.r.w.w.g.g.g.w.g.g.h.g.g.g.h.w.2.2.e.e.g.h.l.x.l.h.f.e.g.w.r.x.x.x.z.z.l.x.x.j.g.j.l.f.f.x.x.x.x.l.l.l.h.j.j.j.e.5.e.e.w.h.x.x.z.l.l.h.j.g.g.j.x.l.x.wXyXyX>Xh.j.g.e.e.g.g.g.x.x.h.f.h.h.g.e.e.g.j.j.g.g.g.h.x.g.g.j.x.j.g.g.g.j.j.j.h.h.h.x.l.l.x.l.h.g.w.r.r.r.g.h.l.l.f.f.e.e.g.g.h.j.x.x.x.x.j.e.e.g.h.h.h.g.w.w.g.x.l.h.l.g.w.w.g.h.x.x.x.h.h.h.h.h.h.g.g.h.x.h.h.h.z.z.z.z.l.x.z.h.l.x.x.z.z.z.x.l.h.h.l.h.h.z.x.x.z.h.g.f.f.f.x.x.x.l.f.w.w.g.l.x.l.l.h.g.w.w.w.h.l.h.g.g.e.e.g.g.h.l.l.h.g.w.w.w.5.3.3.0.g.g.g.g.h.j.g.w.3.e.w.g.x.>Xx.t.w.2.2.e.g.g.R.e.2.e.^.(.x.j.e.3.3.g.(.g.3.2.9.e.j.].x.h.r.r.h.x.h.h.l.x.^.e.0.g.h.x.x.x.x.x.x.x.>X>X(.g.w.w.g.g.h.j.g.e.w.g.j.h.g.r.g.g.g.e.g.g.h.h.h.h.g.5.e.e.e.5.5.w.w.w.g.h.l.z.z.f.w.4.;.2.5.w.w.e.2...O.O.O.o.............2.2.e.2...W B B { 3.3.2.2.o.' ..=.2.2.2.=.=.2.;.2.;.;.w.g.f.f.f.f.f.f.w.4.2...' ....",
"c > e.1.=.2.4.4.4.w.e.w.2.9.w.w.w.;.=.2.2.2.2.2.2.2.=.1.2.' ' ..o.o...W z B ' ..2.2.2.3.o.{ ..2.2.5.w.w.2.2.1.2.e.e.e.t.j.g.e.2.2.t.j.g.4.w.g.f.g.w.w.w.5.w.g.x.h.r.r.r.g.g.h.x.x.h.h.h.h.e.e.e.w.w.r.e.j.j.(.j.t.0.0.e.~.~.t.t.Y.~.~.t.j.^.^.0.3.K.x.x.x.].x.h.r.5.2.5.t.t.e.e.2.2.0.e.2.2.2.2.2.2.5.e.x.(.x.g.e.3.5.e.g.j.g.j.~.t.0.3.L.Y.e.e.3.3.2.2.e.j.l.h.f.w.5.w.e.e.9.2.2.5.5.5.w.t.g.w.e.e.e.e.w.2.2.2.9.5.w.g.h.j.g.w.2.2.2.2.e.g.g.r.r.e.e.e.e.e.e.e.w.w.h.h.j.j.g.g.e.e.e.g.~.0.2.2.2.2.w.e.h.h.h.g.e.e.3.e.g.e.w.g.h.x.>Xx.e.e.3.3.3.3.e.e.e.t.w.2.2.w.5.2.2.2.3.e.e.2.2.w.e.e.e.0.t.t.e.e.3.0.0.e.t.e.e.e.g.g.e.e.w.2.2.2.2.5.4.w.f.g.e.e.3.3.0.R.~.t.e.e.t.g.Y.3.2.5.e.e.t.e.2.2.e.g.j.g.e.w.2.3.e.g.j.j.g.e.e.w.e.g.t.5.2.5.w.g.g.h.h.f.g.f.r.g.r.w.r.g.g.h.g.g.j.r.w.w.w.f.f.g.g.g.g.g.w.2.2.w.h.l.g.f.4.2.2.2.w.j.h.j.g.e.5.2.e.g.g.e.e.3.3.3.3.e.g.j.h.g.5.2.2.2.6.{ X.3.5.e.g.g.g.g.e.3.2.2.5.g.x.x.g.t.e.2.2.w.e.j.e.2...2.t.(.(.j.e.2.2.e.j.e.2.2.2.w.g.j.h.g.5.w.g.(.(.j.j.g.t.3.O.3.e.g.g.j.g.e.e.j.(.~.Y.3.2.2.e.e.e.e.3.2.o.3.e.e.e.w.e.e.e.5.5.e.g.e.e.e.3.2.3.0.0.3.3.2.2.o.2.g.j.h.f.4.2.1.........2.X.{ { G G } { { { { { ....2.2.2.2.2...D B B ..o.o.o.....o.2.2.2.=.2.=.2.2.2.2.=.4.w.w.w.4.5.4.4.;.1...........",
"c < e.' ' 2.2.2.2.2.2.2.2.2.2.2.;.[ ~ _ ` ` ` ' ' ' D D D x z z x z s s z ( ..2.2.2.2.2...' ....2.2.2.2.2.2.2.2.3.3.3.0.e.e.0.3.3.Y.Y.e.2.2.2.w.e.3.2.o.o.3.e.e.e.9.3.0.0.0.t.t.j.t.t.e.e.3.3.3.3.3.3.3.0.Y.Y.Y.3.3.3.L.R.Y.0.3.0.L.L.Y.R.R.E.T.L.H.Y.j.^.x.g.e.w.2.2.3.0.0.3.2.2.2.0.0.2.o...o.2.2.3.0.j.(.g.w.3.3.3.5.5.0.5.Y.R.Y.3.3.Y.L.3.3.3.3.3.3.e.g.j.g.5.2.2.2.2.2.3.2.3.2.2.o.2.t.e.2.2.3.3.2.2.2.2.2.2...2.2.2.e.0.3.........2.2.2.3.3.3.3.3.2.o.2.3.3.2.e.3.3.e.e.3.3.3.3.0.0.3.o...o.2.2.2.5.e.e.e.2.2.3.3.3.3.2.2.w.e.t.e.3.O.O.O.O.O.O.3.3.3.2.o.o.o.2.o...{ X.3.3.2.o.o.2.o.o.O.3.3.3.3.O.X.3.L.Y.0.2.2.3.3.2.2.o.o.........' ' 2.2.2.2.....3.0.0.O.o.2.3.3.3.o...o.2.3.3.3.O.O.3.3.3.3.2.2.2.o.3.3.3.3.3.2.2.2.2.3.3.o.....o.2.5.e.e.w.2.2.2.2.2.2.2.3.3.5.3.e.0.0.o.o.2.2.2.2.2.2.2.2.o.....2.e.e.5.2.2.o.....2.e.e.t.e.e.3.3.0.2.5.3.3.3.O.O.3.3.e.e.w.2.2.2.2.2.....X.3.3.3.5.3.e.t.0.2...2.2.e.g.e.e.3.e.0.0.3.e.e.0.3.3.3.e.t.j.g.w.2.3.e.e.2.2.2.2.w.e.e.e.e.2.2.e.t.t.0.0.3.3.O.O.O.O.3.e.0.0.0.0.L.Y.0.3.O.X.O.O.3.3.3.O.O.O.O.3.3.O.o.O.3.O.o.o.3.3.3.2.2.O.....O.3.3.O.X...{ O.0.e.e.2...............X.X.} } } } O.L.X.{ { { ' ......2.2.2.2...W B x B B B B N N D _ _ ~ _ V _ ` =.' _ ' 2.=.=.' ' ' _ _ ' ........o.",
"A 8 e.' N _ ' ' ' ' ' ' _ _ V _ ' V 0 8 z z z z z z s s z s s s s s f z N ..2.......o.2.o...3.3.3.3.5.e.0.0.0.0.0.0.Y.Y.0.e.T.T.T.E.E.T.0.0.L.Y.Y.L.L.C.L.L.T.Y.Y.T.Y.Y.Y.T.T.T.E.E.T.Y.L.O.H.L.Y.Y.L.L.L.L.L.L.L.L.L.L././.R.T.E.E.E.E././.E.E.E.E.E.E././.R.Y.Y.Y.Y.L.L.L.0.0.3.3.Y.Y.0.3.3.3.0.0.0.Y.Y.t.t.e.Y.0.0.e.0.Y.Y.R.R.R.R.R./.E.E.R.R.^.Y.Y.Y.~.g.g.t.Y.0.3.3.L.T.T.T.Y.0.0.0.0.0.0.0.0.L.0.e.Y.T.Y.e.L.L.0.0.Y.R.T.T.L.L.L.L.Y.Y.R.R.R.T.T.L.L.L.Y.T.Y.e.0.0.Y.R.R.T.Y.Y.T.Y.Y.T.L.L.L.3.Y.0.Y.Y.Y.Y.L.L.R.T.R.R.R.Y.Y.R.Y.L.L.Y.Y.L.L.L.L.L.L.L.L.0.0.3.L.L.H.H.L.T.Y.Y.L.L.L.L.L.T.T.E.E.Y.L.Y.E.E.T.Y.Y.L.L.H.3.3.L.L.m.O.X.O.0.L.Y.Y.L.K.H.L.Y.L.m.m.3.L.Y.Y.L.L.L.3.3.3.3.L.L.H.3.3.3.0.Y.3.3.3.3.L.0.0.3.3.3.3.0.L.3.3.3.O.3.0.Y.R.Y.3.O.3.3.Y.Y.Y.Y.Y.K.Y.L.T.R.T.L.L.L.Y.L.L.0.0.0.0.3.O.0.Y.0.3.3.3.3.3.3.0.e.e.0.0.Y.Y.Y.0.3.L.Y.Y.0.0.0.0.Y.0.e.e.2.3.3.3.5.3.3.3.0.0.0.0.0.0.0.0.3.3.3.e.e.e.0.0.0.0.0.0.0.e.e.0.0.0.0.0.t.t.e.0.3.0.0.0.0.3.3.0.e.Y.Y.L.L.L.L.L.Y.L.L.L.L.P.P.P.L.L.Y.L.T.T.T.E.E.P.P.P.P.P.P.P.P.T.P.P.P.P.P.P.P.L.L.Y.T.Y.L.L.L.T.T.Y.L.L.L.H.L.L.P.P.Y.L.L.L.L.0.0.0.L.H.H.L.L.P.P.P.E.E.!.U.P.1X4X;XR.L.3...W ' ..2.2.2.2.2.6.' B B x f s < 1 s 1 1 1 1 < 8 8 c z z W ' ' _ _ D W ( _ D F ........",
"r 8 e.` _ ' =.....' ' ..' ' ' ] =.[ ~ ~ ~ ` ` ' _ N m _ _ N _ m ( _ N ..' ....' ' 2.2.2.2.3.0.e.e.3.e.e.5.3.3.3.3.3.3.3.0.3.3.0.0.3.0.3.3.3.3.3.2.............o.2.2.3.3.3.3.2.2.2.2.2.2.....o.3.3.0.0.0.3.3.2.3.3.3.3.3.e.0.0.0.0.e.0.e.e.e.3.0.0.e.0.Y.e.0.3.2.2.2.2.2.' 1.2.2.2.2.3.0.0.3.3.2.2.2.2.2.2.2.3.5.3.3.3.3.5.5.0.0.0.0.0.0.0.0.0.0.0.e.t.t.t.t.t.g.t.Y.t.0.0.Y.Y.Y.Y.Y.e.e.e.e.0.0.e.e.e.e.t.~.^.^.^.Y.Y.Y.Y.~.^.^.R./.^.R.R.^.^.^.~.Y.Y.Y.Y.R.Y.~.~.Y.Y.Y.Y.~.^.~.R.Y.Y.Y.Y.R.^.R.R.R.R.R.e.Y.Y.R.^.R.R.R.^.^.^.R.R.Y.e.0.L.Y.T.Y.Y.Y.Y.Y.Y.Y.Y.Y.Y.Y.L.Y.T.T.T.Y.e.Y.Y.R.Y.Y.Y.Y.Y.Y.R.Y.Y.0.0.Y.~.~.Y.Y.Y.e.e.e.Y.Y.Y.Y.e.Y.Y.R.R.^.R.R.R.R.E.E.E.E.R.R.R.E.E.R.R.R.0.Y.Y.Y.R.R.R.Y.R.R.^.^.^.R.R.^.R.R.R.E.R.T.T.T.E.T.T.T.R.R.R.R.E.R.T.Y.Y.Y.T.R.R.Y.Y.0.0.0.Y.R.Y.0.0.0.Y.e.0.0.0.0.0.3.3.0.Y.0.3.2.3.3.3.0.0.0.e.e.e.e.e.e.0.2.e.R.t.e.0.e.e.e.e.e.e.e.e.e.e.e.e.e.e.e.e.e.e.2.2.2.2.2.1.2.2.2.2.2.2.2.1.2.2.1.1.1.o.2.2.2.2.2.2.2.2.2.2.2.2.2.o...2.2.2.2.2.2.........' ' ......o.2.2.2.2.2.2.2.3.3.3.3.3.3.3.3.3.3.3.2.2.o.o.o.o.o.o.2.2.2.3.3.3.3.3.3.3.2.2.2.2.2.2.2.3.3.3.2.2.2...' ' ' ' ..' ' ..2.2.3.3.3.2.o.o.2.2.e.t.^.^.Y.3.2.' =.2.2.2.5.5.2.=.' _ ~ c c A 0 c m z z c V m ~ N _ ..2.2.2.2.' ' ' ' ' D F B g F ",
"r 8 t.=.' 2.2.2.2...' ' ' =.=.2.2.[ ] -.=.;.;.2.=._ _ [ ' ' ' 2.=.2.' 2.2.2.2...2.2.e.Y.Y.0.2.` 0 > * * % % * * * % o o % o o o o $ $ $ o . . o $ . . . . . . . . o o . o . . . .   . . . . . . o o o o o o o o o . o o % % % % % % % o o o o o $ $ o $ o o . . . . . . . . . . . . o o * * * * % % % % % % % % * * = = * * % % % % % % % % % * * * * * : < < < < < < < : : < < < , < , : : : < < < 8 8 8 8 8 8 8 * * , , , < , < < < < < < < < , : * : > < < < < < > > < < , , * * * , : : : : , , < < < < 1 1 8 8 8 < 8 8 8 8 < < > : : : > > : * * * * * * * * * * * : : : * < < < < < 8 8 < < < , , : > * : < < > > > * * * % * * * * * : : < < < : = : > < < < > > > < < < < < < < < 1 8 8 8 8 z z z c z z 8 8 8 z z s 1 1 1 s s 1 1 1 < > < < < < < > < < 1 8 8 1 < < , , 8 8 < , : : , : : * : > > * * > : * * * , , , < < , : : : * * , : : , < < , : , , , , , , * * * , , , < < , , , , , * * * % % % % % % % o # o o o o % * $ % o o o o o . . . . . . . . . . . . . . . . . .       . . . . . o o o . . . . . o . o o o o o . . . . . . . . . . . . . o o o o o o o o o o o o o o o o o . . . . . . . . . . . . . . . . . .     . . . % * M 2.t.Y.0.2.2.2.2.2.5.5.5.5.4.;.=.;.;.-.;.[ m m ' 2.' ' ' ..2.2.w.5.w.2.' ' ' ' ' D s u x ",
"8 8 t.2.' 2.2.2.2.o.' ' ..o.2.2.=.-.=.;.;.4.4.4.;.-.-.;.2.' =.2.4.4.2.=.4.w.w.9.e.t.~.t.2.0 % . . . O O     O     O O   O O O       O O O O   O     O O                       O       O O O         O     O O O O     . . . . . o . o o O O o # # o X o o o o o o o O O O O O O O O O O O O O O O O O O . o o o o o o o . o . . O O O O .   . . . . . o . . . . . . . O O O O O O O O O       O O         . o .   # # # # # # # . . . . . O O . . . . . . . . . . . . . . . o . . o o o o . o o o o . o . . . . . . .   O O o O O O o o . . o . . o o o o o o o o o . . . o o . . . . . . . . . . O     O . o o # o o o o o O . . . . . . O O O O O O O . o o o o o o o o o # # # o O . . . O O O . . . O O . . O     . . . .   . O . O       . . . . . . .   O O O o O O . o o . O O O . o o o . . O   . O             O . . . . O O O . . . . O O O                               . . . .   O . . O O . . O O O . . . . O O O O O O O . . . . O . O O O O O O O O O O O O O @ O O O O O O O O O o o o o o o o o o O O O o o X . O o o X O O o X X O O O O O   O O O O O O O O O O O X @ O o o o o O o @ @ o o o @ @ o o o o o o o o o o o o o o .   . % c 2.~.R.3.o.1.2.5.e.5.w.w.<.<.w.4.8.w.;.V ~ =.2.2.2.2.2.2.2.5.w.w.4.=.=.' ' ..' z s z ",
"8 < t.2.' 1.2.2.2.2.o.o.o.o.o.2.=.-.=.;.2.w.w.w.4.4.4.w.w.2.2.w.w.f.w.4.4.e.e.e.t.e.o.< % . . # # # # 7 9 7 , 4 2 4 4 2 4 4 4 4 4 4 4 4 4 4 ; ; ; ; 4 4 4 ; # # # # # # # # # ; 4 4 4 7 7 # # # ; 7 7 7 7 ; # ; ; ; ; 7 7 7 7 4 , # # # 4 4 ; # 7 7 7 7 7 7 7 7 7 ; # # # ; # # 4 7 7 7 4 2 2 # # # # # # , * , , 7 7 # # * # # # # # # # # # # # # * * * * * * * gX* # # # # # # # # # # o o # o # # # o o o o o # # # # # # o # * * # # # # # # # # # # # o o o o o o o o o o o o o o o o # # o o o o * # * * * * * # # # * # # # o o o # # * % # # # # # # # # o o o o # # # o # * * # o o o o % * % o % o # % # o o o o o o o o o # # # # # # # o o # # # o # o # # # # # # # # * # # # # # # # # # # # # o # # # # # # # # # # # # # # # # # o o o o # # # o o # # * * * * * % % % # o o o % % o o * * * % o o # % # # # # % % # # # # % % % % # o o o o o o o o o o o o o o o # # o o # # # # # # # # # # # # * , , ; 7 7 7 4 ; # o # # # # 4 4 2 2 2 2 4 ; ; 2 2 4 7 7 7 2 # # # # 2 4 4 4 7 7 7 4 7 7 7 7 7 7 7 7 7 , 7 4 7 7 7 4 4 4 # # # # # ; 7 7 # 2 2 2 # # # # 2 4 4 4 4 4 4 7 4 2 4 4 # # # # # # # # # # # # # # # # # # # o o o o # o . . < _ 0.e.0.2.2.2.5.e.g.f.w.f.f.f.f.g.w.;.=.2.5.2.2.2.3.2.2.5.w.r.w.2.2.=.2.2.1._ m ' ",
"0 < t.2.' ..2.2.2.2.2.o.o...' 2.;.;.;.;.4.w.w.w.w.w.g.g.g.w.w.g.g.g.w.4.2.2.e.0.2.m % . o # 7 7 7 ; , / ;./ r J / *.*.*.J r J %.%.%.J r r r r r r r r J J J r r r J J r e 9 e r %.%.%.J r 9 9 r / / J %.J e 9 9 9 e r r %.%.%.%.r r r r %.&.%.e e #.r %.J J r r r r e 9 9 e r r e e r r e e e e e e e r r r r 9 9 9 9 7 , , * * * * * * * # # # * * , , , * * , gXgXgXgXgXgXgXgXgXgXgXgXgXgXgXgXgXgXgXgXgXgX* * , , , , , : : : : : < , , , , , , , , , , , , , , , , , , : < , , , , , , , < < < < 8 8 < < < < 8 < < 1 < 1 1 < < > * * * > < < > > : : , : < < < < > > < < < < : : : : : : : % % * = * * * * , < < , , * * * * , < < < , , , , , * * * = = = < > < < < < 1 1 1 1 1 < , , , , 8 8 8 8 , , , 9 , : : , , , : : : , , , : : * : > > : * > > < , : : : , < < > > > > < < > > > > > < < < > < < < < > < < < > : * : < < < < > > > > > * * : * * % % * * * * * * * * * * , * * * , , * * * * * * * * * * , , , , 9 9 9 9 9 7 9 9 r r r r r r r r r r r r e r %.*.*.r e e e e r r r J r r r J %.%.J J / / / / / A r e r / / J r J J J r e r J *.*.J J J %.%.J r %.%.*.*.*.J J r r J J r r r e r r e e e r r e 9 e e e 9 9 e r r r 8 7 , , , * # o o * s ..e.0.e.2.2.5.e.w.<.f.f.f.f.f.w.w.4.2.4.4.2.2.3.2.2.2.w.w.w.2.2.2.2...' ' ( _ ",
"0 , e...' ....o.2.2.o.......' 2.2.;.<.;.4.w.w.r.r.w.w.g.h.g.w.g.g.g.4.2.2.2.3.1.1 o o * 9 9 e e 9 9 0 -.;.;.*.-.-.<.<.<.-.-.-.-.,.-.*.*.*.*.*.*.*.*.*.*.*.*.*.*.*.-.-.-./ e / *.-.*.*.*./ r r *.-.-.*.*.*.r 9 9 9 r %.*.*.*.*.*.*.*.*.*.,.,.:.%.%.%.*.*.*.*.*.*.*.*.J J r J *.*.*.*.*.*.*.%.*./ r r r / *.*.*.J 9 # # # # * # # o o o o o o o o o o # # o o o o o gXgXgXgXgXgXgXgXgXgXgXgXgXgXgXgXgXgXgXgXgXgXgXgXgXgXgXgXgXgXgXgXgXgXgXgXgXgXgXgXgXgXgXgXgXgXgXgXgXgXgXgXgXgXgXgXgXgXgXgXgXgXgXgXgXgXgXgXgXgXgXgXgXgXgXgXgXgXgXgXgXgXgXgXgXgXgXgXgXgXgXgXgXgXgXgXgXgXgXgXgXgXgXgXgXgXgXgXgXgXgXgXgXgXgXgXgXgXgXgXgXgXgXgXgXgXgXgXgXgXgXgXgXgXgXgXgXgXgXgXgXgXgXgXgXgXgXgXgXgXgXgXgXgXgXgXgXgXgXgXgXgXgXgXgXgXgXgXgXgXgXgXgXgXgXgXgXgXgXgXgXgXgXgXgXgXgXgXgXgXgXgXgXgXgXgXgXgXgXgXgXgXgXgXgXgXgXgXgXgXgXgXgXgXgXgXgXgXgXgXgXgXgXgXgXgXgXgXgXgXo o gXgXgXgXgXgXgXgXgXo o o o o . . . o o o o o o o o o o o o o o # * * * * , 9 / ^ / r 9 9 r *.*.*.J J *.*.*.*.-.-.*./ *.-.<.-.*./ J / *.*.*.*.-.-.*.-.<.<.<.-.*.<.<.<.-.-.-.-./ -.<.<.-.*.*.*.*.*.%.*.-.<.,.,.,.,.,.,.,.,.<.<.<.<.-.*.*.r J *.-.-.*.*.*.*.*.*.%.*.-.*.%.%.*.*.*.*.-.,.<.<.-./ r 0 r 9 8 9 , * * % , m 2.t.0.2.2.e.w.4.f.f.g.g.f.g.g.w.4.4.4.2...o.o.o.2.2.2.2.2.2.2.2.......W N ",
"0 , 5.' ' ......2.3.o.....o.2.2.2.w.w.w.4.w.w.r.w.4.4.g.h.h.g.f.g.e.2.2.0.3.' < o o 7 r r / *.*./ / ~ / [ [ [ *.*.-.,.-.*.*.-.-.-.*.%.%.%.%.*.*.&.*.&.*.*.*.*.*.*.*.*.*.*.r J *.*.&.*.*.J r r *.-.*.*.%.%.r e e e e r %.%.%.%.J J %.%.%.%.%.%.r %.%.%.%.%.%.%.%.%.%.r r r r #.#.#.%.%.%.r r %.*.J r r r r r r 9 # O                   O o                         gXgXgXgXgXgXgXgXgXgXgXgXgXgXgXgXgXgXgXgXgXgXgXgXgXgXgXgXgXgXgXgXgXgXgXgXgXgXgXgXgXgXgXgXgXgXgXgXgXgXgXgXgXgXgXgXgXgXgXgXgXgXgXgXgXgXgXgXgXgXgXgXgXgXgXgXgXgXgXgXgXgXgXgXgXgXgXgXgXgXgXgXgXgXgXgXgXgXgXgXgXgXgXgXgXgXgXgXgXgXgXgXgXgXgXgXgXgXgXgXgXgXgXgXgXgXgXgXgXgXgXgXgXgXgXgXgXgXgXgXgXgXgXgXgXgXgXgXgXgXgXgXgXgXgXgXgXgXgXgXgXgXgXgXgXgXgXgXgXgXgXgXgXgXgXgXgXgXgXgXgXgXgXgXgXgXgXgXgXgXgXgXgXgXgXgXgXgXgXgXgXgXgXgXgXgXgXgXgXgXgXgXgXgXgXgXgXgXgXgXgXgXgXgXgXgXgXgXgXgXgXgXgXgXgXgXgXgXgXgXgXgXgX                          O .         . o # # * * * 9 e r r r 9 9 r *.*.J J r %.%.%.*.*.*.*.r *.-.-.*./ J r #.%.%.*.*.*.*.*.*.,.,.,.*.*.-.-.-.-.*.*.*.*.*.*.*.*.*.*.%.%.%.r r %.&.&.&.*.*.*.*.*.*.,.,.:.*.*.*.*.%.J &.*.&.*.%.%.%.%.%.%.%.&.&.%.%.%.%.%.%.*.*.*.*.%.J r r 0 0 9 9 9 9 9 7 * * c 2.0.3...2.5.4.w.f.f.f.f.r.w.f.f.f.f.4.' ....o.o.2.2.2.2.2.2.2...{ { D B ",
"0 * w.' ........3.3.....2.2.o.2.5.g.w.w.4.8.w.w.w.w.w.g.h.g.g.w.5.5.3.0.e._ *   o 9 J *.-.-.*.-.-.*.r 9 9 9 9 9 9 e e e e e e e e 9 9 7 7 7 7 9 9 9 7 9 e e q 7 7 7 7 7 9 9 9 9 9 9 9 9 9 7 7 7 7 7 7 7 7 4 7 7 4 # 4 7 7 7 4 4 7 7 7 4 4 4 7 7 7 7 7 7 7 7 7 7 7 7 7 7 7 7 7 7 ; ; 4 ; # # 7 7 , # * , * # # o O O           O     o # ,             O O           gXgXgXgXgXgXgXgXgXgXgXgXgXgXgXgXgXgXgXgXgXgXgXgXgXgXgXgXgXgXgXgXgXgXgXgXgXgXgXgXgXgXgXgXgXgXgXgXgXgXgXgXgXgXgXgXgXgXgXgXgXgXgXgXgXgXgXgXgXgXgXgXgXgXgXgXgXgXgXgXgXgXgXgXgXgXgXgXgXgXgXgXgXgXgXgXgXgXgXgXgXgXgXgXgXgXgXgXgXgXgXgXgXgXgXgXgXgXgXgXgXgXgXgXgXgXgXgXgXgXgXgXgXgXgXgXgXgXgXgXgXgXgXgXgXgXgXgXgXgXgXgXgXgXgXgXgXgXgXgXgXgXgXgXgXgXgXgXgXgXgXgXgXgXgXgXgXgXgXgXgXgXgXgXgXgXgXgXgXgXgXgXgXgXgXgXgXgXgXgXgXgXgXgXgXgXgXgXgXgXgXgXgXgXgXgXgXgXgXgXgXgXgXgXgXgXgXgXgXgXgXgXgXgXgXgXgXgXgXgXgXgXgX            O           # , # . . . # # * , * 7 * * # # * , , ; ; 7 7 7 7 7 7 7 7 9 9 9 9 9 9 9 9 7 7 7 7 7 7 7 9 9 9 9 7 q q q 7 7 7 9 9 9 7 9 9 9 9 9 7 7 7 7 7 7 7 7 5 7 7 7 7 7 7 9 9 7 7 7 7 7 q q 9 e e 9 9 9 7 7 7 7 7 7 4 4 4 7 7 5 5 5 6 6 6 6 6 6 q 7 7 q q 9 9 9 0 0 r %.%.r 8 * * z ..0.O.2.2.w.g.h.h.w.w.f.f.w.f.f.w.4.2.....o.2.2.2.2.2.2.2...{ B B B B ",
"c : e.....2.....3.3...o.2.......2.r.w.2.;.<.8.w.w.g.g.g.h.g.g.w.2.2.Y.L._ *   o 7 r *.*.-.-.*.-.*.r 9 7 # * * , * : : : : , , , > > : * * * : : , * * * * * * % % % % % % % % % % * # # * % * * o # * * % % * % % o % % % % * * * * * * * * % * * % % % % % % * * * * % * * * * * % % % % * * , , , * , * * * #       O     O . O . o * 7 O         O o o   . .     gXgXgXgXgXgXgXgXgXgXgXgXgXgXgXgXgXgXgXgXgXgXgXgXgXgXgXgXgXgXgXgXgXgXgXgXgXgXgXgXgXgXgXgXgXgXgXgXgXgXgXgXgXgXgXgXgXgXgXgXgXgXgXgXgXgXgXgXgXgXgXgXgXgXgXgXgXgXgXgXgXgXgXgXgXgXgXgXgXgXgXgXgXgXgXgXgXgXgXgXgXgXgXgXgXgXgXgXgXgXgXgXgXgXgXgXgXgXgXgXgXgXgXgXgXgXgXgXgXgXgXgXgXgXgXgXgXgXgXgXgXgXgXgXgXgXgXgXgXgXgXgXgXgXgXgXgXgXgXgXgXgXgXgXgXgXgXgXgXgXgXgXgXgXgXgXgXgXgXgXgXgXgXgXgXgXgXgXgXgXgXgXgXgXgXgXgXgXgXgXgXgXgXgXgXgXgXgXgXgXgXgXgXgXgXgXgXgXgXgXgXgXgXgXgXgXgXgXgXgXgXgXgXgXgXgXgXgXgXgXgXgXgXgX  .     . o O O       , 8 , o o o # , # * * o o % # # * * , , , , , , , 9 9 8 , , , , < , , , , , , , , , , , , , , , * * * * * * * % % % % : * : : : * * , , , , , , * * , , , , , , * * * , , * * * , : : : : * * # * # * * * * # * * # # # # # # # # * * * , , # o o , 8 0 ^ -.-.*.A 9 , * 8 ..3.3.2.5.f.g.w.4.w.f.f.f.w.f.4.4.2.2.o.o.2.2.w.w.5.2.3...{ B B B B ",
"A < e.1...2.o.....o.2.2.o.' { ..2.4.4.2.2.<.<.w.r.g.g.h.h.g.w.5...3.Y.o.%   O 4 r %.*.-.*.*.:.*.9 , , 0 _ ........o.X.X.X.....X.X.O.O.O.O.O.3.3.3.O.o.o.o.o.O.o.o.O.3.3.3.3.3.2.o.o.3.3.3.3.3.3.3.3.3.3.3.3.2.2.2.2.3.3.3.3.3.3.3.3.3.0.5.3.3.3.5.5.3.3.3.3.3.3.3.2.2.2.2.2.3.3.5.0.3.3.0.0.0.0.e.e.3.5.5.e.e.2.` *         O . . . # , 9 o     O . o # o . o .   gXgXgXgXgXgXgXgXgXgXgXgXgXgXgXgXgXgXgXgXgXgXgXgXgXgXgXgXgXgXgXgXgXgXgXgXgXgXgXgXgXgXgXgXgXgXgXgXgXgXgXgXgXgXgXgXgXgXgXgXgXgXgXgXgXgXgXgXgXgXgXgXgXgXgXgXgXgXgXgXgXgXgXgXgXgXgXgXgXgXgXgXgXgXgXgXgXgXgXgXgXgXgXgXgXgXgXgXgXgXgXgXgXgXgXgXgXgXgXgXgXgXgXgXgXgXgXgXgXgXgXgXgXgXgXgXgXgXgXgXgXgXgXgXgXgXgXgXgXgXgXgXgXgXgXgXgXgXgXgXgXgXgXgXgXgXgXgXgXgXgXgXgXgXgXgXgXgXgXgXgXgXgXgXgXgXgXgXgXgXgXgXgXgXgXgXgXgXgXgXgXgXgXgXgXgXgXgXgXgXgXgXgXgXgXgXgXgXgXgXgXgXgXgXgXgXgXgXgXgXgXgXgXgXgXgXgXgXgXgXgXgXgXgXgX  o O   o # o o O     7 9 , * * * # * , o o 8 o.2.2.2.5.e.e.Y.0.0.0.Y.Y.Y.Y.0.5.3.3.3.3.3.0.0.3.3.3.0.0.0.0.3.3.3.3.3.3.3.3.5.0.3.3.3.3.3.3.3.3.3.2.3.3.3.3.3.3.3.3.3.3.3.3.3.2.2.2.2...........' ..................1.o.o.' ................{ { { ....{ { F D W N f < * # * , 8 ^ -.-.*./ 9 * * 8 ..3.3.2.2.w.<.<.w.f.f.f.w.4.<.<.2.2.O.....2.e.e.2.2.O.X.{ B B B D ",
"V 8 g.1.....' ' ' o.2.o.........1.2.2.2.4.w.<.4.g.g.g.g.g.f.w.2.o.0...&   O # e %.%.%.*.*.-.*.9 , 8 ] I.oX#XA.m.X.O.O.O.X.} } } } } X.X.X.X.X.O.O.O.X.X.X.X.X.O.O.O.O.3.3.O.O...{ ....X.O.m.O.O.O.O.X.X.X.X.X.......X.O.O.O.X.{ { X.X.3.6.6.........X.X.X.X.o.2.2.2.2.2.o.......o.2.2.2.2.2.2.2.2.2.2.2.2.2.5.t.^.=.,     o o o o o * , 9 #   O o # # * o . % o   gXgXgXgXgXgXgXgXgXgXgXgXgXgXgXgXgXgXgXgXgXgXgXgXgXgXgXgXgXgXgXgXgXgXgXgXgXgXgXgXgXgXgXgXgXgXgXgXgXgXgXgXgXgXgXgXgXgXgXgXgXgXgXgXgXgXgXgXgXgXgXgXgXgXgXgXgXgXgXgXgXgXgXgXgXgXgXgXgXgXgXgXgXgXgXgXgXgXgXgXgXgXgXgXgXgXgXgXgXgXgXgXgXgXgXgXgXgXgXgXgXgXgXgXgXgXgXgXgXgXgXgXgXgXgXgXgXgXgXgXgXgXgXgXgXgXgXgXgXgXgXgXgXgXgXgXgXgXgXgXgXgXgXgXgXgXgXgXgXgXgXgXgXgXgXgXgXgXgXgXgXgXgXgXgXgXgXgXgXgXgXgXgXgXgXgXgXgXgXgXgXgXgXgXgXgXgXgXgXgXgXgXgXgXgXgXgXgXgXgXgXgXgXgXgXgXgXgXgXgXgXgXgXgXgXgXgXgXgXgXgXgXgXgXgX  # .   # , # # o O O 9 A 0 , * * , * , , c g.e.e.2.2.2.3.2.3.3.3.3.3.3.X.3.3.3.3.2...3.3.3.3.3.3.3.3.3.3.3.3.3.O.O.3.3.3.O.3.3.3.O.......X.X.X.X.3.O.O.O.O.O.3.O.3.3.O.O.O.O.L.0.3.O.O.X.....X.O.O.X.X.3.L.L.L.K.3.3.2.3.2.2.3.3.O.O.O.X.X.X.X.X.X.X.X.X.X.O.O.3.3.2.-./ e 7 # 8 ^ -.*.*./ 9 , * z 2.L.3...2.w.w.f.l.l.g.4.4.f.4.2.3.o.} } ..2.2...{ ..X.{ F D D ' ",
"Z 8 g.2.........2.2.o...........2.2.2.2.4.w.4.4.f.g.g.g.g.w.2.2.0.2.< . @ # q r %.%.*.#.*.*.9 , c 2.0.0. .+. .o.o.2.2...' W ' ............' [ [ ` ' ' ' _ _ ' ( _ _ ' ' ' ' W B z z z x B ........W ' _ _ D D D ' ' ........' ' ' ' ..2.2.2.2.;.=.' ' ' =.' [ [ -.;.;.=.=.' ' ' [ ' =.=.-.[ -.=.2.2.=.*.;.2.2.2.2.e.;.*   o # * , * * 8 r ,   . # # * , * . * %   gXgXgXgXgXgXgXgXgXgXgXgXgXgXgXgXgXgXgXgXgXgXgXgXgXgXgXgXgXgXgXgXgXgXgXgXgXgXgXgXgXgXgXgXgXgXgXgXgXgXgXgXgXgXgXgXgXgXgXgXgXgXgXgXgXgXgXgXgXgXgXgXgXgXgXgXgXgXgXgXgXgXgXgXgXgXgXgXgXgXgXgXgXgXgXgXgXgXgXgXgXgXgXgXgXgXgXgXgXgXgXgXgXgXgXgXgXgXgXgXgXgXgXgXgXgXgXgXgXgXgXgXgXgXgXgXgXgXgXgXgXgXgXgXgXgXgXgXgXgXgXgXgXgXgXgXgXgXgXgXgXgXgXgXgXgXgXgXgXgXgXgXgXgXgXgXgXgXgXgXgXgXgXgXgXgXgXgXgXgXgXgXgXgXgXgXgXgXgXgXgXgXgXgXgXgXgXgXgXgXgXgXgXgXgXgXgXgXgXgXgXgXgXgXgXgXgXgXgXgXgXgXgXgXgXgXgXgXgXgXgXgXgXgXgX  * o . 7 8 9 7 # o O r -.^ 0 7 , 7 * * [ g.e.=.2.2.2.2.2.2.2.2.2.2.2.2.=.' 2.w.w.2.' 2.2.2.2.2.2.2.2.2.2.2.2.2.' ' ......' _ _ _ _ _ _ _ ' ' ( W ' ' { X.O.................o.3.2.' ' ' ' ' D D D B N N D ........' _ ` =.=.[ [ [ _ _ ( _ _ _ ( E E E m m M N ' ....2.w.f.7.-.r 9 7 A ^ *.[ / 9 * * m 3.L.o...5.4.f.l.l.g.w.f.f.4.5.2...{ { o.e.2...W ..O...........",
"Z 8 g.2.......2.3.3...{ ........2.2.2.2.4.w.w.w.f.g.g.g.g.5.2.3.3.z . o # 7 r %.%.%.%.*.*.8 , ~ 2.0.o.' ..5.w.f.g.g.g.w.2.2.2.2.4.w.w.w.w.<.<.<.w.w.<.<.;.;.4.;.<.w.w.4.2.2.o.' =.-.-.-.=.2.2.2.2.2.2.w.4.4.4.5.w.5.5.w.w.w.w.w.4.w.w.w.g.z.z.z.f.g.w.g.g.g.f.f.f.h.f.f.g.g.w.w.g.h.h.h.h.g.f.h.h.g.w.w.g.x.x.5.=.2.4.^ ,   * , 8 < 8 0 *.7   o # # , , , % < *     gXgXgXgXgXgXgXgXgXgXgXgXgXgXgXgXgXgXgXgXgXgXgXgXgXgXgXgXgXgXgXgXgXgXgXgXgXgXgXgXgXgXgXgXgXgXgXgXgXgXgXgXgXgXgXgXgXgXgXgXgXgXgXgXgXgXgXgXgXgXgXgXgXgXgXgXgXgXgXgXgXgXgXgXgXgXgXgXgXgXgXgXgXgXgXgXgXgXgXgXgXgXgXgXgXgXgXgXgXgXgXgXgXgXgXgXgXgXgXgXgXgXgXgXgXgXgXgXgXgXgXgXgXgXgXgXgXgXgXgXgXgXgXgXgXgXgXgXgXgXgXgXgXgXgXgXgXgXgXgXgXgXgXgXgXgXgXgXgXgXgXgXgXgXgXgXgXgXgXgXgXgXgXgXgXgXgXgXgXgXgXgXgXgXgXgXgXgXgXgXgXgXgXgXgXgXgXgXgXgXgXgXgXgXgXgXgXgXgXgXgXgXgXgXgXgXgXgXgXgXgXgXgXgXgXgXgXgXgXgXgXgXgXgXgX, * o 9 e 9 7 # O O / <.-.A 0 8 , , *.e.e.=.<.g.l.l.f.g.h.g.g.g.h.x.x.h.g.g.h.j.h.g.w.g.g.g.g.g.g.f.f.g.g.h.g.w.w.w.w.g.r.w.w.w.r.w.w.w.w.w.=.=.;.2.3.3.3.3.w.w.e.e.e.0.0.0.t.t.e.w.e.e.e.2.' ' ' 2.2.2.2.2.2.2.2.;.4.r.g.w.<.w.4.;.;.;.4.4.<.;.;.;.;.-.[ ` 1.2.1.=.-.;.w.g.<.*.e 7 0 / ^ *.r 9 * , _ 0.3.' ' =.4.f.f.w.g.f.f.4.2.2.o...o.3.e.0.o...2.2...........",
"Z 8 g.2.......2.3.3.2...' ....2.5.2.2.2.4.w.w.w.g.h.h.g.w.2.2.e.' % O # 7 9 r %.%.%.%.*.8 8 ` e.e.o.o.2.w.h.g.g.w.g.g.g.g.h.h.g.g.g.w.w.w.w.p.p.f.f.f.w.w.4.w.f.f.g.w.4.2.2.2.2.w.f.p.7.8.4.w.w.2.2.w.f.f.f.g.g.h.g.g.g.h.g.g.r.w.w.w.f.z.0XwXwXx.x.h.h.l.l.z.z.l.x.x.l.l.x.x.h.h.x.x.].x.x.x.x.x.x.h.h.].yXx.f.<.-.-.w.-.o o , 8 8 0 A *.9   o # * , , < % < =     gXgXgXgXgXgXgXgXgXgXgXgXgXgXgXgXgXgXgXgXgXgXgXgXgXgXgXgXgXgXgXgXgXgXgXgXgXgXgXgXgXgXgXgXgXgXgXgXgXgXgXgXgXgXgXgXgXgXgXgXgXgXgXgXgXgXgXgXgXgXgXgXgXgXgXgXgXgXgXgXgXgXgXgXgXgXgXgXgXgXgXgXgXgXgXgXgXgXgXgXgXgXgXgXgXgXgXgXgXgXgXgXgXgXgXgXgXgXgXgXgXgXgXgXgXgXgXgXgXgXgXgXgXgXgXgXgXgXgXgXgXgXgXgXgXgXgXgXgXgXgXgXgXgXgXgXgXgXgXgXgXgXgXgXgXgXgXgXgXgXgXgXgXgXgXgXgXgXgXgXgXgXgXgXgXgXgXgXgXgXgXgXgXgXgXgXgXgXgXgXgXgXgXgXgXgXgXgXgXgXgXgXgXgXgXgXgXgXgXgXgXgXgXgXgXgXgXgXgXgXgXgXgXgXgXgXgXgXgXgXgXgXgXgXgX8 , # 8 e 9 7 # O o *.<.-.^ A 8 , A r.r.=.w.l.x.wX0Xx.l.h.l.h.h.l.x.x.x.x.l.l.x.x.l.h.h.h.l.l.x.x.x.x.x.x.x.x.h.g.h.h.x.h.h.h.h.z.h.g.g.g.r.w.w.w.e.0.3.3.t.h.g.g.g.j.e.t.R.j.j.g.g.g.g.g.e.2.2.w.r.w.w.w.e.w.w.w.8.7.w.g.w.w.f.f.w.w.4.5.w.w.w.4.4.w.w.4.2.2.e.t.0.o...2.w.g.p.,.r 8 0 / *.^ r , * 8 ' 2.o...' ;.4.w.r.g.f.f.4.2.2.2.2.2.2.2.2.2.2.e.2.2...' ' ' ",
"Z < e.o.' ....o.o.3.3.2.=.=.2.2.2.2.1.2.w.w.w.g.f.f.g.w.2.2.e.2.8 . # # 9 9 r r r *.r e 8 ~ e.Y.3.o.o.9.r.g.g.e.9.9.r.g.h.h.h.h.h.g.w.w.w.f.f.p.f.f.f.g.w.w.8.f.h.h.g.4.2.2.2.w.g.z.z.h.f.g.g.e.e.w.g.h.z.h.h.x.x.j.h.h.h.h.h.h.h.h.h.l.x.wXwXwXx.x.x.x.x.x.].wX].wXwX].].].>X>Xx.x.x.>X].x.].].yXyX].].wX].l.f.f.w.;.4.w.r o % < 8 A ^ -.9   o , , 7 8 < % z <       gXgXgXgXgXgXgXgXgXgXgXgXgXgXgXgXgXgXgXgXgXgXgXgXgXgXgXgXgXgXgXgXgXgXgXgXgXgXgXgXgXgXgXgXgXgXgXgXgXgXgXgXgXgXgXgXgXgXgXgXgXgXgXgXgXgXgXgXgXgXgXgXgXgXgXgXgXgXgXgXgXgXgXgXgXgXgXgXgXgXgXgXgXgXgXgXgXgXgXgXgXgXgXgXgXgXgXgXgXgXgXgXgXgXgXgXgXgXgXgXgXgXgXgXgXgXgXgXgXgXgXgXgXgXgXgXgXgXgXgXgXgXgXgXgXgXgXgXgXgXgXgXgXgXgXgXgXgXgXgXgXgXgXgXgXgXgXgXgXgXgXgXgXgXgXgXgXgXgXgXgXgXgXgXgXgXgXgXgXgXgXgXgXgXgXgXgXgXgXgXgXgXgXgXgXgXgXgXgXgXgXgXgXgXgXgXgXgXgXgXgXgXgXgXgXgXgXgXgXgXgXgXgXgXgXgXgXgXgXgXgXgXgXgX0 < * 9 e 9 7 # O o *.<.-.^ c 8 8 2.g.w.w.h.x.0XwXwXwXwXx.wXx.x.x.x.wXwX].x.x.x.x.x.x.x.x.x.x.x.].wXwXyXyXyXyX].x.x.x.x.x.x.x.x.x.].x.h.j.x.g.g.r.^.R.3.0.~.>Xx.x.x.^.^.~.~.j.j.h.h.h.g.g.w.w.g.g.r.w.w.w.w.w.w.w.f.w.w.r.w.f.h.h.f.g.w.w.r.r.w.w.w.w.g.r.w.2.9.e.e.0.3.o.o.w.f.f.<.r 9 0 ^ -.A 9 # * 0 2.2...] 2.w.f.f.g.f.w.4.2.2.2.2.1.2.2.2.2.w.e.5.2...D N ' ",
"^ < t...( ....o.O.O.2.2.2.;.2.2.;.2.5.w.r.g.g.h.h.f.g.w.2.3.e.` * o , 7 9 r / r r *.r e c 2.Y.0.o.2.2.w.g.g.g.e.0.2.9.g.g.g.g.g.h.g.w.w.f.f.f.f.f.f.h.g.w.w.w.f.h.h.r.4.2.e.w.g.h.z.z.z.z.g.g.e.e.e.g.h.x.x.j.j.x.x.x.x.x.h.h.h.x.x.x.x.0XwXwXwXx.x.>X].yXwXwXwX'.wXwXwXwXyXyX>Xx.x.x.x.].].wXwXyXyXwXwXwXx.l.h.h.h.<.<.r.4.* % < 0 A [ -.9   # , 8 8 0 8 % z <       gXgXgXgXgXgXgXgXgXgXgXgXgXgXgXgXgXgXgXgXgXgXgXgXgXgXgXgXgXgXgXgXgXgXgXgXgXgXgXgXgXgXgXgXgXgXgXgXgXgXgXgXgXgXgXgXgXgXgXgXgXgXgXgXgXgXgXgXgXgXgXgXgXgXgXgXgXgXgXgXgXgXgXgXgXgXgXgXgXgXgXgXgXgXgXgXgXgXgXgXgXgXgXgXgXgXgXgXgXgXgXgXgXgXgXgXgXgXgXgXgXgXgXgXgXgXgXgXgXgXgXgXgXgXgXgXgXgXgXgXgXgXgXgXgXgXgXgXgXgXgXgXgXgXgXgXgXgXgXgXgXgXgXgXgXgXgXgXgXgXgXgXgXgXgXgXgXgXgXgXgXgXgXgXgXgXgXgXgXgXgXgXgXgXgXgXgXgXgXgXgXgXgXgXgXgXgXgXgXgXgXgXgXgXgXgXgXgXgXgXgXgXgXgXgXgXgXgXgXgXgXgXgXgXgXgXgXgXgXgXgXgXgXgXA 8 * c A 9 9 , o o ` 4.-.^ c 8 c r.g.r.h.x.wXwXwXwXwXwXwXwXwXwXx.x.wX].x.x.l.x.x.x.x.x.x.x.x.wXyXaXyXyXyXaXyXyXyXyX].].wXx.0XwXwXyX].j.x.x.x.x.g.^.Y.L.0.j.x.>Xx.j.^.^.~.j.j.x.j.h.h.h.g.w.g.j.g.f.g.g.r.r.r.g.f.h.g.w.w.w.g.f.f.h.g.8.w.r.w.w.w.w.w.w.w.w.e.e.j.j.e.0.0.2.2.w.f.p.<.J 0 r ^ ^ e , # 7 -.3.O...2.g.f.p.g.f.w.4.5.2.2.2.....2.5.5.2.5.2.o.' N N ' ",
"^ < t.o.......3.3.O...2.w.4.2.2.4.w.w.w.w.g.g.g.h.h.g.w.5.0.2.8 % , 7 8 9 / *.r r r *.r _ 0.L...' 2.w.w.w.g.g.g.e.2.3.e.r.w.w.w.r.w.w.w.g.f.f.g.g.g.g.r.w.w.w.w.g.r.w.2.2.e.g.g.g.f.z.h.f.g.e.e.e.g.h.h.l.l.x.x.x.j.x.x.x.x.h.h.x.x.x.x.wXwX0Xx.x.x.(.(.yXyXyXyXwXwXwXyXyXuXyXyX>Xx.x.x.x.yXyXwXyXeXwXwXwX].x.z.x.x.g.8.w.g.r * 8 c A / <.9   , 8 0 0 A 0 = x <       gXgXgXgXgXgXgXgXgXgXgXgXgXgXgXgXgXgXgXgXgXgXgXgXgXgXgXgXgXgXgXgXgXgXgXgXgXgXgXgXgXgXgXgXgXgXgXgXgXgXgXgXgXgXgXgXgXgXgXgXgXgXgXgXgXgXgXgXgXgXgXgXgXgXgXgXgXgXgXgXgXgXgXgXgXgXgXgXgXgXgXgXgXgXgXgXgXgXgXgXgXgXgXgXgXgXgXgXgXgXgXgXgXgXgXgXgXgXgXgXgXgXgXgXgXgXgXgXgXgXgXgXgXgXgXgXgXgXgXgXgXgXgXgXgXgXgXgXgXgXgXgXgXgXgXgXgXgXgXgXgXgXgXgXgXgXgXgXgXgXgXgXgXgXgXgXgXgXgXgXgXgXgXgXgXgXgXgXgXgXgXgXgXgXgXgXgXgXgXgXgXgXgXgXgXgXgXgXgXgXgXgXgXgXgXgXgXgXgXgXgXgXgXgXgXgXgXgXgXgXgXgXgXgXgXgXgXgXgXgXgXgXgXgXgX8 * Z *.A 9 9 * * ;.w.;.` 0 8 ^ h.h.h.x.>Xx.wXwXyXyXwXaXaXaXwX].].wXwXx.l.l.x.x.x.x.x.x.x.].yXaXaXyX].wXyXyXwXyXyX>Xx.x.x.wXyXyXx.(.x.j.j.x.(.x.j.Y.Y.Y.j.x.x.x.~.^.~.t.t.j.j.j.j.j.j.e.e.j.j.h.g.e.g.e.w.r.h.x.x.g.w.w.w.f.g.f.g.w.w.w.w.w.w.w.w.w.w.w.r.t.t.j.j.r.9.0.3.o.;.w.f.p.<./ 8 0 -./ 9 * * r 2.3.o.2.f.f.h.h.f.f.w.5.5.2.2.....3.3.2.o.2.2.6...D N ..",
"^ < t.2...O.3.O.3.X...2.2.2.1.=.4.w.9.2.4.w.g.g.h.g.g.w.e.t._ * * 9 9 e / *./ r -.*.*.0 2.L.O...o.2.w.w.f.h.h.e.3.3.3.3.w.w.4.w.w.w.w.w.g.f.f.g.w.w.w.w.w.w.e.w.r.r.e.e.3.e.j.g.g.g.g.g.g.w.e.t.t.g.g.h.x.x.x.x.x.j.x.x.x.x.x.x.x.x.x.].wXx.z.l.x.>Xx.x.yXyXyXwXwXwXwXwXyXyXyX>X>Xx.x.x.x.wXwX].wXwXaXaXeX].x.x.x.x.h.7.8.g.-., 8 V A ^ 4.9   , 9 0 A ^ c > x >     gXgXgXgXgXgXgXgXgXgXgXgXgXgXgXgXgXgXgXgXgXgXgXgXgXgXgXgXgXgXgXgXgXgXgXgXgXgXgXgXgXgXgXgXgXgXgXgXgXgXgXgXgXgXgXgXgXgXgXgXgXgXgXgXgXgXgXgXgXgXgXgXgXgXgXgXgXgXgXgXgXgXgXgXgXgXgXgXgXgXgXgXgXgXgXgXgXgXgXgXgXgXgXgXgXgXgXgXgXgXgXgXgXgXgXgXgXgXgXgXgXgXgXgXgXgXgXgXgXgXgXgXgXgXgXgXgXgXgXgXgXgXgXgXgXgXgXgXgXgXgXgXgXgXgXgXgXgXgXgXgXgXgXgXgXgXgXgXgXgXgXgXgXgXgXgXgXgXgXgXgXgXgXgXgXgXgXgXgXgXgXgXgXgXgXgXgXgXgXgXgXgXgXgXgXgXgXgXgXgXgXgXgXgXgXgXgXgXgXgXgXgXgXgXgXgXgXgXgXgXgXgXgXgXgXgXgXgXgXgXgXgXgXgXgXgXz , *.-.*.r 8 , , w.j.2.^ 8 , -.x.h.x.wXwXwXwXwXyXwXwXyXwXwXwX0Xx.x.].].x.x.x.x.x.x.x.x.].aXaXaXwXwX].].yXaXaXaXyXwX0Xx.wXwXx.x.e.^.^.e.w.e.j.x.t.Y.R.R.j.g.j.j.t.t.t.e.t.t.g.g.g.g.g.e.e.j.j.g.w.w.e.e.w.w.h.x.h.w.w.w.w.w.g.h.g.r.w.4.<.4.4.w.g.w.w.w.g.e.e.w.w.g.e.e.e.0.2.;.p.p.p.<.9 , ^ ^ 0 9 # , =.3.o.1.4.f.h.h.f.w.w.5.2.o...' ..2.3.....o.3.2...' ' ..",
"^ < t.2...O.2.o.3.3...o.2.=.1.2.w.r.9.2.5.g.g.g.h.h.e.5.e.e.8 * 7 9 9 r *./ r *.<.<./ 1 o.O.{ ..2.=.<.w.g.h.e.2.3.O...o.2.4.4.4.2.2.4.w.f.f.g.g.w.2.=.2.2.2.2.5.w.9.w.e.9.0.e.e.w.w.4.4.4.2.2.e.j.g.g.j.x.x.x.j.h.h.h.h.h.h.h.h.x.x.h.x.x.l.f.f.x.(.x.].>XyXyXwXwXwXwXwXwXwX].].].x.x.x.wXwXwX].].wXeXaXeXwXx.x.x.x.l.f.7.h.<., 8 V A -.w.9 o 9 r A Z *.c < v <     gXgXgXgXgXgXgXgXgXgXgXgXgXgXgXgXgXgXgXgXgXgXgXgXgXgXgXgXgXgXgXgXgXgXgXgXgXgXgXgXgXgXgXgXgXgXgXgXgXgXgXgXgXgXgXgXgXgXgXgXgXgXgXgXgXgXgXgXgXgXgXgXgXgXgXgXgXgXgXgXgXgXgXgXgXgXgXgXgXgXgXgXgXgXgXgXgXgXgXgXgXgXgXgXgXgXgXgXgXgXgXgXgXgXgXgXgXgXgXgXgXgXgXgXgXgXgXgXgXgXgXgXgXgXgXgXgXgXgXgXgXgXgXgXgXgXgXgXgXgXgXgXgXgXgXgXgXgXgXgXgXgXgXgXgXgXgXgXgXgXgXgXgXgXgXgXgXgXgXgXgXgXgXgXgXgXgXgXgXgXgXgXgXgXgXgXgXgXgXgXgXgXgXgXgXgXgXgXgXgXgXgXgXgXgXgXgXgXgXgXgXgXgXgXgXgXgXgXgXgXgXgXgXgXgXgXgXgXgXgXgXgXgXgXgXD M 8 -.<.-.r e , 7 g.(.4.` 8 < -.>X].wXwXwXyXwXwXyXwXwXwXx.x.x.x.x.x.x.x.x.x.x.x.l.l.l.l.x.wXaXyXwX].>X>XyXaXiXyXwX0X0X0XwXx.z.f.e.j.j.e.w.w.e.r.e.t.Y.R.j.g.j.t.e.0.e.e.e.t.g.e.e.e.e.w.w.e.r.w.2.2.2.2.2.w.g.g.w.4.w.w.w.4.w.r.r.r.4.4.;.;.4.w.g.r.w.w.w.w.9.2.;.w.e.2.0.e.o.=.f.p.p.p.*., 8 / A 0 , # ~ 0.o...4.f.f.r.w.4.w.9.2.....2.2.6.....X.o.2.2.....' o.",
"` < t.2...o.o...3.Y.2.2.2.2.4.4.w.w.w.e.g.h.f.f.g.g.4.2.0.2.* * 7 9 r / ^ r J ,.-.-.r D O.X.X.2.2.2.4.w.g.w.5.2.3.O.....2.4.;.=.2.2.2.w.w.f.g.r.w.2.=.2.2.2.2.2.2.2.4.5.5.5.5.5.5.4.4.4.4.2.2.w.e.x.x.j.j.j.j.j.g.h.h.h.h.g.g.g.h.j.x.l.x.l.h.h.j.x.x.].>X>XyXyXyXyX].].].x.x.x.x.x.].].].].].].yXyXeXwXwXwXwXx.x.x.x.f.f.l.-.* 8 V ^ ;.g.8 o 9 A ^ *.-.c < N <   gXgXgXgXgXgXgXgXgXgXgXgXgXgXgXgXgXgXgXgXgXgXgXgXgXgXgXgXgXgXgXgXgXgXgXgXgXgXgXgXgXgXgXgXgXgXgXgXgXgXgXgXgXgXgXgXgXgXgXgXgXgXgXgXgXgXgXgXgXgXgXgXgXgXgXgXgXgXgXgXgXgXgXgXgXgXgXgXgXgXgXgXgXgXgXgXgXgXgXgXgXgXgXgXgXgXgXgXgXgXgXgXgXgXgXgXgXgXgXgXgXgXgXgXgXgXgXgXgXgXgXgXgXgXgXgXgXgXgXgXgXgXgXgXgXgXgXgXgXgXgXgXgXgXgXgXgXgXgXgXgXgXgXgXgXgXgXgXgXgXgXgXgXgXgXgXgXgXgXgXgXgXgXgXgXgXgXgXgXgXgXgXgXgXgXgXgXgXgXgXgXgXgXgXgXgXgXgXgXgXgXgXgXgXgXgXgXgXgXgXgXgXgXgXgXgXgXgXgXgXgXgXgXgXgXgXgXgXgXgXgXgXgXgXgXgX_ M 8 =.<.-.%.r 7 7 g.(.4.[ 0 < ^ >XyXwX].yXwXwXwXwXwXwXwXyXx.x.x.x.x.x.x.x.x.x.x.h.f.f.h.l.x.x.yXyXuXuXyX>XyXyX].x.x.x.x.x.x.l.h.~.t.e.e.e.e.e.w.w.t.t.g.(.x.j.t.e.e.t.j.j.j.g.g.e.w.w.5.w.r.w.w.4.4.2.2.2.4.w.w.w.5.e.2.2.2.4.w.w.w.w.5.2.2.w.w.e.e.g.e.4.2.9.2.2.r.t.e.t.t.2.2.f.f.p.p.<.9 * r A 8 , # c 0.O.o.4.f.w.w.4.5.w.w.2...2.w.e.3.2.3.3.3.o.....W ' o.",
"` < t.2.o.2.2.2.0.Y.3.2.4.w.w.w.w.e.e.t.j.x.h.f.w.w.2...3.` * * 7 9 e / 0 r *.,.*.*.r D O...o.2.2.o.2.w.w.2.2.2.o.......=.;.=.=.' =.' -.-.=.-.;.-.` ~ ` [ -.-.=.-.-.;.;.;.;.;.;.=.=.-.-.;.=.[ [ -.;.<.<.;.;.;.;.;.<.<.<.<.-.-.-.;.<.4.<.4.w.4.w.w.r.w.w.w.w.r.g.g.g.w.w.w.w.w.w.4.4.w.w.w.w.w.g.h.x.wXwXwXwXwXwX0Xx.x.h.f.z.*.* 0 V ^ <.g.9 o 9 A ^ -.;.m < D <   gXgXgXgXgXgXgXgXgXgXgXgXgXgXgXgXgXgXgXgXgXgXgXgXgXgXgXgXgXgXgXgXgXgXgXgXgXgXgXgXgXgXgXgXgXgXgXgXgXgXgXgXgXgXgXgXgXgXgXgXgXgXgXgXgXgXgXgXgXgXgXgXgXgXgXgXgXgXgXgXgXgXgXgXgXgXgXgXgXgXgXgXgXgXgXgXgXgXgXgXgXgXgXgXgXgXgXgXgXgXgXgXgXgXgXgXgXgXgXgXgXgXgXgXgXgXgXgXgXgXgXgXgXgXgXgXgXgXgXgXgXgXgXgXgXgXgXgXgXgXgXgXgXgXgXgXgXgXgXgXgXgXgXgXgXgXgXgXgXgXgXgXgXgXgXgXgXgXgXgXgXgXgXgXgXgXgXgXgXgXgXgXgXgXgXgXgXgXgXgXgXgXgXgXgXgXgXgXgXgXgXgXgXgXgXgXgXgXgXgXgXgXgXgXgXgXgXgXgXgXgXgXgXgXgXgXgXgXgXgXgXgXgXgXgXgX' M < -.<.<.*.r , 7 g.(.2.-.c > ~ x.wXwXwXyXwXwXwXwXwXwXwX(.h.w.<.<.<.4.w.w.w.w.w.<.<.<.<.<.<.<.f.f.g.h.g.g.g.r.r.w.w.w.w.w.5.4.4.2.2.' =.=.=.-.[ [ [ ' =.;.2.;.2.;.=.2.4.4.<.<.;.-.-.-.=.-.;.;.;.;.;.;.=.=.=.=.=.;.;.2.2.o.=.;.;.2.2.2.;.;.=.=.;.2.2.4.5.e.e.0.e.e.e.t.R.e.e.2.=.f.z.z.s.p./ * 9 0 8 7 # , 2.C.o.5.f.f.w.w.f.g.r.9.2.2.5.e.e.2.e.t.e.2.....D ' o.",
"` < g.2.2.2.2.2.e.Y.e.w.w.w.r.w.e.e.e.t.x.x.x.g.w.w.2...3._ < , 9 8 9 9 , / <.,.<.*.A ' Y.3.o.2.2.2.2.2.2.2.2...( z f z c c c z z z z z 8 8 0 1 8 < 1 1 0 c c c 0 0 0 c c c m c c c r r 0 0 c 0 0 0 0 0 0 0 0 c V ~ ~ A r r 0 r A A A / / ^ *.*.[ ;.-.-.-.-.-.;.;.2.2.=.=.=.-.-.-.-.-.*.^ -.-.;.2.w.l.wXwXwXwXwXwX0Xx.z.z.z.A * 0 Z ^ <.g.8 o 9 A ^ -.;.V < W 1   gXgXgXgXgXgXgXgXgXgXgXgXgXgXgXgXgXgXgXgXgXgXgXgXgXgXgXgXgXgXgXgXgXgXgXgXgXgXgXgXgXgXgXgXgXgXgXgXgXgXgXgXgXgXgXgXgXgXgXgXgXgXgXgXgXgXgXgXgXgXgXgXgXgXgXgXgXgXgXgXgXgXgXgXgXgXgXgXgXgXgXgXgXgXgXgXgXgXgXgXgXgXgXgXgXgXgXgXgXgXgXgXgXgXgXgXgXgXgXgXgXgXgXgXgXgXgXgXgXgXgXgXgXgXgXgXgXgXgXgXgXgXgXgXgXgXgXgXgXgXgXgXgXgXgXgXgXgXgXgXgXgXgXgXgXgXgXgXgXgXgXgXgXgXgXgXgXgXgXgXgXgXgXgXgXgXgXgXgXgXgXgXgXgXgXgXgXgXgXgXgXgXgXgXgXgXgXgXgXgXgXgXgXgXgXgXgXgXgXgXgXgXgXgXgXgXgXgXgXgXgXgXgXgXgXgXgXgXgXgXgXgXgXgXgXgX' M < -.f.<.*.e , 7 j.(.4.-.c < A x.wXwXaXaXaXwXwXwXwXwXx.w.;.^ A ~ ^ ^ ^ ^ ^ / ~ J J r / / J r A *.*.*.*.^ / ~ ^ ~ ~ _ [ _ V m m A A c r 0 0 r r 0 0 c c c A r A ~ c ~ ~ A A A r r r r r A c A A A A c c V V c c A c c z z c c c m c c c ^ ~ c c V V ~ *.2.0.0.0.e.e.~.~.t.e.2.-.<.x.z.s.p.-., , 0 8 9 , o ' C.o.2.g.g.g.g.f.g.r.e.e.3.w.9.9.w.r.g.e.2.....' ' 2.",
"` < j.2.2.2.=.2.9.e.e.w.w.w.w.w.e.e.e.e.g.x.j.g.g.2.1...0.` * 7 8 0 8 * , <.p.p.p.-.r D 0.3.2.2.2.o...' ' ' _ z c ' 2.' =.' ......X.O.O.{ ' 2.2.2.3.O.O.0.0.e.0.0.o.@.0.3.0.0.0.e.e.e.e.e.e.t.t.e.R.R.t.t.t.t.~.^.^.x.j.g.e.j.t.~.j.x.^.x.x.x.x.x.x.].x.x.>X>X>X>X>X>X>Xx.x.h.h.g.g.g.j.g.e.e.t.t.w.;.f.wX0XwXeXwXwXwXl.h.h.A * z ` ` 4.g.9 # 8 A ^ =.-.Z < { s   gXgXgXgXgXgXgXgXgXgXgXgXgXgXgXgXgXgXgXgXgXgXgXgXgXgXgXgXgXgXgXgXgXgXgXgXgXgXgXgXgXgXgXgXgXgXgXgXgXgXgXgXgXgXgXgXgXgXgXgXgXgXgXgXgXgXgXgXgXgXgXgXgXgXgXgXgXgXgXgXgXgXgXgXgXgXgXgXgXgXgXgXgXgXgXgXgXgXgXgXgXgXgXgXgXgXgXgXgXgXgXgXgXgXgXgXgXgXgXgXgXgXgXgXgXgXgXgXgXgXgXgXgXgXgXgXgXgXgXgXgXgXgXgXgXgXgXgXgXgXgXgXgXgXgXgXgXgXgXgXgXgXgXgXgXgXgXgXgXgXgXgXgXgXgXgXgXgXgXgXgXgXgXgXgXgXgXgXgXgXgXgXgXgXgXgXgXgXgXgXgXgXgXgXgXgXgXgXgXgXgXgXgXgXgXgXgXgXgXgXgXgXgXgXgXgXgXgXgXgXgXgXgXgXgXgXgXgXgXgXgXgXgXgXgXgX..D < <.p.<.*.e 7 , g.j.4.` c < c g.wXwXaXaXwX].].0XwXx.w.` ' ' 3.0.0.2.5.5.w.w.4.4.w.w.h.h.h.h.h.x.].].x.x.x.x.x.x.x.x.^.^.x.j.j.].].x.x.h.j.j.x.(.^.^.^.^.^.x.x.^.(.~.~.t.t.e.e.e.0.e.e.e.9.e.e.e.R.e.e.e.t.e.e.e.4.2.w.w.w.w.w.w.w.2.=.5.0.0.2.=.;.;.*.~ ' 0.e.w.r.w.w.2.2.2.-.<.f.p.y.<.,., , 8 8 9 , o m L...2.w.g.g.w.w.g.g.g.e.2.w.9.9.w.w.w.r.2.......' 2.",
"` 8 (.5.2.2.=.=.5.e.g.w.w.w.r.w.e.t.e.e.g.g.g.r.w.[ _ ..Y.' , 7 8 0 0 * 9 <.a.a.p.<.r M 2.2.9.2.2.9.2._ o.' 1 f ' 2.o.' ' ..D { { X.X...{ ..2.9.3.3.O.o.3.2.9.2.9.@.@. .o.o.o.2.2.9.2.2.0.0.e.e.0.e.0.e.0.e.e.e.e.e.g.g.r.r.t.t.^.^.^.(.x.x.>X>Xx.j.x.x.>X,X>X>X>Xx.>X>Xx.j.g.g.w.5.2.e.t.2.' 2.~.j.-.<.x.x.wXyXaXwXx.z.h.h.A * c ` ' 4.h.9 # r *.*.<.<.*.< { s   gXgXgXgXgXgXgXgXgXgXgXgXgXgXgXgXgXgXgXgXgXgXgXgXgXgXgXgXgXgXgXgXgXgXgXgXgXgXgXgXgXgXgXgXgXgXgXgXgXgXgXgXgXgXgXgXgXgXgXgXgXgXgXgXgXgXgXgXgXgXgXgXgXgXgXgXgXgXgXgXgXgXgXgXgXgXgXgXgXgXgXgXgXgXgXgXgXgXgXgXgXgXgXgXgXgXgXgXgXgXgXgXgXgXgXgXgXgXgXgXgXgXgXgXgXgXgXgXgXgXgXgXgXgXgXgXgXgXgXgXgXgXgXgXgXgXgXgXgXgXgXgXgXgXgXgXgXgXgXgXgXgXgXgXgXgXgXgXgXgXgXgXgXgXgXgXgXgXgXgXgXgXgXgXgXgXgXgXgXgXgXgXgXgXgXgXgXgXgXgXgXgXgXgXgXgXgXgXgXgXgXgXgXgXgXgXgXgXgXgXgXgXgXgXgXgXgXgXgXgXgXgXgXgXgXgXgXgXgXgXgXgXgXgXgXgX..' 8 <.p.-.%.e 7 , g.j.;.V 8 < 0 g.].wXwXwXwX].].0X0Xf.^ ' ' 2.R.0...' 2.' ..2.2.o.o.2.e.j.h.x.x.x.].].x.>X>Xj.e.r.x.x.(.].x.x.x.].>X].h.h.g.j.t.j.^././.~.t.j.~.Y.Y.Y.R.R.3.3.0.0.O.0.0.0.0.0.0.0.L.3.0.0.e.t.~.j.w.e.g.g.g.e.e.t.e.2.2...o.0.' V *.;.<.^ ~ 2.e.g.g.4.;.2.2.2.-.<.p.p.p.p.<.7 , 0 8 7 # * _ P.X...2.w.w.w.w.g.g.g.e.w.w.w.r.w.w.w.r.2...' ' ' 2.",
"` 8 ^.5.1.2.=.;.4.g.g.g.g.r.w.r.g.g.g.g.g.r.w.4.;._ ' o.R.=., 7 8 0 0 * r p.a.s.p.<.r c 2.9.w.w.w.w.2.~ ' v : z ' ..W B _ e...F } } { { W ' 2.2.....W W ..2.e.9.9.0. .| | X...o.2.2.2.o.o.o.3.3.3.3.3.3.0.0.Y.3.o.2.r.g.j.t.t.t.R.Y.R.j.x.x.>X>Xx.h.h.(.,X;XY.e.x.>Xx.x.h.g.j.e.2.' ..0.0...' ..e.e.;.<.x.x.wXwXaXwXx.h.l.l.Z * c ` =.5.j.9 # r -.<.<.p.-.< W s     gXgXgXgXgXgXgXgXgXgXgXgXgXgXgXgXgXgXgXgXgXgXgXgXgXgXgXgXgXgXgXgXgXgXgXgXgXgXgXgXgXgXgXgXgXgXgXgXgXgXgXgXgXgXgXgXgXgXgXgXgXgXgXgXgXgXgXgXgXgXgXgXgXgXgXgXgXgXgXgXgXgXgXgXgXgXgXgXgXgXgXgXgXgXgXgXgXgXgXgXgXgXgXgXgXgXgXgXgXgXgXgXgXgXgXgXgXgXgXgXgXgXgXgXgXgXgXgXgXgXgXgXgXgXgXgXgXgXgXgXgXgXgXgXgXgXgXgXgXgXgXgXgXgXgXgXgXgXgXgXgXgXgXgXgXgXgXgXgXgXgXgXgXgXgXgXgXgXgXgXgXgXgXgXgXgXgXgXgXgXgXgXgXgXgXgXgXgXgXgXgXgXgXgXgXgXgXgXgXgXgXgXgXgXgXgXgXgXgXgXgXgXgXgXgXgXgXgXgXgXgXgXgXgXgXgXgXgXgXgXgXgXgXgXgXO...z 4.f.<.*.r , , g.j.;.c 8 > 0 g.].x.wX0XwXyXx.x.z.<.A 3...0.Y.2.N ' 2...B F { } } ..3.t.g.h.h.h.x.x.x.j.t.2.2.2.g.g.g.h.h.h.h.h.x.h.w.w.g.h.e.t.e.e.0.2.2.0.e.0.L.m.P.P.X.{ { X. .0.O.O.O.3.O.{ { { X.O.3.0.e.w.2.w.e.5.2.2.2.3.3.o...F } O.B z V =.4.-.V 2.g.g.f.w.4.5.w.4.^ -.f.k.k.f.<.7 , 8 , , # * ' P.O...1.2.2.w.w.g.g.g.e.w.4.r.g.g.g.g.r.2.1.' ' _ 2.",
"` 8 ^.5.1.2.2.2.w.g.g.h.g.w.w.g.h.g.g.f.g.g.w.;.=._ ..o.R.=.7 7 8 0 0 * r f.k.s.p.<.r c 2.2.2.w.e.e.w.[ E f v ' W { B z c e.o.G G { { ..' ..2.' N W { { ..o.2.t.9.@.| R | X.....o.o.o.o.o.O.3.o.2.3.3.3.L.T.R.3...2.w.g.^.^.-XR.L.O.L.e.j.>X>X>X(.x.g.^.;XE.L.0.(.>Xx.w.4.w.e.2.6...3.L.........2.e.;.w.x.x.aXwXwXx.l.l.x.x.^ * c ' 2.e.j.9 # r <.y.f.z.<.> g s . . gXgXgXgXgXgXgXgXgXgXgXgXgXgXgXgXgXgXgXgXgXgXgXgXgXgXgXgXgXgXgXgXgXgXgXgXgXgXgXgXgXgXgXgXgXgXgXgXgXgXgXgXgXgXgXgXgXgXgXgXgXgXgXgXgXgXgXgXgXgXgXgXgXgXgXgXgXgXgXgXgXgXgXgXgXgXgXgXgXgXgXgXgXgXgXgXgXgXgXgXgXgXgXgXgXgXgXgXgXgXgXgXgXgXgXgXgXgXgXgXgXgXgXgXgXgXgXgXgXgXgXgXgXgXgXgXgXgXgXgXgXgXgXgXgXgXgXgXgXgXgXgXgXgXgXgXgXgXgXgXgXgXgXgXgXgXgXgXgXgXgXgXgXgXgXgXgXgXgXgXgXgXgXgXgXgXgXgXgXgXgXgXgXgXgXgXgXgXgXgXgXgXgXgXgXgXgXgXgXgXgXgXgXgXgXgXgXgXgXgXgXgXgXgXgXgXgXgXgXgXgXgXgXgXgXgXgXgXgXgXgXgXgXgXgXO...z 4.f.<.*.r 7 * g.(.4.` c < 0 g.x.x.].yXwXwXx.x.k.*.V 2.3.Y.3.' z m 9.2.W g j } } } O.0.t.j.g.h.x.(.^.R.0.0.L.Y.e.t.g.g.g.h.h.g.h.g.w.g.g.h.t.e.e.e.9.2.w.e.9.e.3.X.m.L.O.O.o.0.L.Y.0.3.0.O.X.{ { { X.m.O.o.0.e.2.9.5.2.....{ ....W { } n.X.B m N =.4.-.~ =.f.f.g.f.w.w.e.w.[ -.f.f.k.f.<.4 * , , , , , ` P.O.o.2.2.w.e.g.g.g.g.e.w.w.g.h.h.g.g.w.2.2.' ' _ 2.",
"=.8 ^.2.1.2.2.5.w.r.g.g.r.w.w.h.h.h.f.f.f.f.w.w.4.' ' o.R.=.7 7 9 9 9 7 e p.a.p.y.,.r c 2.2.2.2.2.0.e.o.f N o.......{ v 1 2.0.X.G F { ......' _ N { o.{ { ..2.9.@. . .C.Z.P.+.O.o.o.o.o.o.O.o.....3.3.3.L.R.R.L.O.9.e.j.^.R.R.E.L.O.L.w.x.>X>X(.(.>X^.R.R.T.Y.Y.~.j.e.5.2.2.2.3.3.Y.R.3.D ..2...3.e.;.<.x.yXwXwXx.x.l.l.x.l.^ = c =.2.g.j.9 # r <.y.f.z.-.> x s . . gXgXgXgXgXgXgXgXgXgXgXgXgXgXgXgXgXgXgXgXgXgXgXgXgXgXgXgXgXgXgXgXgXgXgXgXgXgXgXgXgXgXgXgXgXgXgXgXgXgXgXgXgXgXgXgXgXgXgXgXgXgXgXgXgXgXgXgXgXgXgXgXgXgXgXgXgXgXgXgXgXgXgXgXgXgXgXgXgXgXgXgXgXgXgXgXgXgXgXgXgXgXgXgXgXgXgXgXgXgXgXgXgXgXgXgXgXgXgXgXgXgXgXgXgXgXgXgXgXgXgXgXgXgXgXgXgXgXgXgXgXgXgXgXgXgXgXgXgXgXgXgXgXgXgXgXgXgXgXgXgXgXgXgXgXgXgXgXgXgXgXgXgXgXgXgXgXgXgXgXgXgXgXgXgXgXgXgXgXgXgXgXgXgXgXgXgXgXgXgXgXgXgXgXgXgXgXgXgXgXgXgXgXgXgXgXgXgXgXgXgXgXgXgXgXgXgXgXgXgXgXgXgXgXgXgXgXgXgXgXgXgXgXgXgXO...M 4.f.f.<.J 9 * g.(.5.=.V < c g.x.x.].yXwXx.x.x.f./ Z O.Y.R.3.' z z 2.e.2.F } } } X.O.0.0.t.j.^.^.~.R.Y.T.E.E.E.R.R.t.^.>X-X^.^.-X^.j.^.^.t.t.9.e.j.e.4.r.g.w.R.3.X.X. .3.3.0.Y.Y.e.0.3.O.o.o.o.0. .O.L.O.O.0.e.2.2.] ] ' ' W W { { { C.H.{ ' ' ( ..2.=.V =.g.l.l.g.e.e.e.5.-.-.p.p.a.k.y.7 * 0 c 8 , * _ P.X...2.w.r.g.g.f.f.g.e.w.f.f.f.g.w.w.4.2.2.' ' ..0.",
"=.8 ^.w.2.2.2.e.e.g.g.g.r.w.w.g.f.k.k.k.f.f.f.w.5.' ( o.R.=.8 9 8 0 9 , 9 <.f.p.p.,.r M 2.2.2.2...2.0.o.s ' 3.....{ D z 1 N 3...F F F W W ..' N B W { { { ' o.o.| |  .Z.Z.C.C.+. .o.{ o.3.O.O...2.0.0.3.3.0.0.0.0.0.e.t.~.e.0.3.O.o.O.e.^.-Xx.~.^.^.R.Y.L.Y.Y.Y.e.0.2.2...' ' 2.0.Y.3.m c ' ' ..3.0.=.*.x.yXwXwX].].x.l.l.x.V < M ' =.e.j.9 # r =.<.<.f.-.> D s . . gXgXgXgXgXgXgXgXgXgXgXgXgXgXgXgXgXgXgXgXgXgXgXgXgXgXgXgXgXgXgXgXgXgXgXgXgXgXgXgXgXgXgXgXgXgXgXgXgXgXgXgXgXgXgXgXgXgXgXgXgXgXgXgXgXgXgXgXgXgXgXgXgXgXgXgXgXgXgXgXgXgXgXgXgXgXgXgXgXgXgXgXgXgXgXgXgXgXgXgXgXgXgXgXgXgXgXgXgXgXgXgXgXgXgXgXgXgXgXgXgXgXgXgXgXgXgXgXgXgXgXgXgXgXgXgXgXgXgXgXgXgXgXgXgXgXgXgXgXgXgXgXgXgXgXgXgXgXgXgXgXgXgXgXgXgXgXgXgXgXgXgXgXgXgXgXgXgXgXgXgXgXgXgXgXgXgXgXgXgXgXgXgXgXgXgXgXgXgXgXgXgXgXgXgXgXgXgXgXgXgXgXgXgXgXgXgXgXgXgXgXgXgXgXgXgXgXgXgXgXgXgXgXgXgXgXgXgXgXgXgXgXgXgXgXo.{ z 4.f.<.-.r 7 * f.(.5.=.V 8 c g.x.h.x.yXwXx.x.z.f.^ _ 3.Y.3.' v z , A 9.3.{ } } } X.O.3.3.0.0.9.0.3.O.O.P.Y.Y.T.R.Y.Y.-X4X4X;XR.-X-XR.R.R.Y.0.0.0.t.t.9.w.w.2.3.O.X.X.X.O.O.0.0.o.o.o.......o.0.0.O. . .O.O.O.o.....W W W W W W W { X.O.o.M _ ' N ..2.=.m ' g.h.g.g.g.t.e.2.~ *.p.f.k.k.<.4 % ~ [ 0 , % _ P...o.5.w.f.f.h.f.f.w.w.5.g.g.g.w.w.w.4.2.2.......0.",
"=.8 ^.e.2.2.2.2.e.t.g.h.h.h.g.g.f.z.z.k.f.f.f.w.4.` ( ..Y.[ 8 8 9 0 9 , 8 <.f.a.f.<./ 0 2.9.9.2.' o.o.o.s ..o.....{ N z 1 s ..W { F F { W { o.W W { o. .o...] o.o.| B.A.C.b.C.C.L.O.O.3.Y.L.L.0.e.R.t.0.0.0.Y.Y.R.R.~.j.^.~.R.Y.R.t.0.e.t.t.e.e.t.e.0.0.L.I.I.L.Y.Y.0.3.2...o.3.0.e._ , ` 2.' ..3.t.2.*.g.x.x.x.yXyX].h.h.x.V < V =.1.e.j.9 # A =.-.<.<.*.< { s . . gXgXgXgXgXgXgXgXgXgXgXgXgXgXgXgXgXgXgXgXgXgXgXgXgXgXgXgXgXgXgXgXgXgXgXgXgXgXgXgXgXgXgXgXgXgXgXgXgXgXgXgXgXgXgXgXgXgXgXgXgXgXgXgXgXgXgXgXgXgXgXgXgXgXgXgXgXgXgXgXgXgXgXgXgXgXgXgXgXgXgXgXgXgXgXgXgXgXgXgXgXgXgXgXgXgXgXgXgXgXgXgXgXgXgXgXgXgXgXgXgXgXgXgXgXgXgXgXgXgXgXgXgXgXgXgXgXgXgXgXgXgXgXgXgXgXgXgXgXgXgXgXgXgXgXgXgXgXgXgXgXgXgXgXgXgXgXgXgXgXgXgXgXgXgXgXgXgXgXgXgXgXgXgXgXgXgXgXgXgXgXgXgXgXgXgXgXgXgXgXgXgXgXgXgXgXgXgXgXgXgXgXgXgXgXgXgXgXgXgXgXgXgXgXgXgXgXgXgXgXgXgXgXgXgXgXgXgXgXgXgXgXgXgXgXO.{ M w.f.,.*.r 7 , g.(.5.;.V 8 c g.x.h.l.x.0Xx.x.z.h.=.` Y.T.3..._ c < , ' 3.X.X.X.O.L.L.L.0.3.2.2.o.{ { X.C. .O.L.L.T.I.L.L.L.L. .L.E.R.I.R.R.Y.L.I.R.-X/.R.e.e.o.O.O.X.O.0.L.0.@.o.o.o.o.o.3.0.3.3.3.L. .O.o.o.3.O.X.O.O.X.{ B B { X.3.o.m 0 ` ' W ..2.' _ [ ;.<.<.2.5.e.2.2._ -.f.k.k.z.p.7 * _ ` 0 * % ' Y.O.3.e.f.f.z.x.x.f.w.5.w.w.g.r.w.e.e.e.5.2.......0.",
"[ 8 ^.2.' o.2.2.3.0.t.j.g.f.h.f.f.h.z.f.f.f.f.w.4.' D ..Y.=.9 8 8 c 0 # 9 p.p.k.p.<.J v 2.2.2.2.' ~ ' ' z N ..B N ( N z < z ' ..' _ ' _ _ ' 2.2.' o.o.2.o.2.2.] _ _ ] o.o.o.o.2.2.o.o.o.2.2.;.;.<.w.4.;.-.-.;.<.4.4.4.4.4.<.;.;.<.4.4.2.2.2.2.4.4.2.;.2.2.9.9.w.w.5.2.2.=.' ' ' 2.2.r 7 V 1.' ' o.2.' *.z.x.x.x.x.x.x.l.g.f.r , V =.;.5.x.9 # r *.-.-.<.^ > { s . gXgXgXgXgXgXgXgXgXgXgXgXgXgXgXgXgXgXgXgXgXgXgXgXgXgXgXgXgXgXgXgXgXgXgXgXgXgXgXgXgXgXgXgXgXgXgXgXgXgXgXgXgXgXgXgXgXgXgXgXgXgXgXgXgXgXgXgXgXgXgXgXgXgXgXgXgXgXgXgXgXgXgXgXgXgXgXgXgXgXgXgXgXgXgXgXgXgXgXgXgXgXgXgXgXgXgXgXgXgXgXgXgXgXgXgXgXgXgXgXgXgXgXgXgXgXgXgXgXgXgXgXgXgXgXgXgXgXgXgXgXgXgXgXgXgXgXgXgXgXgXgXgXgXgXgXgXgXgXgXgXgXgXgXgXgXgXgXgXgXgXgXgXgXgXgXgXgXgXgXgXgXgXgXgXgXgXgXgXgXgXgXgXgXgXgXgXgXgXgXgXgXgXgXgXgXgXgXgXgXgXgXgXgXgXgXgXgXgXgXgXgXgXgXgXgXgXgXgXgXgXgXgXgXgXgXgXgXgXgXgXgXgXgXgXgXX.{ s 4.<.<.-.r 7 # 4.(.5.=.M < c h.h.g.h.h.x.l.z.z.f.=.=.L.3...N m c < 7 ^ ;.;.2.2.4.w.w.r.w.w.4.w.5.2.2.2.2.2.5.2.2.2.;.=.=.=.=._ ' ] o.o.o.o.2.2.2.2.0.e.e.2.2.o.o.' ' ' ] ] ] ] ] =.=.[ ] 2.9.9.9.9.9.2.2.2.2.3.0.3.3.3.o...' ( ( ' =.V 8 8 _ ....D ..' m [ =.-.;.2.2.2.2.2.^ -.f.f.z.z.7.# * ' W < # % ' T.O.o.w.w.f.h.l.h.g.w.w.w.f.w.w.w.e.g.t.0.2.' _ ' 2.",
"-.8 (.2.' ..2.2.3.3.e.e.g.f.f.f.f.f.f.f.f.w.f.g.4._ N ..Y.=.8 9 8 0 0 # 9 f.f.f.p.,.J m 2.2.2.2.' m ( ' z N W x z m N v z M V z 1 : * % % % % * % * * * * * * 7 * * * * * # * * * * % * * * # # * , * # # * * * * * * # # # # # # , , , , , , , , , * , * * * * * # # # # # # * : 0 r A V ....N _ 2.2.-.z.x.x.0Xx.x.l.h.f.f.r , V =.4.g.x.9 # r *.=.<.4.Z & { g . gXgXgXgXgXgXgXgXgXgXgXgXgXgXgXgXgXgXgXgXgXgXgXgXgXgXgXgXgXgXgXgXgXgXgXgXgXgXgXgXgXgXgXgXgXgXgXgXgXgXgXgXgXgXgXgXgXgXgXgXgXgXgXgXgXgXgXgXgXgXgXgXgXgXgXgXgXgXgXgXgXgXgXgXgXgXgXgXgXgXgXgXgXgXgXgXgXgXgXgXgXgXgXgXgXgXgXgXgXgXgXgXgXgXgXgXgXgXgXgXgXgXgXgXgXgXgXgXgXgXgXgXgXgXgXgXgXgXgXgXgXgXgXgXgXgXgXgXgXgXgXgXgXgXgXgXgXgXgXgXgXgXgXgXgXgXgXgXgXgXgXgXgXgXgXgXgXgXgXgXgXgXgXgXgXgXgXgXgXgXgXgXgXgXgXgXgXgXgXgXgXgXgXgXgXgXgXgXgXgXgXgXgXgXgXgXgXgXgXgXgXgXgXgXgXgXgXgXgXgXgXgXgXgXgXgXgXgXgXgXgXgXgXgXgXgXX.{ s 4.f.<.-.r 7 * w.(.5.=.c < r f.l.h.x.wXx.x.z.z.f.=.=.O...D z m m 8 8 A 0 < : * * * * * , , , , , , , , , , : : , * * * * * * * 3 3 7 7 * * * * * * * * * , * * * * * * # * * % % % * # * * , , , , , * * * * : : * * * % % % * * * < 8 0 c _ ' D B ' ( m ` ;.;.;.2.2.2.2.2.[ -.7.f.k.z.p.# , ' W < * * ' T.X...2.w.f.g.h.h.g.g.w.f.g.g.w.w.e.e.2.2.o.' ' _ 2.",
"-.8 (.2.' o.2.3.3.3.2.e.g.f.z.z.f.f.f.g.f.4.w.e.5._ D ..T.=.9 9 8 0 0 * 9 f.f.f.<.-.r c 2.2.2.2...( ( _ 0 v W x m m N m 8 0 < % o o o o # # * * # # # # * * * # # 4 # # * 7 2 # # * , 7 4 # # , 7 ; , , , , , , , , * * * * , 7 7 , 9 7 7 , 9 9 9 7 7 7 7 7 , * # # # # # # o # o o 9 *._ ....B ( o.2.-.z.x.x.0X0Xx.l.h.h.h.r , A -.w.j.x.8 # r *.=.<.4.^ & { g $ gXgXgXgXgXgXgXgXgXgXgXgXgXgXgXgXgXgXgXgXgXgXgXgXgXgXgXgXgXgXgXgXgXgXgXgXgXgXgXgXgXgXgXgXgXgXgXgXgXgXgXgXgXgXgXgXgXgXgXgXgXgXgXgXgXgXgXgXgXgXgXgXgXgXgXgXgXgXgXgXgXgXgXgXgXgXgXgXgXgXgXgXgXgXgXgXgXgXgXgXgXgXgXgXgXgXgXgXgXgXgXgXgXgXgXgXgXgXgXgXgXgXgXgXgXgXgXgXgXgXgXgXgXgXgXgXgXgXgXgXgXgXgXgXgXgXgXgXgXgXgXgXgXgXgXgXgXgXgXgXgXgXgXgXgXgXgXgXgXgXgXgXgXgXgXgXgXgXgXgXgXgXgXgXgXgXgXgXgXgXgXgXgXgXgXgXgXgXgXgXgXgXgXgXgXgXgXgXgXgXgXgXgXgXgXgXgXgXgXgXgXgXgXgXgXgXgXgXgXgXgXgXgXgXgXgXgXgXgXgXgXgXgXgXgXgXX.{ s 4.f.<.-.r 7 # w.(.4.=.M < r z.x.x.wXwXx.x.z.f.p.*.' O.....' _ m 8 , * * % * * * , , , , , , , , , , 7 8 8 8 7 7 7 9 9 9 9 9 7 7 7 9 9 7 7 7 7 7 7 7 7 7 7 7 7 7 7 7 4 4 , * * 3 3 3 3 # # # * 7 , 7 7 4 # # # # # # # # # * # * o # , 0 V _ W B B ..' m [ 4.w.4.2.2.2.2.2.[ =.f.f.k.z.7.# , ..' < , * N T.X...2.w.f.g.h.h.h.h.h.g.f.g.r.w.w.5.2.....' ' _ 2.",
"-.8 (.2...2.2.O.3.2.5.g.h.z.z.z.f.f.g.f.g.4.4.2.2.' W ..R.;.8 8 8 z 0 # 9 p.f.f.p.-.J A 2.2.o.o.3.2.o.' 0 z ' N m m N z < , # o # , 9 8 8 8 0 0 r 0 r r r r r r r r 0 9 0 9 e e 9 9 9 e e 9 9 e e e e r r 9 9 r r r r r r r r r r A A r r r r r r r r r r r r e 9 9 9 9 8 8 9 9 , * # 0 N ........3.2.-.z.x.0XwXwX0Xx.z.l.l.r , A -.4.g.x.9 # 9 ^ =.<.4.V & } g & gXgXgXgXgXgXgXgXgXgXgXgXgXgXgXgXgXgXgXgXgXgXgXgXgXgXgXgXgXgXgXgXgXgXgXgXgXgXgXgXgXgXgXgXgXgXgXgXgXgXgXgXgXgXgXgXgXgXgXgXgXgXgXgXgXgXgXgXgXgXgXgXgXgXgXgXgXgXgXgXgXgXgXgXgXgXgXgXgXgXgXgXgXgXgXgXgXgXgXgXgXgXgXgXgXgXgXgXgXgXgXgXgXgXgXgXgXgXgXgXgXgXgXgXgXgXgXgXgXgXgXgXgXgXgXgXgXgXgXgXgXgXgXgXgXgXgXgXgXgXgXgXgXgXgXgXgXgXgXgXgXgXgXgXgXgXgXgXgXgXgXgXgXgXgXgXgXgXgXgXgXgXgXgXgXgXgXgXgXgXgXgXgXgXgXgXgXgXgXgXgXgXgXgXgXgXgXgXgXgXgXgXgXgXgXgXgXgXgXgXgXgXgXgXgXgXgXgXgXgXgXgXgXgXgXgXgXgXgXgXgXgXgXgXgXgXO.{ s 4.w.<.-.r 7 7 h.yX4.=.M 1 r z.x.x.wXwX0Xx.z.k.p.^ ' L.L.3.2.' m z , , , 8 8 8 8 9 r r r / / / / *.*.*.*.*./ / / *.*.*.*.r J r J J / / / / %.%.%.*.*.*.*.r r r r r e e e r r e e r r r e e e e r r r e e e e e e 9 8 8 8 8 9 7 , , # # 8 c _ ..{ { ..' m [ w.r.r.4.2.2.2.2.` <.f.z.z.z.p.# , o...8 , * N P.X.{ 2.f.g.h.h.h.h.l.h.h.f.g.r.g.w.2.2.....' ' _ 2.",
"-.8 (.2.2.2.2.2.3.2.4.f.f.f.f.g.f.f.g.f.g.w.2.=.' ' W ..R.2.8 8 8 0 8 # 9 p.p.p.p.<./ A 2.o.O.O.3.3.o.' 1 z ' W z N W z > : o # * : < 8 0 0 c ~ ^ ~ Z ^ ^ ^ ^ A A A A A A A A A ~ ~ ~ / / / / / *.*.*.^ ^ ^ ^ ^ ^ *.^ ^ / A A A A ^ ^ *.*.*.*.*.*.*./ / / / / r 9 c c 0 0 8 8 8 < , * 0 N { ..o.2.3.1.*.k.x.wXwXwX0Xx.z.x.x./ 9 A *.-.w.h.9 o 9 *.;.<.4.V u } j t gXgXgXgXgXgXgXgXgXgXgXgXgXgXgXgXgXgXgXgXgXgXgXgXgXgXgXgXgXgXgXgXgXgXgXgXgXgXgXgXgXgXgXgXgXgXgXgXgXgXgXgXgXgXgXgXgXgXgXgXgXgXgXgXgXgXgXgXgXgXgXgXgXgXgXgXgXgXgXgXgXgXgXgXgXgXgXgXgXgXgXgXgXgXgXgXgXgXgXgXgXgXgXgXgXgXgXgXgXgXgXgXgXgXgXgXgXgXgXgXgXgXgXgXgXgXgXgXgXgXgXgXgXgXgXgXgXgXgXgXgXgXgXgXgXgXgXgXgXgXgXgXgXgXgXgXgXgXgXgXgXgXgXgXgXgXgXgXgXgXgXgXgXgXgXgXgXgXgXgXgXgXgXgXgXgXgXgXgXgXgXgXgXgXgXgXgXgXgXgXgXgXgXgXgXgXgXgXgXgXgXgXgXgXgXgXgXgXgXgXgXgXgXgXgXgXgXgXgXgXgXgXgXgXgXgXgXgXgXgXgXgXgXgXgXgXO.{ f 4.w.<.*.r 7 7 h.>X4.=.m < r z.wXx.wXwXwXx.z.k.p.^ ' E.T.L.3.' D V c < , 9 9 9 0 r A ^ ^ [ *.-.;.*.*.=.-.-.-.*.*.*.*.*.*.*.*.-.-.=.=.-.-.>.-.*.*.=.=.-.=.*.^ ^ ^ ^ ^ ^ / ^ / / / / ^ / A r / / / / / A A A r r 0 0 0 0 0 8 8 8 8 , # # 8 c ' ........( z ^ 4.r.g.w.w.2.2.2.[ <.f.z.z.z.p.; : ....z , * N L.X.{ 2.w.g.g.h.h.h.h.h.h.g.g.w.w.g.w.2.......' _ 2.",
"-.8 (.2.1.o.o.3.e.g.f.f.f.f.f.w.f.g.h.h.g.w.4.=.' ' W ..E.2.8 8 8 8 8 # 9 7.p.<.<.-./ A 2.o.O.O.X.{ W ( 0 z ....W W W f < 1 * . * * < < < < 8 0 0 0 c c c A V c c c r r r 0 0 c c c c c A r r r r r A A A A A A A A A A r r 0 0 0 r A A A ~ A A A A A A r 0 9 8 8 8 8 8 < < > : * , r =.( W { ....O.1.*.f.0XwXwXwXwXx.z.l.x.A 9 A ^ ;.w.g.9 o 0 *.=.;.4.m u } j gXgXgXgXgXgXgXgXgXgXgXgXgXgXgXgXgXgXgXgXgXgXgXgXgXgXgXgXgXgXgXgXgXgXgXgXgXgXgXgXgXgXgXgXgXgXgXgXgXgXgXgXgXgXgXgXgXgXgXgXgXgXgXgXgXgXgXgXgXgXgXgXgXgXgXgXgXgXgXgXgXgXgXgXgXgXgXgXgXgXgXgXgXgXgXgXgXgXgXgXgXgXgXgXgXgXgXgXgXgXgXgXgXgXgXgXgXgXgXgXgXgXgXgXgXgXgXgXgXgXgXgXgXgXgXgXgXgXgXgXgXgXgXgXgXgXgXgXgXgXgXgXgXgXgXgXgXgXgXgXgXgXgXgXgXgXgXgXgXgXgXgXgXgXgXgXgXgXgXgXgXgXgXgXgXgXgXgXgXgXgXgXgXgXgXgXgXgXgXgXgXgXgXgXgXgXgXgXgXgXgXgXgXgXgXgXgXgXgXgXgXgXgXgXgXgXgXgXgXgXgXgXgXgXgXgXgXgXgXgXgXgXgXgXgXgXgXO.{ z w.f.<.-.r 7 , f.x.4.=.V < r z.x.x.wXwX0Xx.l.z.p.^ ' T.L.3...' D D ` 8 : 8 8 8 8 0 0 r A A A A ~ ^ / ~ ~ ^ ~ A A A A A ~ ~ ~ *.*.*.*.*.*.*.^ / ^ ^ ^ *.*.A A c c c c c 0 0 0 0 0 0 0 0 r r A A ~ A A c c c 0 0 8 8 8 < 1 < < , * * * < ~ _ D { { { ..W m ` 4.w.g.g.e.2.2.2.[ -.f.k.k.z.7.# % N W z , % N T.X...2.w.w.w.e.g.h.l.h.f.g.g.w.w.g.g.2.......' _ 2.",
"-.8 (.2.2.o...w.g.h.g.f.f.f.g.w.w.f.h.h.f.f.w.4.2.( D ..R.2.< , 8 0 8 # 9 p.p.<.,.-.~ [ 2.O.O.O.{ g B ( M z ........D s f ' 0 % % * * , , , , , , 8 8 8 8 0 0 1 1 1 1 < < < 8 8 8 < 8 8 8 , < 8 0 9 0 0 8 8 8 8 8 8 8 8 8 8 8 8 8 8 8 8 8 8 8 8 8 8 0 0 8 8 8 9 8 , 8 8 , < , : * 8 =.5.v W ' z D X.2.=.z.wXeXwXwXwXx.z.f.f.0 7 A [ 4.g.g.8 # 8 A ^ =.4.N u T j gXgXgXgXgXgXgXgXgXgXgXgXgXgXgXgXgXgXgXgXgXgXgXgXgXgXgXgXgXgXgXgXgXgXgXgXgXgXgXgXgXgXgXgXgXgXgXgXgXgXgXgXgXgXgXgXgXgXgXgXgXgXgXgXgXgXgXgXgXgXgXgXgXgXgXgXgXgXgXgXgXgXgXgXgXgXgXgXgXgXgXgXgXgXgXgXgXgXgXgXgXgXgXgXgXgXgXgXgXgXgXgXgXgXgXgXgXgXgXgXgXgXgXgXgXgXgXgXgXgXgXgXgXgXgXgXgXgXgXgXgXgXgXgXgXgXgXgXgXgXgXgXgXgXgXgXgXgXgXgXgXgXgXgXgXgXgXgXgXgXgXgXgXgXgXgXgXgXgXgXgXgXgXgXgXgXgXgXgXgXgXgXgXgXgXgXgXgXgXgXgXgXgXgXgXgXgXgXgXgXgXgXgXgXgXgXgXgXgXgXgXgXgXgXgXgXgXgXgXgXgXgXgXgXgXgXgXgXgXgXgXgXgXgXgXgXgXX.{ c g.z.p.<.r , , f.>X5.=.M 1 A z.x.x.wXwX0Xx.x.z.f.*.' X.{ D ...._ V 2.z < , , , < < < < < 8 8 8 8 0 8 8 8 8 8 8 0 0 0 8 8 8 8 1 0 0 0 0 0 0 0 9 9 9 9 9 e 9 8 < < 1 8 8 8 8 8 8 8 8 8 8 0 0 0 8 8 0 0 8 8 8 8 8 , , > > < < , * * % * c 2...x B g d B W m [ 2.w.g.j.g.5.2.2.[ =.<.p.k.z.f.# % f v z , % W R.O...2.5.4.2.5.g.x.x.h.f.h.g.f.f.h.g.e.2...' ' ' ..",
"=.8 j.2.......o.5.w.f.f.h.f.f.g.w.w.h.g.f.4.2.=...W D ..R.2.< , 8 z 8 * 9 <.f.<.-./ ~ N 2.O.X.X.X.} F D z z ..{ g g B s s 1.' : % < < < 1 s f z z z f f f z c v F { D v M M M M x x g z z z z f z m m v z v z z f f z m v v N N m v N m ( W B B ( ' ( _ _ m m z z A c z s z 8 8 s ' 5.` 1 D ..D { O.2.-.z.x.wXeXyX0Xl.w.w.f.9 , A -.5.x.l.r # 9 / *.-.;.M u Y gXgXgXgXgXgXgXgXgXgXgXgXgXgXgXgXgXgXgXgXgXgXgXgXgXgXgXgXgXgXgXgXgXgXgXgXgXgXgXgXgXgXgXgXgXgXgXgXgXgXgXgXgXgXgXgXgXgXgXgXgXgXgXgXgXgXgXgXgXgXgXgXgXgXgXgXgXgXgXgXgXgXgXgXgXgXgXgXgXgXgXgXgXgXgXgXgXgXgXgXgXgXgXgXgXgXgXgXgXgXgXgXgXgXgXgXgXgXgXgXgXgXgXgXgXgXgXgXgXgXgXgXgXgXgXgXgXgXgXgXgXgXgXgXgXgXgXgXgXgXgXgXgXgXgXgXgXgXgXgXgXgXgXgXgXgXgXgXgXgXgXgXgXgXgXgXgXgXgXgXgXgXgXgXgXgXgXgXgXgXgXgXgXgXgXgXgXgXgXgXgXgXgXgXgXgXgXgXgXgXgXgXgXgXgXgXgXgXgXgXgXgXgXgXgXgXgXgXgXgXgXgXgXgXgXgXgXgXgXgXgXgXgXgXgXgXgXgXO.{ z f.l.<.,.r 4 7 l.uXw.[ m < r z.x.x.0X0XwX].].x.g.^ ' m.{ B { ' _ 8 ' 3.g & 1 1 > < s f g v v v M m m z z v m m N D _ D D D D m M c c V V A z m m _ _ _ V 0 c c z z f z z z M v M m m z c m V m c V D M M M c z z z 0 1 1 < < < < > f 2.2.M x { B B W W m ` 5.w.e.e.e.e.2.2.[ =.f.z.z.f.<.# % z m c , % _ /.3...2.w.w.w.g.f.h.g.j.h.f.f.f.w.g.g.e.2...' _ _ ' ",
"=.8 j.2.......2.2.w.f.f.f.f.f.g.w.w.g.f.f.f.2.' _ N W ..T.2.< 8 8 0 8 * 9 7.f.p.<.*.~ ' 2...{ { X.X.{ ' z s W g g B { x < ' 2.N s s z x N D { ..{ { } } } } F }  . . .{ { { { { {  . .| o.............o.o.o.o.o.O.o.o.2.2.0.3.2.o.o.2.3.3.3.3.0.0.0.3.0.3.2.o...2.2.o.o.{ { W W ' 2.4.c < D ..O.K.L.2.-.z.0XwXeXaX0Xh.w.w.l.r 9 A ;.f.x.x.r # r *.-.;.;.m u Y gXgXgXgXgXgXgXgXgXgXgXgXgXgXgXgXgXgXgXgXgXgXgXgXgXgXgXgXgXgXgXgXgXgXgXgXgXgXgXgXgXgXgXgXgXgXgXgXgXgXgXgXgXgXgXgXgXgXgXgXgXgXgXgXgXgXgXgXgXgXgXgXgXgXgXgXgXgXgXgXgXgXgXgXgXgXgXgXgXgXgXgXgXgXgXgXgXgXgXgXgXgXgXgXgXgXgXgXgXgXgXgXgXgXgXgXgXgXgXgXgXgXgXgXgXgXgXgXgXgXgXgXgXgXgXgXgXgXgXgXgXgXgXgXgXgXgXgXgXgXgXgXgXgXgXgXgXgXgXgXgXgXgXgXgXgXgXgXgXgXgXgXgXgXgXgXgXgXgXgXgXgXgXgXgXgXgXgXgXgXgXgXgXgXgXgXgXgXgXgXgXgXgXgXgXgXgXgXgXgXgXgXgXgXgXgXgXgXgXgXgXgXgXgXgXgXgXgXgXgXgXgXgXgXgXgXgXgXgXgXgXgXgXgXgXgXgXgXgX{ c f.l.<.<.r 7 9 l.iX5.[ c < r h.].].0X0Xx.l.h.f.f.^ =.L.X.{ ..' _ 8 N 3.X.B N N W { { ......O.3.3.O.O.O.O. .X.X.O.O.O.o.o.o.o.o.o.2.2.0.0.o...o.o.o.o.o.o.o.o.X.O.m. .X.o.X.X.O.o.....o.X.X.X.O.O.X.........{ W W { ..{ { F F g B B ..5.=.z z D ..O.o...m ` 5.w.e.2.2.3.0.2.~ -.f.x.z.f.<., * m m c , % ( R.3...2.r.g.h.g.f.l.x.j.g.f.f.g.w.w.5.2.2.....' D ..",
"' 8 j.2.1...' =.4.f.f.f.f.f.f.g.f.w.f.f.f.f.4.-.' N W ..R.2.8 8 8 0 0 * 9 w.f.p.7.-./ ~ o...W ........' z s W g { { { B & z o.D s f g B B B { { X.} } Y Y k k } b.b. .}  .} { U  .Z.B.T  .} } } { { o.o.o.o...O.L.L.O.o.0.L.0.3.o.o.3.L.O.O.L.T.L.3.Y.Y.Y.Y.3.O.3.0.3.X.{ { { { o.0.;.8 s { ..3.L.T.3.-.z.wXwX0X0Xx.j.r.w.g.0 9 A ;.w.x.x.9 # e / -.4.4.D s } gXgXgXgXgXgXgXgXgXgXgXgXgXgXgXgXgXgXgXgXgXgXgXgXgXgXgXgXgXgXgXgXgXgXgXgXgXgXgXgXgXgXgXgXgXgXgXgXgXgXgXgXgXgXgXgXgXgXgXgXgXgXgXgXgXgXgXgXgXgXgXgXgXgXgXgXgXgXgXgXgXgXgXgXgXgXgXgXgXgXgXgXgXgXgXgXgXgXgXgXgXgXgXgXgXgXgXgXgXgXgXgXgXgXgXgXgXgXgXgXgXgXgXgXgXgXgXgXgXgXgXgXgXgXgXgXgXgXgXgXgXgXgXgXgXgXgXgXgXgXgXgXgXgXgXgXgXgXgXgXgXgXgXgXgXgXgXgXgXgXgXgXgXgXgXgXgXgXgXgXgXgXgXgXgXgXgXgXgXgXgXgXgXgXgXgXgXgXgXgXgXgXgXgXgXgXgXgXgXgXgXgXgXgXgXgXgXgXgXgXgXgXgXgXgXgXgXgXgXgXgXgXgXgXgXgXgXgXgXgXgXgXgXgXgXgXgXgXm...c g.h.<.-.r 7 9 l.uX4.^ z < 0 h.x.>X].0Xx.h.g.f.<.^ 1.T.H.O....._ 8 1 ..O.{ B B { X.O.L.O...X.0.L.0.L.L.L.O.| O.L.0.O.O.X.O.O.o.o.0.Y.Y.0.O. .L.L.L.+.O.O.3.3.m.Z.A.C.O.O.L.L.H.m.X.X.C.C.C.C.P.P.m. .O. .O. .{ { O.O.{ { { { F F { 3.2.V 8 M D ..X.X...D =.e.0.3.....3.e.2.^ =.f.z.k.f.<., * E m 0 , % N E.3.o.2.g.z.x.x.l.f.g.w.2.g.h.g.r.w.2.2.2.....' D ..",
"=.8 j.2.1.1.=.2.w.f.f.f.f.f.w.g.g.w.f.f.f.f.f.2.1.' W ..Y.=.< 7 8 8 9 * 9 w.f.p.7.-./ ~ 2.2.o.' ' ....' z f { g { { { W < < ' F d f g g g g g { { { j j j j k } b.b.} } } } } } b.N.b.Y } v.} }  .| | } } } } O.C.m.| X.L.Y.L.O.X.X.L.Y.O.O.L.P.L.O.L.L.T.L.O.O.0.Y.3.X.{ F F { 3.e.[ , z ..{ ..3.Y.5.-.z.wXwXx.l.g.g.g.g.j.0 8 ^ ;.w.x.h.9 # 9 / *.<.4.V s } gXgXgXgXgXgXgXgXgXgXgXgXgXgXgXgXgXgXgXgXgXgXgXgXgXgXgXgXgXgXgXgXgXgXgXgXgXgXgXgXgXgXgXgXgXgXgXgXgXgXgXgXgXgXgXgXgXgXgXgXgXgXgXgXgXgXgXgXgXgXgXgXgXgXgXgXgXgXgXgXgXgXgXgXgXgXgXgXgXgXgXgXgXgXgXgXgXgXgXgXgXgXgXgXgXgXgXgXgXgXgXgXgXgXgXgXgXgXgXgXgXgXgXgXgXgXgXgXgXgXgXgXgXgXgXgXgXgXgXgXgXgXgXgXgXgXgXgXgXgXgXgXgXgXgXgXgXgXgXgXgXgXgXgXgXgXgXgXgXgXgXgXgXgXgXgXgXgXgXgXgXgXgXgXgXgXgXgXgXgXgXgXgXgXgXgXgXgXgXgXgXgXgXgXgXgXgXgXgXgXgXgXgXgXgXgXgXgXgXgXgXgXgXgXgXgXgXgXgXgXgXgXgXgXgXgXgXgXgXgXgXgXgXgXgXgXgXgXH.O.c g.f.<.-.r 7 7 h.yX4.^ c > 0 g.h.x.x.0Xx.h.g.f.w.^ =.T.L.3.o.1.` 0 < ' X.{ B g F X.L.L. .{ { +.L.L.L.L.L.O.} O.L.L.L.O.O.O.O.O.O.L.E.R.m.O.b.C.P.P.m.X.X.3.O.O.C.Z.b.} O.L.L.m.O.{ } C.C. . .C.C. .} v.n.n.m.X.{ H.O.{ { { W B W ..0.2.c z m N D { ....D 1.5.3.3.3.3.3.2.2.-.=.f.z.f.f.w., * _ m 0 , % N E.3.o.5.f.z.z.x.l.f.g.w.2.w.h.g.g.r.5.3.3.3.........",
"=.< g.5.2.2.2.4.w.g.f.f.f.w.4.g.g.<.4.f.z.f.f.4.2.' D { Y.' , , 8 8 0 # 9 <.<.<.<.=./ _ 2.2.2.o.o.o.o.' M z { g g F { ( 1 > v N x f z B B x B W { U j j U Y Y Y b.b.T }  . . .b.b.b.c.T } } b.b. . .| } | O.X.O.C. .| X.O.L.L.O.X.O.C.L.O.O.L.L.H.O.0.L.L.L.0.O.0.0.O.{ K j g { 3.e.A * m ..{ { { K.3.-.z.wXwXwXx.g.g.e.g.x.0 8 ^ ;.w.h.h.8 o 0 / *.;.;.M s } gXgXgXgXgXgXgXgXgXgXgXgXgXgXgXgXgXgXgXgXgXgXgXgXgXgXgXgXgXgXgXgXgXgXgXgXgXgXgXgXgXgXgXgXgXgXgXgXgXgXgXgXgXgXgXgXgXgXgXgXgXgXgXgXgXgXgXgXgXgXgXgXgXgXgXgXgXgXgXgXgXgXgXgXgXgXgXgXgXgXgXgXgXgXgXgXgXgXgXgXgXgXgXgXgXgXgXgXgXgXgXgXgXgXgXgXgXgXgXgXgXgXgXgXgXgXgXgXgXgXgXgXgXgXgXgXgXgXgXgXgXgXgXgXgXgXgXgXgXgXgXgXgXgXgXgXgXgXgXgXgXgXgXgXgXgXgXgXgXgXgXgXgXgXgXgXgXgXgXgXgXgXgXgXgXgXgXgXgXgXgXgXgXgXgXgXgXgXgXgXgXgXgXgXgXgXgXgXgXgXgXgXgXgXgXgXgXgXgXgXgXgXgXgXgXgXgXgXgXgXgXgXgXgXgXgXgXgXgXgXgXgXgXgXgXgXgXgXL.3.c g.f.<.-.r 7 7 h.yXw.-.V < r f.g.g.x.wXx.x.h.h.f.*.=.Y.0.3.2.1.` 0 : m ..{ x f B { O.m.X.} { O.L.C. . .m. .} O.m.L.C. .O.O.O. . .+.P.C. . . .B.A.A.b. .| C.m.b.b.B.c. . .b.B.b.b. . .C.C.m.b.b.b.} Y } b.b.n.} }  . .{ U g g g j ..0.' 8 8 m D B B D ( D 1.e.3.3.3.3.3.2.2.-.=.w.f.p.f.f., * E m 0 , * N E.3.o.w.h.z.x.l.x.z.h.g.w.w.f.g.g.w.4.2.3.3.3.....X.",
"=.< g.w.2.2.2.4.w.f.f.f.g.w.<.r.g.<.<.f.k.f.f.4.2.' N W 0.[ , , 8 8 9 # 9 <.<.<.<.*./ m 2.3.2.2.o.] ] ] m z ..F B B B N 1 1 m N m c c z 0 z z z g f f g g g g g U K K K K K K g g a a a g g F { { W B B B W W W W W W ........{ W W ..........o.......o.2.2.o...o...{ W W W B W o.2.A , m ..{ { { 3.2.*.z.wXwX].x.x.j.e.g.j.0 8 ^ =.4.h.h.8 o 0 ^ *.=.=.m s } gXgXgXgXgXgXgXgXgXgXgXgXgXgXgXgXgXgXgXgXgXgXgXgXgXgXgXgXgXgXgXgXgXgXgXgXgXgXgXgXgXgXgXgXgXgXgXgXgXgXgXgXgXgXgXgXgXgXgXgXgXgXgXgXgXgXgXgXgXgXgXgXgXgXgXgXgXgXgXgXgXgXgXgXgXgXgXgXgXgXgXgXgXgXgXgXgXgXgXgXgXgXgXgXgXgXgXgXgXgXgXgXgXgXgXgXgXgXgXgXgXgXgXgXgXgXgXgXgXgXgXgXgXgXgXgXgXgXgXgXgXgXgXgXgXgXgXgXgXgXgXgXgXgXgXgXgXgXgXgXgXgXgXgXgXgXgXgXgXgXgXgXgXgXgXgXgXgXgXgXgXgXgXgXgXgXgXgXgXgXgXgXgXgXgXgXgXgXgXgXgXgXgXgXgXgXgXgXgXgXgXgXgXgXgXgXgXgXgXgXgXgXgXgXgXgXgXgXgXgXgXgXgXgXgXgXgXgXgXgXgXgXgXgXgXgXgXgXL.O.c g.f.<.:.r 7 7 g.yXw.;.V < r f.f.h.x.wXx.x.x.z.f.-.=.0.3.3.2.1.` c 8 V ' ' M z N D { { { B D ....{ { { } } { { { { { { { { { { W W W W K K K | | | { { { { { { R Y U U { { } } } { { } { { } } } } U { { { { { W { } { { B g g B ..2.` 8 c D { { { W _ M _ 2.3.3.3.0.e.5.2.[ -.4.f.p.f.<.* * E m c , % N E.O...2.g.h.l.l.x.z.l.g.w.f.f.g.w.4.2.2.3.3.X...F ..",
"=.8 g.w.2.2.2.;.w.f.z.f.g.w.w.w.r.w.g.f.k.k.f.4.2.' N W 0.[ , 7 9 8 8 # 9 <.p.p.7.-./ ( ..2.2.2.o.2.o.2.m z { F D B W D s 8 0 < * % o . . . . . . . . . . . o % o o o o o o . . . . . . . o % % % % o o o o o o o o o * % % % % % o % o o o o * * * % * * * * * * * * * * * * * = < , < N ......X.3.2.*.s.0XyXwXx.l.j.e.g.j.0 8 V ` 2.h.x.9 o 9 *.=.<.<.D s } gXgXgXgXgXgXgXgXgXgXgXgXgXgXgXgXgXgXgXgXgXgXgXgXgXgXgXgXgXgXgXgXgXgXgXgXgXgXgXgXgXgXgXgXgXgXgXgXgXgXgXgXgXgXgXgXgXgXgXgXgXgXgXgXgXgXgXgXgXgXgXgXgXgXgXgXgXgXgXgXgXgXgXgXgXgXgXgXgXgXgXgXgXgXgXgXgXgXgXgXgXgXgXgXgXgXgXgXgXgXgXgXgXgXgXgXgXgXgXgXgXgXgXgXgXgXgXgXgXgXgXgXgXgXgXgXgXgXgXgXgXgXgXgXgXgXgXgXgXgXgXgXgXgXgXgXgXgXgXgXgXgXgXgXgXgXgXgXgXgXgXgXgXgXgXgXgXgXgXgXgXgXgXgXgXgXgXgXgXgXgXgXgXgXgXgXgXgXgXgXgXgXgXgXgXgXgXgXgXgXgXgXgXgXgXgXgXgXgXgXgXgXgXgXgXgXgXgXgXgXgXgXgXgXgXgXgXgXgXgXgXgXgXgXgXgXgXgXH.X.c g.l.<.<.r 9 9 l.iXg.;.V 8 r z.x.x.x.wXx.x.x.z.k.-.-.3.o.....' ` ~ r 8 = % * * * % % % % % % # o o % % % * % % % % o o o o o o o # # # % % % % % * % % % o o # o o o o % % % % % % % o o % % % % % % % % % % % * * % * : * * * : < s 8 8 c ' ....o.2...M M ..o.3.3.5.e.5.2.[ -.w.f.f.f.<.# * _ _ c , % N T.O.o.2.w.f.h.x.x.z.x.h.g.f.f.g.g.g.w.5.3.3.6.{ { ..",
"=.< j.w.=.' ' =.4.g.f.f.w.w.w.f.f.f.z.z.z.k.f.4.2...B W 0.[ , , , 8 8 * 9 <.p.p.p.-./ ' 2.o.2.2.2.2.o.' m z { B B W { ' 8 % o   . o o o o # * # # # * , , , , 7 , , , , , 7 7 , , , , , , , , , , , , 9 9 , , , , , , 8 , , , , , , , , , * , , 9 9 7 7 , , , , , , * * * * * % o o * 8 D { { O.3.K.2./ a.0X0Xx.x.l.h.e.e.g.0 , m ` 2.j.x.0 o 9 *.-.<.f.-.s } gXgXgXgXgXgXgXgXgXgXgXgXgXgXgXgXgXgXgXgXgXgXgXgXgXgXgXgXgXgXgXgXgXgXgXgXgXgXgXgXgXgXgXgXgXgXgXgXgXgXgXgXgXgXgXgXgXgXgXgXgXgXgXgXgXgXgXgXgXgXgXgXgXgXgXgXgXgXgXgXgXgXgXgXgXgXgXgXgXgXgXgXgXgXgXgXgXgXgXgXgXgXgXgXgXgXgXgXgXgXgXgXgXgXgXgXgXgXgXgXgXgXgXgXgXgXgXgXgXgXgXgXgXgXgXgXgXgXgXgXgXgXgXgXgXgXgXgXgXgXgXgXgXgXgXgXgXgXgXgXgXgXgXgXgXgXgXgXgXgXgXgXgXgXgXgXgXgXgXgXgXgXgXgXgXgXgXgXgXgXgXgXgXgXgXgXgXgXgXgXgXgXgXgXgXgXgXgXgXgXgXgXgXgXgXgXgXgXgXgXgXgXgXgXgXgXgXgXgXgXgXgXgXgXgXgXgXgXgXgXgXgXgXgXgXgXgXgXm...c w.z.y.<.*.7 9 x.pXg.;.~ < r z.l.l.x.x.0Xx.z.z.p./ -.3.2..._ _ V 8 # o   . # , * * , , ; ; ; , , , , , , , 7 7 7 7 7 7 7 9 9 7 7 7 7 9 9 9 8 8 , , 9 7 , , , * * , , * * * * * , , * # * , , , , , , , * # # # o o o o . . . . .   . o 7 0 _ o.o.O.o...c c ' ..3.3.L.3.2.2.` -.f.f.f.f.<.# * ~ _ c , % m Y.O...2.4.w.g.z.x.0Xx.h.g.f.f.g.g.f.g.e.3.3.X.....3.",
"=., g.w.=.=.' =.4.g.h.h.f.w.w.g.f.f.z.z.z.z.f.4.2...D ..0.[ , , 8 0 8 * 9 p.p.p.<.-./ ' 3.0.e.w.w.2.o.[ m z { { { ..W z * # o o * , , , , < < , , , < 8 8 8 8 8 8 8 , , 9 9 , , , , , , , , , , , , , , 9 9 9 9 7 , , , , , , , , , , 9 9 9 9 8 8 8 9 7 , , , 9 9 9 , , < 8 8 7 * o * 8 x { ....O.3.2./ a.0XwXwX0X0Xx.g.g.g.0 , m ` 2.j.(.0 # 9 *.<.<.f.-.s X.gXgXgXgXgXgXgXgXgXgXgXgXgXgXgXgXgXgXgXgXgXgXgXgXgXgXgXgXgXgXgXgXgXgXgXgXgXgXgXgXgXgXgXgXgXgXgXgXgXgXgXgXgXgXgXgXgXgXgXgXgXgXgXgXgXgXgXgXgXgXgXgXgXgXgXgXgXgXgXgXgXgXgXgXgXgXgXgXgXgXgXgXgXgXgXgXgXgXgXgXgXgXgXgXgXgXgXgXgXgXgXgXgXgXgXgXgXgXgXgXgXgXgXgXgXgXgXgXgXgXgXgXgXgXgXgXgXgXgXgXgXgXgXgXgXgXgXgXgXgXgXgXgXgXgXgXgXgXgXgXgXgXgXgXgXgXgXgXgXgXgXgXgXgXgXgXgXgXgXgXgXgXgXgXgXgXgXgXgXgXgXgXgXgXgXgXgXgXgXgXgXgXgXgXgXgXgXgXgXgXgXgXgXgXgXgXgXgXgXgXgXgXgXgXgXgXgXgXgXgXgXgXgXgXgXgXgXgXgXgXgXgXgXgXgXgXgXgX3.X.z w.z.p.-.A 7 9 x.iXg.-.A < A h.z.z.x.wXwXx.z.k.p./ =.R.L.3...' V 8 , * # * 9 8 8 8 9 9 9 9 9 9 9 9 9 0 0 0 9 9 9 9 9 9 9 0 0 0 0 0 0 0 0 0 0 0 9 0 8 8 9 8 8 9 8 8 8 7 8 8 8 8 9 8 9 9 9 9 9 8 8 8 8 8 9 , 9 9 8 7 9 9 9 8 8 8 8 , * # , < M ..3.3.O...c m ....O.L.T.3.2.2.-.*.f.f.f.f.<.# * _ ~ c , % N E.3.O.2.w.g.h.z.x.x.l.j.h.f.f.g.g.f.g.e.2.........3.",
"=.: e.w.=.=.2.=.4.g.g.f.g.w.w.f.f.p.z.z.z.z.z.f.2...D W 3._ , , 8 0 8 # e f.p.p.<.-.^ [ 9.e.j.g.w.=._ [ ~ z ..{ { ' ' f > * o o % o % % % % o . . . $ $ % % % % % % % % % # # * * * * # o o # * # # # # # # # * * * # # # * * * * # o o o . . . o o # o % % % % % o o o % % % * % o 8 0 z D { D F X.6.*.a.0XwXwXwXwX].x.g.f.0 , c ` 2.j.(.r # 9 -.<.<.f.*.s O.j gXgXgXgXgXgXgXgXgXgXgXgXgXgXgXgXgXgXgXgXgXgXgXgXgXgXgXgXgXgXgXgXgXgXgXgXgXgXgXgXgXgXgXgXgXgXgXgXgXgXgXgXgXgXgXgXgXgXgXgXgXgXgXgXgXgXgXgXgXgXgXgXgXgXgXgXgXgXgXgXgXgXgXgXgXgXgXgXgXgXgXgXgXgXgXgXgXgXgXgXgXgXgXgXgXgXgXgXgXgXgXgXgXgXgXgXgXgXgXgXgXgXgXgXgXgXgXgXgXgXgXgXgXgXgXgXgXgXgXgXgXgXgXgXgXgXgXgXgXgXgXgXgXgXgXgXgXgXgXgXgXgXgXgXgXgXgXgXgXgXgXgXgXgXgXgXgXgXgXgXgXgXgXgXgXgXgXgXgXgXgXgXgXgXgXgXgXgXgXgXgXgXgXgXgXgXgXgXgXgXgXgXgXgXgXgXgXgXgXgXgXgXgXgXgXgXgXgXgXgXgXgXgXgXgXgXgXgXgXgXgXgXgXgXgXgXgXO...z w.h.<.*.e , 9 l.>Xf.=.0 , r f.z.z.].yXwXx.z.f.p./ =.R.L.O.o.2.V c 0 % o * * * , * * * # # # % # # # # * * * * % % % % % % % % $ % % % % % * , , * * * * # # # # o # # * * * # # # * * # o o o % o o o o # % % % * * * * , , * * * o , c z z ' ..X.{ ' m _ 3.X.X.m.m.O.3.3.` -.g.f.f.f.<.# * ~ ~ 0 , % ' /.3.O.5.g.h.z.z.z.z.h.g.g.f.h.g.g.h.h.e.2...' ' ' 2.",
"=., e.5.-.=.2.2.4.g.w.w.g.w.w.f.h.f.k.z.z.z.z.f.4.' N B O._ , , 8 0 8 # e f.f.p.<.-.[ ' 2.0.e.r.2.' _ [ ^ z W B x x D z v 0 . . % % % * * * * * * * * * = = = < 8 8 < < < , , , , * , , : , * * , , , , , , * * * , , , , , , , , : * * * * * * , , , , < < > , , : , : % % % % * * ^ 2.N ....D D ..6.*.p.0XwXwXwXyX].h.g.g.9 , c _ =.g.(.0 # 9 -.<.<.<.*.s O.j & gXgXgXgXgXgXgXgXgXgXgXgXgXgXgXgXgXgXgXgXgXgXgXgXgXgXgXgXgXgXgXgXgXgXgXgXgXgXgXgXgXgXgXgXgXgXgXgXgXgXgXgXgXgXgXgXgXgXgXgXgXgXgXgXgXgXgXgXgXgXgXgXgXgXgXgXgXgXgXgXgXgXgXgXgXgXgXgXgXgXgXgXgXgXgXgXgXgXgXgXgXgXgXgXgXgXgXgXgXgXgXgXgXgXgXgXgXgXgXgXgXgXgXgXgXgXgXgXgXgXgXgXgXgXgXgXgXgXgXgXgXgXgXgXgXgXgXgXgXgXgXgXgXgXgXgXgXgXgXgXgXgXgXgXgXgXgXgXgXgXgXgXgXgXgXgXgXgXgXgXgXgXgXgXgXgXgXgXgXgXgXgXgXgXgXgXgXgXgXgXgXgXgXgXgXgXgXgXgXgXgXgXgXgXgXgXgXgXgXgXgXgXgXgXgXgXgXgXgXgXgXgXgXgXgXgXgXgXgXgXgXgXgXgXgXgXgX..z w.f.<.*.r , 9 l.>X4.-.0 , r l.x.x.wXyXwX].x.h.7.A =.Y.H.{ ....N _ _ < % > * , < < < 8 8 8 8 < , , , , < < 8 8 < < < < < < < > > > < < < < 8 8 < < < , , , , , , : : , * , , , , * * * * * * * > > = * : : * % % % * * % % * * * % o 0 -._ N ....{ F ..N ' O. .O.X.X.O.0.0.' -.g.f.f.z.7.# * ~ ~ 0 , * ' ;X0...5.g.z.z.h.h.l.h.g.4.f.h.g.g.h.h.g.2.2.' ' [ 2.",
";., g.5.-.=.2.2.w.g.g.w.g.g.w.f.h.f.k.z.z.z.z.f.4.' N W 3._ , , , 8 8 # e f.f.a.<.-.^ 1.2.2.2.2.5.2.=.[ ^ M ..B D D N f E _ > % * = > < 1 1 1 z 0 8 1 z z z c M m m M m c c z c z c m m m m c z c V ~ V m m m V A c c c c m m m m c c c c c c c c c r ~ ^ ~ ~ ~ ~ ^ ~ m z z f s 1 c w.5.' ....W ..X.6./ p.9XwXwXyXyXx.g.h.h.0 , c ` =.e.^.0 o 9 -.<.<.<.[ s O.j & $ gXgXgXgXgXgXgXgXgXgXgXgXgXgXgXgXgXgXgXgXgXgXgXgXgXgXgXgXgXgXgXgXgXgXgXgXgXgXgXgXgXgXgXgXgXgXgXgXgXgXgXgXgXgXgXgXgXgXgXgXgXgXgXgXgXgXgXgXgXgXgXgXgXgXgXgXgXgXgXgXgXgXgXgXgXgXgXgXgXgXgXgXgXgXgXgXgXgXgXgXgXgXgXgXgXgXgXgXgXgXgXgXgXgXgXgXgXgXgXgXgXgXgXgXgXgXgXgXgXgXgXgXgXgXgXgXgXgXgXgXgXgXgXgXgXgXgXgXgXgXgXgXgXgXgXgXgXgXgXgXgXgXgXgXgXgXgXgXgXgXgXgXgXgXgXgXgXgXgXgXgXgXgXgXgXgXgXgXgXgXgXgXgXgXgXgXgXgXgXgXgXgXgXgXgXgXgXgXgXgXgXgXgXgXgXgXgXgXgXgXgXgXgXgXgXgXgXgXgXgXgXgXgXgXgXgXgXgXgXgXgXgXgXgXgXgX..z w.f.<.-./ 9 8 x.uX4.-.c , A x.].].wXyXwX].x.z.p.A =.P.m.{ { ..B _ 2.z < s s z m m N _ _ _ _ _ V m m N N N D _ ^ ` -.[ ^ V A V c A ~ ~ ~ ^ _ m m m m c c c c 0 0 0 z z z M m c z z z z 0 z z z m m M N m m z z z z z z 8 1 < < < > % ~ =._ ' ....F { ..( ' O.X.X.} X.O.e.0._ -.f.f.f.k.<.# * V ~ 0 , % ' ;X3...2.g.f.h.h.h.x.l.g.4.5.g.h.f.h.h.e.w.2.=.=.=.5.",
"1.< g.5.-.=.2.;.w.g.g.g.f.f.w.4.g.h.f.z.z.z.z.z.w.=.N { 0.' , , , 8 8 # 9 f.a.p.y.-.[ 2.3.2.o.2.e.Y.2.=.V z ..B F { D s 0 ' z = < s f z z z v N ( N v N D W W ' ....{ ....' _ ( W ' ..' ........' ..2.2.' ' ..2.2.2.o.' ' ' ..2.' _ _ =.=.=.=.' ' _ -.2.2.2.] [ =.;.] _ N B x f z ' w.' D ......{ X.6./ a.z.wXwXwX0Xh.g.g.h.0 , A ` =.w.j.0 o 9 -.<.<.<.-.s X.g & . gXgXgXgXgXgXgXgXgXgXgXgXgXgXgXgXgXgXgXgXgXgXgXgXgXgXgXgXgXgXgXgXgXgXgXgXgXgXgXgXgXgXgXgXgXgXgXgXgXgXgXgXgXgXgXgXgXgXgXgXgXgXgXgXgXgXgXgXgXgXgXgXgXgXgXgXgXgXgXgXgXgXgXgXgXgXgXgXgXgXgXgXgXgXgXgXgXgXgXgXgXgXgXgXgXgXgXgXgXgXgXgXgXgXgXgXgXgXgXgXgXgXgXgXgXgXgXgXgXgXgXgXgXgXgXgXgXgXgXgXgXgXgXgXgXgXgXgXgXgXgXgXgXgXgXgXgXgXgXgXgXgXgXgXgXgXgXgXgXgXgXgXgXgXgXgXgXgXgXgXgXgXgXgXgXgXgXgXgXgXgXgXgXgXgXgXgXgXgXgXgXgXgXgXgXgXgXgXgXgXgXgXgXgXgXgXgXgXgXgXgXgXgXgXgXgXgXgXgXgXgXgXgXgXgXgXgXgXgXgXgXgXgXgXgXX.{ z w.f.7.-./ 8 9 x.iXw.-.r * r x.].x.'.].x.x.x.l.f.A [ L.O.{ { ..( m o.D s s g B D W ......o.o...o.o.o.....o.2.2.2.5.w.4.;.;.;.;.=.=.2.2.2.2.1...........2.] ' ' ' ..........' ' ' ' ' ' ( ( ' ......' D ' ' _ _ N N N N M z s s s s 1 =.2._ ' ..{ F F ..N _ O.O.O.3.L.0.Y.e.' ` w.f.k.k.<.# * V E 0 , % ' /.O.{ 2.4.f.g.h.z.z.l.h.w.4.w.g.f.h.f.w.2.2.=.=.=.5.",
"1.< g.w.=.=.;.4.w.w.w.g.f.z.f.4.f.l.f.z.z.z.z.f.w.;._ { L.' , * , 0 0 # 9 p.p.p.<.-.*.' 0.2.o.2.0.0.o...D z ..{ { { W s < *.' s s s s g g g x D { B B B { { { { { } } } { o.' ( W o...{ { { X.O.....2.2.o...o.2.3.3.2.2.o.o.3.3.o.' ' 2.2.2.2...' ' 2.5.5.2...' 2.w.2.' ( D B x x 2.2.z N ......{ O.6./ a.9XwXwX0Xx.g.w.g.g.r , A =.1.e.j.0 o 9 -.<.<.<.[ < { g $ gXgXgXgXgXgXgXgXgXgXgXgXgXgXgXgXgXgXgXgXgXgXgXgXgXgXgXgXgXgXgXgXgXgXgXgXgXgXgXgXgXgXgXgXgXgXgXgXgXgXgXgXgXgXgXgXgXgXgXgXgXgXgXgXgXgXgXgXgXgXgXgXgXgXgXgXgXgXgXgXgXgXgXgXgXgXgXgXgXgXgXgXgXgXgXgXgXgXgXgXgXgXgXgXgXgXgXgXgXgXgXgXgXgXgXgXgXgXgXgXgXgXgXgXgXgXgXgXgXgXgXgXgXgXgXgXgXgXgXgXgXgXgXgXgXgXgXgXgXgXgXgXgXgXgXgXgXgXgXgXgXgXgXgXgXgXgXgXgXgXgXgXgXgXgXgXgXgXgXgXgXgXgXgXgXgXgXgXgXgXgXgXgXgXgXgXgXgXgXgXgXgXgXgXgXgXgXgXgXgXgXgXgXgXgXgXgXgXgXgXgXgXgXgXgXgXgXgXgXgXgXgXgXgXgXgXgXgXgXgXgXgXgXgXgXgX..{ f w.h.w.-.A 8 9 x.uXg.-.r , A x.].x.x.x.x.x.x.l.f./ ' Y.O.{ F ..' z ' ..B g g B { ....o.o.o.o.o.3.O.....O.3.3.2.5.e.e.5.2.2.w.2.2.2.3.3.2.o.2.O.O.o...o.3.3.2.2.O.O.O...{ ..o.2.0.9.2...{ W { o.3.2...H ........' ' ' ' D B z s s s z 2.2.m ....{ { F ' m ` 0.Y.0.3.0.0.0.e.` ^ <.f.a.p.<.# * V E 0 , % ' E.O.{ 2.4.w.g.x.x.z.z.l.g.f.w.g.f.l.h.w.2.;.=.=.=.w.",
"=., g.w.=.;.;.4.w.w.f.f.f.h.h.f.f.z.z.z.z.k.a.7.;.-.' ..L.' , * 9 0 0 # 9 <.y.p.<.-.^ [ e.9.2.2.2.....' m z ..{ { D N z * A ;.N s d d g g d d g { B B F { { } j F F F { { { W W { o.{ { { } X.O.{ { o.2.o.o.....O.3.3.o.o.o.3.3...' ..2.o.............2.2.o.' ' 1.w.2...W B B B W 2.[ , m ........O.3.^ k.0Xx.0X0Xx.f.w.f.g.r * c ` ' w.j.0 o 8 *.<.<.<.[ < } g gXgXgXgXgXgXgXgXgXgXgXgXgXgXgXgXgXgXgXgXgXgXgXgXgXgXgXgXgXgXgXgXgXgXgXgXgXgXgXgXgXgXgXgXgXgXgXgXgXgXgXgXgXgXgXgXgXgXgXgXgXgXgXgXgXgXgXgXgXgXgXgXgXgXgXgXgXgXgXgXgXgXgXgXgXgXgXgXgXgXgXgXgXgXgXgXgXgXgXgXgXgXgXgXgXgXgXgXgXgXgXgXgXgXgXgXgXgXgXgXgXgXgXgXgXgXgXgXgXgXgXgXgXgXgXgXgXgXgXgXgXgXgXgXgXgXgXgXgXgXgXgXgXgXgXgXgXgXgXgXgXgXgXgXgXgXgXgXgXgXgXgXgXgXgXgXgXgXgXgXgXgXgXgXgXgXgXgXgXgXgXgXgXgXgXgXgXgXgXgXgXgXgXgXgXgXgXgXgXgXgXgXgXgXgXgXgXgXgXgXgXgXgXgXgXgXgXgXgXgXgXgXgXgXgXgXgXgXgXgXgXgXgXgXgXgXgXX.{ f w.h.w.-.0 , 9 x.yXg.-.A , A x.x.x.'.].x.x.x.l.f./ =.P.O.{ F { ..1 c ' ' B B B F ..O.O.o.o.o.o.3.3...{ X.O.3.3.3.3.3.2.2.2.2.3.o.o.3.3.X.{ 3.3.0.X.{ ..2.0.O.o...{ { { { { ..0.e.0.o.' W B { O.0.3...D D ......' N W ..' N x x f f ..2._ c ' { X.{ { D M _ 0.Y.0.3.3.3.0.e.^ A <.y.p.p.<.# # V ~ 0 , * ' E.O...o.4.f.h.l.x.x.z.z.h.f.f.f.f.l.f.w.<.;.=.;.;.w.",
"=., g.w.;.4.4.4.4.w.f.z.f.f.h.f.f.h.z.z.z.z.f.7.-.[ _ ..L...< , 8 c 0 # 9 ,.p.p.p.-.[ ] t.e.0.2.o.....' m z ..{ F D D M : 0 ' ' s d d g d d g g F g g j U U U j j Y U U U U } } }  .} U U } { X.{ { ..o.o.o.......O.O.o...o.O.O.......o.........................2.2.2...{ g B B ..2.c * m ..F B F O.3.*.k.0Xx.0X0X0Xx.g.g.g.r * c ` ' w.j.A o 9 *.-.<.4.*.< F g gXgXgXgXgXgXgXgXgXgXgXgXgXgXgXgXgXgXgXgXgXgXgXgXgXgXgXgXgXgXgXgXgXgXgXgXgXgXgXgXgXgXgXgXgXgXgXgXgXgXgXgXgXgXgXgXgXgXgXgXgXgXgXgXgXgXgXgXgXgXgXgXgXgXgXgXgXgXgXgXgXgXgXgXgXgXgXgXgXgXgXgXgXgXgXgXgXgXgXgXgXgXgXgXgXgXgXgXgXgXgXgXgXgXgXgXgXgXgXgXgXgXgXgXgXgXgXgXgXgXgXgXgXgXgXgXgXgXgXgXgXgXgXgXgXgXgXgXgXgXgXgXgXgXgXgXgXgXgXgXgXgXgXgXgXgXgXgXgXgXgXgXgXgXgXgXgXgXgXgXgXgXgXgXgXgXgXgXgXgXgXgXgXgXgXgXgXgXgXgXgXgXgXgXgXgXgXgXgXgXgXgXgXgXgXgXgXgXgXgXgXgXgXgXgXgXgXgXgXgXgXgXgXgXgXgXgXgXgXgXgXgXgXgXgXgXgXX.{ f w.h.<.^ 0 , 8 x.yXg.=.c , A l.x.x.].].wX].x.x.f./ =.L.X.{ F ....0 8 ` ..B F F { O.3.O.O.o.o.o.O.O.} } } O.O.X.X.3.O.o.o.2.2.0.2.o.O.o.{ { | O. .| { { o.O. .{ { { } { { { { O.0.2.o.' W B W ..O...{ B D { { ..W B D { ..B B B g F 3.' c c ' { X.X...' M _ 2.0.3.3.3.O.0.9.Z A <.<.p.p.<.# * _ _ 0 9 * ' E.3.{ 2.w.f.z.z.x.x.z.z.z.h.f.f.f.l.g.w.4.2.=.=.=.w.",
"' : e.w.2.2.4.=.2.w.h.h.f.f.h.h.f.h.z.z.k.z.f.w.=._ D X.T.2., * 8 0 0 * 9 <.p.a.f.<.[ [ t.0.2.....o...' V z { F D D F v = 1 ' ..D D N N N D D W W W U U { U j j j U j j j { } } { { { { j F { { { ..........................o.o.....o.2.o.............' ' ' ..2.2.2.2.3.X.{ ....2.' , % M { B B { m.3.*.p.0X].x.0X0X(.(.j.g.0 , c _ =.e.^.A o 7 A *.;.4.-.s F g gXgXgXgXgXgXgXgXgXgXgXgXgXgXgXgXgXgXgXgXgXgXgXgXgXgXgXgXgXgXgXgXgXgXgXgXgXgXgXgXgXgXgXgXgXgXgXgXgXgXgXgXgXgXgXgXgXgXgXgXgXgXgXgXgXgXgXgXgXgXgXgXgXgXgXgXgXgXgXgXgXgXgXgXgXgXgXgXgXgXgXgXgXgXgXgXgXgXgXgXgXgXgXgXgXgXgXgXgXgXgXgXgXgXgXgXgXgXgXgXgXgXgXgXgXgXgXgXgXgXgXgXgXgXgXgXgXgXgXgXgXgXgXgXgXgXgXgXgXgXgXgXgXgXgXgXgXgXgXgXgXgXgXgXgXgXgXgXgXgXgXgXgXgXgXgXgXgXgXgXgXgXgXgXgXgXgXgXgXgXgXgXgXgXgXgXgXgXgXgXgXgXgXgXgXgXgXgXgXgXgXgXgXgXgXgXgXgXgXgXgXgXgXgXgXgXgXgXgXgXgXgXgXgXgXgXgXgXgXgXgXgXgXgXgXgXgX{ F s 5.w.;.A 8 * 8 x.yXg.-.0 , r l.x.x.].].yX>X>Xx.f./ =.H.F W ....' 8 > _ o...{ D { 3.0.3.3.2.2.3.3.O.O.O.O.O.O.O.3.3.2.2.2.2.3.3.2.2.o.o.....{ { }  . .| o.o.o.....{ { { { ....o.2.2.2.2.o.o.o.o.o.....{ { { ......{ X.O.O.X.{ { { 3.0.z , c N X.X.O.3...m ` 2.2.3.3.3.O.0.2.^ A <.y.y.p.,.; : _ _ 0 , * ' ;XK...2.r.z.z.l.l.l.z.z.z.f.f.f.f.f.w.w.2.2.=.' ' 9.",
"' * w.w.1.2.2.=.;.w.f.f.f.f.f.h.z.k.k.z.f.g.w.2.2.' ' X.T...: * 8 0 0 * 9 <.p.p.<.-.^ ..t.e.3.o.2.2.2.' A s { { { F D v 1 c D M s < < > > > > < < < < = = = * * * : : * : , : : , , , , * = & : > > < , < > < > < < 1 1 1 < < > 1 8 1 1 1 1 1 1 1 1 8 8 8 8 c c c c c z f s s z z 8 * , N F F { { m.3.*.p.x.x.x.0X0X>X>X^.g.0 * c D 2.j.>XZ o 8 A *.=.2._ < g s gXgXgXgXgXgXgXgXgXgXgXgXgXgXgXgXgXgXgXgXgXgXgXgXgXgXgXgXgXgXgXgXgXgXgXgXgXgXgXgXgXgXgXgXgXgXgXgXgXgXgXgXgXgXgXgXgXgXgXgXgXgXgXgXgXgXgXgXgXgXgXgXgXgXgXgXgXgXgXgXgXgXgXgXgXgXgXgXgXgXgXgXgXgXgXgXgXgXgXgXgXgXgXgXgXgXgXgXgXgXgXgXgXgXgXgXgXgXgXgXgXgXgXgXgXgXgXgXgXgXgXgXgXgXgXgXgXgXgXgXgXgXgXgXgXgXgXgXgXgXgXgXgXgXgXgXgXgXgXgXgXgXgXgXgXgXgXgXgXgXgXgXgXgXgXgXgXgXgXgXgXgXgXgXgXgXgXgXgXgXgXgXgXgXgXgXgXgXgXgXgXgXgXgXgXgXgXgXgXgXgXgXgXgXgXgXgXgXgXgXgXgXgXgXgXgXgXgXgXgXgXgXgXgXgXgXgXgXgXgXgXgXgXgXgXgXgXX.{ s 2.2._ z < * 8 x.x.w.*.0 , r h.(.(.>X>X>X>Xx.x.f.[ 2.3.{ ......' c 8 ~ ' N z s s z z z z 8 8 8 8 8 8 8 8 8 0 0 8 1 1 1 1 8 0 1 1 0 8 1 s z z 8 1 s z z 8 z z z 1 s s s s f z z z z c c z m m z z z z z z z z z z N N x x f s z B ' _ : , z v ..3.3.3.o.V ` 2.3.0.0.3.3.0.0.` *.<.f.y.p.,.; : V V 0 , : ../.H...2.e.h.l.g.g.f.l.z.z.f.f.h.f.g.4.e.2.2.' ' _ 2.",
"' > e.w.1.2.4.2.4.w.g.f.f.g.f.f.z.k.z.z.h.f.2.=.' ' W X.Y.1., , 0 c 0 , 9 p.f.p.<.*.^ _ 0.2.2.2.2.2.2.=.A s { { D D W D c 0 8 % . . . . . . . . . . o . . o # o o o o o # o # # # o # # o # # o * # o o # # # # # # # o o o o o o # o o o o o o # # o o o o o # # # # o o o o . . o * c ..{ G { { X.O.^ p.x.x.x.0XwX(.(.~.g.A , c ` 5.(.uX^ o < c D D ..M t g s gXgXgXgXgXgXgXgXgXgXgXgXgXgXgXgXgXgXgXgXgXgXgXgXgXgXgXgXgXgXgXgXgXgXgXgXgXgXgXgXgXgXgXgXgXgXgXgXgXgXgXgXgXgXgXgXgXgXgXgXgXgXgXgXgXgXgXgXgXgXgXgXgXgXgXgXgXgXgXgXgXgXgXgXgXgXgXgXgXgXgXgXgXgXgXgXgXgXgXgXgXgXgXgXgXgXgXgXgXgXgXgXgXgXgXgXgXgXgXgXgXgXgXgXgXgXgXgXgXgXgXgXgXgXgXgXgXgXgXgXgXgXgXgXgXgXgXgXgXgXgXgXgXgXgXgXgXgXgXgXgXgXgXgXgXgXgXgXgXgXgXgXgXgXgXgXgXgXgXgXgXgXgXgXgXgXgXgXgXgXgXgXgXgXgXgXgXgXgXgXgXgXgXgXgXgXgXgXgXgXgXgXgXgXgXgXgXgXgXgXgXgXgXgXgXgXgXgXgXgXgXgXgXgXgXgXgXgXgXgXgXgXgXgXgXgXgXX.} s 2.5.' z 1 * 8 x.x.<.*.r , A j.(.(.(.(.j.h.h.h.f.*.2.E.3.3.o.....D 8 8 : % o # * # # # # # # # # # # # o o # # o o o o o o # o o o o . . . o O O O . . . . o o o o o o o o . o o o o o o o o o o # # # o o o o # # # o o o o o o % % , c c N ........' _ ' 3.0.0.0.3.3.0.0.' =.w.p.p.p.,.; * m m 0 , : ..E.H.X.3.e.g.g.g.w.f.h.l.l.f.f.h.h.g.2.2.o.......' 2.",
"' : e.w.=.2.2.4.w.g.f.f.f.w.w.f.f.k.z.z.l.g.2.' _ D D ..L..., , 8 c 0 * 9 p.f.p.<.*.^ ' 0.0.t.t.w.2.2.=.~ z ......' ' m 8 , o o * * , 7 7 7 9 9 0 0 0 0 8 0 0 0 8 8 8 8 8 8 0 0 0 8 8 1 < 8 8 9 9 9 8 8 e e e 9 9 9 9 9 9 9 9 9 9 8 8 9 9 9 9 9 9 9 q 9 9 9 9 8 e r 9 9 e r 0 8 * * , c ..{ G G G } ../ p.z.x.x.0Xx.j.e.e.e.0 * c *.4.j.uX^ o , c V M v z t g s . gXgXgXgXgXgXgXgXgXgXgXgXgXgXgXgXgXgXgXgXgXgXgXgXgXgXgXgXgXgXgXgXgXgXgXgXgXgXgXgXgXgXgXgXgXgXgXgXgXgXgXgXgXgXgXgXgXgXgXgXgXgXgXgXgXgXgXgXgXgXgXgXgXgXgXgXgXgXgXgXgXgXgXgXgXgXgXgXgXgXgXgXgXgXgXgXgXgXgXgXgXgXgXgXgXgXgXgXgXgXgXgXgXgXgXgXgXgXgXgXgXgXgXgXgXgXgXgXgXgXgXgXgXgXgXgXgXgXgXgXgXgXgXgXgXgXgXgXgXgXgXgXgXgXgXgXgXgXgXgXgXgXgXgXgXgXgXgXgXgXgXgXgXgXgXgXgXgXgXgXgXgXgXgXgXgXgXgXgXgXgXgXgXgXgXgXgXgXgXgXgXgXgXgXgXgXgXgXgXgXgXgXgXgXgXgXgXgXgXgXgXgXgXgXgXgXgXgXgXgXgXgXgXgXgXgXgXgXgXgXgXgXgXgXgXgXX.G s 2.e.=.V 8 * 8 x.>Xw.-.A 8 A g.~.g.j.(.j.g.r.f.p.*.2.E.Y.Y.3...' c 7 , , 7 e r r r r r r r r r A A A A A A A A e e 9 9 9 e e e e 9 8 8 9 7 7 7 7 , , , 9 7 7 7 7 9 9 9 7 7 7 7 9 8 9 9 0 9 8 9 8 8 8 9 9 7 7 9 9 7 9 9 9 9 9 7 7 * o 8 A z N ..H D N ' ` ' 3.0.0.5.2.2.e.e.[ -.<.p.y.p.,.# * m D 0 , * ..E.L.X.3.w.r.g.h.h.h.z.h.g.w.7.f.f.f.2.2.o.O.......o.",
"` : e.w.=.2.2.w.f.f.f.w.w.g.w.f.f.z.z.z.z.g.4.2.....D ..L.2.< * , 8 0 * 9 p.f.p.<.*.~ _ 2.2.t.j.e.w.2.=.~ z ..X.....W f > % o o * , , 8 8 8 8 8 0 0 8 8 8 8 8 8 8 1 < < < 8 < < 8 1 < > < < 8 8 8 8 8 8 8 8 8 8 0 0 0 0 0 0 0 0 0 0 0 0 0 0 0 0 0 0 0 0 9 9 0 r r r r r A r 0 0 9 , , c W } G F G X.X./ p.x.x.x.x.x.g.2.2.e.9 * c *.;.g.uX*.o , A D N v s t j s . gXgXgXgXgXgXgXgXgXgXgXgXgXgXgXgXgXgXgXgXgXgXgXgXgXgXgXgXgXgXgXgXgXgXgXgXgXgXgXgXgXgXgXgXgXgXgXgXgXgXgXgXgXgXgXgXgXgXgXgXgXgXgXgXgXgXgXgXgXgXgXgXgXgXgXgXgXgXgXgXgXgXgXgXgXgXgXgXgXgXgXgXgXgXgXgXgXgXgXgXgXgXgXgXgXgXgXgXgXgXgXgXgXgXgXgXgXgXgXgXgXgXgXgXgXgXgXgXgXgXgXgXgXgXgXgXgXgXgXgXgXgXgXgXgXgXgXgXgXgXgXgXgXgXgXgXgXgXgXgXgXgXgXgXgXgXgXgXgXgXgXgXgXgXgXgXgXgXgXgXgXgXgXgXgXgXgXgXgXgXgXgXgXgXgXgXgXgXgXgXgXgXgXgXgXgXgXgXgXgXgXgXgXgXgXgXgXgXgXgXgXgXgXgXgXgXgXgXgXgXgXgXgXgXgXgXgXgXgXgXgXgXgXgXgXgX} G s 2.e.;.^ 8 * 8 (.uXh.4.*.8 c t.e.e.g.^.(.g.r.f.p.*.2.E.L.0.O...W 1 * % * , 9 8 0 0 0 r r r r r 0 0 0 0 0 r c c 0 0 0 0 0 9 9 0 0 0 0 8 0 8 8 8 0 0 0 0 0 0 0 0 0 0 0 0 z c c 0 0 c A c c c c 0 0 0 c c 0 c 0 0 0 0 0 0 0 0 0 0 9 7 7 , 0 c N ......' [ ` =.3.3.0.e.e.2.e.e.` / <.<.y.a.,.# % D _ c 9 * ../.L.o.2.r.g.h.l.x.x.h.f.g.4.4.f.f.g.w.e.2.O.....{ O.",
"` , g.w.=.2.4.w.f.z.f.f.g.h.h.h.z.z.z.z.z.f.f.w.2.1.D ..0.2.8 , , 8 0 * 9 f.f.p.<.*.A ' 3.2.e.j.g.w.2.;.` z { { ....B s s 1 % . o o % % % % * * * * * * * * : * * , , , , , * * * : * * * * > > : % * : : * * : : : : : < , < > : , < , , : : : : : , , , < < < , , < < < < , : * , 0 m D { } G G n.3.^ p.x.x.].x.x.j.e.2.e.9 * A -.<.g.yX*.o , c ` D v s t j s .   gXgXgXgXgXgXgXgXgXgXgXgXgXgXgXgXgXgXgXgXgXgXgXgXgXgXgXgXgXgXgXgXgXgXgXgXgXgXgXgXgXgXgXgXgXgXgXgXgXgXgXgXgXgXgXgXgXgXgXgXgXgXgXgXgXgXgXgXgXgXgXgXgXgXgXgXgXgXgXgXgXgXgXgXgXgXgXgXgXgXgXgXgXgXgXgXgXgXgXgXgXgXgXgXgXgXgXgXgXgXgXgXgXgXgXgXgXgXgXgXgXgXgXgXgXgXgXgXgXgXgXgXgXgXgXgXgXgXgXgXgXgXgXgXgXgXgXgXgXgXgXgXgXgXgXgXgXgXgXgXgXgXgXgXgXgXgXgXgXgXgXgXgXgXgXgXgXgXgXgXgXgXgXgXgXgXgXgXgXgXgXgXgXgXgXgXgXgXgXgXgXgXgXgXgXgXgXgXgXgXgXgXgXgXgXgXgXgXgXgXgXgXgXgXgXgXgXgXgXgXgXgXgXgXgXgXgXgXgXgXgXgXgXgXgX} F s 2.w.-./ 8 * 9 (.pXx.4.*.9 0 e.e.e.j.x.x.h.g.f.f.*.2.E.Y.3...{ B v c < % * * * : > < < 8 8 , , , , , , , , , , > > > : : : , : * * * % % * * * * * < , , , , , < < < < > < < < , , < < < < < < < > > > < < < < > < : < , , , < < 7 , , m N ' ....3.2.=.~ ' 3.3.e.e.g.e.e.w.~ / <.p.p.a.<.# : ` ` r , * ../.0.2.4.g.h.l.l.x.x.l.h.g.w.f.f.f.f.w.w.2.o...{ { O.",
"` , g.w.2.2.4.p.z.z.h.g.f.f.g.h.z.z.z.z.z.z.f.f.4.=.' ..Y.2.9 7 9 0 8 * 9 f.f.7.-.*.~ D 3.w.r.w.w.9.2.;.` z X.X.....D s N _ > o % % > > > > < < < < < < < 8 < < 1 1 1 1 8 8 8 < < 1 1 1 1 1 1 1 1 1 8 8 8 8 8 8 8 < < 0 0 0 0 z 0 0 0 0 0 8 8 8 8 8 8 8 0 z c c c 0 0 c 0 0 8 8 < 0 2.' B { } X.X.m.3.[ k.0XwXwXx.x.(.~.e.e.0 , r -.<.h.yX*.o , c ` N x < & g s .   gXgXgXgXgXgXgXgXgXgXgXgXgXgXgXgXgXgXgXgXgXgXgXgXgXgXgXgXgXgXgXgXgXgXgXgXgXgXgXgXgXgXgXgXgXgXgXgXgXgXgXgXgXgXgXgXgXgXgXgXgXgXgXgXgXgXgXgXgXgXgXgXgXgXgXgXgXgXgXgXgXgXgXgXgXgXgXgXgXgXgXgXgXgXgXgXgXgXgXgXgXgXgXgXgXgXgXgXgXgXgXgXgXgXgXgXgXgXgXgXgXgXgXgXgXgXgXgXgXgXgXgXgXgXgXgXgXgXgXgXgXgXgXgXgXgXgXgXgXgXgXgXgXgXgXgXgXgXgXgXgXgXgXgXgXgXgXgXgXgXgXgXgXgXgXgXgXgXgXgXgXgXgXgXgXgXgXgXgXgXgXgXgXgXgXgXgXgXgXgXgXgXgXgXgXgXgXgXgXgXgXgXgXgXgXgXgXgXgXgXgXgXgXgXgXgXgXgXgXgXgXgXgXgXgXgXgXgXgXgXgXgXgXgXgX} G s 2.w.*.r 7 * 7 (.iXl.<./ 7 0 e.e.g.x.x.x.l.f.f.f.^ 2.E.R.3...{ B D ..M < < 1 s f z z c c c 0 0 0 0 c 0 8 1 8 8 0 0 0 0 8 8 8 8 < 8 < < < < < 8 < 8 8 8 8 8 8 0 0 8 8 8 8 0 0 8 8 8 8 8 8 8 8 8 8 < < 8 8 8 8 8 8 8 8 8 < < 8 8 8 8 , m o.W ' 2.2.3.5.;.~ ' 3.3.e.t.j.g.g.2.~ *.<.p.p.f.<.# , [ ^ 9 , * ..;X0.2.4.g.f.l.z.x.l.l.h.h.f.h.h.g.w.f.f.2.o.......3.",
"V , g.e.2.4.4.f.z.z.l.h.f.f.w.f.z.z.z.z.z.z.z.g.w.;.' ..Y.2.9 7 8 0 8 * e f.f.7.<.*.A _ e.e.e.4.;.2.=.2.=.z O.O...{ { f s ..M % = s z z z x z z c m z c m N m m m v v m m m c m m m m m M m m N m V ` ^ V V ~ ^ ^ V V ~ ^ ` ` ` ` ` ^ ^ ^ ~ A A c c A ^ ` _ ` -.-.` ` _ m m z z z ' e.' x { O.H.H.L.3.^ k.wXyXwX0Xx.(.~.e.e.0 * r -.w.l.aX*.o , A ` N v s & g s .   gXgXgXgXgXgXgXgXgXgXgXgXgXgXgXgXgXgXgXgXgXgXgXgXgXgXgXgXgXgXgXgXgXgXgXgXgXgXgXgXgXgXgXgXgXgXgXgXgXgXgXgXgXgXgXgXgXgXgXgXgXgXgXgXgXgXgXgXgXgXgXgXgXgXgXgXgXgXgXgXgXgXgXgXgXgXgXgXgXgXgXgXgXgXgXgXgXgXgXgXgXgXgXgXgXgXgXgXgXgXgXgXgXgXgXgXgXgXgXgXgXgXgXgXgXgXgXgXgXgXgXgXgXgXgXgXgXgXgXgXgXgXgXgXgXgXgXgXgXgXgXgXgXgXgXgXgXgXgXgXgXgXgXgXgXgXgXgXgXgXgXgXgXgXgXgXgXgXgXgXgXgXgXgXgXgXgXgXgXgXgXgXgXgXgXgXgXgXgXgXgXgXgXgXgXgXgXgXgXgXgXgXgXgXgXgXgXgXgXgXgXgXgXgXgXgXgXgXgXgXgXgXgXgXgXgXgXgXgXgXgXgXgXgXgXX.G s =.w.*.r , # , x.iXh.;.A , 8 w.g.g.x.x.x.x.h.f.p.^ 2.E.E.3...{ { N 1.' z < z N D N B N N D m m V ^ ^ _ _ m z m _ ^ ^ ^ ^ ~ A V A V V m c c c c c m _ ~ ~ ~ ^ ^ ` _ _ V V D ` _ V c A V ~ ~ V V V V m m V V c M V c m c 8 8 z z z 8 c 2.3.W ' ..2.3.e.;.~ _ 3.3.3.g.j.g.g.4.[ *.<.f.p.f.<.# : ` ^ 9 , : o.;X0.2.w.g.h.l.z.l.l.l.l.h.g.f.g.w.w.g.g.w.2.......3.",
"V , g.w.=.2.w.f.z.z.z.z.f.f.w.f.z.9Xz.z.z.z.z.f.<.;.` ..Y.2.8 7 8 0 8 * 9 f.f.f.<.*.A =.t.t.e.2.=.2.] ;.[ z ..X.F D ..z < ....s s x B D F H F D N N ' ........' ' ' ......' N ' ..2.....' ' ' ..2.2.2.2.2.2.2.w.w.2.2.2.2.2.2.2.2.5.w.w.4.4.5.2.2._ 2.2.2.2.2.w.e.e.5.2.o...' W N 2.2.M z { O.O.m.H.3.[ k.wXyXyXyX0X(.~.e.w.9 * r <.f.x.aX/ o , c D v v < & g s . gXgXgXgXgXgXgXgXgXgXgXgXgXgXgXgXgXgXgXgXgXgXgXgXgXgXgXgXgXgXgXgXgXgXgXgXgXgXgXgXgXgXgXgXgXgXgXgXgXgXgXgXgXgXgXgXgXgXgXgXgXgXgXgXgXgXgXgXgXgXgXgXgXgXgXgXgXgXgXgXgXgXgXgXgXgXgXgXgXgXgXgXgXgXgXgXgXgXgXgXgXgXgXgXgXgXgXgXgXgXgXgXgXgXgXgXgXgXgXgXgXgXgXgXgXgXgXgXgXgXgXgXgXgXgXgXgXgXgXgXgXgXgXgXgXgXgXgXgXgXgXgXgXgXgXgXgXgXgXgXgXgXgXgXgXgXgXgXgXgXgXgXgXgXgXgXgXgXgXgXgXgXgXgXgXgXgXgXgXgXgXgXgXgXgXgXgXgXgXgXgXgXgXgXgXgXgXgXgXgXgXgXgXgXgXgXgXgXgXgXgXgXgXgXgXgXgXgXgXgXgXgXgXgXgXgXgXgXgXgXgXgXgXgXgXgX{ G s =.w.*.A 9 # , x.uXh.-.A 7 8 w.g.g.g.h.l.x.h.h.w.^ 2.P.L.X.{ { D s ' 2.D s z D ..{ { ....2.2.=.=.2.2.2.2.......2.5.4.2.4.2.;.=.=.2.2.' _ ( ' ' ....o.o.2.2.2.2.2.2.o.....o.2.2.1.' =.' ' 1.' ' ' ' ..' ' ' ' 1.2.2.o.' ' ' N N N z ' 3.2.N ' ....2.2.=.~ _ 2.3.e.e.g.g.g.w.[ / <.p.a.f.<.# , ^ ~ 9 9 : ..;X0.2.w.g.h.l.h.z.z.l.l.g.g.g.f.4.w.h.z.g.4.1.' ' 3.",
"V , g.w.' 2.w.f.z.z.z.z.l.h.l.x.x.x.9X9Xz.z.z.f.-.-.` ' Y.2.8 , 8 0 8 * 9 f.z.h.w.-.r ' 0.0.3.2.2.o.o.o._ z ....{ F B s & z ..D s N { { { { ..{ W { ..O.....O.D { ..3.O.........3.3.O.o.o.2.....3.0.e.e.2...2.2.e.5.2.2.3.0.0.0.e.e.e.w.w.w.e.e.2...2.0.e.0.0.t.g.~.e.3.3.3...W ..3.' < z ..X...X.m.3.*.z.wX>XyX0Xx.j.t.e.e.r * r <.<.l.yX^ o , c D v D s & g s . gXgXgXgXgXgXgXgXgXgXgXgXgXgXgXgXgXgXgXgXgXgXgXgXgXgXgXgXgXgXgXgXgXgXgXgXgXgXgXgXgXgXgXgXgXgXgXgXgXgXgXgXgXgXgXgXgXgXgXgXgXgXgXgXgXgXgXgXgXgXgXgXgXgXgXgXgXgXgXgXgXgXgXgXgXgXgXgXgXgXgXgXgXgXgXgXgXgXgXgXgXgXgXgXgXgXgXgXgXgXgXgXgXgXgXgXgXgXgXgXgXgXgXgXgXgXgXgXgXgXgXgXgXgXgXgXgXgXgXgXgXgXgXgXgXgXgXgXgXgXgXgXgXgXgXgXgXgXgXgXgXgXgXgXgXgXgXgXgXgXgXgXgXgXgXgXgXgXgXgXgXgXgXgXgXgXgXgXgXgXgXgXgXgXgXgXgXgXgXgXgXgXgXgXgXgXgXgXgXgXgXgXgXgXgXgXgXgXgXgXgXgXgXgXgXgXgXgXgXgXgXgXgXgXgXgXgXgXgXgXgXgXgXgXgXgXF F s =.w.-.A 8 * 7 x.uXh.<./ 8 8 g.j.g.g.g.h.x.x.l.f.^ 2.P.O.F F { W < c 2...z x D { ..2.3.0.e.w.5.5.w.0.3.O.O.O.3.5.5.w.e.e.w.;.=.5.e.3.' W ..' ' ..{ o.O.o.O.3.3.3.o.o.o.O.O.O.o.2.......o.2...........D B N ......2...o.o...W B x D ..3._ z ' ........[ _ ' 2.2.2.e.e.g.g.4.^ / p.f.a.a.<.# , ^ ~ 9 9 : ..;X3...e.g.g.f.h.h.h.h.h.g.w.g.w.<.w.f.z.g.4.;.=.' 2.",
"V , g.5.' 2.2.w.w.g.z.z.z.f.l.x.z.z.z.0X9Xz.z.w.-.=._ W L.2.< , < 8 8 # e f.h.f.w.-.r ' 3.3.3.3.3.X.o...m z ....{ { { N < < ..o.x x D { B B B B { { { F } X.X.g g { O.O.{ { ........{ ..X.o.{ W O.0.0.2.3.2.o.o.3.0.0.3...o.3.3.2.2.2.e.t.t.3.3.3.3.X.O.3.3.3.0.0./.R.Y.L.3.O.....3.' < z D ....{ O.3.*.z.wXx.x.x.l.g.e.e.g.r * r -.<.f.].*.o , 0 V N D s t g gXgXgXgXgXgXgXgXgXgXgXgXgXgXgXgXgXgXgXgXgXgXgXgXgXgXgXgXgXgXgXgXgXgXgXgXgXgXgXgXgXgXgXgXgXgXgXgXgXgXgXgXgXgXgXgXgXgXgXgXgXgXgXgXgXgXgXgXgXgXgXgXgXgXgXgXgXgXgXgXgXgXgXgXgXgXgXgXgXgXgXgXgXgXgXgXgXgXgXgXgXgXgXgXgXgXgXgXgXgXgXgXgXgXgXgXgXgXgXgXgXgXgXgXgXgXgXgXgXgXgXgXgXgXgXgXgXgXgXgXgXgXgXgXgXgXgXgXgXgXgXgXgXgXgXgXgXgXgXgXgXgXgXgXgXgXgXgXgXgXgXgXgXgXgXgXgXgXgXgXgXgXgXgXgXgXgXgXgXgXgXgXgXgXgXgXgXgXgXgXgXgXgXgXgXgXgXgXgXgXgXgXgXgXgXgXgXgXgXgXgXgXgXgXgXgXgXgXgXgXgXgXgXgXgXgXgXgXgXgXgXgXgXgXgXgXgXgXG j s 1.4.^ r 8 * , x.yXg.<.^ 8 8 g.j.g.g.g.f.h.j.l.w.A 2.P.} B { ..W 1 8 =.2.( B D ......3.3.2.=.=.2.2.3.o.{ X.X.X...o.2.2.2.2.=.' 2.0.2...{ ..2...W { L.Y.O.o.o.O.o.o.X.X...{ ..............{ { ..O.X.{ D x W o.........O.3.O.{ F F { O...z m ' ......' [ ~ ' 2.2.2.9.e.e.g.2.[ -.f.z.k.f.<.# , ^ A 0 , * ..E.3...2.e.w.w.f.h.h.h.f.w.w.f.g.w.f.f.h.w.<.-.-.[ 2.",
"V : e.0.....2.2.2.g.z.z.k.f.z.z.z.z.z.z.9Xz.z.f.-.' D { Y.2.8 , < 8 8 # 9 f.f.7.<.*.r ' 3.O.O.X.X.X.....m s ....{ { B z > % N ..B s g g g g g B { { g g j } } G j } } } { } { { { } { { } { { { o.3.3.2.3.2...' o.0.+.O.X.X.O.3.o.2.9.e.t.3.o.O.O.O.O.X.X.O.O.3.Y.L.0.O.X.......O.o.z 1 m ' X...{ O.2.^ k.0Xx.x.0Xx.g.e.e.e.r # r -.<.f.].^ . * 8 m N ..s t d gXgXgXgXgXgXgXgXgXgXgXgXgXgXgXgXgXgXgXgXgXgXgXgXgXgXgXgXgXgXgXgXgXgXgXgXgXgXgXgXgXgXgXgXgXgXgXgXgXgXgXgXgXgXgXgXgXgXgXgXgXgXgXgXgXgXgXgXgXgXgXgXgXgXgXgXgXgXgXgXgXgXgXgXgXgXgXgXgXgXgXgXgXgXgXgXgXgXgXgXgXgXgXgXgXgXgXgXgXgXgXgXgXgXgXgXgXgXgXgXgXgXgXgXgXgXgXgXgXgXgXgXgXgXgXgXgXgXgXgXgXgXgXgXgXgXgXgXgXgXgXgXgXgXgXgXgXgXgXgXgXgXgXgXgXgXgXgXgXgXgXgXgXgXgXgXgXgXgXgXgXgXgXgXgXgXgXgXgXgXgXgXgXgXgXgXgXgXgXgXgXgXgXgXgXgXgXgXgXgXgXgXgXgXgXgXgXgXgXgXgXgXgXgXgXgXgXgXgXgXgXgXgXgXgXgXgXgXgXgXgXgXgXgXgXgXgXgXF F s ' ;.A 0 , # , x.yXg.-.^ 8 8 f.j.g.h.j.h.h.h.f.<.A 2.P.X.D { ....8 < A =.' N B W { { ..o.......2.3.o...{ X.X.X.....2.2.2.2.2.o.o.o.o.....o...W g { O.C. .o...{ { X. . .{ { { ..........{ { F { O.X.{ x x B { { W ' { { { F B B F { o.D 1 m _ ' ..2.o.[ ^ ' 2.2.2.0.e.w.w.2.[ *.f.k.k.f.<.# , ~ r 9 , * ' E.O.{ ..2.5.g.f.l.h.h.g.w.w.h.h.g.f.h.f.w.;.-.-.-.2.",
"V : e.e.......2.2.g.z.z.k.f.z.z.x.z.z.z.z.z.z.f.=.' D { Y.2.< , 8 8 8 # 9 f.7.<.<.*.r ` 3.O.O...{ X.{ ..' z ..X.{ { { v < : N o.D s s d g B B B { F g g g j F F F { U { } { { { { { { { { { { { { o.o.2.2.o...' ..o.o.o.....o.o...o.2.2.2.o.......{ X.{ { ......3.o.o...W B D ..O...1 1 D ..O.{ ..3.3.*.z.x.x.yXyXx.g.w.2.w.r # r -.;.g.].^ o * 0 D ' 6.z t d gXgXgXgXgXgXgXgXgXgXgXgXgXgXgXgXgXgXgXgXgXgXgXgXgXgXgXgXgXgXgXgXgXgXgXgXgXgXgXgXgXgXgXgXgXgXgXgXgXgXgXgXgXgXgXgXgXgXgXgXgXgXgXgXgXgXgXgXgXgXgXgXgXgXgXgXgXgXgXgXgXgXgXgXgXgXgXgXgXgXgXgXgXgXgXgXgXgXgXgXgXgXgXgXgXgXgXgXgXgXgXgXgXgXgXgXgXgXgXgXgXgXgXgXgXgXgXgXgXgXgXgXgXgXgXgXgXgXgXgXgXgXgXgXgXgXgXgXgXgXgXgXgXgXgXgXgXgXgXgXgXgXgXgXgXgXgXgXgXgXgXgXgXgXgXgXgXgXgXgXgXgXgXgXgXgXgXgXgXgXgXgXgXgXgXgXgXgXgXgXgXgXgXgXgXgXgXgXgXgXgXgXgXgXgXgXgXgXgXgXgXgXgXgXgXgXgXgXgXgXgXgXgXgXgXgXgXgXgXgXgXgXgXgXgXgXgXgXG F s ' ;.A c < # 7 x.yXg.<.*.8 8 w.h.g.g.j.x.x.h.f.<.~ 2.T.O.......' c 8 0 [ _ m z v B { { { ......o...' W W { { W ' ' ' ' ' ' ] ' ( N ( ( W W B B f g { o.| ..{ B W { o.{ g W { ..{ { W W W B B B F F F B B D D D W ' { W B x g B D { ..m < ~ _ ' 2.3.2.=.~ ' 3.3.3.e.2.o.2.2.[ *.<.p.p.f.<.# , V c 9 , * ' !.H.....3.0.(.h.l.h.h.g.w.w.h.z.h.h.h.g.w.;.;.-.-.e.",
"^ , e.0.....o.2.2.g.h.z.z.z.z.z.z.z.f.f.z.z.g.5.1.' D { Y.3.< , 8 8 8 # 8 w.<.<.<.^ 0 [ 3.O.m.O.{ { ..o.' z ..{ F { W N < < _ ' s % % = > > < < < > = & % % % = = * = > > > > : * : : : : : : : : , , , < > < > : : > < < < < < < < < < < < < < < < < < < < < < < , , , < * > 8 N ' z M M ..O.....L.3.[ z.x.yXyXwXx.g.2.2.2.9 # r [ =.g.yX^ o * 0 D ..6.z t d gXgXgXgXgXgXgXgXgXgXgXgXgXgXgXgXgXgXgXgXgXgXgXgXgXgXgXgXgXgXgXgXgXgXgXgXgXgXgXgXgXgXgXgXgXgXgXgXgXgXgXgXgXgXgXgXgXgXgXgXgXgXgXgXgXgXgXgXgXgXgXgXgXgXgXgXgXgXgXgXgXgXgXgXgXgXgXgXgXgXgXgXgXgXgXgXgXgXgXgXgXgXgXgXgXgXgXgXgXgXgXgXgXgXgXgXgXgXgXgXgXgXgXgXgXgXgXgXgXgXgXgXgXgXgXgXgXgXgXgXgXgXgXgXgXgXgXgXgXgXgXgXgXgXgXgXgXgXgXgXgXgXgXgXgXgXgXgXgXgXgXgXgXgXgXgXgXgXgXgXgXgXgXgXgXgXgXgXgXgXgXgXgXgXgXgXgXgXgXgXgXgXgXgXgXgXgXgXgXgXgXgXgXgXgXgXgXgXgXgXgXgXgXgXgXgXgXgXgXgXgXgXgXgXgXgXgXgXgXgXgXgXgXgXgXgXgXgXG F s z [ ~ 0 < * , x.>Xg.;.Z 8 8 w.g.e.g.g.x.x.j.g.<./ 2.Y.O.......' M 0 0 A 0 , : : > > > < < < < > : : , , : , , * * * , , , , * * % # % % % % * * : : : : < < < < < > : : > < < : : : : > * * * * * * , : : , < < < < < < > > > > z N s < V _ o.2.2.2.2.A 2.3.O.3.5.2...o.=.Z ^ <.p.p.p.,.# , c c 0 , % ..).3.....O.0.g.l.h.f.h.g.w.w.f.k.k.z.f.w.2.;.;.=.=.e.",
"` , g.0...o.3.3.3.w.g.z.l.h.f.z.l.x.z.z.f.f.w.2.2.....{ Y.3.< , , 0 8 # 9 w.w.7.<./ r ~ 2.O.H.X.{ X...2.[ z ..{ F { { D 1 < c : . .     . . . . o o o . . . o o o o o o o o o o o o o o o # # # o o # # # # # # # # # # o o # o o o # # # # # # # * * * * * # * , , , * * * * * * < 8 V N ..O.3.0.T.3.*.z.wXaXaXeXwXh.2.2.2.8 # c ' 2.g.uX[ o , c D ' ' z t d gXgXgXgXgXgXgXgXgXgXgXgXgXgXgXgXgXgXgXgXgXgXgXgXgXgXgXgXgXgXgXgXgXgXgXgXgXgXgXgXgXgXgXgXgXgXgXgXgXgXgXgXgXgXgXgXgXgXgXgXgXgXgXgXgXgXgXgXgXgXgXgXgXgXgXgXgXgXgXgXgXgXgXgXgXgXgXgXgXgXgXgXgXgXgXgXgXgXgXgXgXgXgXgXgXgXgXgXgXgXgXgXgXgXgXgXgXgXgXgXgXgXgXgXgXgXgXgXgXgXgXgXgXgXgXgXgXgXgXgXgXgXgXgXgXgXgXgXgXgXgXgXgXgXgXgXgXgXgXgXgXgXgXgXgXgXgXgXgXgXgXgXgXgXgXgXgXgXgXgXgXgXgXgXgXgXgXgXgXgXgXgXgXgXgXgXgXgXgXgXgXgXgXgXgXgXgXgXgXgXgXgXgXgXgXgXgXgXgXgXgXgXgXgXgXgXgXgXgXgXgXgXgXgXgXgXgXgXgXgXgXgXgXgXgXgXgX= G F d m ^ A 0 , # 7 (.(.4.` c < < 5.g.w.g.h.x.x.h.g.<.^ =.L.O.O.O.2.' z 0 9 * # o o o o # # # # # # # # * * * * * * * * * * * * * * * # # # # o o # # # o # # # # # o o o o o o # o o o o o # # # # # # # o o o o # # * * % % * * % % % % > 8 m ' 2.3.3.2.=.A =.3.O.3.5.2.o.2.2.^ *.<.f.p.p.,.# , V m 0 , % ..).3.{ ..O.3.w.f.h.h.h.g.f.f.f.f.k.z.g.4.2.=.-.-.=.e.",
"` , g.e...o.3.3.5.w.w.g.f.g.g.f.l.x.z.z.k.f.w.2.6...F { Y.3.< , , c 0 # 9 w.w.7.<./ A V 3.O.H.3.3.3.2.2.` z ..{ { ..{ D < o o o # * * * * : : : : : : : , , , < , , , , , 8 , < 8 , , , 9 8 8 8 < < 8 8 9 9 9 9 8 9 9 9 8 8 8 9 9 9 9 9 e e 9 9 0 9 0 r r r r r r r r r r r 9 9 7 9 , c m ..3.T.R.R.5.*.z.wXaXaXeXwXh.w.5.e.8 * c ' o.Y.,X/ . , c ` ' ` M u g gXgXgXgXgXgXgXgXgXgXgXgXgXgXgXgXgXgXgXgXgXgXgXgXgXgXgXgXgXgXgXgXgXgXgXgXgXgXgXgXgXgXgXgXgXgXgXgXgXgXgXgXgXgXgXgXgXgXgXgXgXgXgXgXgXgXgXgXgXgXgXgXgXgXgXgXgXgXgXgXgXgXgXgXgXgXgXgXgXgXgXgXgXgXgXgXgXgXgXgXgXgXgXgXgXgXgXgXgXgXgXgXgXgXgXgXgXgXgXgXgXgXgXgXgXgXgXgXgXgXgXgXgXgXgXgXgXgXgXgXgXgXgXgXgXgXgXgXgXgXgXgXgXgXgXgXgXgXgXgXgXgXgXgXgXgXgXgXgXgXgXgXgXgXgXgXgXgXgXgXgXgXgXgXgXgXgXgXgXgXgXgXgXgXgXgXgXgXgXgXgXgXgXgXgXgXgXgXgXgXgXgXgXgXgXgXgXgXgXgXgXgXgXgXgXgXgXgXgXgXgXgXgXgXgXgXgXgXgXgXgXgXgXgXgXgXgXgXG G s m ^ r 0 8 * , x.^.2._ z < < 2.e.w.g.h.x.x.h.g.4.^ =.3.O.O.3.o.' 1 , # # , 7 9 8 8 8 8 8 9 0 0 9 0 9 9 0 9 9 9 8 8 8 8 8 0 0 8 8 8 8 8 , , , , , , , , 9 8 8 8 8 , , , < 8 8 8 8 7 7 9 , , 9 , , , , < < 8 8 0 0 c 0 0 0 0 0 0 8 , , < z c D ..o...o.' c ' o.O.3.e.2.2.2.2.^ *.f.f.p.p.,.# , ~ ~ 9 , % ..!.O.....3.e.g.g.h.h.g.g.f.f.f.f.f.h.f.4.=.=.[ =.' e.",
"` < g.e.o.2.2.e.e.w.g.g.g.g.f.f.z.z.z.z.z.f.g.2.....F { P.0.8 , 7 A 0 # 9 f.f.<.<.*./ ^ 2.o.O.3.5.w.5.4.^ s ..X.X.O...N > * o % , * : < > < 1 1 1 1 1 < < < 8 1 1 < < < < 0 1 0 0 8 < < 8 0 z z z z z c z 0 0 0 1 1 1 0 0 0 0 9 9 9 9 0 0 0 < < 1 0 0 0 0 0 9 9 0 0 r r r r r e 9 9 , c N ..3.T.R.^.w.-.z.wXaXaXeXeXx.g.e.e.8 * c ....Y.^./ o , c ` =.2.D u g gXgXgXgXgXgXgXgXgXgXgXgXgXgXgXgXgXgXgXgXgXgXgXgXgXgXgXgXgXgXgXgXgXgXgXgXgXgXgXgXgXgXgXgXgXgXgXgXgXgXgXgXgXgXgXgXgXgXgXgXgXgXgXgXgXgXgXgXgXgXgXgXgXgXgXgXgXgXgXgXgXgXgXgXgXgXgXgXgXgXgXgXgXgXgXgXgXgXgXgXgXgXgXgXgXgXgXgXgXgXgXgXgXgXgXgXgXgXgXgXgXgXgXgXgXgXgXgXgXgXgXgXgXgXgXgXgXgXgXgXgXgXgXgXgXgXgXgXgXgXgXgXgXgXgXgXgXgXgXgXgXgXgXgXgXgXgXgXgXgXgXgXgXgXgXgXgXgXgXgXgXgXgXgXgXgXgXgXgXgXgXgXgXgXgXgXgXgXgXgXgXgXgXgXgXgXgXgXgXgXgXgXgXgXgXgXgXgXgXgXgXgXgXgXgXgXgXgXgXgXgXgXgXgXgXgXgXgXgXgXgXgXgXgXgXgXgXgXG j s V -./ r 8 * , (.(.e.=.m < < 2.e.w.g.x.x.(.g.w.w.^ =.0.3.3.2...N 1 : * , 9 9 9 0 0 0 8 8 0 0 0 0 r r 0 0 0 0 0 0 0 0 0 0 0 0 0 0 0 0 8 < < < < < < < < 0 8 0 z 0 1 1 1 1 1 1 1 1 1 1 1 < < < < < < < 1 1 1 1 1 0 z 0 0 0 0 0 0 0 9 8 , c m m ' ....o.=.c ' o.X.o.0.e.0.3.2.*.-.f.f.p.f.<.7 , ` _ 9 , % ' !.O...2.0.e.h.f.h.f.g.f.z.k.k.f.f.f.g.4.2.' ' ' ' 3.",
"` < g.t.2.2.5.w.e.g.h.h.h.h.f.f.z.z.z.z.z.g.e.2...F F { T.3.8 , 7 c 0 o 9 f.f.<.<.-./ ^ 2.....2.e.w.4.2.^ f ........O.N z m * % # # * * * # # * * * * # * * * * * * # # # , , , , , , , , , , , * , , , < 8 < < < < < < > < < < < < < , , , : : , < : > : : , , < , < , , , , * # # 8 [ N ..O.L.T.R.e.-.z.wXaXaXeXwXx.g.e.e.0 * m ' ..0.(./ o , c ^ ;.5.D s g gXgXgXgXgXgXgXgXgXgXgXgXgXgXgXgXgXgXgXgXgXgXgXgXgXgXgXgXgXgXgXgXgXgXgXgXgXgXgXgXgXgXgXgXgXgXgXgXgXgXgXgXgXgXgXgXgXgXgXgXgXgXgXgXgXgXgXgXgXgXgXgXgXgXgXgXgXgXgXgXgXgXgXgXgXgXgXgXgXgXgXgXgXgXgXgXgXgXgXgXgXgXgXgXgXgXgXgXgXgXgXgXgXgXgXgXgXgXgXgXgXgXgXgXgXgXgXgXgXgXgXgXgXgXgXgXgXgXgXgXgXgXgXgXgXgXgXgXgXgXgXgXgXgXgXgXgXgXgXgXgXgXgXgXgXgXgXgXgXgXgXgXgXgXgXgXgXgXgXgXgXgXgXgXgXgXgXgXgXgXgXgXgXgXgXgXgXgXgXgXgXgXgXgXgXgXgXgXgXgXgXgXgXgXgXgXgXgXgXgXgXgXgXgXgXgXgXgXgXgXgXgXgXgXgXgXgXgXgXgXgXgXgXgXgXgXgXgXG j s ` <.-./ 0 * , ^.>Xe.2.V < > 2.e.g.(.(.x.j.g.w.4.^ 2.Y.Y.3.....' v 0 * * , , , , , , 7 7 9 9 9 8 8 8 8 8 8 8 8 , , , , , , , 7 , * * * * * , , , , , 7 7 7 7 9 7 , , , : , , , , , , , < * * * * * * , , , , , , 9 < < < , , , , , , : ~ ' D ' ....3.2.V ' O.X.o.3.e.0.2.2.-.-.w.f.p.f.<.7 , ` _ 0 , % ..!.3...2.e.g.z.z.l.g.f.z.z.z.k.f.f.f.g.w.2.' ' ' ' 2.",
"_ , j.j.2.3.e.f.g.h.z.z.z.z.z.z.z.z.z.z.f.g.e.3.X.F D { P.3.< , 7 0 8 o 9 f.f.p.7.-.J ~ 2.....2.e.w.2.=._ f ..{ B D ..D z ' z % % * * , * * * : < , , , , * , * , , , , , , , , , , , , , , , , , , , , , * * * * * * * % * : , , , , 8 , , 8 8 8 < > < < < 8 8 0 c A A c c z 1 < 0 2.e._ ....O.L.R.e.:.z.0XwXwXwXwXl.w.e.e.0 * V ..o.t.(.~ o , c *.;.4.D < d gXgXgXgXgXgXgXgXgXgXgXgXgXgXgXgXgXgXgXgXgXgXgXgXgXgXgXgXgXgXgXgXgXgXgXgXgXgXgXgXgXgXgXgXgXgXgXgXgXgXgXgXgXgXgXgXgXgXgXgXgXgXgXgXgXgXgXgXgXgXgXgXgXgXgXgXgXgXgXgXgXgXgXgXgXgXgXgXgXgXgXgXgXgXgXgXgXgXgXgXgXgXgXgXgXgXgXgXgXgXgXgXgXgXgXgXgXgXgXgXgXgXgXgXgXgXgXgXgXgXgXgXgXgXgXgXgXgXgXgXgXgXgXgXgXgXgXgXgXgXgXgXgXgXgXgXgXgXgXgXgXgXgXgXgXgXgXgXgXgXgXgXgXgXgXgXgXgXgXgXgXgXgXgXgXgXgXgXgXgXgXgXgXgXgXgXgXgXgXgXgXgXgXgXgXgXgXgXgXgXgXgXgXgXgXgXgXgXgXgXgXgXgXgXgXgXgXgXgXgXgXgXgXgXgXgXgXgXgXgXgXgXgXgXgXgXgXgXG j s -.f.<.*.0 * * x.>Xf.;.V 8 < 2.g.j.(.g.t.e.e.e.4.A ;.R.Y.O.....' m ..z * * * * * , , , 9 9 8 7 , * * , , , , * * * : : , : : 8 < < , , , * * * * * * * * * , * * * * * * * * , , , , * * * * * * * % * * , , , 8 8 c c c z z 0 8 > < z 2.' _ 2...X.3.2.~ ' O.X.o.o.2.2.3.2.-.*.p.f.p.a.<.7 * ~ V 0 , : ..).3.2.5.g.z.z.x.l.f.f.l.x.z.k.f.f.f.g.w.2...' ' ' 2.",
"m , j.j.2.5.w.f.h.z.h.z.z.z.z.z.z.0Xz.f.f.w.5.2.X...{ ..E.3.< , 7 0 8 o 9 f.f.f.f.-.r ` 3.X.O.3.3.2.2.2._ z ..{ B { ..B & ' ..s < f z x B B D W D F W D B x z B g B B W W B N B B B B B x v v v E m ( ( _ ~ ~ _ _ _ ~ ~ ^ ^ -.-.-.-.-.[ ^ ^ [ [ _ E ~ ^ ` -.-.-.;.2.=.=.' ' ' N z m 3.3.B o.o.O.L.E.e.:.z.0XwX0X0Xx.g.w.w.e.0 * c ..2.~.>X[ o 7 A -.;.4.V & d t gXgXgXgXgXgXgXgXgXgXgXgXgXgXgXgXgXgXgXgXgXgXgXgXgXgXgXgXgXgXgXgXgXgXgXgXgXgXgXgXgXgXgXgXgXgXgXgXgXgXgXgXgXgXgXgXgXgXgXgXgXgXgXgXgXgXgXgXgXgXgXgXgXgXgXgXgXgXgXgXgXgXgXgXgXgXgXgXgXgXgXgXgXgXgXgXgXgXgXgXgXgXgXgXgXgXgXgXgXgXgXgXgXgXgXgXgXgXgXgXgXgXgXgXgXgXgXgXgXgXgXgXgXgXgXgXgXgXgXgXgXgXgXgXgXgXgXgXgXgXgXgXgXgXgXgXgXgXgXgXgXgXgXgXgXgXgXgXgXgXgXgXgXgXgXgXgXgXgXgXgXgXgXgXgXgXgXgXgXgXgXgXgXgXgXgXgXgXgXgXgXgXgXgXgXgXgXgXgXgXgXgXgXgXgXgXgXgXgXgXgXgXgXgXgXgXgXgXgXgXgXgXgXgXgXgXgXgXgXgXgXgXgXgXgXgXgXj j s =.f.<.*.0 * , x.>Xf.;.^ 8 < 2.g.~.t.e.3.3.3.e.2.A =.E.T.3...2...z o.N 1 1 8 8 z B W W W W W D N ( ( _ ' _ E v c V ~ [ [ ] ] _ E E E M M z 0 0 M c M m E N N v v v v z z z v N D D N z 1 M M M M 1 1 s z v v N ( ' ' ( ( ( ( v f z z ' 0.' _ 2.....3.2._ 1.3.O.O...' 2.3.2.-.*.f.f.p.a.<.4 * ~ m 8 , : ..!.3.2.5.g.z.9X0Xx.l.l.x.x.z.z.h.z.f.g.5.o.....' ' 2.",
"^ , j.j.;.4.5.f.h.h.h.h.z.k.z.z.z.0Xl.z.f.w.w.2.o...{ ..T.3.8 < , 0 9 X 7 f.f.f.<.*./ _ 3.O.X.3.2.......m d } G F F { B y D 6.D s f x B B W W W W F F F { F D B W W W W ' ..B D { F F W ' ( B ( ..2.2.2.2...o.o.2.2.2.o.2.2.2.2.2.;.=.2.2.1.2.2.2.' ..o.2.2.2.=.2.=.=.' ' D N N m ' e.D D ....o.Y.E.0.=.z.0Xx.x.l.g.e.2.2.w.8 * c ' 2.^.wX*.o , A =.;.<.A s l u gXgXgXgXgXgXgXgXgXgXgXgXgXgXgXgXgXgXgXgXgXgXgXgXgXgXgXgXgXgXgXgXgXgXgXgXgXgXgXgXgXgXgXgXgXgXgXgXgXgXgXgXgXgXgXgXgXgXgXgXgXgXgXgXgXgXgXgXgXgXgXgXgXgXgXgXgXgXgXgXgXgXgXgXgXgXgXgXgXgXgXgXgXgXgXgXgXgXgXgXgXgXgXgXgXgXgXgXgXgXgXgXgXgXgXgXgXgXgXgXgXgXgXgXgXgXgXgXgXgXgXgXgXgXgXgXgXgXgXgXgXgXgXgXgXgXgXgXgXgXgXgXgXgXgXgXgXgXgXgXgXgXgXgXgXgXgXgXgXgXgXgXgXgXgXgXgXgXgXgXgXgXgXgXgXgXgXgXgXgXgXgXgXgXgXgXgXgXgXgXgXgXgXgXgXgXgXgXgXgXgXgXgXgXgXgXgXgXgXgXgXgXgXgXgXgXgXgXgXgXgXgXgXgXgXgXgXgXgXgXgXgXgXgXgXgXgXj F s -.w.-./ 9 * , f.yXf.=.Z 8 , 2.g.g.e.3.3.3.3.2.=.c =./.Y.3.......z v ..g s x x B W ......X.O.O.X...o.3.3.O.X.X.o.3.3.3.2.2.2.....| X.o.....' ' ' ........W W { { { { { B B W W ' ' ..D V ' ' ....{ g g B W ' ( _ _ _ ' ' D B x g z z 3.3.x ' ......O.o.m 1.3.{ { ..2.3.3.2.^ *.f.z.k.f.<.; * ^ ^ 9 , * 2.).O...5.w.h.l.z.z.z.z.z.h.f.f.k.z.f.w.e.3.2.......3.",
"*.< j.g.;.4.4.4.g.g.w.g.h.z.f.z.z.0Xx.z.h.g.g.e.2.....{ T.0.8 < , 0 7 X 7 w.f.f.<.*./ _ 3.L.O.3.o.' ' ' m z ..{ { { W z = M 2...f s x B B D { { D D { { { { ..D W W W ....' B { ..{ { { ..{ W ..3.3.3.2.....o.3.3.3.O.o.2.2.2.3.2.2.2.' 2.5.5.e.2...2.2.2.2.2.=.=.2.=.' ' ' N v N 2.5.M D 2...3.E./.0.*.z.0Xx.x.l.h.e.2.e.e.8 * c _ 2.x.].*.# 9 *.;.<.;.V s j u gXgXgXgXgXgXgXgXgXgXgXgXgXgXgXgXgXgXgXgXgXgXgXgXgXgXgXgXgXgXgXgXgXgXgXgXgXgXgXgXgXgXgXgXgXgXgXgXgXgXgXgXgXgXgXgXgXgXgXgXgXgXgXgXgXgXgXgXgXgXgXgXgXgXgXgXgXgXgXgXgXgXgXgXgXgXgXgXgXgXgXgXgXgXgXgXgXgXgXgXgXgXgXgXgXgXgXgXgXgXgXgXgXgXgXgXgXgXgXgXgXgXgXgXgXgXgXgXgXgXgXgXgXgXgXgXgXgXgXgXgXgXgXgXgXgXgXgXgXgXgXgXgXgXgXgXgXgXgXgXgXgXgXgXgXgXgXgXgXgXgXgXgXgXgXgXgXgXgXgXgXgXgXgXgXgXgXgXgXgXgXgXgXgXgXgXgXgXgXgXgXgXgXgXgXgXgXgXgXgXgXgXgXgXgXgXgXgXgXgXgXgXgXgXgXgXgXgXgXgXgXgXgXgXgXgXgXgXgXgXgXgXgXgXgXgX> G { z -.<.-./ e , , f.yXw.*.A 8 , 2.j.g.e.2.3.3.O.2.=.0 2./.T.3.o...' c z ..N s z v W ........X.X.o.....o.3.O.O.{ X.o.o.2.2.2.2.2.o. .C.O.o.o.o.............{ { { { { { { } { { W ' ' ..' _ _ ' ' ' { F F B D ....' ' ' ' ....' N x x v _ 2.' v ' ' ..{ ..o.m 1.O.{ ..3.0.3.o.2.[ *.<.p.p.p.<.7 * ^ [ 9 , * 2.!.O...2.w.f.f.z.z.z.z.z.z.f.k.z.z.h.g.e.e.2.2...' 3.",
"-.< j.g.;.4.4.4.w.e.5.w.g.f.f.z.z.x.x.z.l.l.h.w.2.' ' { Y.0.8 , 7 0 8 . 7 <.f.f.f.-.~ _ 3.O.X.3.2.2...' m f ..{ { { W z , 0 ' ..x s g x x B W W x B { { { { { B D D { { { B g { } } { { { { ....3.3.O.X.....X.O.O.X.O.O.o...o.2.3.1.' ..2.3.3.3.2...o.2.2.2.2.=.' 2.1.' ' ' N N ' 9.2.8 _ 2.' ..L.E.0.=.k.x.x.x.x.h.e.2.e.e.8 * 0 ~ 2.j.wX*.o 9 *.<.;.4.` s j d gXgXgXgXgXgXgXgXgXgXgXgXgXgXgXgXgXgXgXgXgXgXgXgXgXgXgXgXgXgXgXgXgXgXgXgXgXgXgXgXgXgXgXgXgXgXgXgXgXgXgXgXgXgXgXgXgXgXgXgXgXgXgXgXgXgXgXgXgXgXgXgXgXgXgXgXgXgXgXgXgXgXgXgXgXgXgXgXgXgXgXgXgXgXgXgXgXgXgXgXgXgXgXgXgXgXgXgXgXgXgXgXgXgXgXgXgXgXgXgXgXgXgXgXgXgXgXgXgXgXgXgXgXgXgXgXgXgXgXgXgXgXgXgXgXgXgXgXgXgXgXgXgXgXgXgXgXgXgXgXgXgXgXgXgXgXgXgXgXgXgXgXgXgXgXgXgXgXgXgXgXgXgXgXgXgXgXgXgXgXgXgXgXgXgXgXgXgXgXgXgXgXgXgXgXgXgXgXgXgXgXgXgXgXgXgXgXgXgXgXgXgXgXgXgXgXgXgXgXgXgXgXgXgXgXgXgXgXgXgXgXgXgXgXgXgXs { { x -.<.*./ r * , f.yXf.-.A , , <.h.g.e.e.e.2...2.[ 0 4./.Y.3...' ` c 8 _ W f x x B { o.O.........X...X.O.X.X.| X.o.O.O.3.2.o.'  .C.C. .{ o.o.o...{ { { { { { { { } } } } } } B W ' ' ' N W ' ' D F G G F B D W ' ' ' ....{ D D B x N o.2.m z _ _ D { X.o.m ' O.X.O.3.0.3.3.2.^ / <.p.p.a.<.7 , ^ [ 9 , * ..E.....2.w.w.f.k.z.z.x.z.z.f.h.k.k.h.h.h.r.2..._ N 2.",
"` : g.g.;.4.4.4.g.g.w.w.g.h.f.z.z.z.z.z.z.z.g.4.=.' ' ..Y.0.8 , 8 c 8 . , <.h.h.f.;./ _ O.} } O.3.3.O...N f ..{ F F B z , < ' X.F s d g g B B B g B F F G } } B B B { { j g g j } } } } { W { ......{ { { { { { { o.X.o.o.........' ' ..o.3.3.O.O.o...o.2.2.2.....2...' N B x x ' w.-.< ~ 2.o...O.L.0.-.k.z.x.x.x.j.e.2.e.e.9 * 0 ~ 2.h.].*.o 9 *.4.4.4.=.s j d gXgXgXgXgXgXgXgXgXgXgXgXgXgXgXgXgXgXgXgXgXgXgXgXgXgXgXgXgXgXgXgXgXgXgXgXgXgXgXgXgXgXgXgXgXgXgXgXgXgXgXgXgXgXgXgXgXgXgXgXgXgXgXgXgXgXgXgXgXgXgXgXgXgXgXgXgXgXgXgXgXgXgXgXgXgXgXgXgXgXgXgXgXgXgXgXgXgXgXgXgXgXgXgXgXgXgXgXgXgXgXgXgXgXgXgXgXgXgXgXgXgXgXgXgXgXgXgXgXgXgXgXgXgXgXgXgXgXgXgXgXgXgXgXgXgXgXgXgXgXgXgXgXgXgXgXgXgXgXgXgXgXgXgXgXgXgXgXgXgXgXgXgXgXgXgXgXgXgXgXgXgXgXgXgXgXgXgXgXgXgXgXgXgXgXgXgXgXgXgXgXgXgXgXgXgXgXgXgXgXgXgXgXgXgXgXgXgXgXgXgXgXgXgXgXgXgXgXgXgXgXgXgXgXgXgXgXgXgXgXgXgXgXgXgXgX< { { x ;.w.-.*.r , 7 h.uXf.=.A 8 , <.h.h.j.^.e.2...2.[ 0 4.;XR.3...' D c < ( W g x B B F { X.{ { { { X.X.{ X.} X.{ } { X.O.O.o.{ W T B.B. .X.o.......{ { { { { { { { j j j } } } j W W W D D { W B F F G G F j B B W ' ..{ { { g g B B W 2.2.s z ' ' D { X.o.m ' o.X.3.3.3.3.3.2.V / <.f.a.f.<.7 , ^ [ 9 , * ..E...1.4.w.r.f.z.z.z.z.z.z.z.z.z.h.h.h.g.w.2.' _ N 2.",
"Z : j.j.;.4.4.w.h.g.r.w.h.h.z.z.z.z.z.z.z.f.f.<.=.=.' ..T.0.8 , 8 c 8 o , <.h.f.f.<./ N X.X.X.X.H.m.O.O.N s { F B F D z > < D ..{ x g x B B B B x x B F F { F B B W { B B g g F F { { { { W ' o.o...........W W ..o.o.o.......' ' ' ' ..........o.o...o.2.2...' ....' ' N z x D o.2.^ < ~ 2.2.o.O.3.3.-.k.z.x.x.l.j.g.5.e.g.0 , r ^ 2.h.x.-.# 9 *.<.4.w.=.s j d gXgXgXgXgXgXgXgXgXgXgXgXgXgXgXgXgXgXgXgXgXgXgXgXgXgXgXgXgXgXgXgXgXgXgXgXgXgXgXgXgXgXgXgXgXgXgXgXgXgXgXgXgXgXgXgXgXgXgXgXgXgXgXgXgXgXgXgXgXgXgXgXgXgXgXgXgXgXgXgXgXgXgXgXgXgXgXgXgXgXgXgXgXgXgXgXgXgXgXgXgXgXgXgXgXgXgXgXgXgXgXgXgXgXgXgXgXgXgXgXgXgXgXgXgXgXgXgXgXgXgXgXgXgXgXgXgXgXgXgXgXgXgXgXgXgXgXgXgXgXgXgXgXgXgXgXgXgXgXgXgXgXgXgXgXgXgXgXgXgXgXgXgXgXgXgXgXgXgXgXgXgXgXgXgXgXgXgXgXgXgXgXgXgXgXgXgXgXgXgXgXgXgXgXgXgXgXgXgXgXgXgXgXgXgXgXgXgXgXgXgXgXgXgXgXgXgXgXgXgXgXgXgXgXgXgXgXgXgXgXgXgXgXgXgXgXgX} { x ;.f.<.*.r 7 9 h.iXg.-.Z 8 , <.h.g.g.~.e.3.o.2.-.0 2.;XR.3.=.` ^ 0 < N o.{ x B B { { X...{ { ......{ ..{ X.......O.O.O.o...W  . .m. .3.O.o...o...' ' ' ....{ B B { { { } { { W W W W { { W D D { { { B W { ..' ......{ { W B W ....2.' 1 x ....{ { X.o.M _ ..O.L.L.L.3.3.2.~ ^ <.f.f.a.,.7 * ^ ` 9 , * ' !.O.1.5.w.g.g.h.z.z.z.z.z.z.z.f.f.g.g.w.5.2.' _ _ 3.",
"Z > j.g.;.4.w.w.g.g.w.w.h.z.z.z.z.z.z.z.z.z.f.<.-.*.' ..E.0.< , 8 c 8 o , <.f.w.<.-./ ( X.O.n.O.3.m.X...m s { F g B D z = 8 _ ' M 8 < 1 8 1 1 1 < > < < s z s < 1 z z 1 1 1 < < < < 1 s s < < 0 8 8 8 8 1 < < < 8 0 0 8 < < < < < < < 1 1 1 z z 8 8 1 8 8 8 8 < < < < < < < < z V ~ 0 8 _ 2.3.0.0.L.3.-.k.z.x.l.l.j.g.5.e.g.0 * r ^ 2.j.x.*.# 9 / ;.4.w.2.s j d gXgXgXgXgXgXgXgXgXgXgXgXgXgXgXgXgXgXgXgXgXgXgXgXgXgXgXgXgXgXgXgXgXgXgXgXgXgXgXgXgXgXgXgXgXgXgXgXgXgXgXgXgXgXgXgXgXgXgXgXgXgXgXgXgXgXgXgXgXgXgXgXgXgXgXgXgXgXgXgXgXgXgXgXgXgXgXgXgXgXgXgXgXgXgXgXgXgXgXgXgXgXgXgXgXgXgXgXgXgXgXgXgXgXgXgXgXgXgXgXgXgXgXgXgXgXgXgXgXgXgXgXgXgXgXgXgXgXgXgXgXgXgXgXgXgXgXgXgXgXgXgXgXgXgXgXgXgXgXgXgXgXgXgXgXgXgXgXgXgXgXgXgXgXgXgXgXgXgXgXgXgXgXgXgXgXgXgXgXgXgXgXgXgXgXgXgXgXgXgXgXgXgXgXgXgXgXgXgXgXgXgXgXgXgXgXgXgXgXgXgXgXgXgXgXgXgXgXgXgXgXgXgXgXgXgXgXgXgXgXgXgXgXgXgXgXgXF { z ;.g.<.=.A 7 7 h.iXf.=.A 8 , <.h.e.5.e.e.3.o.2.=.r ;.^.e.2.;.-.^ r < m o.W z c z s f z z z z z 0 1 1 1 1 v z z M v z z z z z 1 s s 1 0 0 1 < 8 < < < < < 1 > % : < 1 1 < < 1 < < < < < < < < < 1 s s < 1 1 8 8 0 8 z 1 < 1 1 1 z m ` c 1 N { { X.X.X...m _ ..X.L.Y.L.H.3.3._ ^ <.f.f.f.<.7 * ^ ^ 9 , * ' ).O.1.4.g.g.h.h.z.z.z.z.z.z.z.f.f.f.w.5.2.2.' ' _ 3.",
"` < j.g.;.<.w.w.g.e.5.w.h.z.z.z.z.z.x.x.z.z.f.8.;.` ' ..E.0.< , 8 c 9 o * <.f.<.-.-.A ' ..X.} O.O.X.{ ..N f { { W W W v > 8 0 : . O           . .         O         . O               O   . . . . . O O O o . . . . o o # # # # # # # . . . . . . . o O O O o O O O O O . . o # % % * 8 ' 3.L.L.L.L.3.-.z.l.h.h.x.j.g.2.5.e.8 * 0 ` 2.j.x.^ o 9 / 4.w.g.4.s j d gXgXgXgXgXgXgXgXgXgXgXgXgXgXgXgXgXgXgXgXgXgXgXgXgXgXgXgXgXgXgXgXgXgXgXgXgXgXgXgXgXgXgXgXgXgXgXgXgXgXgXgXgXgXgXgXgXgXgXgXgXgXgXgXgXgXgXgXgXgXgXgXgXgXgXgXgXgXgXgXgXgXgXgXgXgXgXgXgXgXgXgXgXgXgXgXgXgXgXgXgXgXgXgXgXgXgXgXgXgXgXgXgXgXgXgXgXgXgXgXgXgXgXgXgXgXgXgXgXgXgXgXgXgXgXgXgXgXgXgXgXgXgXgXgXgXgXgXgXgXgXgXgXgXgXgXgXgXgXgXgXgXgXgXgXgXgXgXgXgXgXgXgXgXgXgXgXgXgXgXgXgXgXgXgXgXgXgXgXgXgXgXgXgXgXgXgXgXgXgXgXgXgXgXgXgXgXgXgXgXgXgXgXgXgXgXgXgXgXgXgXgXgXgXgXgXgXgXgXgXgXgXgXgXgXgXgXgXgXgXgXgXgXgXgXgXgXF F z ;.f.<.<.A 7 7 f.yXf.=.^ 8 , <.g.e.2.3.0.3.3.2.=.r ;.e.w.w.4.;.;.~ 8 , : o . . O   . . . . O O           .         .   . . . O O . o @ O . . . . . . . . . . . O O O . O O . O O . . . . O O   O O   . O O O O O O O O X X O . o . o o 8 _ ..| } } } { m ' ..X.O.3.3.3.H.3.D A ;.f.f.k.<.4 # ^ ` 9 , * ' 1XO.=.4.g.g.g.f.z.z.z.z.z.z.z.h.f.g.r.4.2.=.=.' ' e.",
"` < g.t.' =.=.2.2.4.w.f.z.z.z.z.h.z.x.z.z.k.k.<.;.^ ` ' Y.3.< 8 8 c 8 o , <.f.f.<.*.0 D 3.X.m.O...W ..' z f | { { X.X.m 7 o . . . o , , , , < , , , , , < < < 8 8 0 8 8 8 8 9 , , < 8 0 8 7 8 8 8 8 8 8 0 0 0 0 0 0 0 9 9 9 8 8 0 9 0 9 9 9 8 8 0 0 0 0 0 0 9 9 9 9 9 9 8 8 8 8 , 7 # , ` 0.0.3.O.O.3.;.k.z.h.g.j.t.3.o.2.e.8 * 8 m [ r.x./ o 7 *.4.w.g.2.s j d gXgXgXgXgXgXgXgXgXgXgXgXgXgXgXgXgXgXgXgXgXgXgXgXgXgXgXgXgXgXgXgXgXgXgXgXgXgXgXgXgXgXgXgXgXgXgXgXgXgXgXgXgXgXgXgXgXgXgXgXgXgXgXgXgXgXgXgXgXgXgXgXgXgXgXgXgXgXgXgXgXgXgXgXgXgXgXgXgXgXgXgXgXgXgXgXgXgXgXgXgXgXgXgXgXgXgXgXgXgXgXgXgXgXgXgXgXgXgXgXgXgXgXgXgXgXgXgXgXgXgXgXgXgXgXgXgXgXgXgXgXgXgXgXgXgXgXgXgXgXgXgXgXgXgXgXgXgXgXgXgXgXgXgXgXgXgXgXgXgXgXgXgXgXgXgXgXgXgXgXgXgXgXgXgXgXgXgXgXgXgXgXgXgXgXgXgXgXgXgXgXgXgXgXgXgXgXgXgXgXgXgXgXgXgXgXgXgXgXgXgXgXgXgXgXgXgXgXgXgXgXgXgXgXgXgXgXgXgXgXgXgXgXgXgXgXgXF F z ;.h.<.*.8 * , f.x.4.-.V < , ;.g.e.0.3.5.3.3.2.=.c ' e.w.4.<.<.<.A * * % * , 7 9 9 9 9 0 8 8 0 8 8 8 9 9 8 8 8 0 0 9 0 r r r r 9 9 0 A A c 0 0 0 0 8 8 8 8 0 0 8 8 8 < 1 < 8 8 0 8 8 8 8 8 8 8 8 8 8 8 8 8 8 < , , 8 8 < < 8 8 8 9 7 8 * v ..X...W { ..V _ ..o.O.O.O.O.3.O.N A -.<.f.f.<., * ~ [ 0 , * ` ).3...o.2.2.e.f.z.z.z.z.z.z.k.k.z.z.f.w.;.=.' _ _ 0.",
"` , t.e.' =.=.2.2.w.h.z.z.h.z.z.h.f.z.z.k.k.f.w.;.` ` ..T.3.< 8 8 0 8 o , f.l.h.f.-.r N O.} X.X...o.o.o.v f { { O.L.X.z * % o o * , , , , < < < 8 8 8 8 8 8 8 0 0 0 0 0 8 8 8 9 8 8 0 0 0 8 8 0 0 8 8 8 8 0 8 8 8 8 0 0 9 8 9 0 8 8 9 0 0 0 0 0 0 0 0 c 0 0 0 0 8 0 0 0 0 r c 0 0 8 * , m 2.o.3.0.Y.Y.<.z.x.x.h.t.e.0.3.2.e.8 * 0 M _ w.x.*.o 9 *.4.w.g.4.s j d gXgXgXgXgXgXgXgXgXgXgXgXgXgXgXgXgXgXgXgXgXgXgXgXgXgXgXgXgXgXgXgXgXgXgXgXgXgXgXgXgXgXgXgXgXgXgXgXgXgXgXgXgXgXgXgXgXgXgXgXgXgXgXgXgXgXgXgXgXgXgXgXgXgXgXgXgXgXgXgXgXgXgXgXgXgXgXgXgXgXgXgXgXgXgXgXgXgXgXgXgXgXgXgXgXgXgXgXgXgXgXgXgXgXgXgXgXgXgXgXgXgXgXgXgXgXgXgXgXgXgXgXgXgXgXgXgXgXgXgXgXgXgXgXgXgXgXgXgXgXgXgXgXgXgXgXgXgXgXgXgXgXgXgXgXgXgXgXgXgXgXgXgXgXgXgXgXgXgXgXgXgXgXgXgXgXgXgXgXgXgXgXgXgXgXgXgXgXgXgXgXgXgXgXgXgXgXgXgXgXgXgXgXgXgXgXgXgXgXgXgXgXgXgXgXgXgXgXgXgXgXgXgXgXgXgXgXgXgXgXgXgXgXgXgXgXgXF F z ;.f.<./ 0 * , f.x.4.^ c < , <.g.3.3.2.2.3.3.2.=.A 2.t.w.w.w.f.;.c < * * 9 8 9 9 9 r r r r 0 9 0 r r r r A A A A A A A r 0 9 0 9 9 0 r c 0 0 0 0 8 8 8 8 8 8 8 8 8 8 8 8 < 8 8 8 8 , , , , 8 8 8 8 8 8 0 c c 0 0 0 0 0 0 0 c 0 8 0 8 < < M W X.{ { } .._ ' 3.3.3.O.O.O.3.3.N A <.f.p.7.,.; , ~ [ 0 , * ` 1XK...o.o.2.w.h.l.x.z.z.z.z.z.z.z.f.f.w.;.' ' _ ' e.",
"` : g.e.=.2.=.2.2.g.l.z.h.f.z.x.z.k.z.k.k.k.k.w.;.` ' ..E.0.1 < < c 8 o , g.l.f.w.;.r ( 3.} } X.2.0.2.2.v f { } O.O...s < f % o o % % % % * * % o # * * * * * * * * * * * * * * * * * * : * * * * * * * * , * * * * , , * : : * , , , : : , : : : : * , , * , , : : , : : : , , , * , c m 3.0.0.Y.E.R.<.z.x.x.h.e.5.0.3.3.e.9 * 0 m N e.>X-.o 9 *.4.f.g.4.z G g gXgXgXgXgXgXgXgXgXgXgXgXgXgXgXgXgXgXgXgXgXgXgXgXgXgXgXgXgXgXgXgXgXgXgXgXgXgXgXgXgXgXgXgXgXgXgXgXgXgXgXgXgXgXgXgXgXgXgXgXgXgXgXgXgXgXgXgXgXgXgXgXgXgXgXgXgXgXgXgXgXgXgXgXgXgXgXgXgXgXgXgXgXgXgXgXgXgXgXgXgXgXgXgXgXgXgXgXgXgXgXgXgXgXgXgXgXgXgXgXgXgXgXgXgXgXgXgXgXgXgXgXgXgXgXgXgXgXgXgXgXgXgXgXgXgXgXgXgXgXgXgXgXgXgXgXgXgXgXgXgXgXgXgXgXgXgXgXgXgXgXgXgXgXgXgXgXgXgXgXgXgXgXgXgXgXgXgXgXgXgXgXgXgXgXgXgXgXgXgXgXgXgXgXgXgXgXgXgXgXgXgXgXgXgXgXgXgXgXgXgXgXgXgXgXgXgXgXgXgXgXgXgXgXgXgXgXgXgXgXgXgXgXgXgXgXgXgXF s ;.g.<.*.r , * w.x.4.^ 8 = * -.g.2.O.o.2.0.3.2.-.r 4.R.e.0.t.e.=.m M : % : : : , , , , , , , , * * * * * * * * * , , , , , , , , , , , , , , , , * * * , * * , * * * * * * , , * * * * * * * * * * * * * * * * , , , , , < < = * : * < _ ( W ..X. .b.X._ =.e.0.L.3.O.O.3.3.N ^ 4.f.p.<.,.; , ~ [ 0 , * _ 1XL...2.2.5.g.l.l.l.z.z.z.z.z.z.k.f.g.w.2.' ' _ ' e.",
"` : g.t.2.2.5.2.4.g.h.z.z.h.z.x.x.z.z.z.z.k.f.4.;.` ' ..E.3.s < 8 c 8 o 7 f.x.g.w.;.A _ 3.X.} ..3.0.0.2.z g X.{ { } { f g ..s $ % $ $ % % * * * * * * * * * = = = = > > > > = = = = > > = > > > > < < , : * * * , < < > : * * * : : : > > , , , > > > > < < < < < < < < > > < < < 0 =.2.m 2.0.0.T.#XR.;.z.x.x.h.e.e.5.3.0.0.9 * 0 m ' g.uX-.o , ^ 4.f.g.4.z } gXgXgXgXgXgXgXgXgXgXgXgXgXgXgXgXgXgXgXgXgXgXgXgXgXgXgXgXgXgXgXgXgXgXgXgXgXgXgXgXgXgXgXgXgXgXgXgXgXgXgXgXgXgXgXgXgXgXgXgXgXgXgXgXgXgXgXgXgXgXgXgXgXgXgXgXgXgXgXgXgXgXgXgXgXgXgXgXgXgXgXgXgXgXgXgXgXgXgXgXgXgXgXgXgXgXgXgXgXgXgXgXgXgXgXgXgXgXgXgXgXgXgXgXgXgXgXgXgXgXgXgXgXgXgXgXgXgXgXgXgXgXgXgXgXgXgXgXgXgXgXgXgXgXgXgXgXgXgXgXgXgXgXgXgXgXgXgXgXgXgXgXgXgXgXgXgXgXgXgXgXgXgXgXgXgXgXgXgXgXgXgXgXgXgXgXgXgXgXgXgXgXgXgXgXgXgXgXgXgXgXgXgXgXgXgXgXgXgXgXgXgXgXgXgXgXgXgXgXgXgXgXgXgXgXgXgXgXgXgXgXgXgXgXgXgXgXgXgXF s =.g.<.=.A , * w.x.4.~ 8 % % *.e.3.O.O.3.Y.3.2.-.r 4.R.Y.3.2.2.' ' o.f & > > < < 1 1 < > > : : : : , , , > < < < < < < < < < < 8 < 8 < < < < < < < < < < , : : : * : : * * * * * * * * : : : : > * * * * > = = > > > > * * * > > : < B 3.' W X.C.C.C.X._ =.0.0.0.3.3.O.3.3.' ^ <.f.p.p.,.; , [ [ 0 , * m 5X0...2.2.w.h.l.l.h.z.z.z.z.z.z.k.f.r.w.2.2.' _ _ e.",
"' > g.g.2.4.5.w.w.g.h.z.z.l.l.x.x.x.x.z.z.z.f.w.2._ D { P.3.s < 8 0 8 o 7 f.h.w.;.~ 0 _ 3.X.} } O.3.3.2.N B X.} { } { f f ..B < < < s s z z z z z z z s s z z z z x x x z z z z z z z z z z z z z z M c M z 0 0 c c M M z z z m m c c D V ~ ~ ~ ~ _ D m m ~ V m _ [ ^ _ N m m M v ' j.2.E 0.2.3.L.E.Y.;.z.x.l.x.x.j.e.2.3.0.9 * 8 N ..Y.>X*.o 9 ^ 4.w.g.2.f U gXgXgXgXgXgXgXgXgXgXgXgXgXgXgXgXgXgXgXgXgXgXgXgXgXgXgXgXgXgXgXgXgXgXgXgXgXgXgXgXgXgXgXgXgXgXgXgXgXgXgXgXgXgXgXgXgXgXgXgXgXgXgXgXgXgXgXgXgXgXgXgXgXgXgXgXgXgXgXgXgXgXgXgXgXgXgXgXgXgXgXgXgXgXgXgXgXgXgXgXgXgXgXgXgXgXgXgXgXgXgXgXgXgXgXgXgXgXgXgXgXgXgXgXgXgXgXgXgXgXgXgXgXgXgXgXgXgXgXgXgXgXgXgXgXgXgXgXgXgXgXgXgXgXgXgXgXgXgXgXgXgXgXgXgXgXgXgXgXgXgXgXgXgXgXgXgXgXgXgXgXgXgXgXgXgXgXgXgXgXgXgXgXgXgXgXgXgXgXgXgXgXgXgXgXgXgXgXgXgXgXgXgXgXgXgXgXgXgXgXgXgXgXgXgXgXgXgXgXgXgXgXgXgXgXgXgXgXgXgXgXgXgXgXgXgXgXgXgXj s =.g.<.-.c * * w.x.5.` z = * ` 0.3.O.O.3.L.3.2.;.A 2.R.T.O.....' _ 3...x x D ....' W ' ' N B z z z z z z z z z v N N V _ ~ ^ ` _ _ _ N D D N N N D N N N m z z z z z m m N M M M M M m m m M z z z z s f z z z z z N m z z z z z f B ..0.' ' O. . .b.| _ ;.e.e.0.3.3.3.3.3.' ^ <.p.p.p.<.# , [ ' r , % m 1X3...2.e.r.f.l.h.f.f.z.z.z.z.z.z.g.w.e.e.2.' ' ' 0.",
"' < ~.g.2.2.5.w.w.g.h.h.z.l.l.x.x.z.x.z.z.z.f.w.2._ ( { L.3.s , 8 0 8 o 7 w.f.w.;.~ z _ 3.} } } X.X.X...B B X.{ { } } f > W { s g g x B N N N W ' ' W { ....X...X.O.X.........{ ........X.....o.2.2.2.2.3.2.o.=.2.2.2.2.o.2.3.0.3.2.2.2.w.w.w.w.e.e.5.5.2.2.2.2.w.w.4.2.2...' ' ' 2.~.' m 9.2.o.3.T.Y.<.z.x.x.x.x.x.g.2.2.e.8 * 0 N ..t.>X/ o , ^ 2.4.w.1.d Y gXgXgXgXgXgXgXgXgXgXgXgXgXgXgXgXgXgXgXgXgXgXgXgXgXgXgXgXgXgXgXgXgXgXgXgXgXgXgXgXgXgXgXgXgXgXgXgXgXgXgXgXgXgXgXgXgXgXgXgXgXgXgXgXgXgXgXgXgXgXgXgXgXgXgXgXgXgXgXgXgXgXgXgXgXgXgXgXgXgXgXgXgXgXgXgXgXgXgXgXgXgXgXgXgXgXgXgXgXgXgXgXgXgXgXgXgXgXgXgXgXgXgXgXgXgXgXgXgXgXgXgXgXgXgXgXgXgXgXgXgXgXgXgXgXgXgXgXgXgXgXgXgXgXgXgXgXgXgXgXgXgXgXgXgXgXgXgXgXgXgXgXgXgXgXgXgXgXgXgXgXgXgXgXgXgXgXgXgXgXgXgXgXgXgXgXgXgXgXgXgXgXgXgXgXgXgXgXgXgXgXgXgXgXgXgXgXgXgXgXgXgXgXgXgXgXgXgXgXgXgXgXgXgXgXgXgXgXgXgXgXgXgXgXgXgXgXgXgXg s ' g.<./ 0 * * w.>X5.' z < * =.0.3.3.O...3.3.2.;.A 2.T.Y.O.{ ..' z o.3...F { ..O.o.2.3.3.3.o.o.o.o.o.o.2.2.3.3.3.3.3.3.w.w.w.5.5.2.3.3.3.O.O.O.O.3.3.3.3.O.o.o.o.....o.O.........1...' ' ..........{ { { ..o.............' D x x z {  .O.N ' o.{ {  .X.' =.e.e.0.2.3.3.3.3.D Z <.p.p.p.<.# , ' 2.~ , % D E.3.' 2.e.g.f.h.h.g.f.f.z.z.z.z.z.f.w.e.0.3.2.' ' 0.",
"' < ~.j.2.4.w.w.g.h.z.z.h.l.l.x.z.z.x.x.z.z.f.4.=._ ( { P.3.z , 9 9 9 # , 7.f.f.4.-.m ` 3.} } } } } } X.B B X.{ { { } v : ( o.g g B B D D D ....{ { { { { { } { { X.O.X.X.X.} X.X.O.X.X.} X.O.H.L.0.3.3.3.3.2.2.e.e.3.2.3.0.Y.Y.0.e.t.e.t.j.j.j.j.g.g.~.e.5.e.g.g.g.r.e.3.o...' 2.t.~._ V 2.2.2.3.E.R.<.z.x.x.].x.x.g.4.2.e.8 * c D ..t.>X/ o < [ 2.2.2...i k gXgXgXgXgXgXgXgXgXgXgXgXgXgXgXgXgXgXgXgXgXgXgXgXgXgXgXgXgXgXgXgXgXgXgXgXgXgXgXgXgXgXgXgXgXgXgXgXgXgXgXgXgXgXgXgXgXgXgXgXgXgXgXgXgXgXgXgXgXgXgXgXgXgXgXgXgXgXgXgXgXgXgXgXgXgXgXgXgXgXgXgXgXgXgXgXgXgXgXgXgXgXgXgXgXgXgXgXgXgXgXgXgXgXgXgXgXgXgXgXgXgXgXgXgXgXgXgXgXgXgXgXgXgXgXgXgXgXgXgXgXgXgXgXgXgXgXgXgXgXgXgXgXgXgXgXgXgXgXgXgXgXgXgXgXgXgXgXgXgXgXgXgXgXgXgXgXgXgXgXgXgXgXgXgXgXgXgXgXgXgXgXgXgXgXgXgXgXgXgXgXgXgXgXgXgXgXgXgXgXgXgXgXgXgXgXgXgXgXgXgXgXgXgXgXgXgXgXgXgXgXgXgXgXgXgXgXgXgXgXgXgXgXgXgXgXgXgXgXj s [ g.<.^ 0 * , w.>Xw.' N < = 2.0.3.3.O.2.2.0.e.<.~ 2.Y.L.m.X...' 0 _ 2.o.B { ..O.0.e.Y.Y.0.3.0.L.H.H.3.0.0.L.L.0.L.e.t.e.g.g.t.e.0.0.H.m.O.m.m.m.C.L.L.L.O.O.O.O.O.O.O.O.O.X...3.3.3.2.....o.O.O.X.X.X.X.O.3.o...O.O.O...{ D B B W X.C...N o.| | | m.O._ =.e.e.e.3.3.2.3.2.N Z <.p.p.p.<.# , ' 2.[ , % _ T.O.' 2.2.w.f.l.h.h.h.l.z.z.z.z.z.g.w.5.0.3.2.' ' 0.",
"' < ^.t.2.5.5.w.g.x.x.z.h.h.l.l.z.z.x.x.x.z.f.;.` m D { P.3.8 , 8 0 0 o , <.f.w.<.-.c _ 3.} } } } } } { B g X.} { { { v : c ..B g g B g g B { ..{ { { B B F { { { { { X.O.X.{ { { X...{ { { ..3.3.3.3.0.3...o.2.0.3.3.2.3.0.Y.3.3.e.~.t.t.^.(.j.w.w.e.~.e.2.e.t.e.g.g.5.2.......3.~.e.c _ =.2.2.Y.!.t.<.z.x.].x.x.l.g.w.2.e.0 * 0 D ..t.>X/ o 7 ` 2.2.2...i j gXgXgXgXgXgXgXgXgXgXgXgXgXgXgXgXgXgXgXgXgXgXgXgXgXgXgXgXgXgXgXgXgXgXgXgXgXgXgXgXgXgXgXgXgXgXgXgXgXgXgXgXgXgXgXgXgXgXgXgXgXgXgXgXgXgXgXgXgXgXgXgXgXgXgXgXgXgXgXgXgXgXgXgXgXgXgXgXgXgXgXgXgXgXgXgXgXgXgXgXgXgXgXgXgXgXgXgXgXgXgXgXgXgXgXgXgXgXgXgXgXgXgXgXgXgXgXgXgXgXgXgXgXgXgXgXgXgXgXgXgXgXgXgXgXgXgXgXgXgXgXgXgXgXgXgXgXgXgXgXgXgXgXgXgXgXgXgXgXgXgXgXgXgXgXgXgXgXgXgXgXgXgXgXgXgXgXgXgXgXgXgXgXgXgXgXgXgXgXgXgXgXgXgXgXgXgXgXgXgXgXgXgXgXgXgXgXgXgXgXgXgXgXgXgXgXgXgXgXgXgXgXgXgXgXgXgXgXgXgXgXgXgXgXgXgXgXgXgXj s ' w.-./ 0 * * w.>Xw.` M < < =.0.2.2.2.5.e.0.w.<.~ 2.P.Y.3.O...' r r 2.o.B B { ..3.Y.^.e.3.3.3.3.o.O.O.o.o.O.3.O.o.3.Y.t.e.e.5.e.e.Y.3.X.X.O.m.m.O.m.Y.L.o...O.O.O.o.o.O.X.{ { o.0.3.2.' 1.1.......X.{ } } X.o.{ { ....{ B B B B {  .L.N m ' | | C.A.C.~ -.g.r.g.g.f.<.2.;.Z $.y.a.p.p.,.# , =.=.A , * _ E.3...2.5.f.l.z.x.x.f.g.l.x.z.z.z.g.w.3.3.2...' ' 0.",
"=.8 ^.t.2.2.5.w.r.h.l.h.h.l.l.l.x.x.x.0X0Xz.z.w.=._ D ..E.3.0 9 8 A A # * <.g.<.;.*.c _ 3.X.} } } } } { B g O.} { ..o.( > 8 ' ..g d d d g g { { F } { { } F F { { { { { O.X.{ { { } X.} ..{ { { ..X.O.X...W ..2.3.3.3.3.2.3.3.O.3.3.e.e.e.e.t.t.w.e.t.t.3.2.2.0.w.e.e.2...{ ..3.Y.R.2.1 ' 2.2.3.E.3XR.<.l.].wXx.x.l.h.e.e.e.0 * 0 ' 2.~.,X/ o , ` 2.2.2...i j gXgXgXgXgXgXgXgXgXgXgXgXgXgXgXgXgXgXgXgXgXgXgXgXgXgXgXgXgXgXgXgXgXgXgXgXgXgXgXgXgXgXgXgXgXgXgXgXgXgXgXgXgXgXgXgXgXgXgXgXgXgXgXgXgXgXgXgXgXgXgXgXgXgXgXgXgXgXgXgXgXgXgXgXgXgXgXgXgXgXgXgXgXgXgXgXgXgXgXgXgXgXgXgXgXgXgXgXgXgXgXgXgXgXgXgXgXgXgXgXgXgXgXgXgXgXgXgXgXgXgXgXgXgXgXgXgXgXgXgXgXgXgXgXgXgXgXgXgXgXgXgXgXgXgXgXgXgXgXgXgXgXgXgXgXgXgXgXgXgXgXgXgXgXgXgXgXgXgXgXgXgXgXgXgXgXgXgXgXgXgXgXgXgXgXgXgXgXgXgXgXgXgXgXgXgXgXgXgXgXgXgXgXgXgXgXgXgXgXgXgXgXgXgXgXgXgXgXgXgXgXgXgXgXgXgXgXgXgXgXgXgXgXgXgXgXgXgXG j s ' w.*./ 0 , , w.(.4.^ c < < =.e.2.2.2.e.t.9.w.4.~ 9.U.Y.3.3...' c 0 ' o.B D ....o.3.0.3.3.O.o.....O.O.O.O.O.O.O.O.3.Y.0.0.3...3.L.I.C.O.} O.m.m.O.O.m.O.X.X.O.n.X.} { { { { { O.3.3...B { X.} } } } G F { { { { { ..{ F B B B F O.L.@.0 z ' o.C.Q.@XU.' -.g.r.g.f.f.w.4.;.Z *.<.p.p.p.,.# 7 -.-.r , : ' /.3...2.w.g.z.z.x.l.f.h.l.z.z.z.h.g.g.t.3.2.' ( _ 0.",
"=.8 ^.e.2.2.5.5.w.g.f.f.f.h.l.l.z.x.z.z.z.z.z.f.w.[ N W Y.0.0 9 8 A A # * <.f.<.-.*.A _ 3.} } X.X.{ { { x f O...{ { ..N : 8 =.2.....' W ' ......{ X.X.X...{ { ..{ { { { ..{ { { { ..X.X.X.X...{ ..O.O.o...' ..2.2.2.2.3.2.3.3.3.3.3.5.e.e.e.e.e.e.t.e.e.2.3.0.0.0.t.t.0.2...o.0.R.e._ < _ 2.2.0.E.$XR.<.z.0XwXyXwXx.j.e.e.g.0 * 0 _ ..t.>X/ . , ~ =.2.2...i j gXgXgXgXgXgXgXgXgXgXgXgXgXgXgXgXgXgXgXgXgXgXgXgXgXgXgXgXgXgXgXgXgXgXgXgXgXgXgXgXgXgXgXgXgXgXgXgXgXgXgXgXgXgXgXgXgXgXgXgXgXgXgXgXgXgXgXgXgXgXgXgXgXgXgXgXgXgXgXgXgXgXgXgXgXgXgXgXgXgXgXgXgXgXgXgXgXgXgXgXgXgXgXgXgXgXgXgXgXgXgXgXgXgXgXgXgXgXgXgXgXgXgXgXgXgXgXgXgXgXgXgXgXgXgXgXgXgXgXgXgXgXgXgXgXgXgXgXgXgXgXgXgXgXgXgXgXgXgXgXgXgXgXgXgXgXgXgXgXgXgXgXgXgXgXgXgXgXgXgXgXgXgXgXgXgXgXgXgXgXgXgXgXgXgXgXgXgXgXgXgXgXgXgXgXgXgXgXgXgXgXgXgXgXgXgXgXgXgXgXgXgXgXgXgXgXgXgXgXgXgXgXgXgXgXgXgXgXgXgXgXgXgXgXgXgXgXgXG j u ' w.*./ 0 , ; <.x.<.Z c < * -.e.2.2.2.e.t.9.w.w.` 0.P.L.3.2.' ' A 8 _ ........o.3.0.Y.Y.Y.Y.3.2.O.3.L.L.3.3.3.3.0.3.0.0.3.2...o.O.+.O. .O.O.O.O.O.O.O.X.O.3.m.m.m.O.O.O.X.....O.3.X.{ { O.m.O.O.} } { { ......X.3...' ....W { ..3.0.2.8 m ..O. .D.@XU.' ;.e.e.g.g.j.g.9.2.*.*.-.,.y.a.<.o , -.[ 0 , > ../.3.' 2.w.g.z.z.h.f.h.z.z.z.z.h.h.h.j.g.3.' N N N 3.",
"=.8 ^.g.2.2.5.4.w.g.h.g.h.h.l.z.z.z.z.z.z.z.k.f.w.=.m B L.0.0 9 9 r r # * <.f.<.<.-.A V 3.} } O.3.O.....z s o.O.......m < 8 c z 1 < > * * * * * < < < > = > < = = * * * * * % % % % % > > * * * * * * * * * : : , * : < , , : > < < * , < < < < 8 8 < < < < 8 < 8 0 c m z z z c ` ' ~ c =.2.9.e.0.P.0.<.x.wXwXaXaXyXj.5.2.e.r * 0 D ' e.(./ X , A [ ' 2.{ i j gXgXgXgXgXgXgXgXgXgXgXgXgXgXgXgXgXgXgXgXgXgXgXgXgXgXgXgXgXgXgXgXgXgXgXgXgXgXgXgXgXgXgXgXgXgXgXgXgXgXgXgXgXgXgXgXgXgXgXgXgXgXgXgXgXgXgXgXgXgXgXgXgXgXgXgXgXgXgXgXgXgXgXgXgXgXgXgXgXgXgXgXgXgXgXgXgXgXgXgXgXgXgXgXgXgXgXgXgXgXgXgXgXgXgXgXgXgXgXgXgXgXgXgXgXgXgXgXgXgXgXgXgXgXgXgXgXgXgXgXgXgXgXgXgXgXgXgXgXgXgXgXgXgXgXgXgXgXgXgXgXgXgXgXgXgXgXgXgXgXgXgXgXgXgXgXgXgXgXgXgXgXgXgXgXgXgXgXgXgXgXgXgXgXgXgXgXgXgXgXgXgXgXgXgXgXgXgXgXgXgXgXgXgXgXgXgXgXgXgXgXgXgXgXgXgXgXgXgXgXgXgXgXgXgXgXgXgXgXgXgXgXgXgXgXgXgXgX} j u ..w.-./ 0 , ; w.x.<.^ 0 < * -.e.2.5.5.g.e.9.w.4._ 2.P.3.2.1.' [ A 0 A m z 8 8 8 < < < , , , * % * < < < > > > : < > : : : * * * * * * * < : * : > > > & : : : > > < < 1 1 1 < < < > = * , , , : : < > = > < > < < < < < < < < < z E 0 8 _ | O.C.A.@XU.o.<.g.g.g.g.e.e.2.2.^ / -.,.<.p.<.o , [ ` 0 , > ../.3.' 2.w.g.h.h.f.f.z.z.z.z.z.z.z.x.l.g.2.' N N N 3.",
";.8 (.g.2.5.w.w.g.j.g.g.h.l.x.x.z.z.z.z.z.z.f.w.4.=.N D Y.0.0 , 9 0 r # , <.g.<.<.*.r ~ 2...X.3.3.3.....z 1 2.3.o.o...m 8 , # o . . . .         . .     . . o . .           . O o o o o o # # # # o o # # # # # # # # * # # * * * * * * , * * * * * * , * * , , , # , , , , * # % , 8 V =.2.2.3.O.C.0.<.x.wXeXaXaXyXh.2.2.e.0 * 0 _ ..t.>X/ o , A -.=.2.' d } gXgXgXgXgXgXgXgXgXgXgXgXgXgXgXgXgXgXgXgXgXgXgXgXgXgXgXgXgXgXgXgXgXgXgXgXgXgXgXgXgXgXgXgXgXgXgXgXgXgXgXgXgXgXgXgXgXgXgXgXgXgXgXgXgXgXgXgXgXgXgXgXgXgXgXgXgXgXgXgXgXgXgXgXgXgXgXgXgXgXgXgXgXgXgXgXgXgXgXgXgXgXgXgXgXgXgXgXgXgXgXgXgXgXgXgXgXgXgXgXgXgXgXgXgXgXgXgXgXgXgXgXgXgXgXgXgXgXgXgXgXgXgXgXgXgXgXgXgXgXgXgXgXgXgXgXgXgXgXgXgXgXgXgXgXgXgXgXgXgXgXgXgXgXgXgXgXgXgXgXgXgXgXgXgXgXgXgXgXgXgXgXgXgXgXgXgXgXgXgXgXgXgXgXgXgXgXgXgXgXgXgXgXgXgXgXgXgXgXgXgXgXgXgXgXgXgXgXgXgXgXgXgXgXgXgXgXgXgXgXgXgXgXgXgXgXgXgXG j u ..r.-.^ 0 , 7 f.yXw.Z 0 < * *.w.2.5.g.j.t.w.w.4.~ 3.U.0.2.2.=.[ A 7 * # o o # # # # # # # # # o o o # # # # # # # # # # # # # # # # # # # # # # # # # # # o o o o o # # o # o o o o o o o o o o o o o o # # # o o o # o o # # o . % o 8 ..@.L.Y.A.Z.C.' <.g.g.g.g.5.2.e.5.^ / <.p.p.p.<.o : [ ` 0 , : ' /.2.' 2.w.g.f.f.f.f.z.z.z.z.l.l.z.z.h.e.2.' N N ( 3.",
";.8 (.j.2.5.w.g.j.h.g.g.g.h.h.h.z.z.z.l.z.f.w.2.2.' N W T.e.0 9 9 0 r # , <.f.w.<.*.0 ~ 2...X.O.3...{ ' z 1 o.o.......( 8 * o # , 7 7 7 , , , , , , , , , , , 7 , 7 9 , , 7 9 9 9 9 9 9 9 e e 8 e e e 8 8 8 9 9 9 e r e 9 9 9 9 9 r r r r 9 9 9 r r 9 r e e r r r e r r r r r 9 8 8 8 ^ 2.3.0.L.Z.D.L.<.z.wXeXaXaXwXh.2.2.e.0 * r ` 1.g.>X^ o , A -.;.<.[ B O.gXgXgXgXgXgXgXgXgXgXgXgXgXgXgXgXgXgXgXgXgXgXgXgXgXgXgXgXgXgXgXgXgXgXgXgXgXgXgXgXgXgXgXgXgXgXgXgXgXgXgXgXgXgXgXgXgXgXgXgXgXgXgXgXgXgXgXgXgXgXgXgXgXgXgXgXgXgXgXgXgXgXgXgXgXgXgXgXgXgXgXgXgXgXgXgXgXgXgXgXgXgXgXgXgXgXgXgXgXgXgXgXgXgXgXgXgXgXgXgXgXgXgXgXgXgXgXgXgXgXgXgXgXgXgXgXgXgXgXgXgXgXgXgXgXgXgXgXgXgXgXgXgXgXgXgXgXgXgXgXgXgXgXgXgXgXgXgXgXgXgXgXgXgXgXgXgXgXgXgXgXgXgXgXgXgXgXgXgXgXgXgXgXgXgXgXgXgXgXgXgXgXgXgXgXgXgXgXgXgXgXgXgXgXgXgXgXgXgXgXgXgXgXgXgXgXgXgXgXgXgXgXgXgXgXgXgXgXgXgXgXgXgXgXgXgXgXgX} j s ..w.-./ e 7 7 f.yXw.^ z < * -.r.4.w.j.(.j.w.<.<.~ 0.U.L.e.w.=.[ 0 7 , , 9 9 e 9 9 e r r r e e e 8 8 8 e e r r e e e e e 9 e 0 0 0 0 r r r e 9 9 9 9 9 9 0 w 8 8 8 8 w 0 9 9 0 9 9 9 , , , , , 8 , , 9 9 9 9 9 9 9 9 9 9 9 9 9 9 , , * c o.+.P.Y.C.b.| ' y.f.g.h.g.3.3.0.5.^ *.<.f.p.f.<.o : [ ` c , : ' E.o.W ..2.w.g.g.f.z.z.z.x.l.f.f.z.k.f.w.2.' _ _ _ 3.",
"=.< (.g.2.5.w.g.g.g.r.g.h.f.g.g.z.x.x.z.f.g.w.2.2.' N { E.Y.z < 8 0 r # , 4.h.f.<./ 9 ^ 2.X.O.O.X.{ F ..z 1 2.3.o...o.( < o # * , < < < : : , , : < , : , < < < < < < > : , < < < < < 1 1 8 8 8 8 8 8 1 8 8 8 8 0 0 0 0 c 0 8 8 8 0 0 0 0 0 0 0 0 c 0 0 0 r r 0 0 9 r 0 0 r r 0 8 8 , c ' O.L.A.|.|.I.,.0XwXwXeXeXwXg.2.2.e.0 * r ` 2.t.>X*.o , A -.<.w.=._ 0.gXgXgXgXgXgXgXgXgXgXgXgXgXgXgXgXgXgXgXgXgXgXgXgXgXgXgXgXgXgXgXgXgXgXgXgXgXgXgXgXgXgXgXgXgXgXgXgXgXgXgXgXgXgXgXgXgXgXgXgXgXgXgXgXgXgXgXgXgXgXgXgXgXgXgXgXgXgXgXgXgXgXgXgXgXgXgXgXgXgXgXgXgXgXgXgXgXgXgXgXgXgXgXgXgXgXgXgXgXgXgXgXgXgXgXgXgXgXgXgXgXgXgXgXgXgXgXgXgXgXgXgXgXgXgXgXgXgXgXgXgXgXgXgXgXgXgXgXgXgXgXgXgXgXgXgXgXgXgXgXgXgXgXgXgXgXgXgXgXgXgXgXgXgXgXgXgXgXgXgXgXgXgXgXgXgXgXgXgXgXgXgXgXgXgXgXgXgXgXgXgXgXgXgXgXgXgXgXgXgXgXgXgXgXgXgXgXgXgXgXgXgXgXgXgXgXgXgXgXgXgXgXgXgXgXgXgXgXgXgXgXgXgXgXgXgXgXu } } g 1.w.-.*.r 7 7 g.uXw.[ c > * =.e.w.g.j.(.j.w.<.<.~ 9.Q.T.-Xj.9._ 0 , : < 8 8 0 8 8 0 z 0 0 0 0 c c 0 c c c c c c c c c 0 0 0 0 0 0 0 c m c z z z c c 0 0 c 0 8 0 0 0 0 0 0 z 0 8 < < < > : < < < < < < < 8 8 8 8 8 8 8 8 8 8 8 8 8 8 * 0 W  .C.m.C.V.m.' <.g.j.j.e.3.O.3.2.^ / <.p.s.k.<.o , [ ` c < > ' /.O...o.2.w.w.g.h.z.z.z.x.z.g.g.f.f.g.w.2.' ' _ _ 3.",
"=.< j.g.2.2.5.w.e.e.g.g.h.h.f.f.z.x.l.g.f.w.5.2.o.' D { R.L.s < 8 9 9 # , <.h.w.-./ 8 ~ 2.O.O.m.X.......M 1 0.0.0.O.o.v > % . o # % % % % % % % % % % % % % % % % % % % % % % % % % % & & & > > > < = = < : * * : < < < < > > > > > > , , : > < < < < < < < < < < , 8 < < , * : : : 0 ' ( 0.P.D.|. XA.<.9XwXwXwXwX0Xg.2.2.e.0 * 0 ` ..t.>X*.# 7 A <.4.f.=.` Y.gXgXgXgXgXgXgXgXgXgXgXgXgXgXgXgXgXgXgXgXgXgXgXgXgXgXgXgXgXgXgXgXgXgXgXgXgXgXgXgXgXgXgXgXgXgXgXgXgXgXgXgXgXgXgXgXgXgXgXgXgXgXgXgXgXgXgXgXgXgXgXgXgXgXgXgXgXgXgXgXgXgXgXgXgXgXgXgXgXgXgXgXgXgXgXgXgXgXgXgXgXgXgXgXgXgXgXgXgXgXgXgXgXgXgXgXgXgXgXgXgXgXgXgXgXgXgXgXgXgXgXgXgXgXgXgXgXgXgXgXgXgXgXgXgXgXgXgXgXgXgXgXgXgXgXgXgXgXgXgXgXgXgXgXgXgXgXgXgXgXgXgXgXgXgXgXgXgXgXgXgXgXgXgXgXgXgXgXgXgXgXgXgXgXgXgXgXgXgXgXgXgXgXgXgXgXgXgXgXgXgXgXgXgXgXgXgXgXgXgXgXgXgXgXgXgXgXgXgXgXgXgXgXgXgXgXgXgXgXgXgXgXgXgXgXgXgXgXO.} x 2.g.<.*.r 7 , f.>Xe.' m < * -.e.w.e.j.g.j.g.w.<./ O.@X!.R.~.e._ z < % : < < 8 8 < 1 < 8 8 8 8 8 < 1 1 < 1 1 8 8 8 8 < < 8 < < < < 1 < 1 1 < > > < 1 < < < > : > : : > > > > : * % * * % * * * * * * * * * * * * * * * * * * * : * * * z {  . .b.F.|.D...<.g.x.j.5.3.3.3.2.^ r -.<.p.f.<.o , [ ' c < > ../.O.{ ..2.3.e.g.l.l.z.z.z.f.w.w.f.h.g.w.2.' ' _ _ 3.",
"' 1 j.g.2.2.2.2.2.e.h.h.h.h.f.f.l.l.h.g.5.2.2.........{ E.L.f < 8 9 9 # , <.h.f.-./ 8 ~ 3.3.O.O.X.3...1.m s L.L.O.O.o.z z N % o * > < < < < < < > > > > > > > > < < > > < < > > > < 1 < < > < < < 8 8 < 1 < < < < < 1 1 1 < < < 1 1 1 < < 8 8 8 0 0 1 8 8 8 1 1 1 8 8 8 8 1 1 8 8 z ] 9.' 0.P.Z.}. XU.<.9XeXyXwXx.x.g.2.2.w.0 * 8 D ..e.>X*.o 7 A =.<.w.-.` Y...gXgXgXgXgXgXgXgXgXgXgXgXgXgXgXgXgXgXgXgXgXgXgXgXgXgXgXgXgXgXgXgXgXgXgXgXgXgXgXgXgXgXgXgXgXgXgXgXgXgXgXgXgXgXgXgXgXgXgXgXgXgXgXgXgXgXgXgXgXgXgXgXgXgXgXgXgXgXgXgXgXgXgXgXgXgXgXgXgXgXgXgXgXgXgXgXgXgXgXgXgXgXgXgXgXgXgXgXgXgXgXgXgXgXgXgXgXgXgXgXgXgXgXgXgXgXgXgXgXgXgXgXgXgXgXgXgXgXgXgXgXgXgXgXgXgXgXgXgXgXgXgXgXgXgXgXgXgXgXgXgXgXgXgXgXgXgXgXgXgXgXgXgXgXgXgXgXgXgXgXgXgXgXgXgXgXgXgXgXgXgXgXgXgXgXgXgXgXgXgXgXgXgXgXgXgXgXgXgXgXgXgXgXgXgXgXgXgXgXgXgXgXgXgXgXgXgXgXgXgXgXgXgXgXgXgXgXgXgXgXgXgXgXgXgXgXgXO.} x 5.x.<.*.r , , w.>X5.' z > * =.e.e.w.h.j.j.j.g.<.*.+.7X!.0.e.5.' D M = % : * < > > < < < < < < < 1 < < < 1 8 8 8 < 8 < < < < < < < > > < 1 < < < < 1 < < 8 1 8 8 8 1 1 1 1 1 1 < < < < > > : : > > : : < < < < < < < < < < < > > < < z 2.O.X. .b.{. X{.o.<.h.g.g.5.3.3.3.4.^ A -.<.p.p.<.o , ' ' m 1 & ../.O.{ ..o.2.e.h.l.l.z.z.f.f.w.w.f.g.r.5.2.' ' ' _ 3.",
"' 8 (.g.2.2.2.2.2.w.h.h.z.z.z.l.l.l.g.w.4.2.....{ { { { E.Y.z < 8 9 9 , * <.f.f.<.^ 9 ~ e.3.O.O.3.3.3.2.m z L.O.X.X.o.z ' 3.z > 1 z M M m m m m m m m m z z m m ( N v z N N V V ~ _ ^ ~ V m _ [ ^ [ [ _ _ _ _ _ _ _ _ _ _ _ _ _ ' ' ' [ [ [ -.=.=.' o.o.' ' ' ' ' [ [ ' ' ' ' _ _ ' 0.0.' 0.L.C.F.7X.Xp.9XaXaXwXx.h.e.2.2.w.9 * 0 ' ..e.^.^ o 8 Z =.<.w.-._ Y...gXgXgXgXgXgXgXgXgXgXgXgXgXgXgXgXgXgXgXgXgXgXgXgXgXgXgXgXgXgXgXgXgXgXgXgXgXgXgXgXgXgXgXgXgXgXgXgXgXgXgXgXgXgXgXgXgXgXgXgXgXgXgXgXgXgXgXgXgXgXgXgXgXgXgXgXgXgXgXgXgXgXgXgXgXgXgXgXgXgXgXgXgXgXgXgXgXgXgXgXgXgXgXgXgXgXgXgXgXgXgXgXgXgXgXgXgXgXgXgXgXgXgXgXgXgXgXgXgXgXgXgXgXgXgXgXgXgXgXgXgXgXgXgXgXgXgXgXgXgXgXgXgXgXgXgXgXgXgXgXgXgXgXgXgXgXgXgXgXgXgXgXgXgXgXgXgXgXgXgXgXgXgXgXgXgXgXgXgXgXgXgXgXgXgXgXgXgXgXgXgXgXgXgXgXgXgXgXgXgXgXgXgXgXgXgXgXgXgXgXgXgXgXgXgXgXgXgXgXgXgXgXgXgXgXgXgXgXgXgXgXgXgXgXgXgXgXO.} N w.x.p.-.r , , w.(.2.m s = * -.e.5.w.g.j.x.x.g.7.*.C.8XQ.0.2.2.' D 2.( < < z z v v m N V D D _ D D N N B N N D _ _ ` _ ~ _ ' _ ~ ~ _ _ _ _ _ ` _ D N _ _ V V V _ _ _ _ _ _ _ ( _ m m N _ _ D V m m m v N N N m D ` D N N N N N N M m 2.Y.O.X. . .D.|.D.o.<.f.g.g.e.3.3.5.2.Z *.<.p.p.y.<.# 9 =.' m 1 = ../.O.......2.5.l.l.l.z.z.f.f.f.w.w.4.2.2.o.....' ' 0.",
"' 1 (.g.2.2.2.2.5.w.g.h.z.z.l.l.z.h.f.g.w.4.2...{ { { ..E.Y.z < 8 0 9 * # -.f.<.<.*.0 [ w.2.2.3.3.3.2.2.c s 3.X.{ X.O.N z 3...B z N N N N N N N ' ' ....N x N ' ....D W ....o.o.2.2.2.2.1.' 2.2.=.2.2.2.2.2.2.2.0.2.2.2.2.3.5.2.2.2.5.w.w.w.w.e.e.e.0.0.e.0.0.3.3.w.5.2.o.o.o.' ' o.0.o.m 3.0.+.Z.@XT.<.9XwXyXyXx.g.3.X.3.e.e , 0 ' ..e.(.~ o 8 ^ =.<.f.` _ Y...gXgXgXgXgXgXgXgXgXgXgXgXgXgXgXgXgXgXgXgXgXgXgXgXgXgXgXgXgXgXgXgXgXgXgXgXgXgXgXgXgXgXgXgXgXgXgXgXgXgXgXgXgXgXgXgXgXgXgXgXgXgXgXgXgXgXgXgXgXgXgXgXgXgXgXgXgXgXgXgXgXgXgXgXgXgXgXgXgXgXgXgXgXgXgXgXgXgXgXgXgXgXgXgXgXgXgXgXgXgXgXgXgXgXgXgXgXgXgXgXgXgXgXgXgXgXgXgXgXgXgXgXgXgXgXgXgXgXgXgXgXgXgXgXgXgXgXgXgXgXgXgXgXgXgXgXgXgXgXgXgXgXgXgXgXgXgXgXgXgXgXgXgXgXgXgXgXgXgXgXgXgXgXgXgXgXgXgXgXgXgXgXgXgXgXgXgXgXgXgXgXgXgXgXgXgXgXgXgXgXgXgXgXgXgXgXgXgXgXgXgXgXgXgXgXgXgXgXgXgXgXgXgXgXgXgXgXgXgXgXgXgXgXgXgXgXgXO.} B g.wXa.-.r , , w.(.2.z s = * ` 5.2.e.x.x.].l.g.<.*.C.8XQ.0.2.2.' z 2.3.W B ' ......O.3.3.2.2.2.2.3.3.3.3.o.2.2.5.5.5.3.2.2.e.2.2.5.e.0.2.2.o.3.3.2.2.2.2.5.4.2.2.2.2.o.2.3.2.o.o...........2.2.2...........W D ..3...' W { { { D N ' 0.0.' o.O.} v.F.A.=.<.f.g.j.g.5.3.5.2.^ -.f.k.k.a.<.# , ] ' m 1 = ../.o.' ..2.w.g.l.l.l.f.f.f.f.f.w.w.2.1...X.....' ' 0.",
"D < (.t.2.2.2.2.5.w.h.h.z.z.z.z.z.h.h.h.h.f.4.=...' D ..E.e.z < 9 9 9 * # -.f.<.<.*.8 V e.2.2.3.3.3.2.2.c s 3.X.X.O.3.( < ..X.F x x x x x B N D D F ....D B D { { F B { { { ....o.O.3.o.o...2.....o.3.3.O...o.3.0.0.2.2.3.e.0.2.2.e.e.e.e.g.t.t.t.t.0.Y.t.e.3.2.e.g.w.2.2.o...' ' 2.0._ M 2.0.L.Z.D.0.,.wXaXwXyXx.h.3.O.3.e.e , c ' 1.e.>X^ o 8 A =.4.w.` D L...gXgXgXgXgXgXgXgXgXgXgXgXgXgXgXgXgXgXgXgXgXgXgXgXgXgXgXgXgXgXgXgXgXgXgXgXgXgXgXgXgXgXgXgXgXgXgXgXgXgXgXgXgXgXgXgXgXgXgXgXgXgXgXgXgXgXgXgXgXgXgXgXgXgXgXgXgXgXgXgXgXgXgXgXgXgXgXgXgXgXgXgXgXgXgXgXgXgXgXgXgXgXgXgXgXgXgXgXgXgXgXgXgXgXgXgXgXgXgXgXgXgXgXgXgXgXgXgXgXgXgXgXgXgXgXgXgXgXgXgXgXgXgXgXgXgXgXgXgXgXgXgXgXgXgXgXgXgXgXgXgXgXgXgXgXgXgXgXgXgXgXgXgXgXgXgXgXgXgXgXgXgXgXgXgXgXgXgXgXgXgXgXgXgXgXgXgXgXgXgXgXgXgXgXgXgXgXgXgXgXgXgXgXgXgXgXgXgXgXgXgXgXgXgXgXgXgXgXgXgXgXgXgXgXgXgXgXgXgXgXgXgXgXgXgXgXs m.X.N g.wXh.<.r , , 4.(.2.z s = * ^ 2.e.g.>Xx.x.l.r.<.*.C.7XQ.L.e.2.` 8 N 3.o.B D { X.X.H.Y.0.2.o.3.3.3.L.L.3.O.O.3.0.e.0.3.3.0.3.o.3.e.t.e.2.2.3.Y.Y.3.3.0.0.e.e.e.0.0.3...o.O.o.o.....o.o.....2.3.3...{ { { { B D ..3...' W ' ' D D B ..Y...v o.0.O.m.V.Z.2.<.l.x.x.(.0.3.5.5.-.-.f.k.p.f.<.# , ' ' m < % ../.o...2.g.h.x.l.x.z.w.f.f.f.f.f.r.5.2...X.X.....' 3.",
"D < j.t.2.2.2.2.4.g.l.z.f.f.z.k.z.h.f.f.f.f.g.5.o.' N ' R.9.8 8 8 9 0 * # -.f.<.<.*.9 ~ e.9.0.0.0.3.2.2.m s 3.O.O.O.O._ 1 v { F x z x B D D F D x B { { F B F F F F F { } { { } { X.X.X.o.O.O.O...O.O.O.O...o.3.0.3.2.2.0.Y.0.2.2.e.t.e.t.~.^.~.t.e.t.Y.Y.e.3.2.e.e.5.2.2.o...' ..0.0.E c 2.0.L.Z.Q.0.,.z.aXwXwXwXx.0.3.3.e.e , c ' 6.g.,X[ o 8 A -.;.2.' D L...gXgXgXgXgXgXgXgXgXgXgXgXgXgXgXgXgXgXgXgXgXgXgXgXgXgXgXgXgXgXgXgXgXgXgXgXgXgXgXgXgXgXgXgXgXgXgXgXgXgXgXgXgXgXgXgXgXgXgXgXgXgXgXgXgXgXgXgXgXgXgXgXgXgXgXgXgXgXgXgXgXgXgXgXgXgXgXgXgXgXgXgXgXgXgXgXgXgXgXgXgXgXgXgXgXgXgXgXgXgXgXgXgXgXgXgXgXgXgXgXgXgXgXgXgXgXgXgXgXgXgXgXgXgXgXgXgXgXgXgXgXgXgXgXgXgXgXgXgXgXgXgXgXgXgXgXgXgXgXgXgXgXgXgXgXgXgXgXgXgXgXgXgXgXgXgXgXgXgXgXgXgXgXgXgXgXgXgXgXgXgXgXgXgXgXgXgXgXgXgXgXgXgXgXgXgXgXgXgXgXgXgXgXgXgXgXgXgXgXgXgXgXgXgXgXgXgXgXgXgXgXgXgXgXgXgXgXgXgXgXgXgXgXgXgXgXs n.} B w.wXp.-.r , , w.>X5.D z = * ^ w.w.r.h.h.j.h.g.7.*.C.7XQ.I.e.2.' 8 z 2.O.W D F X.m.L.L.3.o.3.0.3.X.O.H.O.X.O.3.0.Y.0.3.3.0.3...3.e.t.0.2.3.0.L.L.O.3.3.0.3.2.0.Y.Y.0.X.X.X.....X.O.O.O.....3.3.3...{ { { } { { ..O...{ { W W D D D 2.0._ v 2.0.L.A.Z.P.;.<.x.x.x.(.0.3.3.2.-.*.<.<.y.p.<.# < ..' m < % ../.o...5.h.l.x.z.x.h.7.7.f.f.f.f.g.w.2...X.O.X...' 3.",
"' 1 j.t.2.2.2.2.4.g.l.l.f.f.z.z.z.f.f.f.f.f.g.2...D B W R.0.1 , 8 9 r 7 # -.f.<.-./ 0 _ e.0.e.e.3.3.3.5._ z L.O.X.X.O.' 8 z ....B f x D F { { F g B F F F F F F F F } } } } U } ..o.o.o.o.o.X.o...o.o...X.....O.3.o.o.o.3.3.2.o.2.e.5.e.0.Y.Y.Y.t.e.0.0.0.3.2.2.2.9.2.2.........2.e.2.v m 3.0.+.C.Q.R.<.z.wXwXwX0Xg.3.O.3.w.r , c ' 6.g.,X[ o 8 A *.' ' N D L...gXgXgXgXgXgXgXgXgXgXgXgXgXgXgXgXgXgXgXgXgXgXgXgXgXgXgXgXgXgXgXgXgXgXgXgXgXgXgXgXgXgXgXgXgXgXgXgXgXgXgXgXgXgXgXgXgXgXgXgXgXgXgXgXgXgXgXgXgXgXgXgXgXgXgXgXgXgXgXgXgXgXgXgXgXgXgXgXgXgXgXgXgXgXgXgXgXgXgXgXgXgXgXgXgXgXgXgXgXgXgXgXgXgXgXgXgXgXgXgXgXgXgXgXgXgXgXgXgXgXgXgXgXgXgXgXgXgXgXgXgXgXgXgXgXgXgXgXgXgXgXgXgXgXgXgXgXgXgXgXgXgXgXgXgXgXgXgXgXgXgXgXgXgXgXgXgXgXgXgXgXgXgXgXgXgXgXgXgXgXgXgXgXgXgXgXgXgXgXgXgXgXgXgXgXgXgXgXgXgXgXgXgXgXgXgXgXgXgXgXgXgXgXgXgXgXgXgXgXgXgXgXgXgXgXgXgXgXgXgXgXgXgXgXgXgXs n.} x w.z.7.*.c , , w.>Xw.' m 8 < -.e.w.4.7.w.h.g.g.p.*.C.7X+XI.t.w.=.0 8 ' o.W N D X.m.L.L.O.3.3.0.3.O.X.X.X.X.O.0.0.3.3.O.3.3.3.X.3.0.e.2.2.3.O.O.O.O.O.3.3.2.3.3.L.L.O.X.X.} } X.X.X.X.X.....3.3.3...{ { { { { { { ..{ { F B B B B { 2.3.m m 2.0.L.A.D.P.=.7.h.x.x.e.3.2.3.2.[ ^ -.<.<.p.<.* < ' ' m 8 * ..E.2.2.w.h.z.z.z.z.h.g.f.f.f.k.f.w.4.2.o.X.O.X.....3.",
"' < ^.e.1.2.2.2.2.w.g.f.f.h.z.z.z.l.f.f.f.f.4.2...B B { R.0.1 , 8 r r 7 # <.f.<.<./ 0 _ e.e.e.2.2.3.e.e.' x L.O.o.o.o.' < 1 ..o.( z B W ..{ W B F F F F F F F j j j } } } } { { X.o.| { ..o.o.o.o.o.........o.o.o.o.o.o.O.3.3.2.3.0.3.3.3.3.0.0.0.0.0.0.0.0.0.0.3.e.0.o.......2.3.0.2.0 m 0.0.O.Z.@XE.<.z.wXeXwXx.g.2...2.w.0 , c ' 1.g.>X*.o 9 A ` ' ' D B L.W gXgXgXgXgXgXgXgXgXgXgXgXgXgXgXgXgXgXgXgXgXgXgXgXgXgXgXgXgXgXgXgXgXgXgXgXgXgXgXgXgXgXgXgXgXgXgXgXgXgXgXgXgXgXgXgXgXgXgXgXgXgXgXgXgXgXgXgXgXgXgXgXgXgXgXgXgXgXgXgXgXgXgXgXgXgXgXgXgXgXgXgXgXgXgXgXgXgXgXgXgXgXgXgXgXgXgXgXgXgXgXgXgXgXgXgXgXgXgXgXgXgXgXgXgXgXgXgXgXgXgXgXgXgXgXgXgXgXgXgXgXgXgXgXgXgXgXgXgXgXgXgXgXgXgXgXgXgXgXgXgXgXgXgXgXgXgXgXgXgXgXgXgXgXgXgXgXgXgXgXgXgXgXgXgXgXgXgXgXgXgXgXgXgXgXgXgXgXgXgXgXgXgXgXgXgXgXgXgXgXgXgXgXgXgXgXgXgXgXgXgXgXgXgXgXgXgXgXgXgXgXgXgXgXgXgXgXgXgXgXgXgXgXgXgXgXs b.} B 4.h.-.^ 0 , , w.>Xw.=._ c 8 ;.e.9.w.f.f.g.g.r.7.*.+.7X+XE.t.w.;.0 z _ o...' ....O.3.3.3.3.0.0.0.O.X...o.X.O.0.3.3.O.O.3.3.3.O.3.3.0.3.3.3.X.O.O.O.3.H.3.3.O.O.O.X.....} | X.O.X.X.X.X.O.O.3.3.O...{ { { } { } X.X.} } } U j { { ..3.2.c m o.0.L.A.Q.Z.] w.x.j.h.e.3.O.3.3.` A -.<.7.f.<.* < 2.' m 8 * ../.3.2.w.h.z.z.z.z.h.z.h.f.f.z.f.w.4.2.2.o.X.....' 3.",
"=.< ^.g.2.2.2.2.w.w.w.f.f.h.k.k.z.l.z.f.f.f.4...{ B N ' Y.9.8 8 8 ~ A 7 # <.f.7.<.*.0 [ e.t.e.2.2.2.w.w.' x L.O.o.o.o._ 1 m o.' z 1 z m N v z f f f f f f f f f f f g x x g z x B B g f z z x B B B B N W ' ' ' ' ' ' ' W W ( N N N N D N N N D _ _ ( _ _ ( ( _ ' ' ' N v N ( ' ' ' ~ 1 N 2.0.0.U.7XE.<.z.wXwX'.x.g.5.2.2.2.0 , 0 ` ..j.>X*.# 7 A *.=.1.D g O.W gXgXgXgXgXgXgXgXgXgXgXgXgXgXgXgXgXgXgXgXgXgXgXgXgXgXgXgXgXgXgXgXgXgXgXgXgXgXgXgXgXgXgXgXgXgXgXgXgXgXgXgXgXgXgXgXgXgXgXgXgXgXgXgXgXgXgXgXgXgXgXgXgXgXgXgXgXgXgXgXgXgXgXgXgXgXgXgXgXgXgXgXgXgXgXgXgXgXgXgXgXgXgXgXgXgXgXgXgXgXgXgXgXgXgXgXgXgXgXgXgXgXgXgXgXgXgXgXgXgXgXgXgXgXgXgXgXgXgXgXgXgXgXgXgXgXgXgXgXgXgXgXgXgXgXgXgXgXgXgXgXgXgXgXgXgXgXgXgXgXgXgXgXgXgXgXgXgXgXgXgXgXgXgXgXgXgXgXgXgXgXgXgXgXgXgXgXgXgXgXgXgXgXgXgXgXgXgXgXgXgXgXgXgXgXgXgXgXgXgXgXgXgXgXgXgXgXgXgXgXgXgXgXgXgXgXgXgXgXgXgXgXgXgXgXgXs n.} B 2.w.*.r 9 , , g.yXw.-.V 0 8 2.e.2.w.l.l.h.g.w.<.$. .*X+XE.~.e.2.c m _ ' m z z v B B B N ( W _ ( ( v v z B B N v v B N N N N N N N N ( ( ( B z z B B B B z z z f f f z z z N N N N M m N m m M z z z s s s z z x v z z f s f f f v ' ^ 8 m o.0.0.U.$XU.o.4.x.j.g.e.0.O.3.2.V A *.<.<.f.<.# 8 2.=.A 8 * ../.2.=.w.f.z.f.f.h.z.z.z.f.f.z.f.f.w.w.3.3...' ' ' 2.",
"=., ^.j.2.2.4.5.w.g.g.f.f.h.k.k.z.z.f.f.f.g.w.2...B m ' Y.2.8 8 9 ~ A 7 # <.f.p.<.*.r _ t.t.e.e.w.2.w.w.' z L.O.o.o.o.( c V c > % o o % % % $ . % o o o o o o o o o # # o o - % % % $ o o o o % % % % * * * % % % * * * * * * * * * * * * % * * * % # # * # # * * # # * * : : * * : , 0 o.3.0.L.Q.7XE.,.z.wXwXx.x.l.g.3.2.5.r * 0 ` 1.j.>X*.# 7 A =.1.2.D g X.B gXgXgXgXgXgXgXgXgXgXgXgXgXgXgXgXgXgXgXgXgXgXgXgXgXgXgXgXgXgXgXgXgXgXgXgXgXgXgXgXgXgXgXgXgXgXgXgXgXgXgXgXgXgXgXgXgXgXgXgXgXgXgXgXgXgXgXgXgXgXgXgXgXgXgXgXgXgXgXgXgXgXgXgXgXgXgXgXgXgXgXgXgXgXgXgXgXgXgXgXgXgXgXgXgXgXgXgXgXgXgXgXgXgXgXgXgXgXgXgXgXgXgXgXgXgXgXgXgXgXgXgXgXgXgXgXgXgXgXgXgXgXgXgXgXgXgXgXgXgXgXgXgXgXgXgXgXgXgXgXgXgXgXgXgXgXgXgXgXgXgXgXgXgXgXgXgXgXgXgXgXgXgXgXgXgXgXgXgXgXgXgXgXgXgXgXgXgXgXgXgXgXgXgXgXgXgXgXgXgXgXgXgXgXgXgXgXgXgXgXgXgXgXgXgXgXgXgXgXgXgXgXgXgXgXgXgXgXgXgXgXgXgXgXgXgXs b.} g 2.w.-.A 0 , , g.>Xw.^ c , , =.e.2.f.l.l.h.g.w.<.$. .+XU.I.t.w.;.~ z 1 > * % % % % % % % % % % % * * * % % % % # # % % % % % % % * * * * * % % * * * % % # # # # # # # # # % * % % # # # % # # # # # o o o o o # # # o o o o o o o o o , m o.2.0.#X8X#X' <.h.x.x.x.j.e.3.o.V A -.<.<.p.<.# 8 2.=.A 8 * ..R...' w.f.f.f.f.f.z.z.z.h.f.f.h.g.g.e.e.2...' _ _ 2.",
"=., j.e.2.2.2.4.w.h.h.f.f.h.k.z.z.z.f.f.f.g.5...' v m ( e.2.< 8 9 ~ ~ 7 # <.f.p.<.*.r _ 0.0.e.t.t.r.w.w.[ z L.O.O.o.o.( 0 < % o # * * * * * * * * * * # # # # # # % * * * % % % % % * # # # * * * * * 3 7 7 * * * # # # * * * * * * 3 * * * 7 7 3 3 2 4 7 7 7 7 7 9 9 9 9 9 9 9 , * , ~ 3.3.0.L.Q.@XE.,.z.9XwX0X0Xx.j.e.w.4.0 * 0 ` 2.(.uX*.o , c ` ' ..D g X.B gXgXgXgXgXgXgXgXgXgXgXgXgXgXgXgXgXgXgXgXgXgXgXgXgXgXgXgXgXgXgXgXgXgXgXgXgXgXgXgXgXgXgXgXgXgXgXgXgXgXgXgXgXgXgXgXgXgXgXgXgXgXgXgXgXgXgXgXgXgXgXgXgXgXgXgXgXgXgXgXgXgXgXgXgXgXgXgXgXgXgXgXgXgXgXgXgXgXgXgXgXgXgXgXgXgXgXgXgXgXgXgXgXgXgXgXgXgXgXgXgXgXgXgXgXgXgXgXgXgXgXgXgXgXgXgXgXgXgXgXgXgXgXgXgXgXgXgXgXgXgXgXgXgXgXgXgXgXgXgXgXgXgXgXgXgXgXgXgXgXgXgXgXgXgXgXgXgXgXgXgXgXgXgXgXgXgXgXgXgXgXgXgXgXgXgXgXgXgXgXgXgXgXgXgXgXgXgXgXgXgXgXgXgXgXgXgXgXgXgXgXgXgXgXgXgXgXgXgXgXgXgXgXgXgXgXgXgXgXgXgXgXgXgXgXgXs v.G g 2.g.<.-.c , , f.>X4.A 8 * * *.5.2.w.l.l.g.g.w.<.*.+.@XU.R.e.w.;.` < * * , 9 , 7 7 7 7 7 9 9 9 7 7 7 9 9 7 7 7 7 7 7 7 7 7 7 , , 7 7 7 7 7 7 7 7 7 7 7 7 7 7 , ; ; , , , , , , , * , * * , , * * , , , , , , , , , * * * * * , , * # # 9 ` o.9.e.#X8X.X] 8.j.x.j.x.].g.2.2._ A =.<.<.p.<.# 8 2.' c 8 * ' R...[ 4.f.f.h.f.f.z.z.z.z.f.h.h.h.g.e.2.2...' ' _ 2.",
"' : j.g.2.2.2.4.w.h.z.z.z.z.k.z.z.z.f.f.f.f.2.' D N N ' Y.9.< , 8 ~ ~ 7 ; <.f.p.<.*.r ` 5.3.0.t.j.g.w.w._ v L.0.O.O.o.m : * # , , 9 8 9 0 8 8 8 9 9 9 9 9 9 9 < 8 8 8 0 8 8 9 9 8 8 0 0 9 9 8 8 8 9 e r r r e 9 e 9 8 9 e e 9 8 9 9 9 8 8 8 8 8 8 8 9 8 9 9 9 e r r r r r r r r r r 7 ^ 2.0.L.L.P.@XR.,.z.wXwX0X0Xx.x.t.e.w.r * 0 ` 2.j.yX*.# , 0 ~ D N D g X.B gXgXgXgXgXgXgXgXgXgXgXgXgXgXgXgXgXgXgXgXgXgXgXgXgXgXgXgXgXgXgXgXgXgXgXgXgXgXgXgXgXgXgXgXgXgXgXgXgXgXgXgXgXgXgXgXgXgXgXgXgXgXgXgXgXgXgXgXgXgXgXgXgXgXgXgXgXgXgXgXgXgXgXgXgXgXgXgXgXgXgXgXgXgXgXgXgXgXgXgXgXgXgXgXgXgXgXgXgXgXgXgXgXgXgXgXgXgXgXgXgXgXgXgXgXgXgXgXgXgXgXgXgXgXgXgXgXgXgXgXgXgXgXgXgXgXgXgXgXgXgXgXgXgXgXgXgXgXgXgXgXgXgXgXgXgXgXgXgXgXgXgXgXgXgXgXgXgXgXgXgXgXgXgXgXgXgXgXgXgXgXgXgXgXgXgXgXgXgXgXgXgXgXgXgXgXgXgXgXgXgXgXgXgXgXgXgXgXgXgXgXgXgXgXgXgXgXgXgXgXgXgXgXgXgXgXgXgXgXgXgXgXgXgXgXgXs } U g 2.g.<.=.A , 7 f.>X4.A 9 * * ` 2.2.w.l.f.g.g.w.<.=.0.+X.XT.9.2.=.~ < < 0 0 r r r r r r r r *.$.#.r r r r r r r r r c r r r r r r r r r r r 9 9 e e r r r 9 9 0 9 , 9 9 8 9 0 0 0 0 0 0 0 0 0 0 0 8 8 1 8 8 0 8 8 8 < < < 1 1 1 1 9 7 , 9 ~ o.9.2.C.U.P.[ <.h.j.x.x.x.j.0.2.' *.<.<.<.<.<., 8 2.[ 0 8 % ' R...' 2.w.g.h.h.z.z.z.x.z.f.g.g.h.g.w.2.o...' ' ' 2.",
"' : j.e.2.2.2.4.w.z.x.z.f.z.z.z.z.z.f.f.f.f.2.' D D D ..R.9.< , 8 ~ ~ 7 , <.f.<.,.*.9 ` 2.2.3.t.j.h.w.w.` v T.L.O.O.0.v * o X # # , , , , , , , , , , , , , , # # # # * * * * , , 7 , * * , , , , , , 8 8 9 9 9 9 9 9 9 9 9 8 9 9 9 9 8 8 8 8 0 8 8 8 8 8 8 8 0 0 0 0 0 0 0 0 0 8 9 , c o.0.R.Y.P.Q.R.,.z.wX'.x.0Xl.g.e.e.g.r * 0 ` 1.g.].*.o , 0 V D D ..g X.B gXgXgXgXgXgXgXgXgXgXgXgXgXgXgXgXgXgXgXgXgXgXgXgXgXgXgXgXgXgXgXgXgXgXgXgXgXgXgXgXgXgXgXgXgXgXgXgXgXgXgXgXgXgXgXgXgXgXgXgXgXgXgXgXgXgXgXgXgXgXgXgXgXgXgXgXgXgXgXgXgXgXgXgXgXgXgXgXgXgXgXgXgXgXgXgXgXgXgXgXgXgXgXgXgXgXgXgXgXgXgXgXgXgXgXgXgXgXgXgXgXgXgXgXgXgXgXgXgXgXgXgXgXgXgXgXgXgXgXgXgXgXgXgXgXgXgXgXgXgXgXgXgXgXgXgXgXgXgXgXgXgXgXgXgXgXgXgXgXgXgXgXgXgXgXgXgXgXgXgXgXgXgXgXgXgXgXgXgXgXgXgXgXgXgXgXgXgXgXgXgXgXgXgXgXgXgXgXgXgXgXgXgXgXgXgXgXgXgXgXgXgXgXgXgXgXgXgXgXgXgXgXgXgXgXgXgXgXgXgXgXgXgXgXgXgXs } j s 2.g.<.*.r 7 7 f.>Xw.^ 0 * % D 2.2.g.z.f.g.f.w.<.*.0.&X&X;Xe.5.4._ % * , , , , 7 9 9 9 9 9 e e e 0 0 9 0 9 9 9 0 0 0 0 0 0 0 0 0 0 0 0 0 0 0 0 0 0 8 8 8 e 8 8 8 8 8 8 8 8 8 8 8 8 8 8 8 8 8 8 7 * * * , , 7 , , , , , , , , , , , , # 0 ' 3.e.2.o.A.P.2.<.x.(.(.x.x.t.0.0.[ *.<.f.p.p.<.7 8 2.` 0 , % ../.O...2.4.g.g.g.l.z.z.z.l.h.w.f.g.g.w.2.2.1.' ' ' 5.",
"' : j.e.=.2.2.5.g.x.z.f.f.f.z.z.z.f.f.h.h.f.w.;.=.` D ..R.2.< , 9 ~ / 7 7 <.f.<.,.*.9 ~ 3.3.3.Y.^.g.w.w.` v L.0.O.o.o.v 8 , . o o o o % # o o o o o o o o o o # # # # # # o # % % % % % % * * * * * * * * * * * * * * * * * * * # % * * * * * * * * * * * * * * * * , , , , * * * * 8 =.O.L.-XR.P.Q.R.:.z.wX'.x.0Xz.4.2.w.e.r * 9 ^ =.g.].[ o * 0 V ' ....g X.B gXgXgXgXgXgXgXgXgXgXgXgXgXgXgXgXgXgXgXgXgXgXgXgXgXgXgXgXgXgXgXgXgXgXgXgXgXgXgXgXgXgXgXgXgXgXgXgXgXgXgXgXgXgXgXgXgXgXgXgXgXgXgXgXgXgXgXgXgXgXgXgXgXgXgXgXgXgXgXgXgXgXgXgXgXgXgXgXgXgXgXgXgXgXgXgXgXgXgXgXgXgXgXgXgXgXgXgXgXgXgXgXgXgXgXgXgXgXgXgXgXgXgXgXgXgXgXgXgXgXgXgXgXgXgXgXgXgXgXgXgXgXgXgXgXgXgXgXgXgXgXgXgXgXgXgXgXgXgXgXgXgXgXgXgXgXgXgXgXgXgXgXgXgXgXgXgXgXgXgXgXgXgXgXgXgXgXgXgXgXgXgXgXgXgXgXgXgXgXgXgXgXgXgXgXgXgXgXgXgXgXgXgXgXgXgXgXgXgXgXgXgXgXgXgXgXgXgXgXgXgXgXgXgXgXgXgXgXgXgXgXgXgXgXgXo < } j s 2.l.p.-.e , 7 g.yXf./ 0 * % V 2.9.g.l.h.g.g.w.<.$.+.$X#XR.9.2.;.A > * % * * * : * * * * * * * * * * * * * * * , , , * , * * * * * * * : : % * * * * * * * * % % % % % % % % % % % % % * * * # # # # # # # # # # # * * # # # # # # # o c W o.0.0. .Z.Z.' ;.h.j.~.g.e.0.0.e.-.*.<.f.p.f.<.7 < ' ~ r , % ../.O...2.2.w.g.f.f.f.h.l.l.h.f.g.h.l.h.w.2.1.' ' ' 5.",
"=., x.g.2.2.2.w.g.h.h.f.f.g.f.k.k.f.f.z.z.h.f.4.;.^ D ' R.2.8 7 0 ^ / 9 7 <.f.<.<.*.r V 3.2.3.~.>Xg.w.4.` f 0.O.o.O.3.W m V > % * , < < < < < < , , < 8 < , < < < 1 1 1 < < > < 1 1 1 1 1 8 8 8 8 8 8 8 8 8 8 8 1 1 1 8 8 8 8 < < 8 8 , , , , < < , , < < , , , , < 8 8 8 8 8 8 8 0 =.Y.3.0./.R.P.Q.Y.,.z.wXwXwX0Xl.5.2.2.e.r * 0 V =.h.yX*.o , 0 _ ..2...g { B gXgXgXgXgXgXgXgXgXgXgXgXgXgXgXgXgXgXgXgXgXgXgXgXgXgXgXgXgXgXgXgXgXgXgXgXgXgXgXgXgXgXgXgXgXgXgXgXgXgXgXgXgXgXgXgXgXgXgXgXgXgXgXgXgXgXgXgXgXgXgXgXgXgXgXgXgXgXgXgXgXgXgXgXgXgXgXgXgXgXgXgXgXgXgXgXgXgXgXgXgXgXgXgXgXgXgXgXgXgXgXgXgXgXgXgXgXgXgXgXgXgXgXgXgXgXgXgXgXgXgXgXgXgXgXgXgXgXgXgXgXgXgXgXgXgXgXgXgXgXgXgXgXgXgXgXgXgXgXgXgXgXgXgXgXgXgXgXgXgXgXgXgXgXgXgXgXgXgXgXgXgXgXgXgXgXgXgXgXgXgXgXgXgXgXgXgXgXgXgXgXgXgXgXgXgXgXgXgXgXgXgXgXgXgXgXgXgXgXgXgXgXgXgXgXgXgXgXgXgXgXgXgXgXgXgXgXgXgXgXgXgXgXgXgX. < X.G f w.x.p.-.e , 7 f.uXg.*.0 , % Z 2.w.h.x.h.g.g.r.<.*.O.+XI.0.w.5.2.*.m < : 1 1 1 8 0 0 0 8 0 0 8 8 8 8 1 1 1 8 8 8 8 8 8 8 < , < < < < 8 8 1 < 1 8 8 8 8 8 < < < > > > > < < , < , : : : < < < , , , < < < 1 < < < < < < < < < < < < < A 2.{ X.Y.R.I.A.Z...<.g.t.0.0.3.O.0.w.*./ <.p.f.f.<.7 < ' ~ r 9 % ..E.X.{ 2.2.5.g.h.h.f.h.l.x.h.g.h.z.x.x.g.4.=.....' 5.",
"=., x.t.2.2.2.5.w.w.f.f.f.f.f.g.f.f.z.z.z.z.f.w.<.*.` ..R.2.8 9 0 ~ [ 7 7 <.f.7.<.*.9 D 2.2.3.t.~.e.2.;.E f L.O.....O.x s o.z : < s z N N N N v M z m N B z B x N N N N N N N N z ' _ D N D m m m m V _ D N _ _ D D D D _ _ ~ E ~ _ _ ` _ _ ( _ _ ~ _ ' [ ` ~ ` [ _ ] 2.o.....W D ' t.t._ 0.t.t.I.Q.R.,.qXeXeXwX0Xx.w.2.3.0.r * 0 D ' (.uX*.# , 0 ' ....D s } x gXgXgXgXgXgXgXgXgXgXgXgXgXgXgXgXgXgXgXgXgXgXgXgXgXgXgXgXgXgXgXgXgXgXgXgXgXgXgXgXgXgXgXgXgXgXgXgXgXgXgXgXgXgXgXgXgXgXgXgXgXgXgXgXgXgXgXgXgXgXgXgXgXgXgXgXgXgXgXgXgXgXgXgXgXgXgXgXgXgXgXgXgXgXgXgXgXgXgXgXgXgXgXgXgXgXgXgXgXgXgXgXgXgXgXgXgXgXgXgXgXgXgXgXgXgXgXgXgXgXgXgXgXgXgXgXgXgXgXgXgXgXgXgXgXgXgXgXgXgXgXgXgXgXgXgXgXgXgXgXgXgXgXgXgXgXgXgXgXgXgXgXgXgXgXgXgXgXgXgXgXgXgXgXgXgXgXgXgXgXgXgXgXgXgXgXgXgXgXgXgXgXgXgXgXgXgXgXgXgXgXgXgXgXgXgXgXgXgXgXgXgXgXgXgXgXgXgXgXgXgXgXgXgXgXgXgXgXgXgXgXgXgXgXgX$ < } } f w.l.7.*.9 , , g.yXg.-.0 , % ` e.w.g.z.l.j.g.g.<.#.o.I.0.w.w.5.2.*.2.N f B D D ' ' ' ' ' ' ' ' ' ' ' ' ' _ ' ' ' ' =.[ [ [ =.=.=.` ' ' ' ' ( ' ' _ m D D N D D N B B N N N V V m m N N ( m m m _ _ _ ' ' ' _ _ D N ' W N N N N N x N 3.0.W ..L.L.C.Z.A.' <.h.j.t.0.3.X.o.2.[ / <.p.f.f.<.7 0 2._ c 8 * ' E.X.....2.g.h.h.l.l.l.h.h.z.z.l.z.z.z.f.w.2.' ' ' 5.",
"=., x.g.2.2.2.;.w.f.f.h.h.f.g.f.f.z.z.z.l.z.z.f.<.-.' o.E.0.8 9 0 ~ ~ , 7 <.h.f.<.^ 0 ` 2.2.3.9.w.w.w.4.~ f Y.O.....o.N < ..' s s s z x v N N N m N N W ..D { N ' _ _ ' _ _ ' ' ' o.2.2.2.2.' ' ' ' 2.2.2.' ' ..2.2.....2.2.=.=.' ' 2.2.2.2.2.2.2.w.w.e.5.2.2.2.2.2.2.2.3.2.o.{ ' 2.e.w.m 9.R.R.E.#XR.,.wXsXaXwX0Xx.f.2.e.t.0 * 0 _ 1.^.uX-.# * c ' ....H d G g gXgXgXgXgXgXgXgXgXgXgXgXgXgXgXgXgXgXgXgXgXgXgXgXgXgXgXgXgXgXgXgXgXgXgXgXgXgXgXgXgXgXgXgXgXgXgXgXgXgXgXgXgXgXgXgXgXgXgXgXgXgXgXgXgXgXgXgXgXgXgXgXgXgXgXgXgXgXgXgXgXgXgXgXgXgXgXgXgXgXgXgXgXgXgXgXgXgXgXgXgXgXgXgXgXgXgXgXgXgXgXgXgXgXgXgXgXgXgXgXgXgXgXgXgXgXgXgXgXgXgXgXgXgXgXgXgXgXgXgXgXgXgXgXgXgXgXgXgXgXgXgXgXgXgXgXgXgXgXgXgXgXgXgXgXgXgXgXgXgXgXgXgXgXgXgXgXgXgXgXgXgXgXgXgXgXgXgXgXgXgXgXgXgXgXgXgXgXgXgXgXgXgXgXgXgXgXgXgXgXgXgXgXgXgXgXgXgXgXgXgXgXgXgXgXgXgXgXgXgXgXgXgXgXgXgXgXgXgXgXgXgXgXgXgX$ < O.{ f g.l.<.*.r * , f.x.4.-.A , * =.e.2.8.f.x.x.h.g.p.%.| I.0.t.g.w.=.V 2...B B W ......2.2.2.2.2.2.2.2.2.2.2.2.2.2.2.2.2.4.4.4.;.w.w.4.5.5.2.e.3.3.3.....2.1.' ' ' ..{ { ' ' ' ' ' ` ` ' ....' ' ' ..' ' o...' ..' ' ..o.o.....D N N B ..e.9.m ' 0.0.C.Z.A.] 7.h.j.~.Y.O...o.2.-.*.<.p.p.p.<., 0 2._ c < * ..E.X...2.5.g.l.l.x.x.l.g.h.l.l.z.z.z.z.g.w.2.' ' ' 5.",
"D : x.t.2.2.2.;.8.f.h.k.h.h.g.w.w.l.z.z.l.z.f.f.4.-.' o.E.0.8 8 0 ( c , 9 <.h.g.<.^ 0 _ 5.e.t.w.w.r.r.w.~ z Y.0.o...o._ > ' o.f s s x x x v N N W W D W { { { B ' ' ....' N o.o...o.2.3.2.2.2.o.....2.3.3.o.2.3.0.0.2.2.2.e.e.e.2.' 2.2.0.0.0.3.5.t.j.j.e.e.w.e.e.0.O.o.o.O...{ ' 2.r.;.m 9.^.-X;X1Xt.,.qXaXwXwXwX0Xh.e.t.e.0 * c ` 2.^.uX-.# * c N D { F i G g gXgXgXgXgXgXgXgXgXgXgXgXgXgXgXgXgXgXgXgXgXgXgXgXgXgXgXgXgXgXgXgXgXgXgXgXgXgXgXgXgXgXgXgXgXgXgXgXgXgXgXgXgXgXgXgXgXgXgXgXgXgXgXgXgXgXgXgXgXgXgXgXgXgXgXgXgXgXgXgXgXgXgXgXgXgXgXgXgXgXgXgXgXgXgXgXgXgXgXgXgXgXgXgXgXgXgXgXgXgXgXgXgXgXgXgXgXgXgXgXgXgXgXgXgXgXgXgXgXgXgXgXgXgXgXgXgXgXgXgXgXgXgXgXgXgXgXgXgXgXgXgXgXgXgXgXgXgXgXgXgXgXgXgXgXgXgXgXgXgXgXgXgXgXgXgXgXgXgXgXgXgXgXgXgXgXgXgXgXgXgXgXgXgXgXgXgXgXgXgXgXgXgXgXgXgXgXgXgXgXgXgXgXgXgXgXgXgXgXgXgXgXgXgXgXgXgXgXgXgXgXgXgXgXgXgXgXgXgXgXgXgXgXgXgX. < O.} s r.z.<.-.r * , f.h.;.` c < * ' 5.;.w.z.x.x.f.g.p.#.o..XT.Y.e.w.=.c 2.2.W g D ....2.2.e.5.2.2.3.3.2.2.3.3.2.2.0.e.w.w.w.w.w.w.g.g.e.e.e.0.0.0.0.0.3.3.3.3.o...' ..{ { ............2.o.........' o.o.o.......2.o.' ..O.O...W B B B B o.e.=.0 _ 9.T.U.D.U.' 7.h.j.R.Y.O.{ ..2.-.*.<.f.7.7.<.7 0 2.' V < % ..E.O...2.w.h.x.z.0Xx.f.f.g.l.x.z.z.z.z.g.5.2.' ' ' 3.",
"D > (.t.2.2.2.;.4.g.z.h.h.h.w.;.w.l.f.z.x.z.f.f.4.=.' o.E.e.8 0 c _ m , , <.g.<.;.^ c _ e.t.t.w.w.r.r.w.~ z L.0.3.o.o._ * m 2.B s s x x x B N N ....B B { G j g { ..o...{ D ..O.o.o.o.3...' ' ........2.o.o.3.3.3.3.o.2.0.t.t.t.2.' 2.0.e.Y.0.0.0.t.j.j.j.t.0.t.Y.L.O.o.o.o.....' 2.w.-.~ e.^.-X4X3XR.,.9XwXwXwXwXwXx.j.g.e.0 * c ' 2.^.uX-.* , c M N { F d } g gXgXgXgXgXgXgXgXgXgXgXgXgXgXgXgXgXgXgXgXgXgXgXgXgXgXgXgXgXgXgXgXgXgXgXgXgXgXgXgXgXgXgXgXgXgXgXgXgXgXgXgXgXgXgXgXgXgXgXgXgXgXgXgXgXgXgXgXgXgXgXgXgXgXgXgXgXgXgXgXgXgXgXgXgXgXgXgXgXgXgXgXgXgXgXgXgXgXgXgXgXgXgXgXgXgXgXgXgXgXgXgXgXgXgXgXgXgXgXgXgXgXgXgXgXgXgXgXgXgXgXgXgXgXgXgXgXgXgXgXgXgXgXgXgXgXgXgXgXgXgXgXgXgXgXgXgXgXgXgXgXgXgXgXgXgXgXgXgXgXgXgXgXgXgXgXgXgXgXgXgXgXgXgXgXgXgXgXgXgXgXgXgXgXgXgXgXgXgXgXgXgXgXgXgXgXgXgXgXgXgXgXgXgXgXgXgXgXgXgXgXgXgXgXgXgXgXgXgXgXgXgXgXgXgXgXgXgXgXgXgXgXgXgXgX$ s X.} s w.h.p.-.r * , w.j.;.V z < * D 2.2.h.x.x.z.f.g.<.r O.*X+XT.e.5.;.A ` 2...B B W ..2.0.e.9.2.2.3.3.3.3.3.O.o.o.3.3.e.t.j.g.w.2.e.~.t.e.0.3.O.O.3.L.3.3.0.3.3.......{ { ..2.2.o.o.2.2.....o.......o.o.o.....o.2.o.W ..O.} { g g B D W 2.e.^ 0 ' 9.L.U.D.T.=.7.h.j.R.0.O...o.3.' *.7.f.f.f.<.7 z 2._ V 8 % ..E.X...2.w.h.x.x.0X9Xf.f.g.l.x.z.z.z.h.g.w.2.' ' ' 3.",
"` > ~.e.1.2.;.4.4.f.f.f.f.h.g.<.f.z.z.z.z.f.g.w.2.' ' ..E.0.0 8 c _ m < , ;.w.;.-.^ 0 ' e.2.2.9.e.w.e.w.~ f 0.O.3.o.2.' * z o.W s s s x x x x B W { B g j g g g { { { { { } } { { { { { { { ..o.o.o.......o.o.o.......o.3.0.0.e.2.' 2.3.0.3.2.3.3.2.2.9.e.e.e.e.0.0.O...........o.e.4.A ~ e.t.-XoX$XR.,.z.wXwXwXwXwX>X(.g.e.0 * A ' 2.^.,X-.* , A ' ....D d } g gXgXgXgXgXgXgXgXgXgXgXgXgXgXgXgXgXgXgXgXgXgXgXgXgXgXgXgXgXgXgXgXgXgXgXgXgXgXgXgXgXgXgXgXgXgXgXgXgXgXgXgXgXgXgXgXgXgXgXgXgXgXgXgXgXgXgXgXgXgXgXgXgXgXgXgXgXgXgXgXgXgXgXgXgXgXgXgXgXgXgXgXgXgXgXgXgXgXgXgXgXgXgXgXgXgXgXgXgXgXgXgXgXgXgXgXgXgXgXgXgXgXgXgXgXgXgXgXgXgXgXgXgXgXgXgXgXgXgXgXgXgXgXgXgXgXgXgXgXgXgXgXgXgXgXgXgXgXgXgXgXgXgXgXgXgXgXgXgXgXgXgXgXgXgXgXgXgXgXgXgXgXgXgXgXgXgXgXgXgXgXgXgXgXgXgXgXgXgXgXgXgXgXgXgXgXgXgXgXgXgXgXgXgXgXgXgXgXgXgXgXgXgXgXgXgXgXgXgXgXgXgXgXgXgXgXgXgXgXgXgXgXgXgXgX$ s X.{ s 4.h.f.-.r , , w.x.2.V 8 * * D 2.w.h.z.l.x.f.w.<.A +.}.*X+X0.2.=.r c 2.o.N N D ..2.0.0.2.' ' 2.3.3.3.X.{ { ..o.o.3.e.t.e.2.2.0.Y.0.3.3.X.{ { X.O.X.....o.o...' { { { ......o...........O.O.O...o.....' ........{ o.X.{ F B B B B { 3.2.c c 2.0. .C.A.T.=.7.h.g.t.0.L.3.3.2.=.-.w.f.f.f.<., 0 2.' m 8 = ' E.....2.w.h.x.x.x.x.l.h.h.l.z.z.z.z.f.e.e.2.o.....3.",
"` > j.e.=.2.;.4.4.f.f.f.f.h.h.z.z.z.z.z.f.f.w.4.2.' ' ..R.0.8 8 z _ _ , , -.w.<.-.^ 0 ' 3.o.o.2.0.0.0.9.~ f 3.O.o.....m * < N W x s f x x x x x B D g g g g g F F { { { { { { { F { { { { { { ........{ { ....{ W W ..........o.......o.o.o.o.2.2.2.o.2.2.2.3.2.2.0.3.O.O.o.o.o.3.e.=.8 E e.e.t.U.$XR.:.9XwXwXwXwXyXyXj.e.e.0 * A ' 2.^.,X*.# 7 ^ ;.4.2.D d } g gXgXgXgXgXgXgXgXgXgXgXgXgXgXgXgXgXgXgXgXgXgXgXgXgXgXgXgXgXgXgXgXgXgXgXgXgXgXgXgXgXgXgXgXgXgXgXgXgXgXgXgXgXgXgXgXgXgXgXgXgXgXgXgXgXgXgXgXgXgXgXgXgXgXgXgXgXgXgXgXgXgXgXgXgXgXgXgXgXgXgXgXgXgXgXgXgXgXgXgXgXgXgXgXgXgXgXgXgXgXgXgXgXgXgXgXgXgXgXgXgXgXgXgXgXgXgXgXgXgXgXgXgXgXgXgXgXgXgXgXgXgXgXgXgXgXgXgXgXgXgXgXgXgXgXgXgXgXgXgXgXgXgXgXgXgXgXgXgXgXgXgXgXgXgXgXgXgXgXgXgXgXgXgXgXgXgXgXgXgXgXgXgXgXgXgXgXgXgXgXgXgXgXgXgXgXgXgXgXgXgXgXgXgXgXgXgXgXgXgXgXgXgXgXgXgXgXgXgXgXgXgXgXgXgXgXgXgXgXgXgXgXgXgXgX$ s O.{ f w.x.f.-.0 , , g.x.4.` z * % ' 3.w.g.k.j.h.f.w.<.Z C.}.7X@XL.2.-.c z ' o.W N N ..2.0.2.2.1.o.o.2.3.3.o.....o.o.o.2.2.2.2.2.2.2.3.3.3.3.o.....X.O.o.........' ' { { { ....{ ................o.....W W D D W { ....O.} } { { { { F ..2.=.8 c 2.0.o. .Z.L.[ <.h.e.e.e.R.0.2.2.=.-.4.f.f.h.<., 0 9.] V < % W R.....2.4.g.x.x.x.x.x.x.l.z.k.z.x.h.w.w.e.0.2.2...2.",
"` < j.e.1.4.w.w.f.f.h.k.k.h.k.z.z.z.z.z.f.w.;.=.2.2.1...T.0.0 8 z _ _ 8 , -.f.w.;.^ 0 ..0.3.O.o.O.0.0.9.~ f 3.o.....o.D 8 8 N ..D x x x N B N N B D B g g g B D D D W W B B B g g B W W { { { ........{ { ........' W W ....' ' ......W { ..o.2.2.2.o.2.2.2.2.2.2.o.3.3.o.o.o.2.2.0.` < E 9.0.9.U.$XR.,.qXwXwXwXwXyX(.t.5.e.0 * V ..2.^.,X/ # 9 / -.<.4.' d { g gXgXgXgXgXgXgXgXgXgXgXgXgXgXgXgXgXgXgXgXgXgXgXgXgXgXgXgXgXgXgXgXgXgXgXgXgXgXgXgXgXgXgXgXgXgXgXgXgXgXgXgXgXgXgXgXgXgXgXgXgXgXgXgXgXgXgXgXgXgXgXgXgXgXgXgXgXgXgXgXgXgXgXgXgXgXgXgXgXgXgXgXgXgXgXgXgXgXgXgXgXgXgXgXgXgXgXgXgXgXgXgXgXgXgXgXgXgXgXgXgXgXgXgXgXgXgXgXgXgXgXgXgXgXgXgXgXgXgXgXgXgXgXgXgXgXgXgXgXgXgXgXgXgXgXgXgXgXgXgXgXgXgXgXgXgXgXgXgXgXgXgXgXgXgXgXgXgXgXgXgXgXgXgXgXgXgXgXgXgXgXgXgXgXgXgXgXgXgXgXgXgXgXgXgXgXgXgXgXgXgXgXgXgXgXgXgXgXgXgXgXgXgXgXgXgXgXgXgXgXgXgXgXgXgXgXgXgXgXgXgXgXgXgXgX$ s O.{ f g.l.<.*.9 , , g.x.4.=.m > = ..0.9.f.z.g.w.4.4.<.^ C.F.}.+XC.2.=.M c ' ..W N m ' ....' ` [ ' _ V V _ ' ' ' ' ' ....] ] ' ' ' ' _ _ ' ....o...{ ..........W N ( W { { ' ' W W W ' W W B B W { W ..' ..' W W { ....{ { { { { F B B W ' ^ 7 r 2.@.o.+.U.T.[ <.g.e.e.e.R.0.2.e.2.^ <.w.f.h.<., 0 e.2.~ < % W /.3...2.5.g.l.x.x.x.x.x.z.z.z.l.x.l.w.2.2.3.3.2.....",
"` > ~.e.=.4.f.f.f.f.f.f.f.k.k.z.z.z.z.z.h.g.w.4.w.1.1.o.L.0.8 8 z ' ' , , <.f.p.<.^ z ' e.9.3.o.{ O.O.3.m z 3.3.o.o.o._ V 8 0 7 * # % * * * * * * * * * * * * * * * * * * * % * * * * * * * * , , , , , , , , , , , , * * * * * * * , * * * * * * * * , , , , , * * * * * * * % * 7 , 1 W 0.2.0.U.@XT.,.9XwXwX0X0X(.(.0.e.w.9 , A ' 2.~.>X/ # , ^ -.<.8._ s j s gXgXgXgXgXgXgXgXgXgXgXgXgXgXgXgXgXgXgXgXgXgXgXgXgXgXgXgXgXgXgXgXgXgXgXgXgXgXgXgXgXgXgXgXgXgXgXgXgXgXgXgXgXgXgXgXgXgXgXgXgXgXgXgXgXgXgXgXgXgXgXgXgXgXgXgXgXgXgXgXgXgXgXgXgXgXgXgXgXgXgXgXgXgXgXgXgXgXgXgXgXgXgXgXgXgXgXgXgXgXgXgXgXgXgXgXgXgXgXgXgXgXgXgXgXgXgXgXgXgXgXgXgXgXgXgXgXgXgXgXgXgXgXgXgXgXgXgXgXgXgXgXgXgXgXgXgXgXgXgXgXgXgXgXgXgXgXgXgXgXgXgXgXgXgXgXgXgXgXgXgXgXgXgXgXgXgXgXgXgXgXgXgXgXgXgXgXgXgXgXgXgXgXgXgXgXgXgXgXgXgXgXgXgXgXgXgXgXgXgXgXgXgXgXgXgXgXgXgXgXgXgXgXgXgXgXgXgXgXgXgXgXgXgXgXo s X.F z r.f.<.*.0 * 7 f.x.4.[ V 8 = ..e.2.4.f.e.g.2.2.<.~ b.F.Z.P.3.2.2.^ 0 8 , * # * * # # # # # # # # # # # # # # # # * * * % * * % o # # * * * * % % * * % o o o o o o o o o o # # o # * * % % * * * # # # # o o o o o o o % % o o o $ * # 9 ~ o.o.o. .U.L.^ <.g.g.e.w.t.e.3.3.' ` 4.z.z.z.<.: c e.;.~ 8 % ' /.2...2.g.f.z.z.z.z.z.z.z.0Xz.z.z.z.f.w.w.w.2.....' ",
"-.< (.e.=.;.<.w.f.f.f.f.k.k.z.z.z.z.z.z.z.z.f.g.w.2.1.o.Y.3.8 8 c ] [ < , <.z.f.<.*.c =.e.2.3.3.X.{ ..o.m m 0.3.3.2.o.( m * o . . . . o % % % % % % % % % % % % o o o % % % o % o # # * % % o * * * * * * * * * * % o # # # # o o o # # # * * * * * * * * , , , , 8 < , , , , , * * * m o.0.0.e.U.@XT.,.9XwXeXwX0Xx.g.e.e.w.9 , A ' 2.(.uX*.# 7 *.;.<.4.[ d j s gXgXgXgXgXgXgXgXgXgXgXgXgXgXgXgXgXgXgXgXgXgXgXgXgXgXgXgXgXgXgXgXgXgXgXgXgXgXgXgXgXgXgXgXgXgXgXgXgXgXgXgXgXgXgXgXgXgXgXgXgXgXgXgXgXgXgXgXgXgXgXgXgXgXgXgXgXgXgXgXgXgXgXgXgXgXgXgXgXgXgXgXgXgXgXgXgXgXgXgXgXgXgXgXgXgXgXgXgXgXgXgXgXgXgXgXgXgXgXgXgXgXgXgXgXgXgXgXgXgXgXgXgXgXgXgXgXgXgXgXgXgXgXgXgXgXgXgXgXgXgXgXgXgXgXgXgXgXgXgXgXgXgXgXgXgXgXgXgXgXgXgXgXgXgXgXgXgXgXgXgXgXgXgXgXgXgXgXgXgXgXgXgXgXgXgXgXgXgXgXgXgXgXgXgXgXgXgXgXgXgXgXgXgXgXgXgXgXgXgXgXgXgXgXgXgXgXgXgXgXgXgXgXgXgXgXgXgXgXgXgXgXgXgXgXo 1 X.{ z w.w.<.*.0 * 7 f.x.w.-.c < * ' 3.2.w.h.g.g.w.w.w.[ m.F.Z.L.0.3.2.V * o * * * * * , , , , , , , * , , , , , , , * , , , , , 7 , , 7 7 7 , , , * * * * * * * * * % * * % o # # % % % % % % % % % % % * % % * * * * * * * * * * % % % # 3 8 m o.0.0.m.C.0.~ <.g.g.e.2.e.e.3.e.' -.g.z.9Xz.<., A e.;.~ 8 * ' ^.2.' 2.g.f.z.z.z.z.z.z.z.z.z.z.z.z.z.h.g.w.2.....' ",
"-.< ^.e.' =.;.;.<.f.f.f.k.z.z.z.z.z.z.z.l.l.l.g.w.;...o.R.3.< , c ] [ 9 , <.z.z.f.=.0 =.e.2.0.3.O.{ { ..D m 0.3.o.2.2.( 1 . . o * * < < 8 8 1 1 z z 8 8 z 8 8 8 8 8 8 8 8 8 8 8 8 8 8 8 8 8 8 8 8 0 0 0 0 r c r 0 0 0 0 0 0 0 0 0 0 0 0 0 0 0 r r r 0 0 0 0 r A A A A r 0 0 0 0 8 , , V o.0.0.0.U.@XT.,.z.wXwXwX0Xl.g.e.e.w.9 , A =.2.x.yX/ # 7 *.;.<.4.[ d j s . gXgXgXgXgXgXgXgXgXgXgXgXgXgXgXgXgXgXgXgXgXgXgXgXgXgXgXgXgXgXgXgXgXgXgXgXgXgXgXgXgXgXgXgXgXgXgXgXgXgXgXgXgXgXgXgXgXgXgXgXgXgXgXgXgXgXgXgXgXgXgXgXgXgXgXgXgXgXgXgXgXgXgXgXgXgXgXgXgXgXgXgXgXgXgXgXgXgXgXgXgXgXgXgXgXgXgXgXgXgXgXgXgXgXgXgXgXgXgXgXgXgXgXgXgXgXgXgXgXgXgXgXgXgXgXgXgXgXgXgXgXgXgXgXgXgXgXgXgXgXgXgXgXgXgXgXgXgXgXgXgXgXgXgXgXgXgXgXgXgXgXgXgXgXgXgXgXgXgXgXgXgXgXgXgXgXgXgXgXgXgXgXgXgXgXgXgXgXgXgXgXgXgXgXgXgXgXgXgXgXgXgXgXgXgXgXgXgXgXgXgXgXgXgXgXgXgXgXgXgXgXgXgXgXgXgXgXgXgXgXgXgXgXgXo < X.{ z 4.w.<.*.0 * 7 f.x.w.[ c < % ` 2.=.w.h.g.g.r.g.f.[  .D.Z.0.e.3.1.c : , 8 0 8 0 0 0 0 0 0 c c c 0 0 0 c A r 0 0 9 e r e e r r 0 0 r r r r r 0 0 0 0 0 0 0 0 0 8 8 8 8 8 8 8 8 8 < < < < < < < < , < < < < < 8 8 8 < 8 8 < < < < < * , 9 0 m { O.0.C.Z.0.~ -.g.e.5.2.2.2.e.0.=.*.f.z.z.k.<.# A e.8.~ 8 * ' ^.2.' 2.g.f.z.z.z.z.z.z.z.z.z.z.z.z.z.z.f.w.1.' ....",
"-.< ~.0.' =.;.;.4.w.f.k.k.z.z.z.z.z.z.z.z.z.z.g.w.=.' ..R.3.< , 0 [ [ , , 7.z.z.f.-.r =.t.0.3.3.O...{ ..V m 0.3.o.o.o.' z * % % * * , < < 8 8 8 8 8 8 8 8 8 < 8 , , , , , , , , , , , , , 8 7 , 7 8 8 8 8 8 8 8 8 8 8 8 8 8 8 8 8 8 8 8 8 8 8 8 8 8 8 8 8 8 8 8 8 8 8 9 , , , , , * * c ' 0.e.0.P.D.L.,.9XwXwXwXwXl.g.2.5.w.9 , r -.2.j.yX/ # 9 *.-.<.w._ d j s . gXgXgXgXgXgXgXgXgXgXgXgXgXgXgXgXgXgXgXgXgXgXgXgXgXgXgXgXgXgXgXgXgXgXgXgXgXgXgXgXgXgXgXgXgXgXgXgXgXgXgXgXgXgXgXgXgXgXgXgXgXgXgXgXgXgXgXgXgXgXgXgXgXgXgXgXgXgXgXgXgXgXgXgXgXgXgXgXgXgXgXgXgXgXgXgXgXgXgXgXgXgXgXgXgXgXgXgXgXgXgXgXgXgXgXgXgXgXgXgXgXgXgXgXgXgXgXgXgXgXgXgXgXgXgXgXgXgXgXgXgXgXgXgXgXgXgXgXgXgXgXgXgXgXgXgXgXgXgXgXgXgXgXgXgXgXgXgXgXgXgXgXgXgXgXgXgXgXgXgXgXgXgXgXgXgXgXgXgXgXgXgXgXgXgXgXgXgXgXgXgXgXgXgXgXgXgXgXgXgXgXgXgXgXgXgXgXgXgXgXgXgXgXgXgXgXgXgXgXgXgXgXgXgXgXgXgXgXgXgXgXgXgXgXo < X.F f e.g.7.*.0 , 7 g.x.4.^ c , * -.w.;.7.f.g.f.g.g.f.*. ..XI.e.e.5.' c , , 8 8 9 8 8 8 8 8 9 9 8 8 8 8 8 8 8 8 9 8 7 7 7 9 8 8 8 0 9 9 8 8 8 8 8 8 8 8 8 8 8 8 9 7 7 7 , , , , , , , , , * * * * * * * * * * * * * * * * * * * % % % * o , c N { O.O. .P.0.c -.r.w.4.2.4.5.e.0.=.^ 4.f.k.f.-., A g.<.r 8 * ' ^.1.` 2.w.g.z.z.z.z.z.z.z.z.z.z.k.k.k.z.f.4.' D ' ' ",
"-.< ~.e.' 2.2.2.4.g.h.k.k.z.z.z.z.z.z.k.f.f.f.f.4.-._ { Y.3.< , 8 ~ A * 9 <.k.a.7.-.A ' t.3.o.o.O.3...2.~ m 0.3.3.3.3.' M 0 % . o # * * * * * * , , , , , , * * * * * * * * * * * * * * * * * * * , , , , , , , , , * * * * * , , , , < < , , , , , * * * * , , , , , , * * * * % # 7 ` ' 0.R.R.U.D.0.-.9XwXwXwXwXx.g.2.2.4.9 , r -.;.j.>XJ # 7 / -.-.;.~ d j s gXgXgXgXgXgXgXgXgXgXgXgXgXgXgXgXgXgXgXgXgXgXgXgXgXgXgXgXgXgXgXgXgXgXgXgXgXgXgXgXgXgXgXgXgXgXgXgXgXgXgXgXgXgXgXgXgXgXgXgXgXgXgXgXgXgXgXgXgXgXgXgXgXgXgXgXgXgXgXgXgXgXgXgXgXgXgXgXgXgXgXgXgXgXgXgXgXgXgXgXgXgXgXgXgXgXgXgXgXgXgXgXgXgXgXgXgXgXgXgXgXgXgXgXgXgXgXgXgXgXgXgXgXgXgXgXgXgXgXgXgXgXgXgXgXgXgXgXgXgXgXgXgXgXgXgXgXgXgXgXgXgXgXgXgXgXgXgXgXgXgXgXgXgXgXgXgXgXgXgXgXgXgXgXgXgXgXgXgXgXgXgXgXgXgXgXgXgXgXgXgXgXgXgXgXgXgXgXgXgXgXgXgXgXgXgXgXgXgXgXgXgXgXgXgXgXgXgXgXgXgXgXgXgXgXgXgXgXgXgXgXgXgXgXgX. < } j f e.g.<.*.r , 9 g.x.4.V 8 * * ;.e.w.w.f.g.g.g.g.a.*.O.#XR.t.r.5.=.D 0 , : , , , , , , , , , , , , , , , , * * * * * * * , , , , , , , , , , * * * * * * * * * * * # # # o o # # # * * * * % * * * * # * * # * * % % % % % % % o o $ . 8 _ ..O.0.0. .C.0.~ -.w.w.w.4.w.5.e.e.=.*.4.f.y.y.-.* c r.;.r 8 * N ^..._ 2.4.w.g.z.z.z.z.z.z.z.z.z.k.k.f.f.w.2.' D W ' ",
"=.< ~.e.' 1.1.2.w.g.f.k.k.k.z.z.z.z.z.k.f.f.f.w.=.` D W L.3.< , , 0 0 * , <.f.<.,.*.A ' e.o.o.O.3.3.3.3.` V 0.3.o.3.o.( z ' > . % * * * * : < < : > : : : * * * * , , < < < < < < , , , , < < < < < < < < < < < < : : * , , : : , , , < < < < < , , : < < < 8 8 8 8 8 8 8 8 < < * 7 *.5.' 0.-X;X+X+XI.*.z.wXx.wXwX].g.2.2.4.9 * r -.=.g.x.r # , r [ -.;.m i j u . gXgXgXgXgXgXgXgXgXgXgXgXgXgXgXgXgXgXgXgXgXgXgXgXgXgXgXgXgXgXgXgXgXgXgXgXgXgXgXgXgXgXgXgXgXgXgXgXgXgXgXgXgXgXgXgXgXgXgXgXgXgXgXgXgXgXgXgXgXgXgXgXgXgXgXgXgXgXgXgXgXgXgXgXgXgXgXgXgXgXgXgXgXgXgXgXgXgXgXgXgXgXgXgXgXgXgXgXgXgXgXgXgXgXgXgXgXgXgXgXgXgXgXgXgXgXgXgXgXgXgXgXgXgXgXgXgXgXgXgXgXgXgXgXgXgXgXgXgXgXgXgXgXgXgXgXgXgXgXgXgXgXgXgXgXgXgXgXgXgXgXgXgXgXgXgXgXgXgXgXgXgXgXgXgXgXgXgXgXgXgXgXgXgXgXgXgXgXgXgXgXgXgXgXgXgXgXgXgXgXgXgXgXgXgXgXgXgXgXgXgXgXgXgXgXgXgXgXgXgXgXgXgXgXgXgXgXgXgXgXgXgXgXgX. & } F x e.w.-.*.r , 9 f.x.4.V 0 % % ;.g.w.w.f.g.g.r.g.p.*.O.1X;X^.g.w.=.' _ 1 * > > < < 8 8 8 8 8 8 8 8 < < < < < < , * * * * * * , : , , , < < < : : : < < < < < < < < < , : : : : : : * * * * * * * * : , < < < < 8 8 8 z z z z s < < < < ` 2.o.O.0.L.C.C.0.~ *.w.w.g.f.w.5.w.5.' ` <.<.<.<.*.* c 2.[ 0 8 % N R...' ' 2.4.w.h.z.z.z.z.k.z.z.z.k.f.f.f.4.1.' D W ..",
"=.< ~.e.' ' ' 2.5.w.f.a.a.k.z.z.z.z.z.z.f.f.g.w.=.` D ..R.3.< * , 0 0 * , <.f.y.,./ 0 _ 3.o.X.O.3.K.0.e.-.V 0.3.o.o.o.N s 2._ < 1 8 z z v v m N N ( N m m m m m m N D D _ ' _ _ ` ` ` ` ` ` [ [ [ ` [ =.=.' ' ' [ ` ` ` ` ` ` [ [ ' ' ' ' ' =.' [ ` _ ` ` =.=.=.=.' ' ' ' _ E m c *.4.5.N 0.XXR.U.+XT.:.9XwXx.wXwXwXg.2.2.4.9 # r *.' e.j.r % 7 A [ 2.1.m i j u . gXgXgXgXgXgXgXgXgXgXgXgXgXgXgXgXgXgXgXgXgXgXgXgXgXgXgXgXgXgXgXgXgXgXgXgXgXgXgXgXgXgXgXgXgXgXgXgXgXgXgXgXgXgXgXgXgXgXgXgXgXgXgXgXgXgXgXgXgXgXgXgXgXgXgXgXgXgXgXgXgXgXgXgXgXgXgXgXgXgXgXgXgXgXgXgXgXgXgXgXgXgXgXgXgXgXgXgXgXgXgXgXgXgXgXgXgXgXgXgXgXgXgXgXgXgXgXgXgXgXgXgXgXgXgXgXgXgXgXgXgXgXgXgXgXgXgXgXgXgXgXgXgXgXgXgXgXgXgXgXgXgXgXgXgXgXgXgXgXgXgXgXgXgXgXgXgXgXgXgXgXgXgXgXgXgXgXgXgXgXgXgXgXgXgXgXgXgXgXgXgXgXgXgXgXgXgXgXgXgXgXgXgXgXgXgXgXgXgXgXgXgXgXgXgXgXgXgXgXgXgXgXgXgXgXgXgXgXgXgXgXgXgXgX. & { } x 2.;.-.[ 0 , 9 f.x.<.V z * % =.g.r.g.f.r.g.w.w.7./ O.3X4X>Xj.w.[ ` 3.D s v D D ' _ ' ' ' ' ' ........2.2.o.1.' =.=.=.` ` [ =.1.1.=.=.*.` ` ' ' ' ' ` ' =.........' ' _ _ _ _ _ ( D D D N N N m N ' ' ' _ _ ' ' ' ' ..D D D B B g s m 2.2.B W o.O.C.U.Y.~ -.w.e.h.g.g.2.5.2.` Z -.<.<.<.*., 8 ' c 0 < % D Y...' ' o.;.w.f.f.f.f.f.f.z.z.z.z.f.f.g.5.1.' D ' ..",
"-.> ~.3._ ' ' ..2.4.w.p.p.h.k.z.z.z.z.z.z.z.g.5.1.D D ..T.3.< , , , 8 # 7 ;.g.<.-.A 0 _ ..{ m.O.X.3.3.2.` m 3.2.2.....D 8 1.2.m f g B B N D ..X.{ { { { ..W D ..' ' ......X.o.......2.2.2.o.2.2.3.3.2.2.2.e.e.e.e.5.5.e.e.e.e.e.2.2.2.e.0.t.j.j.t.e.w.e.e.5.2.2.2.o.o...1.....' _ ;.4.2.z 2.e.0.Z.+XR.>.z.wXwX0Xx.h.e.2.2.4.9 # 0 D ..0./.V # 7 A _ ' 2.x u j s . gXgXgXgXgXgXgXgXgXgXgXgXgXgXgXgXgXgXgXgXgXgXgXgXgXgXgXgXgXgXgXgXgXgXgXgXgXgXgXgXgXgXgXgXgXgXgXgXgXgXgXgXgXgXgXgXgXgXgXgXgXgXgXgXgXgXgXgXgXgXgXgXgXgXgXgXgXgXgXgXgXgXgXgXgXgXgXgXgXgXgXgXgXgXgXgXgXgXgXgXgXgXgXgXgXgXgXgXgXgXgXgXgXgXgXgXgXgXgXgXgXgXgXgXgXgXgXgXgXgXgXgXgXgXgXgXgXgXgXgXgXgXgXgXgXgXgXgXgXgXgXgXgXgXgXgXgXgXgXgXgXgXgXgXgXgXgXgXgXgXgXgXgXgXgXgXgXgXgXgXgXgXgXgXgXgXgXgXgXgXgXgXgXgXgXgXgXgXgXgXgXgXgXgXgXgXgXgXgXgXgXgXgXgXgXgXgXgXgXgXgXgXgXgXgXgXgXgXgXgXgXgXgXgXgXgXgXgXgXgXgXgXgXgX. = } } l X.2.[ / r , , w.j.5.D 1 * % D 3.2.w.r.e.w.w.w.,./ C.3X4X/.w.w.[ c ' 2.B g { ....3.3.2.3.2.3.2.0.L.L.L.L.3.3.5.e.t.t.0.2.3.R.t.~.g.e.5.3.O.3.3.0.3.2.2.3.3.3.3.O.O.3.3.O.O.2.6.6.........3.o.....X.O.O.............F { ..D g d d d D 4.=.m ..0.0.C.I.t.^ ;.2.5.g.g.5.2.2.2.` ~ -.-.=.>.*.7 < _ m 1 * % m Y...D ..o.2.w.f.f.f.p.p.k.z.z.z.z.f.g.w.w.2.' D F { ",
"` > t.2.( _ ' ' 2.<.w.f.h.z.k.k.z.z.z.z.z.f.4.=..._ D ..R.2., * , < 8 # , ;.g.w.;./ 8 _ o.X.m.3.3.o.2.2.[ N 3.O.o.3.2.N > ` 2.' z x B N N D { X.F B F { { ..O.....W { ..O.O.3.3.3.0.3.2.3.3.3.3.3.3.3.3.0.e.t.Y.0.3.0.0.0.0.e.t.0.3.0.Y.Y.Y.~.~.0.3.e.t.t.e.0.3.0.0.3.3.3.3...' ' 4.4.` z 2.9.0.T.#XR.>.9XwXwXwXx.f.5.2.2.5.0 # 8 N ..0.^.~ # 7 A _ ' ..x d j s . gXgXgXgXgXgXgXgXgXgXgXgXgXgXgXgXgXgXgXgXgXgXgXgXgXgXgXgXgXgXgXgXgXgXgXgXgXgXgXgXgXgXgXgXgXgXgXgXgXgXgXgXgXgXgXgXgXgXgXgXgXgXgXgXgXgXgXgXgXgXgXgXgXgXgXgXgXgXgXgXgXgXgXgXgXgXgXgXgXgXgXgXgXgXgXgXgXgXgXgXgXgXgXgXgXgXgXgXgXgXgXgXgXgXgXgXgXgXgXgXgXgXgXgXgXgXgXgXgXgXgXgXgXgXgXgXgXgXgXgXgXgXgXgXgXgXgXgXgXgXgXgXgXgXgXgXgXgXgXgXgXgXgXgXgXgXgXgXgXgXgXgXgXgXgXgXgXgXgXgXgXgXgXgXgXgXgXgXgXgXgXgXgXgXgXgXgXgXgXgXgXgXgXgXgXgXgXgXgXgXgXgXgXgXgXgXgXgXgXgXgXgXgXgXgXgXgXgXgXgXgXgXgXgXgXgXgXgXgXgXgXgXgXgX. = X.} j X.3.=.*.r * 7 r.j.2._ z * % V 2.2.w.g.g.h.g.w.,.~ L.3XE.0.e.e.[ c ..0...F { { ....3.3.0.2.3.3.Y.L.3.3.3.3.3.Y.Y.t.0.2.6.3.Y.3.0.e.5.3.H.O.3.3.3.3.2.2.3.0.3.K.3.O.O.3.3.L.0.2.....6.3.2.o.....O.O.O.{ ..............{ D x x d d s ..5.D z o.0.0.C..X^.-.;.2.5.w.e.2.2.2.2._ ^ -.=.>.<.-., 8 _ m 8 * % m Y...v ' ' 4.g.f.f.h.f.f.k.k.z.k.k.f.w.4.;.' N x B B ",
"` * t.2._ ` ` =.2.<.w.f.f.f.k.z.z.z.f.f.f.f.4.=..._ m W Y...: * , 8 8 # * -.w.<.-.~ 8 ' 3.O.O.L.0.2.2.2.[ m 3.O.o.o...( 1 N 2...B v v N N B { { j F F F { { O...{ { { { { { { { O.L.O.X.X.O.X...X.O.3.3.3.O.0.L.3.3.3.0.L.L.L.0.O.o.3.Y.L.Y.Y.Y.Y.0.0.Y.Y.Y.0.3.3.m.X.{ ....{ W ..4.2.0 1 2.2.e.E.#XR.>.qXeXwXwXx.f.w.2.2.5.0 % 8 D ..3./.~ # 8 M ( W F B d j i . gXgXgXgXgXgXgXgXgXgXgXgXgXgXgXgXgXgXgXgXgXgXgXgXgXgXgXgXgXgXgXgXgXgXgXgXgXgXgXgXgXgXgXgXgXgXgXgXgXgXgXgXgXgXgXgXgXgXgXgXgXgXgXgXgXgXgXgXgXgXgXgXgXgXgXgXgXgXgXgXgXgXgXgXgXgXgXgXgXgXgXgXgXgXgXgXgXgXgXgXgXgXgXgXgXgXgXgXgXgXgXgXgXgXgXgXgXgXgXgXgXgXgXgXgXgXgXgXgXgXgXgXgXgXgXgXgXgXgXgXgXgXgXgXgXgXgXgXgXgXgXgXgXgXgXgXgXgXgXgXgXgXgXgXgXgXgXgXgXgXgXgXgXgXgXgXgXgXgXgXgXgXgXgXgXgXgXgXgXgXgXgXgXgXgXgXgXgXgXgXgXgXgXgXgXgXgXgXgXgXgXgXgXgXgXgXgXgXgXgXgXgXgXgXgXgXgXgXgXgXgXgXgXgXgXgXgXgXgXgXgXgXgXgX. < } } j ..2.-./ 9 * , w.g.1.D z * % V 2.2.w.h.j.l.g.f.,.~ L.&XZ.3.e.e.[ 0 v 3...{ g B { ..O.3.3.....O.H.O.O.O.....3.Y.Y.0.3.2...2.3.0.0.o...O.m.n.X.O.O.....o.O.O.X.O.O.X.{ O.L.L.3...D ' ....{ { { { { { } j } F B B D D X.{ g s s d s B o.5.m z o.9.0.L..X~.*.-.w.5.w.e.5.2.2.2._ ^ =.<.<.<.<.7 < m z < , % m Y...z N ' 2.g.f.z.z.h.k.k.k.k.k.f.f.w.4.;.[ N x x N ",
"` * t.2.' ' =.;.;.<.f.f.f.f.z.z.z.f.f.f.f.f.w.2...D N ' Y.' : * , 8 8 # , -.<.-.-.~ 8 ' 0.O.0.0.e.9.2.4.[ N 0.H.O.o.' ( 1 z 2.o.N v v N B B g j G G F F j { { { { { { { j j g { } O. .} } } { { { X.O.O.X...O.3.O.X.O.O.O.3.O.O...{ X.O.O.O.3.3.O.O.O.3.3.3.O...o.| { g B B W ..2.2.;.8 z 0.e.t.E.OXt.:.qXeXwXwX0Xx.g.5.2.5.0 * z D { K.R.~ # 7 c N x B x d j i . gXgXgXgXgXgXgXgXgXgXgXgXgXgXgXgXgXgXgXgXgXgXgXgXgXgXgXgXgXgXgXgXgXgXgXgXgXgXgXgXgXgXgXgXgXgXgXgXgXgXgXgXgXgXgXgXgXgXgXgXgXgXgXgXgXgXgXgXgXgXgXgXgXgXgXgXgXgXgXgXgXgXgXgXgXgXgXgXgXgXgXgXgXgXgXgXgXgXgXgXgXgXgXgXgXgXgXgXgXgXgXgXgXgXgXgXgXgXgXgXgXgXgXgXgXgXgXgXgXgXgXgXgXgXgXgXgXgXgXgXgXgXgXgXgXgXgXgXgXgXgXgXgXgXgXgXgXgXgXgXgXgXgXgXgXgXgXgXgXgXgXgXgXgXgXgXgXgXgXgXgXgXgXgXgXgXgXgXgXgXgXgXgXgXgXgXgXgXgXgXgXgXgXgXgXgXgXgXgXgXgXgXgXgXgXgXgXgXgXgXgXgXgXgXgXgXgXgXgXgXgXgXgXgXgXgXgXgXgXgXgXgXgXgX. < } } F ..2.*.^ 0 * , w.g.1.M s * % ~ 2.2.g.x.x.x.h.f.,.~ C.@XA.L.Y.e.=.0 v 3.3...g g B ..3.3.o.......X.X.X.X.....o.3.3.3.3.......o.0.3.o...} X.} } O.O.X...X.X.X.X.O.O. .} O.m.m.X.{ { ..{ { { { } } } G j j } } } F F F } } g g g g g { o.1.z z o.9.e.I.I.e./ ;.g.g.e.w.5.2.2.2._ *.<.p.p.f.<.7 : z 1 < , * N T...N ' ' 2.w.f.z.h.h.f.k.k.k.f.f.f.f.w.4.=._ v x D ",
"` < t.2.' =.;.;.4.f.f.p.p.f.z.z.z.f.f.f.f.f.g.5.1.D D ..T...< , 7 9 0 # , *.<.<.-.^ 0 ' 0.3.0.e.e.g.w.w.-.N L.m.X.o...( 1 z 2.2.( N z N D W B B { } { { { { { { { { { { } } } X.X.} } } } { { { o.O.O.o.o.o.o.o.o.o.O.2.2.3.3.3.o.o.O.O.O.3.2.2.o.3.2.3.3.3.3.o.o.| { W W W W o.2.5.;.8 m e.e.t.R.OXe.:.9XeXwXwXwXx.g.5.2.w.0 * c ' ..0.^./ # 7 0 z g x x d j i . gXgXgXgXgXgXgXgXgXgXgXgXgXgXgXgXgXgXgXgXgXgXgXgXgXgXgXgXgXgXgXgXgXgXgXgXgXgXgXgXgXgXgXgXgXgXgXgXgXgXgXgXgXgXgXgXgXgXgXgXgXgXgXgXgXgXgXgXgXgXgXgXgXgXgXgXgXgXgXgXgXgXgXgXgXgXgXgXgXgXgXgXgXgXgXgXgXgXgXgXgXgXgXgXgXgXgXgXgXgXgXgXgXgXgXgXgXgXgXgXgXgXgXgXgXgXgXgXgXgXgXgXgXgXgXgXgXgXgXgXgXgXgXgXgXgXgXgXgXgXgXgXgXgXgXgXgXgXgXgXgXgXgXgXgXgXgXgXgXgXgXgXgXgXgXgXgXgXgXgXgXgXgXgXgXgXgXgXgXgXgXgXgXgXgXgXgXgXgXgXgXgXgXgXgXgXgXgXgXgXgXgXgXgXgXgXgXgXgXgXgXgXgXgXgXgXgXgXgXgXgXgXgXgXgXgXgXgXgXgXgXgXgXgXgX= } } d ' <.*./ 0 * 7 w.j.2.D z > * _ 2.2.e.l.x.x.h.h.7.J +.@XA.P.Y.9.=.A _ 2.2.' z M N ' o...o...............o.....o.o.2.o.o.o...o.2.o.2.o.....X.O.H.H.O.X.O.O.O.X.X.X.| } X.X.X.{ ..o...{ ..X.O.O.X.X.} { G } { { { { { { { B B B B D W o.' z z ..9.e.0.I.0./ <.h.x.g.w.5.2.2.2._ ^ <.f.k.a.<., : c 0 8 , * ( T...D =.2.4.w.f.f.f.h.k.k.k.f.f.f.f.f.f.w.;.' D N ( ",
"Z < t.2.' =.;.<.f.f.f.p.<.p.k.k.k.k.f.z.z.f.g.e.2.D m ' Y...< , 9 0 r # * -.p.p.<./ 8 ` 2.9.9.e.g.h.g.w.;.( O.X.....{ W z m [ m 8 < < 1 0 z z s s f f z f 1 < s s f f f f f s f f s s f s f f z z M M M M z z z z c m c c m c c z z z f z z c c c m c V V V V c c M z c c 0 z c _ -.A 0 _ e.e.t.R.XXe.:.9XwXwXwX0Xx.g.5.2.e.0 * c ' 6.e.^./ # 7 0 c m N v d j u . gXgXgXgXgXgXgXgXgXgXgXgXgXgXgXgXgXgXgXgXgXgXgXgXgXgXgXgXgXgXgXgXgXgXgXgXgXgXgXgXgXgXgXgXgXgXgXgXgXgXgXgXgXgXgXgXgXgXgXgXgXgXgXgXgXgXgXgXgXgXgXgXgXgXgXgXgXgXgXgXgXgXgXgXgXgXgXgXgXgXgXgXgXgXgXgXgXgXgXgXgXgXgXgXgXgXgXgXgXgXgXgXgXgXgXgXgXgXgXgXgXgXgXgXgXgXgXgXgXgXgXgXgXgXgXgXgXgXgXgXgXgXgXgXgXgXgXgXgXgXgXgXgXgXgXgXgXgXgXgXgXgXgXgXgXgXgXgXgXgXgXgXgXgXgXgXgXgXgXgXgXgXgXgXgXgXgXgXgXgXgXgXgXgXgXgXgXgXgXgXgXgXgXgXgXgXgXgXgXgXgXgXgXgXgXgXgXgXgXgXgXgXgXgXgXgXgXgXgXgXgXgXgXgXgXgXgXgXgXgXgXgXgXgXgX< } G s =.w.-./ 8 * 7 g.(.5.` z < * _ 2.2.e.e.r.h.h.h.p.[ +.@XQ.E.0.2.=.A ~ ' m z > < < < 1 < 0 8 0 1 1 1 1 1 f z z z 8 0 z z 0 0 0 8 8 8 0 1 s z f z N v z z m z z z z v v v v z z v v s 1 z s f f s f z z s s f f z z z f z z c z z M z _ ` 8 z ' 2.2.@.I.e.*.8.x.x.h.w.5.2.2.2.` ^ <.k.s.s.<.# , ~ c 9 , * ( Y.o.` ;.2.w.f.f.f.f.k.k.k.h.f.f.f.f.f.f.w.<.=.` D ' ",
"Z 8 t.2.-.;.<.<.f.f.z.f.p.f.k.k.k.k.z.z.z.f.w.5.2._ m ' T...8 7 9 r r # * -.f.p.<.*.8 [ 9.2.9.e.g.h.h.h.-.( O.{ ....{ ' z , , . . . . o o . . . . . o o . . . . . . . . o o . o o o o o # o o # # # o o o o o o # # # # # # # # # o o o # # # # # # # * # # # # # # # # # # # * % , 7 0 [ 0.e.e.R.XXt.:.9XwXwXx.z.z.g.5.2.w.0 * A ' 1.g.>X^ o 7 r [ ' ' V x F s . gXgXgXgXgXgXgXgXgXgXgXgXgXgXgXgXgXgXgXgXgXgXgXgXgXgXgXgXgXgXgXgXgXgXgXgXgXgXgXgXgXgXgXgXgXgXgXgXgXgXgXgXgXgXgXgXgXgXgXgXgXgXgXgXgXgXgXgXgXgXgXgXgXgXgXgXgXgXgXgXgXgXgXgXgXgXgXgXgXgXgXgXgXgXgXgXgXgXgXgXgXgXgXgXgXgXgXgXgXgXgXgXgXgXgXgXgXgXgXgXgXgXgXgXgXgXgXgXgXgXgXgXgXgXgXgXgXgXgXgXgXgXgXgXgXgXgXgXgXgXgXgXgXgXgXgXgXgXgXgXgXgXgXgXgXgXgXgXgXgXgXgXgXgXgXgXgXgXgXgXgXgXgXgXgXgXgXgXgXgXgXgXgXgXgXgXgXgXgXgXgXgXgXgXgXgXgXgXgXgXgXgXgXgXgXgXgXgXgXgXgXgXgXgXgXgXgXgXgXgXgXgXgXgXgXgXgXgXgXgXgXgXgXgXgX< } j d 2.g.-.A 8 # 9 h.(.w.' c 8 * ` 2.o.2.5.w.h.x.x.a.[ L.@XA.T.0.2.=.~ 8 * o o o # # o % o # # # o o o # # # * * # # # o o # # # % * * * * * % * # * * # o o o o o . o o o o o o . o o . . . . . . o o o o o o o o o # o # # # # # # % * * < v W ] 2.0.oXt.*.7.z.x.h.8.4.2.2.2.[ ^ <.p.s.s.,.# , ~ ~ 9 , % ( R.2.` ;.4.w.f.f.f.k.k.k.k.f.f.f.f.f.a.f.f.4.;.' ' ' ",
"Z < e.2.' =.;.<.f.k.k.k.k.f.k.k.z.k.k.k.f.f.4.4.2.' M ' Y.' , 7 9 0 r # , -.f.p.,./ 9 ` 9.2.9.w.f.h.z.z.<.m O.X.{ { ..N 1 % # # * * , 8 8 < , , < 0 0 0 8 8 < 8 , , < < < , 8 0 0 0 0 8 0 0 0 8 0 0 0 0 8 0 0 0 0 0 0 0 0 0 0 0 0 0 0 0 0 0 0 0 0 0 0 0 0 0 0 8 0 0 0 0 0 8 8 8 < , 8 Z ~ e.w.e.t.-Xh.:.z.'.0Xz.z.z.g.5.5.e.0 * A ' 2.g.]./ o , r -.-.;.^ f } u . gXgXgXgXgXgXgXgXgXgXgXgXgXgXgXgXgXgXgXgXgXgXgXgXgXgXgXgXgXgXgXgXgXgXgXgXgXgXgXgXgXgXgXgXgXgXgXgXgXgXgXgXgXgXgXgXgXgXgXgXgXgXgXgXgXgXgXgXgXgXgXgXgXgXgXgXgXgXgXgXgXgXgXgXgXgXgXgXgXgXgXgXgXgXgXgXgXgXgXgXgXgXgXgXgXgXgXgXgXgXgXgXgXgXgXgXgXgXgXgXgXgXgXgXgXgXgXgXgXgXgXgXgXgXgXgXgXgXgXgXgXgXgXgXgXgXgXgXgXgXgXgXgXgXgXgXgXgXgXgXgXgXgXgXgXgXgXgXgXgXgXgXgXgXgXgXgXgXgXgXgXgXgXgXgXgXgXgXgXgXgXgXgXgXgXgXgXgXgXgXgXgXgXgXgXgXgXgXgXgXgXgXgXgXgXgXgXgXgXgXgXgXgXgXgXgXgXgXgXgXgXgXgXgXgXgXgXgXgXgXgXgXgXgXgX> } } s 2.f.-.J 8 # 8 g.(.w.` c < * =.2.2.9.w.j.'.'.x.a.[ +.@XU.0.5.4.=.c * % * 8 0 0 0 0 9 0 0 0 9 0 0 0 c c V c c 0 0 0 0 0 0 0 0 8 0 0 0 c c 0 8 8 0 0 0 8 8 8 < 8 8 8 8 8 8 0 8 8 8 8 8 8 8 8 8 8 8 0 8 8 9 9 8 9 9 9 0 8 8 8 < , : * o % < m ' ] o.I.U.L./ <.z.z.h.f.w.4.2.2._ ^ <.p.s.p.,.# 8 ^ A 9 , % ( ~.1._ =.4.f.f.k.k.z.k.k.k.k.f.f.f.k.k.f.f.7.;.' ' ' ",
"Z < g.2.' =.;.4.f.h.k.k.k.k.k.z.z.k.k.k.f.f.g.w.2.' D W Y.' , , 9 0 r # , <.k.p.,.*.r =.e.9.w.f.h.h.z.h.;.E L.L.3.o...N 1 * * , , < 8 0 0 0 8 8 0 c c c c 0 0 0 0 0 0 0 0 0 0 0 c c c M z 0 0 0 0 c c 0 0 0 0 0 A A A c 0 c A c c r r A V ~ ~ ~ ~ ~ A ^ V V A 0 0 A c 0 0 0 0 c 0 8 8 V _ w.e.j.^.,Xh.:.x.wX0Xx.z.z.h.w.5.g.r * A ' 2.g.].*.o 7 A -.;.4.-.z { s . gXgXgXgXgXgXgXgXgXgXgXgXgXgXgXgXgXgXgXgXgXgXgXgXgXgXgXgXgXgXgXgXgXgXgXgXgXgXgXgXgXgXgXgXgXgXgXgXgXgXgXgXgXgXgXgXgXgXgXgXgXgXgXgXgXgXgXgXgXgXgXgXgXgXgXgXgXgXgXgXgXgXgXgXgXgXgXgXgXgXgXgXgXgXgXgXgXgXgXgXgXgXgXgXgXgXgXgXgXgXgXgXgXgXgXgXgXgXgXgXgXgXgXgXgXgXgXgXgXgXgXgXgXgXgXgXgXgXgXgXgXgXgXgXgXgXgXgXgXgXgXgXgXgXgXgXgXgXgXgXgXgXgXgXgXgXgXgXgXgXgXgXgXgXgXgXgXgXgXgXgXgXgXgXgXgXgXgXgXgXgXgXgXgXgXgXgXgXgXgXgXgXgXgXgXgXgXgXgXgXgXgXgXgXgXgXgXgXgXgXgXgXgXgXgXgXgXgXgXgXgXgXgXgXgXgXgXgXgXgXgXgXgXgXgX> X.} x 4.w.,.*.e # 8 j.(.5._ c 8 = 2.e.9.e.g.x.wX].x.a./ +.@XU.e.5.;.[ ~ 1 < 8 0 r 0 c 0 0 0 A r 0 r 0 0 c m ~ V V A A A A A A r 0 0 0 c c A A A 0 0 0 0 0 0 8 0 0 0 0 0 0 0 r r r 0 0 0 0 8 8 8 8 8 0 z 0 8 0 0 c 0 0 0 8 8 8 0 0 0 8 8 , < 8 m ' o.0.U..XI.[ <.z.l.x.l.f.w.2.2._ *.f.k.k.p.,.; 7 ^ c 0 , o ( Y..._ =.4.f.k.k.z.z.k.k.k.k.f.f.k.k.z.f.g.w.;.' D ' ",
"D 8 g.2.` *.-.;.w.f.k.s.s.k.k.k.k.f.f.f.f.f.w.2.=.` v W Y.' , 7 9 0 r * , <.z.p.p.<./ -.e.9.e.h.z.z.h.p.*.( L.L.0.o...N z < # # * , , , , , : : * , , , , , , , , , , , , , , , 8 8 8 < 8 < < 8 8 8 8 8 9 8 8 8 8 8 8 8 8 8 8 0 8 8 8 8 8 8 8 8 8 8 8 0 0 0 0 0 0 0 0 0 0 0 0 0 8 8 7 V _ 9.e.^.,X4Xj.:.z.wX0XwX0Xx.x.e.e.g.r , A ` 1.e.yX*.o , A -.;.4.-.x } g . gXgXgXgXgXgXgXgXgXgXgXgXgXgXgXgXgXgXgXgXgXgXgXgXgXgXgXgXgXgXgXgXgXgXgXgXgXgXgXgXgXgXgXgXgXgXgXgXgXgXgXgXgXgXgXgXgXgXgXgXgXgXgXgXgXgXgXgXgXgXgXgXgXgXgXgXgXgXgXgXgXgXgXgXgXgXgXgXgXgXgXgXgXgXgXgXgXgXgXgXgXgXgXgXgXgXgXgXgXgXgXgXgXgXgXgXgXgXgXgXgXgXgXgXgXgXgXgXgXgXgXgXgXgXgXgXgXgXgXgXgXgXgXgXgXgXgXgXgXgXgXgXgXgXgXgXgXgXgXgXgXgXgXgXgXgXgXgXgXgXgXgXgXgXgXgXgXgXgXgXgXgXgXgXgXgXgXgXgXgXgXgXgXgXgXgXgXgXgXgXgXgXgXgXgXgXgXgXgXgXgXgXgXgXgXgXgXgXgXgXgXgXgXgXgXgXgXgXgXgXgXgXgXgXgXgXgXgXgXgXgXgXgXgXgX< } } f 2.4.<.*.r , 8 j.(.2.V c < * 2.e.e.g.j.x.wX].].a./ @.+XU.t.w.2.` V < < < 8 8 0 0 8 8 8 0 0 0 8 8 8 8 0 z c 0 0 0 0 0 0 0 8 8 9 8 8 0 0 8 8 8 8 9 9 9 8 9 , , , , , , , , 8 7 7 8 7 , , , : , , < < > < 8 8 8 8 < < 8 8 8 8 8 8 < < < * < m o.0.T.U.A.L.~ ,.f.h.x.x.x.g.5.2._ *.f.k.s.p.,.; 7 ~ c 0 , o ( Y...N ' 4.f.f.z.f.k.k.k.z.f.f.h.z.k.f.f.w.4.2.' ' ..",
"*.8 g.2.` ` -.-.<.f.f.f.f.k.f.f.k.f.p.f.f.i.<.-.` V M ' Y...< 7 8 0 r , 9 <.f.f.f.<./ [ 9.9.j.x.x.h.7.<.*._ 0.O.o.o...z z 1 . . o o # % % % * * * * * * : , , * , * * * * * * * * * * * * * * , , , * , , , , , , , , , , , , , , , , , , , , , , , , 8 < , , , , , , , , , , : * % 8 ` _ 2.e.j.-X4Xj.*.z.'.0XwX0Xx.j.e.5.e.0 , A ` =.g.yX*.o , A -.;.w.=.B } g . gXgXgXgXgXgXgXgXgXgXgXgXgXgXgXgXgXgXgXgXgXgXgXgXgXgXgXgXgXgXgXgXgXgXgXgXgXgXgXgXgXgXgXgXgXgXgXgXgXgXgXgXgXgXgXgXgXgXgXgXgXgXgXgXgXgXgXgXgXgXgXgXgXgXgXgXgXgXgXgXgXgXgXgXgXgXgXgXgXgXgXgXgXgXgXgXgXgXgXgXgXgXgXgXgXgXgXgXgXgXgXgXgXgXgXgXgXgXgXgXgXgXgXgXgXgXgXgXgXgXgXgXgXgXgXgXgXgXgXgXgXgXgXgXgXgXgXgXgXgXgXgXgXgXgXgXgXgXgXgXgXgXgXgXgXgXgXgXgXgXgXgXgXgXgXgXgXgXgXgXgXgXgXgXgXgXgXgXgXgXgXgXgXgXgXgXgXgXgXgXgXgXgXgXgXgXgXgXgXgXgXgXgXgXgXgXgXgXgXgXgXgXgXgXgXgXgXgXgXgXgXgXgXgXgXgXgXgXgXgXgXgXgXgXgX< } } B w.h.p.-.A 7 8 j.j.;.V c < * =.e.w.h.j.x.'.].x.a.*.@.#XI.t.e.2._ c < = * > < < , 8 8 8 0 8 8 < , , , , < < < < < < , , * * * * * * * * * * * , , , , , , , , * * * , , , , , , * * * * , : * , : : : , , 7 , , , , , , , , , * * % * % 8 N o.0.L.Z.V.C.~ :.f.z.x.x.l.g.w.2.[ *.<.p.p.p.,.; 8 ^ c 9 9 % _ L...D ' 2.4.g.f.f.h.h.f.f.f.f.f.z.k.f.4.2.2.1.' D ..",
"D 8 g.2.` ` -.-.;.7.f.f.f.f.f.f.f.p.p.f.f.f.<.-.[ V M D Y...< 9 8 0 A , 8 <.f.f.7.-.A ` 0.e.^.>Xx.g.<.-.*.~ 2...{ o...z M M % . o % % * * * * : > * % * * * = * * * * % * * * * * * * * * * * * * * * * : : * * * * * : , * , , * * * * : : : * * * * , , , , , , , , , , , , * * * *.5._ 2.e.e.L.#XY.:.9XwXwXx.wX0Xj.e.2.e.0 , A ` ' e.>X*.o , A ;.;.w.=.B n.{ . gXgXgXgXgXgXgXgXgXgXgXgXgXgXgXgXgXgXgXgXgXgXgXgXgXgXgXgXgXgXgXgXgXgXgXgXgXgXgXgXgXgXgXgXgXgXgXgXgXgXgXgXgXgXgXgXgXgXgXgXgXgXgXgXgXgXgXgXgXgXgXgXgXgXgXgXgXgXgXgXgXgXgXgXgXgXgXgXgXgXgXgXgXgXgXgXgXgXgXgXgXgXgXgXgXgXgXgXgXgXgXgXgXgXgXgXgXgXgXgXgXgXgXgXgXgXgXgXgXgXgXgXgXgXgXgXgXgXgXgXgXgXgXgXgXgXgXgXgXgXgXgXgXgXgXgXgXgXgXgXgXgXgXgXgXgXgXgXgXgXgXgXgXgXgXgXgXgXgXgXgXgXgXgXgXgXgXgXgXgXgXgXgXgXgXgXgXgXgXgXgXgXgXgXgXgXgXgXgXgXgXgXgXgXgXgXgXgXgXgXgXgXgXgXgXgXgXgXgXgXgXgXgXgXgXgXgXgXgXgXgXgXgXgXgX< } } x w.f.<.-.A 7 0 j.j.;.V c < * ;.w.w.h.x.h.z.h.h.a.*.0.$XE.t.e.2._ c m > % % > * : : , < , * * * * * * * * * < < * * * * * * # # o # * * * * * * * * * # # * * * * : : : * * * * * * * * * * * * * * * * * * * * , 7 * * : : * * * * = < ` ' ' @.+.B.B.C.~ :.f.h.l.h.g.w.w.w.' [ <.p.p.p.,., 8 ` c 9 9 * ' Y.{ D ' 2.4.w.g.f.f.f.f.p.f.f.f.z.z.f.f.4.2.1.' D o.",
"D < e.2.` ` ;.;.4.w.f.f.f.w.f.f.f.p.p.f.f.f.f.<.=.D M W Y.2.8 8 8 r A , 8 <.h.p.<.*.A ` 3.e././.j.r.<.*.*.V ..........z z _ z > > 1 s z m m N N N N N N N N N m M M M N D N B z z z m m V m M V A ~ A c z z v m m m c c c c A c 0 8 c z z c c m m c c A A A A A V ` V c z z z z 0 V e.e.' 9.e.9.L.+XR.:.9X'.x.x.wXx.j.5.2.e.0 7 A [ [ e.>X*.o , A ;.;.w.=.g b.} . gXgXgXgXgXgXgXgXgXgXgXgXgXgXgXgXgXgXgXgXgXgXgXgXgXgXgXgXgXgXgXgXgXgXgXgXgXgXgXgXgXgXgXgXgXgXgXgXgXgXgXgXgXgXgXgXgXgXgXgXgXgXgXgXgXgXgXgXgXgXgXgXgXgXgXgXgXgXgXgXgXgXgXgXgXgXgXgXgXgXgXgXgXgXgXgXgXgXgXgXgXgXgXgXgXgXgXgXgXgXgXgXgXgXgXgXgXgXgXgXgXgXgXgXgXgXgXgXgXgXgXgXgXgXgXgXgXgXgXgXgXgXgXgXgXgXgXgXgXgXgXgXgXgXgXgXgXgXgXgXgXgXgXgXgXgXgXgXgXgXgXgXgXgXgXgXgXgXgXgXgXgXgXgXgXgXgXgXgXgXgXgXgXgXgXgXgXgXgXgXgXgXgXgXgXgXgXgXgXgXgXgXgXgXgXgXgXgXgXgXgXgXgXgXgXgXgXgXgXgXgXgXgXgXgXgXgXgXgXgXgXgXgXgXgX< } } g 5.g.<.-.A 7 0 j.(.4.^ A < % -.w.w.h.x.x.z.h.g.p.J 9.#XE.^.j.5.~ c ' m < < s z N V ^ ` ` V V V m z m V ~ _ _ ' _ ` ` ^ ^ ^ A A c c V ~ _ _ N N m m m c c z z c m m m m M c c c c c c z 8 8 z M M M M M M c 0 0 0 z z z 1 1 1 1 1 < s m 2.' ' o.O. .C.C.~ :.f.f.g.f.4.2.2.0.' [ <.p.p.p.,.7 8 _ m 0 8 * ' T.{ W ..2.5.w.f.g.g.f.w.7.f.f.f.k.z.z.f.w.2...' ' o.",
"D < e.2.` -.;.4.w.w.w.w.w.w.w.f.f.f.f.f.f.f.f.<.-.D M W R.2.8 8 0 A ^ 9 8 <.f.p.<.*.A ^ 2.0.t.t.j.j.w.;.*.~ ' ..W ' ' M 1 ' ' z s z N D ....o.o...................' ................o.2.2.6.6.2.4.4.2.=.' ..o.2.2.2.2.' 2.2.5.2.2.2.2.2.2.2.2.2.2.2.2.5.2.2.2.2.2.2.2.' ( ( N N N 2.e.' ' 0.e.e.L.+XT.:.z.'.wXx.x.l.g.3.2.e.0 7 r -.[ e.>X[ o * A ;.;.w.=.g v.j . gXgXgXgXgXgXgXgXgXgXgXgXgXgXgXgXgXgXgXgXgXgXgXgXgXgXgXgXgXgXgXgXgXgXgXgXgXgXgXgXgXgXgXgXgXgXgXgXgXgXgXgXgXgXgXgXgXgXgXgXgXgXgXgXgXgXgXgXgXgXgXgXgXgXgXgXgXgXgXgXgXgXgXgXgXgXgXgXgXgXgXgXgXgXgXgXgXgXgXgXgXgXgXgXgXgXgXgXgXgXgXgXgXgXgXgXgXgXgXgXgXgXgXgXgXgXgXgXgXgXgXgXgXgXgXgXgXgXgXgXgXgXgXgXgXgXgXgXgXgXgXgXgXgXgXgXgXgXgXgXgXgXgXgXgXgXgXgXgXgXgXgXgXgXgXgXgXgXgXgXgXgXgXgXgXgXgXgXgXgXgXgXgXgXgXgXgXgXgXgXgXgXgXgXgXgXgXgXgXgXgXgXgXgXgXgXgXgXgXgXgXgXgXgXgXgXgXgXgXgXgXgXgXgXgXgXgXgXgXgXgXgXgXgXgX> } } g 5.g.<.-.A 7 0 j.^.w.-.A = % -.w.r.h.x.x.x.j.h.p.J 9.#XE.~.g.5.` c ] ' N z N ..2.2.e.e.e.e.e.e.2.2.2.3.0.e.0.0.e.e.e.e.w.w.w.4.2.2.2.2.2.2.3.3.2.2.2.2.o.....o.2.2.2.1.2...' ' ..2.2.' N W ................' ' D D ..D x x x g s s x ..2._ o.9.O.C.Z.L.~ :.f.g.g.w.2.2.2.2._ [ <.p.k.p.,., 9 ~ m 0 8 : ' L.{ D ..2.e.e.w.g.g.f.f.f.f.f.f.k.z.z.f.w.2...' ' 2.",
"V , w.=.D ` =.2.4.4.<.f.w.4.w.f.g.f.f.f.f.f.7.-.=._ M W E.O.1 8 8 A [ 9 8 <.f.p.7.-.A ` 2.9.9.e.x.x.e.<./ A o.o.' ' ' c < V 1.' s z z B D ....o.{ F { X.........' W ' ................o.2.....2.e.e.2.' ' o.3.0.0.2.2.o.2.e.e.e.2...3.3.....2.2.2.2.2.5.e.e.e.2.2.2.2.o...W B B W e.2.z ' 3.0.0.C.U.L.-.z.wX].x.z.g.e.0.3.e.0 , r ^ [ e.>X[ o * c =.2.5.' g v.j . gXgXgXgXgXgXgXgXgXgXgXgXgXgXgXgXgXgXgXgXgXgXgXgXgXgXgXgXgXgXgXgXgXgXgXgXgXgXgXgXgXgXgXgXgXgXgXgXgXgXgXgXgXgXgXgXgXgXgXgXgXgXgXgXgXgXgXgXgXgXgXgXgXgXgXgXgXgXgXgXgXgXgXgXgXgXgXgXgXgXgXgXgXgXgXgXgXgXgXgXgXgXgXgXgXgXgXgXgXgXgXgXgXgXgXgXgXgXgXgXgXgXgXgXgXgXgXgXgXgXgXgXgXgXgXgXgXgXgXgXgXgXgXgXgXgXgXgXgXgXgXgXgXgXgXgXgXgXgXgXgXgXgXgXgXgXgXgXgXgXgXgXgXgXgXgXgXgXgXgXgXgXgXgXgXgXgXgXgXgXgXgXgXgXgXgXgXgXgXgXgXgXgXgXgXgXgXgXgXgXgXgXgXgXgXgXgXgXgXgXgXgXgXgXgXgXgXgXgXgXgXgXgXgXgXgXgXgXgXgXgXgXgXgXgX> } } g w.g.4.-.r , 8 j.~.w.-.c < * *.w.f.x.].x.].j.h.y.r o.1XR.e.4.2.[ 0 ~ 2.' B B ..2.w.e.e.e.e.w.e.3.2.2.3.2.2.3.0.e.e.e.e.r.w.w.;.2.4.2.2.o.o.o.3.3.2...........2.2.2.....2.o.' ' 2.2.2.' N ' ..o.......{ ........D N { F B d d d d s D 2.2.v ' 2.2.0.C.L.^ ,.f.f.g.w.2.o.2.2._ ^ <.k.k.y.-., , ~ M 0 8 % _ L.F D ..5.w.w.e.w.w.w.w.f.f.f.f.k.z.k.f.4.=.' ' ' 2.",
"V , w.=._ ` [ 2.4.4.p.f.f.4.<.w.w.<.4.f.f.p.<.=.=.D N { E.O.1 < 9 / *.7 8 <.z.z.f.<.^ [ w.9.8.g.x.].j.w.A m 3.0.3.o.' m < c ' ..B x x x B F ..O.{ F } X.X.X.X.D D D W W ....B W ..o.o.........2.5.e.2.......3.3.3.2.2.2.2.e.0.0.2.' 3.3.o.o.3.3.3.3.2.5.5.e.e.2...3.0.3...{ W W ..t.;.< ' 0.Y.0.+.Y.0.;.z.wXx.x.z.f.e.0.0.e.0 , c _ ' t.pX-.o * c ' ..1.' g v.l $ gXgXgXgXgXgXgXgXgXgXgXgXgXgXgXgXgXgXgXgXgXgXgXgXgXgXgXgXgXgXgXgXgXgXgXgXgXgXgXgXgXgXgXgXgXgXgXgXgXgXgXgXgXgXgXgXgXgXgXgXgXgXgXgXgXgXgXgXgXgXgXgXgXgXgXgXgXgXgXgXgXgXgXgXgXgXgXgXgXgXgXgXgXgXgXgXgXgXgXgXgXgXgXgXgXgXgXgXgXgXgXgXgXgXgXgXgXgXgXgXgXgXgXgXgXgXgXgXgXgXgXgXgXgXgXgXgXgXgXgXgXgXgXgXgXgXgXgXgXgXgXgXgXgXgXgXgXgXgXgXgXgXgXgXgXgXgXgXgXgXgXgXgXgXgXgXgXgXgXgXgXgXgXgXgXgXgXgXgXgXgXgXgXgXgXgXgXgXgXgXgXgXgXgXgXgXgXgXgXgXgXgXgXgXgXgXgXgXgXgXgXgXgXgXgXgXgXgXgXgXgXgXgXgXgXgXgXgXgXgXgXgXgXgXgXu b.n.B g.j.w.;.9 , 8 j.j.4.^ c < * *.f.f.x.h.j.x.j.h.<.A 9.3X-X^.w.2.' 0 m 2.o.W B ..o.0.e.e.e.0.3.3.2.2.2.3.2.2.3.3.0.3.e.j.j.e.<.2.w.e.e.2.......3.3.o.........o.o...............o.3.3.2...' ............F F ........N { { { B g g g g ..5.' z [ 2.2.O.C.0.^ ,.f.f.g.w.3.o.o.2._ -.f.z.s.<.-.7 , ~ z 0 < * _ L.F D ..5.w.g.e.5.4.4.5.w.f.f.f.f.z.z.f.4.=.' ' ' 2.",
"V < w.2._ _ [ ;.;.p.f.f.f.w.4.4.4.<.f.f.f.y.<.=.' D N ..!.3.1 8 9 ^ -., 7 <.z.'.z.<./ ` e.t.r.g.x.>Xj.w.A z 0.Y.L.L.3.N > 1 D ..{ { B B F { X.O.} { } X.O.O.X.{ ......X.X.X.W { X.0.O.o.{ ......3.3.3.2.....o.3.3.3.3.3.2.3.3.e.2.o.3.3.2.2.3.3.3.3.3.e.5.5.2.2.2.3.3.3.o...{ ..2.g.=., _ e.R.R.R.E.0.*.z.wXx.x.x.h.e.3.3.e.0 , c D ..R.dX<.o * M ' W ..' j v.j $ gXgXgXgXgXgXgXgXgXgXgXgXgXgXgXgXgXgXgXgXgXgXgXgXgXgXgXgXgXgXgXgXgXgXgXgXgXgXgXgXgXgXgXgXgXgXgXgXgXgXgXgXgXgXgXgXgXgXgXgXgXgXgXgXgXgXgXgXgXgXgXgXgXgXgXgXgXgXgXgXgXgXgXgXgXgXgXgXgXgXgXgXgXgXgXgXgXgXgXgXgXgXgXgXgXgXgXgXgXgXgXgXgXgXgXgXgXgXgXgXgXgXgXgXgXgXgXgXgXgXgXgXgXgXgXgXgXgXgXgXgXgXgXgXgXgXgXgXgXgXgXgXgXgXgXgXgXgXgXgXgXgXgXgXgXgXgXgXgXgXgXgXgXgXgXgXgXgXgXgXgXgXgXgXgXgXgXgXgXgXgXgXgXgXgXgXgXgXgXgXgXgXgXgXgXgXgXgXgXgXgXgXgXgXgXgXgXgXgXgXgXgXgXgXgXgXgXgXgXgXgXgXgXgXgXgXgXgXgXgXgXgXgXgXgXs N.b.B g.h.<./ 9 * 8 g.e.;.^ A < * *.w.w.h.g.j.x.j.f.<.r 9.3XE.-Xe.=.[ 0 z ' 2.......3.0.Y.~.~.Y.e.0.0.0.0.L.3.3.O.O.3.3.e.t.~.e.5.2.w.e.e.0.3.O.O.3.3.O.o.o...3.3.O.......o.......2.3.3.2...2.o...X.....X...{ ..o.3...D { X...D B B B ..e.4.A 1 [ 4.9.o.+.0.[ ,.f.f.g.w.2.2.2.2.' =.f.f.p.<.<., 8 _ m z < % ' L.{ B ..3.e.g.e.5.;.2.2.5.4.w.f.f.z.f.f.5.2.' ..' 2.",
"V < e.2._ ` [ [ ;.f.h.h.f.w.w.2.4.4.f.f.f.<.-.' ' N N { !.3.8 8 9 ^ -., 7 <.k.z.f.-.A ` e.t.g.g.h.j.t.w./ m L.E.R.L.3.N * < ` ' _ ( N v x N D D B z x x N B f z z M M N N v B ( ' ....W W ' ' ' ' ..o...' ' ' ..o.2.2.2.2.2.=.2.2.' ' ' 1.2.2.2.2.2.2.2.2.2.2.=.2.1.=.2.' ' ' ' 2.w.=.0 ..R.^.^.-X/.e.*.z.9Xx.0X0Xx.j.3.2.e.0 , 0 D ..R.dX8.o * M W W X...j v.j $ gXgXgXgXgXgXgXgXgXgXgXgXgXgXgXgXgXgXgXgXgXgXgXgXgXgXgXgXgXgXgXgXgXgXgXgXgXgXgXgXgXgXgXgXgXgXgXgXgXgXgXgXgXgXgXgXgXgXgXgXgXgXgXgXgXgXgXgXgXgXgXgXgXgXgXgXgXgXgXgXgXgXgXgXgXgXgXgXgXgXgXgXgXgXgXgXgXgXgXgXgXgXgXgXgXgXgXgXgXgXgXgXgXgXgXgXgXgXgXgXgXgXgXgXgXgXgXgXgXgXgXgXgXgXgXgXgXgXgXgXgXgXgXgXgXgXgXgXgXgXgXgXgXgXgXgXgXgXgXgXgXgXgXgXgXgXgXgXgXgXgXgXgXgXgXgXgXgXgXgXgXgXgXgXgXgXgXgXgXgXgXgXgXgXgXgXgXgXgXgXgXgXgXgXgXgXgXgXgXgXgXgXgXgXgXgXgXgXgXgXgXgXgXgXgXgXgXgXgXgXgXgXgXgXgXgXgXgXgXgXgXgXgXgXgXs Z.Z...j.j.<.*.9 * , g.g.2.^ A , * -.;.;.g.>X,X-Xt.w.7.*.9.3X-X,Xt.2.' c 0 _ 2.........2.2.2.2.2.2.1...o.2.2.2.2.o...' 2.2.2.;.;.;.;.2.2.2.2.2.3.....o...o...' 2.2.2.o.....o.................1.................' ' ' _ D D ' D z z v N ' 5.;.c m 2.w.w.9.0.0.[ ,.f.f.g.2.o.o.2.2._ *.<.p.y.p.<.7 8 _ N z 8 * ' L.} B W 2.e.e.e.w.4.2.2.2.2.w.f.f.f.f.w.2...' ..' 2.",
"Z 8 e.2.' ' -.;.<.f.f.f.w.4.2.2.5.f.f.f.f.<.;.' ' N ( { E.3.0 9 9 A *.7 7 ,.a.a.p.-.^ =.e.t.j.j.g.r.e.w./ c 0.0.0.2.2.' 0 8 8 * o .     . . . . . . . . . . .         . . o o . o o o o o o o o o o o o % % o % * * * * o o o o o o o o # # * * * * # # # * # # * * * * * , , , , , , 8 ' e.~.^.^./.e.-.z.9Xx.0XwXx.e.2.2.e.0 , A ' O.T.;X;.o * M ' ' ....j v.j o gXgXgXgXgXgXgXgXgXgXgXgXgXgXgXgXgXgXgXgXgXgXgXgXgXgXgXgXgXgXgXgXgXgXgXgXgXgXgXgXgXgXgXgXgXgXgXgXgXgXgXgXgXgXgXgXgXgXgXgXgXgXgXgXgXgXgXgXgXgXgXgXgXgXgXgXgXgXgXgXgXgXgXgXgXgXgXgXgXgXgXgXgXgXgXgXgXgXgXgXgXgXgXgXgXgXgXgXgXgXgXgXgXgXgXgXgXgXgXgXgXgXgXgXgXgXgXgXgXgXgXgXgXgXgXgXgXgXgXgXgXgXgXgXgXgXgXgXgXgXgXgXgXgXgXgXgXgXgXgXgXgXgXgXgXgXgXgXgXgXgXgXgXgXgXgXgXgXgXgXgXgXgXgXgXgXgXgXgXgXgXgXgXgXgXgXgXgXgXgXgXgXgXgXgXgXgXgXgXgXgXgXgXgXgXgXgXgXgXgXgXgXgXgXgXgXgXgXgXgXgXgXgXgXgXgXgXgXgXgXgXgXgXgXgXg Z.N.B e.w.;.-.r , , j.(.4.*.A , * [ 2.2.t.-X-X/.t.r.f.*.2.3XE.e.2.' N z 0 0 0 8 , , , % # * * # o o # o o # * * # o % o # # # o o # # * * * * % o o o o o o o % * * * * * * o o o o o o o o % * * % % % % o o o o o o % $ % % o o o # . * * < m ' =.e.9.0.e.[ ,.h.h.g.2.' o.2.2._ *.<.y.p.a.<.7 9 _ ( m 8 % ' C.{ { ' 2.2.w.w.g.g.e.2.2.5.g.f.f.f.f.w.4.=.' ..' 2.",
"D 8 e.2.' =.=.4.w.f.f.7.w.w.2.2.w.f.z.f.f.f.4.=.' _ ( { E.3.0 9 9 A *.7 7 <.a.p.,.*.^ ' 0.t.R.t.t.t.t.t.-.V 9.@.o.o.o.' A 7 .   o # # # # # # # # # # # # o # # # # # # # * * * * 7 * 7 7 , , , , * * , , , , , , , , , , , , * * 7 7 , # , 7 9 7 , 7 7 9 7 7 7 9 9 9 9 9 9 9 8 , * * 0 ' 0./.-X/./.0.*.z.wXwXwX0Xh.e.2.2.e.0 , A ..o.0.Y.[ o 7 V ' ' ' ..g } g . gXgXgXgXgXgXgXgXgXgXgXgXgXgXgXgXgXgXgXgXgXgXgXgXgXgXgXgXgXgXgXgXgXgXgXgXgXgXgXgXgXgXgXgXgXgXgXgXgXgXgXgXgXgXgXgXgXgXgXgXgXgXgXgXgXgXgXgXgXgXgXgXgXgXgXgXgXgXgXgXgXgXgXgXgXgXgXgXgXgXgXgXgXgXgXgXgXgXgXgXgXgXgXgXgXgXgXgXgXgXgXgXgXgXgXgXgXgXgXgXgXgXgXgXgXgXgXgXgXgXgXgXgXgXgXgXgXgXgXgXgXgXgXgXgXgXgXgXgXgXgXgXgXgXgXgXgXgXgXgXgXgXgXgXgXgXgXgXgXgXgXgXgXgXgXgXgXgXgXgXgXgXgXgXgXgXgXgXgXgXgXgXgXgXgXgXgXgXgXgXgXgXgXgXgXgXgXgXgXgXgXgXgXgXgXgXgXgXgXgXgXgXgXgXgXgXgXgXgXgXgXgXgXgXgXgXgXgXgXgXgXgXgXgXgXg Z.Z.B 5.e.2.=.c * 8 (.(.w.*.V 8 * ' 3.2.e.t.0.R.t.t.f.*.9.%XE.0.2.2..._ 0 , * * * , 7 9 8 8 9 9 9 q q e 9 9 9 9 9 7 , , , , , 7 7 , , 7 7 7 , * * , * # # # # , , , # * * * * # # # # # * , 7 , , * , , , , , , , 7 7 , , , 8 8 9 9 , * * * 0 ( o.2.e.0.0.e.J ,.h.h.g.2.2.o.o.2._ / ,.y.p.p.<.# , [ _ V 8 * ' L.....2.2.4.w.4.w.w.w.2.=.w.f.f.f.f.f.g.w.2.=...' 2.",
"` 8 e.2.' =.;.w.w.f.f.f.f.f.w.w.f.z.z.f.f.f.f.4.2._ _ ..E.3.8 8 9 / *.7 , <.f.p.<.-.^ =.2.0.I.Y.R.R.I.t.[ M 0.o.....o.' 0 , o * 9 < 8 8 8 8 9 9 9 0 9 r r 0 c 0 0 0 0 9 0 0 9 0 0 r r r A A A r A A A A A r A A A A A A A A / / A / J ~ A / ^ ^ ^ / *./ *./ / / *.^ / r r r / ^ 0 , , 0 ' 3.e.R.R.E.0.*.k.wXwX0Xx.h.e.3.3.3.0 * c ' ..0.R.[ . 7 -.2.2.2.' g } g . gXgXgXgXgXgXgXgXgXgXgXgXgXgXgXgXgXgXgXgXgXgXgXgXgXgXgXgXgXgXgXgXgXgXgXgXgXgXgXgXgXgXgXgXgXgXgXgXgXgXgXgXgXgXgXgXgXgXgXgXgXgXgXgXgXgXgXgXgXgXgXgXgXgXgXgXgXgXgXgXgXgXgXgXgXgXgXgXgXgXgXgXgXgXgXgXgXgXgXgXgXgXgXgXgXgXgXgXgXgXgXgXgXgXgXgXgXgXgXgXgXgXgXgXgXgXgXgXgXgXgXgXgXgXgXgXgXgXgXgXgXgXgXgXgXgXgXgXgXgXgXgXgXgXgXgXgXgXgXgXgXgXgXgXgXgXgXgXgXgXgXgXgXgXgXgXgXgXgXgXgXgXgXgXgXgXgXgXgXgXgXgXgXgXgXgXgXgXgXgXgXgXgXgXgXgXgXgXgXgXgXgXgXgXgXgXgXgXgXgXgXgXgXgXgXgXgXgXgXgXgXgXgXgXgXgXgXgXgXgXgXgXgXgXgXg N.m.B 2.2...D 1 * 8 (.(.5.*.V 8 = ..3.3.0.0.0.t.t.t.f.*.2.#XL.0.3.....' 0 , 8 0 r J ~ A / / / / J / / A / / / ^ ^ ^ / / ~ r r A / A A A A A A A r r r r r r e 0 r r r r 0 0 0 0 0 0 0 0 r r r r r r r A A A r r r r r e r 0 0 r r c c 8 8 : 0 N ..2.0.0.0.9.[ <.h.g.g.9.2...o.2._ A <.y.p.p.,.o , [ ] _ 8 % ' Y.....5.w.w.w.w.w.g.w.2.2.w.f.f.k.k.z.h.f.w.2.2.' 2.",
"*.8 e.2.' 2.;.4.w.p.a.k.z.h.f.f.f.z.z.k.f.k.f.w.2.' ' ..E.3.0 8 9 ^ *.7 * <.f.p.<.-.^ 1.3.o.0.R.R.I.I.L.' f L.L.0.O.O.' 1 % * , , < < < < < 8 8 8 0 0 A c 0 0 0 0 0 0 0 0 0 0 0 0 r c A A A A r 0 c 0 0 0 0 0 r 0 0 0 c c c A A A A r r A A ^ / A A Z Z / ~ A A A A A A r r A A r 8 8 0 _ 3.0.0.0.R.0.[ k.9Xx.x.x.l.g.3.2.2.0 , c ' ..0.-X*.X , -.w.w.w.' i Y g . gXgXgXgXgXgXgXgXgXgXgXgXgXgXgXgXgXgXgXgXgXgXgXgXgXgXgXgXgXgXgXgXgXgXgXgXgXgXgXgXgXgXgXgXgXgXgXgXgXgXgXgXgXgXgXgXgXgXgXgXgXgXgXgXgXgXgXgXgXgXgXgXgXgXgXgXgXgXgXgXgXgXgXgXgXgXgXgXgXgXgXgXgXgXgXgXgXgXgXgXgXgXgXgXgXgXgXgXgXgXgXgXgXgXgXgXgXgXgXgXgXgXgXgXgXgXgXgXgXgXgXgXgXgXgXgXgXgXgXgXgXgXgXgXgXgXgXgXgXgXgXgXgXgXgXgXgXgXgXgXgXgXgXgXgXgXgXgXgXgXgXgXgXgXgXgXgXgXgXgXgXgXgXgXgXgXgXgXgXgXgXgXgXgXgXgXgXgXgXgXgXgXgXgXgXgXgXgXgXgXgXgXgXgXgXgXgXgXgXgXgXgXgXgXgXgXgXgXgXgXgXgXgXgXgXgXgXgXgXgXgXgXgXgXgXs b.m...2.2.' N 1 * < (.(.4.=.V 8 < ..3.2.0.e.e.g.e.r.f.*.o.#XP.L.O...W v < , 8 A 0 r r r r A A A r r r A A A c A c c A A r r 0 0 r A A r r r r r 0 0 0 0 9 9 9 9 0 r 0 0 0 0 9 9 0 0 8 0 9 0 0 r r 0 0 0 r A A A r r r r r 0 0 0 0 0 c 8 7 , 1 ( o.2.2.+.C.0.[ ;.h.h.h.r.w.o...o.V A <.y.p.p.<.# , ;.=.~ 8 * ' T.o.' 2.w.f.g.f.g.g.g.w.w.g.f.k.z.k.k.z.f.w.2.' ' 2.",
"` 8 g.2.' 1.;.4.w.p.a.h.k.h.f.f.f.z.z.z.z.z.h.w.2.......R.3.z 0 0 ^ *.7 7 <.p.,.:.*.^ 6.3.2.0.0.I.I.L.L.' f T.E.T.L.o.' 1 * o o # o o o o o % % * * * : * * * # * % % * * , * * * , , 7 7 7 7 7 7 , , 7 , , 7 8 8 , , , , , , , 8 , , 7 9 9 8 9 9 8 8 8 8 8 8 8 8 9 9 9 9 9 9 9 , * * 8 D 2.0.0.Y.E.0.^ z.0Xx.x.x.x.j.0.3.3.0 , c W ..e.^.*.o , -.w.w.w.' i k f . gXgXgXgXgXgXgXgXgXgXgXgXgXgXgXgXgXgXgXgXgXgXgXgXgXgXgXgXgXgXgXgXgXgXgXgXgXgXgXgXgXgXgXgXgXgXgXgXgXgXgXgXgXgXgXgXgXgXgXgXgXgXgXgXgXgXgXgXgXgXgXgXgXgXgXgXgXgXgXgXgXgXgXgXgXgXgXgXgXgXgXgXgXgXgXgXgXgXgXgXgXgXgXgXgXgXgXgXgXgXgXgXgXgXgXgXgXgXgXgXgXgXgXgXgXgXgXgXgXgXgXgXgXgXgXgXgXgXgXgXgXgXgXgXgXgXgXgXgXgXgXgXgXgXgXgXgXgXgXgXgXgXgXgXgXgXgXgXgXgXgXgXgXgXgXgXgXgXgXgXgXgXgXgXgXgXgXgXgXgXgXgXgXgXgXgXgXgXgXgXgXgXgXgXgXgXgXgXgXgXgXgXgXgXgXgXgXgXgXgXgXgXgXgXgXgXgXgXgXgXgXgXgXgXgXgXgXgXgXgXgXgXgXgXgXs n.H...;.2._ V 8 * , j.(.4.*.Z 8 < ..2.2.e.g.h.l.g.e.w.*.o.#XU.T.0.o.( f : * , , * , , , 9 9 8 8 9 7 9 9 7 < 8 8 , , , , , , , , 8 8 9 , , , , , , , , , * : , , , , , : : * * * * * * * , , , , , , , , , , , , , 7 7 7 8 9 9 9 9 7 , , # * : M ] 3.L.U.U.0./ ;.h.g.h.h.g.2.2...V A :.y.p.k.<.# 7 =.-.A 8 : ..T.O.' =.4.f.f.f.h.g.w.w.f.f.f.k.z.k.k.z.f.2.' _ ' 2.",
"*.8 e.2.' 1.;.4.w.h.z.h.f.f.f.f.f.z.z.k.z.z.f.w.2...D ..Y.2.0 9 r ^ *.7 7 <.f.y.<.*.A 1.2.2.e.e.e.e.0.e.] v Y.Y.L.0.2.W N z % . % * * * * * * * * * < > : * : : : * * * * * % % * * : : , , , , < * * * * , , , * * * * * * * * * * * * * * * * * , * , , , * * * : * * * * * * % * 8 V N o.R./.;X4X0.~ k.0XwXwX0Xx.j.0.3.0.0 * c ' o.e.(.[ o , -.w.<.w.' i T g . gXgXgXgXgXgXgXgXgXgXgXgXgXgXgXgXgXgXgXgXgXgXgXgXgXgXgXgXgXgXgXgXgXgXgXgXgXgXgXgXgXgXgXgXgXgXgXgXgXgXgXgXgXgXgXgXgXgXgXgXgXgXgXgXgXgXgXgXgXgXgXgXgXgXgXgXgXgXgXgXgXgXgXgXgXgXgXgXgXgXgXgXgXgXgXgXgXgXgXgXgXgXgXgXgXgXgXgXgXgXgXgXgXgXgXgXgXgXgXgXgXgXgXgXgXgXgXgXgXgXgXgXgXgXgXgXgXgXgXgXgXgXgXgXgXgXgXgXgXgXgXgXgXgXgXgXgXgXgXgXgXgXgXgXgXgXgXgXgXgXgXgXgXgXgXgXgXgXgXgXgXgXgXgXgXgXgXgXgXgXgXgXgXgXgXgXgXgXgXgXgXgXgXgXgXgXgXgXgXgXgXgXgXgXgXgXgXgXgXgXgXgXgXgXgXgXgXgXgXgXgXgXgXgXgXgXgXgXgXgXgXgXgXgXgXf  .3.` =.<.[ ^ 9 * * h.>X;.` V 8 < ' 2.;.w.h.j.x.g.w.<.^ 2.#X#XoXR.o.( ( z : * * * * : : : , * * * * , , , * * * * * % % * * * * < : : : : * * * , , * * * * * * : * * % * * % % * % $ % % % % * * % o o o o o o # # # * * * * * * * * # o * z E ' 0.E.$X@XL.~ ;.h.h.x.'.x.e.2.2.~ A <.p.s.k.<.# 9 =.[ c , : 2.T.o.' =.2.w.g.f.g.g.w.4.f.f.f.f.f.f.f.f.4.2.' N _ 2.",
"=.8 g.2.' ' =.2.4.g.h.g.w.w.f.f.f.z.z.f.f.l.h.e.3.' v D L.2.0 9 r ^ / 7 # <.f.f.p.-.A ' 2.2.j.j.e.e.e.t.4.~ 0.0.o.9.2.' ' 6.z * 1 z M m m m N M m m N ( N m m m m m m N M m m m m N N D D V V V V V V V c c c c c m m c c V c c c c c c A A A c 0 0 0 0 c c c c V m m c c z z z z m 2.2.m o.-X;X;XoX0.^ z.0XwXwX0Xx.g.3.3.0.0 , c ' o.e.>X[ X , *.<.<.w.[ g C.W o gXgXgXgXgXgXgXgXgXgXgXgXgXgXgXgXgXgXgXgXgXgXgXgXgXgXgXgXgXgXgXgXgXgXgXgXgXgXgXgXgXgXgXgXgXgXgXgXgXgXgXgXgXgXgXgXgXgXgXgXgXgXgXgXgXgXgXgXgXgXgXgXgXgXgXgXgXgXgXgXgXgXgXgXgXgXgXgXgXgXgXgXgXgXgXgXgXgXgXgXgXgXgXgXgXgXgXgXgXgXgXgXgXgXgXgXgXgXgXgXgXgXgXgXgXgXgXgXgXgXgXgXgXgXgXgXgXgXgXgXgXgXgXgXgXgXgXgXgXgXgXgXgXgXgXgXgXgXgXgXgXgXgXgXgXgXgXgXgXgXgXgXgXgXgXgXgXgXgXgXgXgXgXgXgXgXgXgXgXgXgXgXgXgXgXgXgXgXgXgXgXgXgXgXgXgXgXgXgXgXgXgXgXgXgXgXgXgXgXgXgXgXgXgXgXgXgXgXgXgXgXgXgXgXgXgXgXgXgXgXgXgXgXgXgXg +.0.;.<.g.;.-.r * , j.>X4.[ A 8 * ` 2.<.f.f.j.x.g.w.;.^ 9.#X#XoXY.2.' ' 1.m 1 z z z v m m m M M c c c A V V c c c c z c c m c m m m m m m c z z c M z z c c c c c m z z z z 0 8 z f f 1 8 1 z z z s 1 1 1 < < 1 1 1 8 8 z 8 1 < 1 < < < < v .._ _ 2.L.+X+X0.~ ;.h.x.x.x.h.w.2.2.~ *.y.s.s.s.,.# , =.' ~ , : o.L...' 1.2.2.w.w.w.w.w.4.f.k.f.f.4.f.f.w.5...' N _ ..",
"=.1 e.2.' ' =.2.2.w.w.4.4.g.f.h.l.z.f.g.f.f.g.e.3...x W L.2.0 8 9 / / * 7 <.f.a.p.-./ =.5.2.e.t.j.g.e.r.<.^ e.0.9.9.9.' N 3...z s z N N D ' ' ' ..' W { ......' ' ..............o.3.3.2.2.2.2.2.2.2.2.2.....o.O.O.3.2.2.2.0.2.2.....2.2.3.e.3.2.o...2.2.2.2.2.2.5.2.2.2.2...' ' W ..3._ < ' 0.L.0.L.o.*.z.x.wX0X9Xz.e.3.3.Y.r , V ' o.e.>X*.o , *.<.7.h.-.U U.2.o gXgXgXgXgXgXgXgXgXgXgXgXgXgXgXgXgXgXgXgXgXgXgXgXgXgXgXgXgXgXgXgXgXgXgXgXgXgXgXgXgXgXgXgXgXgXgXgXgXgXgXgXgXgXgXgXgXgXgXgXgXgXgXgXgXgXgXgXgXgXgXgXgXgXgXgXgXgXgXgXgXgXgXgXgXgXgXgXgXgXgXgXgXgXgXgXgXgXgXgXgXgXgXgXgXgXgXgXgXgXgXgXgXgXgXgXgXgXgXgXgXgXgXgXgXgXgXgXgXgXgXgXgXgXgXgXgXgXgXgXgXgXgXgXgXgXgXgXgXgXgXgXgXgXgXgXgXgXgXgXgXgXgXgXgXgXgXgXgXgXgXgXgXgXgXgXgXgXgXgXgXgXgXgXgXgXgXgXgXgXgXgXgXgXgXgXgXgXgXgXgXgXgXgXgXgXgXgXgXgXgXgXgXgXgXgXgXgXgXgXgXgXgXgXgXgXgXgXgXgXgXgXgXgXgXgXgXgXgXgXgXgXgXgXgXW A.I.2.w.g.=.[ 0 , , x.>X4.[ A 8 * [ w.w.f.f.h.h.e.w.4.^ o.%XOXR.0.2.' ' 2...N N ' ....2.2.2.2.2.o.' 2.2.3.3.3.3.o...2.2.2.2.2.2.2.2.2.2.2.2...' ' ' ' ' ....] ' ' ' ....' ' ' ' ' ' ' ' ' ' ' ' W W D N N ( ( ' ' ' ' ' ....{ F D x x z D ..2.E ~ o.o. .C.0.[ -.j.x.x.l.w.2.3.2.~ -.p.k.s.a.,.# , =.=.~ < : ' Y.....2.2.2.2.w.r.e.w.w.f.f.f.<.;.5.g.w.2...' ( _ ' ",
"=.8 e.2.' ' 1.2.9.e.e.e.e.g.h.h.h.g.g.g.h.g.w.o.......{ L.2.8 9 9 A / # 7 <.h.f.p.-.r =.5.2.0.t.t.e.=.-.^ A e.0.e.0.9.' s ' 3.' f x N D W ............X.o.................X.{ ..X.O.O.O.o.o.2.2.3.0.0.2.o...O.L.L.O.X.3.Y.Y.3.o.o.2.3.O.0.L.3...o.0.Y.Y.Y.0.3.3.0.0.0.0.2...' ' { 3.e._ 1 o.0.O.+.L.0.*.k.z.x.0Xz.f.g.3.3.e.0 7 V ..2.t.,X*.o , *.<.f.z.<.W .X2.. gXgXgXgXgXgXgXgXgXgXgXgXgXgXgXgXgXgXgXgXgXgXgXgXgXgXgXgXgXgXgXgXgXgXgXgXgXgXgXgXgXgXgXgXgXgXgXgXgXgXgXgXgXgXgXgXgXgXgXgXgXgXgXgXgXgXgXgXgXgXgXgXgXgXgXgXgXgXgXgXgXgXgXgXgXgXgXgXgXgXgXgXgXgXgXgXgXgXgXgXgXgXgXgXgXgXgXgXgXgXgXgXgXgXgXgXgXgXgXgXgXgXgXgXgXgXgXgXgXgXgXgXgXgXgXgXgXgXgXgXgXgXgXgXgXgXgXgXgXgXgXgXgXgXgXgXgXgXgXgXgXgXgXgXgXgXgXgXgXgXgXgXgXgXgXgXgXgXgXgXgXgXgXgXgXgXgXgXgXgXgXgXgXgXgXgXgXgXgXgXgXgXgXgXgXgXgXgXgXgXgXgXgXgXgXgXgXgXgXgXgXgXgXgXgXgXgXgXgXgXgXgXgXgXgXgXgXgXgXgXgXgXgXgXgXK +X#X9.w.j.2.[ 0 : , x.>X2.^ A 8 * -.w.4.w.w.w.w.w.9.w.*.2.oXR.9.2.2.=.m ..2...W ....o.2.3.0.0.0.3.3.3.3.0.L.L.H.O.o.2.0.e.w.w.2.2.3.3.e.0.2.2.2.2.2.2.3.3.o.......o.o.o.o.o.o.o.' ' 2.2.o...' D F { { D N W W ..........{ X.} { F g d s x { ..m ' o.o.| | 2.[ ;.h.x.(.g.2.o.3.2.V *.<.a.p.p.,.# , =.[ c < : ..R...{ ..2.2.w.g.g.g.w.g.g.f.f.w.2.2.e.5.2...' ( _ ' ",
"1.1 e.9.' ..2.2.e.t.e.e.e.g.g.g.g.r.g.g.g.g.5.......F ..Y.2.8 8 9 A / # 7 <.z.f.<.*.r ` 2.2.Y.Y.0.2.=.[ ^ _ Y.Y.e.0.3.' < m 2.2.N x B W { { { { B { { { } { { ....W { ..{ { { ..............o.3.0.0.0.3.2.o.3.L.m.X.O.0.R.e.2.2.2.2.2.0.0.0.3.o.3.e.Y.Y.e.0.0.0.e.Y.e.3.o...W N W o.2.0 < ' 3.+.T.oX0.^ f.z.x.l.z.h.j.0.3.e.0 7 V ' 3.^.pX*.o , *.7.f.z.<.W oX2.  gXgXgXgXgXgXgXgXgXgXgXgXgXgXgXgXgXgXgXgXgXgXgXgXgXgXgXgXgXgXgXgXgXgXgXgXgXgXgXgXgXgXgXgXgXgXgXgXgXgXgXgXgXgXgXgXgXgXgXgXgXgXgXgXgXgXgXgXgXgXgXgXgXgXgXgXgXgXgXgXgXgXgXgXgXgXgXgXgXgXgXgXgXgXgXgXgXgXgXgXgXgXgXgXgXgXgXgXgXgXgXgXgXgXgXgXgXgXgXgXgXgXgXgXgXgXgXgXgXgXgXgXgXgXgXgXgXgXgXgXgXgXgXgXgXgXgXgXgXgXgXgXgXgXgXgXgXgXgXgXgXgXgXgXgXgXgXgXgXgXgXgXgXgXgXgXgXgXgXgXgXgXgXgXgXgXgXgXgXgXgXgXgXgXgXgXgXgXgXgXgXgXgXgXgXgXgXgXgXgXgXgXgXgXgXgXgXgXgXgXgXgXgXgXgXgXgXgXgXgXgXgXgXgXgXgXgXgXgXgXgXgXgXgXgXK [.U.] <.h.9.[ 9 * , j.>X4.[ V < * ` 5.2.w.w.2.5.w.e.w.*.2.Y.0.2.2.w.2.m ' 3.o.W W ..O.o.O.3.0.0.3.3.3.3.3.3.O.O.O...2.e.e.e.w.2.2.o.3.0.0.2.2.2.0.3.2.3.3.3.......O.X.{ { o.o.....o.2.2.o...D B { { { B B D W W W ' W D F { { F g s s s g X.W m 2.@.+.b. .0.[ ;.t.~.~.e.2.o.o.o.~ r -.<.p.p.,.# , [ ~ c < : ..R.O.......2.w.g.w.w.4.w.g.f.f.w.2.2.2.2.o...' ' _ ' ",
"1.8 t.2.' ..2.e.t.e.2.2.w.g.g.r.w.g.g.e.e.e.e.3.O...D ..T.2.8 9 9 / A # 7 <.f.y.<.*.A ' 2.3.L.0.3.3.2.=.^ V Y.e.e.0.3.' 0 0 ' 2.{ g B { { { { { F F j g g } X...{ W { X.O.O.X...{ { ......{ o.0.Y.Y.Y.e.e.2.O.O.X...O.Y.^.t.2.2.2.2.e.0.0.2.2.0.0.3.3.0.e.0.e.e.g./.Y.3.o.....D o.0.2.8 z 2.0.0.T.oX0./ k.x.l.g.f.h.~.e.3.e.0 , A ' 3.^.pX*.. , -.7.p.z.<.W oX2.. gXgXgXgXgXgXgXgXgXgXgXgXgXgXgXgXgXgXgXgXgXgXgXgXgXgXgXgXgXgXgXgXgXgXgXgXgXgXgXgXgXgXgXgXgXgXgXgXgXgXgXgXgXgXgXgXgXgXgXgXgXgXgXgXgXgXgXgXgXgXgXgXgXgXgXgXgXgXgXgXgXgXgXgXgXgXgXgXgXgXgXgXgXgXgXgXgXgXgXgXgXgXgXgXgXgXgXgXgXgXgXgXgXgXgXgXgXgXgXgXgXgXgXgXgXgXgXgXgXgXgXgXgXgXgXgXgXgXgXgXgXgXgXgXgXgXgXgXgXgXgXgXgXgXgXgXgXgXgXgXgXgXgXgXgXgXgXgXgXgXgXgXgXgXgXgXgXgXgXgXgXgXgXgXgXgXgXgXgXgXgXgXgXgXgXgXgXgXgXgXgXgXgXgXgXgXgXgXgXgXgXgXgXgXgXgXgXgXgXgXgXgXgXgXgXgXgXgXgXgXgXgXgXgXgXgXgXgXgXgXgXgXgXgXgXK A.S.] w.].r.-.0 * , g.>X5.=.V < * ` w.2.e.e.t.t.e.e.w.*.2.R.9.2.5.w.2.V m 3.3.W W ..o.3.0.0.0.3.O.O.O.3.3.O.X.......2.e.j.t.e.e.e.3.3.3.3.2.2.0.3...{ ..3.3.3.......{ { { o...' o.3.0.3.o...D B { { { { B W W W W W D D { { { g g s s z {  .f z 2.@.C.V.V.C._ ;.e.t.t.e.3.3.o...^ / -.<.y.p.,.# , [ ~ c < > ..E.3.....2.w.g.g.w.<.;.4.w.w.7.4.2.2.2.2.o...' ' _ ' ",
"1.1 e.2.' ..o.3.0.5.5.w.g.l.j.g.g.x.h.e.2.2.3.3.O...D { T.2.< 9 0 ^ A # , -.f.y.<.*.0 ' 2...O.O.0.0.e.w.^ c t.e.e.e.2._ 0 8 m 2.{ g B { ......X.} } j j j } n.} } { { ..O.O.3.O.......O.O.{ { O.O.0.0.e.e.3.....o.o.3.0.e.3.2.2.2.e.t.t.0.0.0.Y.L.O...3.0.0.0.t.^.~.0.o.........3.3.-., c 2.2.0.P.E.0.^ f.l.g.g.g.e.0.3.2.w.8 , c ' 3.~.,X*.  , =.<.f.z.<.B E.2.. gXgXgXgXgXgXgXgXgXgXgXgXgXgXgXgXgXgXgXgXgXgXgXgXgXgXgXgXgXgXgXgXgXgXgXgXgXgXgXgXgXgXgXgXgXgXgXgXgXgXgXgXgXgXgXgXgXgXgXgXgXgXgXgXgXgXgXgXgXgXgXgXgXgXgXgXgXgXgXgXgXgXgXgXgXgXgXgXgXgXgXgXgXgXgXgXgXgXgXgXgXgXgXgXgXgXgXgXgXgXgXgXgXgXgXgXgXgXgXgXgXgXgXgXgXgXgXgXgXgXgXgXgXgXgXgXgXgXgXgXgXgXgXgXgXgXgXgXgXgXgXgXgXgXgXgXgXgXgXgXgXgXgXgXgXgXgXgXgXgXgXgXgXgXgXgXgXgXgXgXgXgXgXgXgXgXgXgXgXgXgXgXgXgXgXgXgXgXgXgXgXgXgXgXgXgXgXgXgXgXgXgXgXgXgXgXgXgXgXgXgXgXgXgXgXgXgXgXgXgXgXgXgXgXgXgXgXgXgXgXgXgXgXgXgXK S.+._ l.].h.-.8 * , g.>X2.' m 8 * _ e.2.w.j.(.t.e.w.w.[ 2.t.2.5.e.2.2.m m 2.2.o.W W ..0.L.L.0.3.3.0.Y.Y.0.3.O.O.O.O.2.e.t.g.t.e.w.e.2.o.2.3.3.O.X.X.o.o.O.O.3.3.o.{ { { { ..{ ..o.3.3.3.......{ F { } { B B N W ....{ ....{ B g g f s W 3.' 1 m o. .C.D.D.C.~ -.r.9.e.0.3.2.2.' Z / ,.<.y.p.-.# , [ ~ c < % ..R.O.F ..5.w.g.g.g.f.f.f.f.w.;.] 2.2.2.2...' ..' ' _ ",
"1.< e.3.......o.2.t.g.w.g.x.j.g.h.x.x.h.w.2.6...o...{ { E.2.8 8 9 ^ r # , -.f.y.<.*.0 [ 2.....o.0.e.e.e.-.0 0.R.R.0.2.[ 0 8 ` 2.m < 1 z z z z z f f s u s f g z f z z z z v M c z z M m z f f z M c c c c c 0 c c c c c z z c c _ =.2.2.2.=.o.2.o.' ' ' ' ' ' =.;.=.' ' ..' _ ' 2.2.A , E o.O.0.P.T.0.*.z.f.w.r.g.w.0.O.2.e.8 , m ' 6.Y.>X-.o 7 *.7.f.k.<.( E.2.. gXgXgXgXgXgXgXgXgXgXgXgXgXgXgXgXgXgXgXgXgXgXgXgXgXgXgXgXgXgXgXgXgXgXgXgXgXgXgXgXgXgXgXgXgXgXgXgXgXgXgXgXgXgXgXgXgXgXgXgXgXgXgXgXgXgXgXgXgXgXgXgXgXgXgXgXgXgXgXgXgXgXgXgXgXgXgXgXgXgXgXgXgXgXgXgXgXgXgXgXgXgXgXgXgXgXgXgXgXgXgXgXgXgXgXgXgXgXgXgXgXgXgXgXgXgXgXgXgXgXgXgXgXgXgXgXgXgXgXgXgXgXgXgXgXgXgXgXgXgXgXgXgXgXgXgXgXgXgXgXgXgXgXgXgXgXgXgXgXgXgXgXgXgXgXgXgXgXgXgXgXgXgXgXgXgXgXgXgXgXgXgXgXgXgXgXgXgXgXgXgXgXgXgXgXgXgXgXgXgXgXgXgXgXgXgXgXgXgXgXgXgXgXgXgXgXgXgXgXgXgXgXgXgXgXgXgXgXgXgXgXgXgXgXgXK U.L.' x.>Xh.*.9 * , g.(.;.[ V < * D 2.2.r.h.g.g.e.4.<.^ 2.0.2.2.e.0.2._ _ 2.2...N m D ' ' _ V c V _ [ ` ` _ _ ' ' ..1.2.2.2.2.2.2.1.' ' o.2.2...' ' ' ' ' ' ' ' ' ' ( ( N N N ( W ' ' W N ( ' D N D x z z 1 1 s z z N N f v z z z s 1 W ..z < m o. .Z.+X@XT.[ -.g.e.e.5.2...o.' Z *.<.y.p.p.,.# 9 [ ~ c < % ..R...B ..2.w.g.g.f.z.k.k.f.7.;.;.;.4.2.2.o.....' ' _ ",
"' < e.2.' ..' 2.w.g.g.g.r.g.w.5.g.l.x.l.g.5.2.2.o...{ { E.3.0 8 9 ^ r # * -.f.p.<.*.0 [ 4.2.=.=.2.w.w.r.-.0 0.0.0.0.2.' A < 0 z : # o % * % % * * * % % % % % % * * * * * , * * , , , : * * : : , , , 9 7 , , 9 9 , , , , , , , 8 0 0 0 0 8 < < < < 1 < < < 8 8 8 8 8 0 c 8 < < 8 0 7 , ' o.O.L.Y.L.o.*.z.f.f.g.z.f.e.2.2.e.0 , V ' 1.t.>X<.o 9 *.f.f.z.-.W E.2.o gXgXgXgXgXgXgXgXgXgXgXgXgXgXgXgXgXgXgXgXgXgXgXgXgXgXgXgXgXgXgXgXgXgXgXgXgXgXgXgXgXgXgXgXgXgXgXgXgXgXgXgXgXgXgXgXgXgXgXgXgXgXgXgXgXgXgXgXgXgXgXgXgXgXgXgXgXgXgXgXgXgXgXgXgXgXgXgXgXgXgXgXgXgXgXgXgXgXgXgXgXgXgXgXgXgXgXgXgXgXgXgXgXgXgXgXgXgXgXgXgXgXgXgXgXgXgXgXgXgXgXgXgXgXgXgXgXgXgXgXgXgXgXgXgXgXgXgXgXgXgXgXgXgXgXgXgXgXgXgXgXgXgXgXgXgXgXgXgXgXgXgXgXgXgXgXgXgXgXgXgXgXgXgXgXgXgXgXgXgXgXgXgXgXgXgXgXgXgXgXgXgXgXgXgXgXgXgXgXgXgXgXgXgXgXgXgXgXgXgXgXgXgXgXgXgXgXgXgXgXgXgXgXgXgXgXgXgXgXgXgXgXgXgXgXK U.T.=.x.x.w.*.8 * , g.(.=._ c < * A 2.2.g.l.g.h.g.4.<.^ 2.oXR.Y.0.2.2._ V ` V c 1 1 < 8 8 8 7 7 , , * * * * , , , < < < < < < 8 8 8 < < < < < < < < < < , , , , : : : > > > * * * * * * * * * , * * % % * * * * * < < < : : : < , * * , 8 * * _ o.+.P.A.A.0.-.,.f.g.g.f.4.2.2.=.Z / <.p.p.y.-.# 9 [ ~ c < % ..T.X.F ..2.5.w.4.w.f.f.k.a.p.<.7.7.w.w.2.......' ( _ ",
"D < e.2.' ..2.e.g.g.h.h.g.w.2.5.g.l.x.l.g.w.5.2.o...F { E.3.0 8 9 ^ r # * -.f.p.<.*.0 -.4.w.w.w.w.w.w.w.*.c 0.O.3.3.2._ V , * * * * * , , , 8 8 8 < < < < < < < < 8 8 8 8 8 7 8 8 8 8 , , 8 8 8 0 0 r r r r r r 0 9 0 0 8 8 9 9 8 8 9 9 8 8 9 9 8 8 8 9 , 9 9 8 7 8 8 8 0 8 , * o # # 8 o.O.C.L.L.T.9.*.k.z.x.z.0Xx.g.5.2.e.0 , V ..2.~.>X<.o 9 -.f.h.l.=.W E.2.# gXgXgXgXgXgXgXgXgXgXgXgXgXgXgXgXgXgXgXgXgXgXgXgXgXgXgXgXgXgXgXgXgXgXgXgXgXgXgXgXgXgXgXgXgXgXgXgXgXgXgXgXgXgXgXgXgXgXgXgXgXgXgXgXgXgXgXgXgXgXgXgXgXgXgXgXgXgXgXgXgXgXgXgXgXgXgXgXgXgXgXgXgXgXgXgXgXgXgXgXgXgXgXgXgXgXgXgXgXgXgXgXgXgXgXgXgXgXgXgXgXgXgXgXgXgXgXgXgXgXgXgXgXgXgXgXgXgXgXgXgXgXgXgXgXgXgXgXgXgXgXgXgXgXgXgXgXgXgXgXgXgXgXgXgXgXgXgXgXgXgXgXgXgXgXgXgXgXgXgXgXgXgXgXgXgXgXgXgXgXgXgXgXgXgXgXgXgXgXgXgXgXgXgXgXgXgXgXgXgXgXgXgXgXgXgXgXgXgXgXgXgXgXgXgXgXgXgXgXgXgXgXgXgXgXgXgXgXgXgXgXgXgXgXgXB T.L.` f.h.7.-.8 * * g.>X;.V 8 = - A 2.2.g.x.x.x.h.f.<.^ 2.#X1X;XY.2.o.m 8 , * * * 8 , , , , 7 7 7 , * # * * * * * , , , , , 7 9 9 7 7 , , , , , 7 7 , , , 7 7 * # * , * * * * * * # # # * # # * % % o o # # # # # # * , * , 8 0 8 * % . # # * m o.+.+.C.+.0.-.u.k.h.z.z.f.5.2.1.^ ^ <.p.p.y.-.# 9 ` _ c < & ..T.O.{ O.3.e.e.5.4.w.g.f.f.7.f.p.p.p.w.2.....W D N N ",
"D < e.2.' 2.2.e.g.g.l.l.h.w.2.e.g.l.x.h.w.5.2.o...W F ..E.3.0 8 9 ^ r # # *.p.<.<.*.r -.;.w.h.h.g.w.w.w.*.c 0.3.3.3.o._ 8 % o o # * * * , , 8 8 < < < < , : , < < 8 8 8 8 8 8 0 0 0 0 8 8 0 0 8 8 8 8 8 8 8 8 8 9 9 , , 7 , , 9 8 8 7 , 7 7 , , , , , , , , , 7 9 8 8 7 , 9 , * * * # 8 ..O.+.0.0.I.9.*.k.9XwX0XwX0Xl.5.2.e.0 , V ..5.^.>X<.o 7 *.w.f.g.=.F C.... gXgXgXgXgXgXgXgXgXgXgXgXgXgXgXgXgXgXgXgXgXgXgXgXgXgXgXgXgXgXgXgXgXgXgXgXgXgXgXgXgXgXgXgXgXgXgXgXgXgXgXgXgXgXgXgXgXgXgXgXgXgXgXgXgXgXgXgXgXgXgXgXgXgXgXgXgXgXgXgXgXgXgXgXgXgXgXgXgXgXgXgXgXgXgXgXgXgXgXgXgXgXgXgXgXgXgXgXgXgXgXgXgXgXgXgXgXgXgXgXgXgXgXgXgXgXgXgXgXgXgXgXgXgXgXgXgXgXgXgXgXgXgXgXgXgXgXgXgXgXgXgXgXgXgXgXgXgXgXgXgXgXgXgXgXgXgXgXgXgXgXgXgXgXgXgXgXgXgXgXgXgXgXgXgXgXgXgXgXgXgXgXgXgXgXgXgXgXgXgXgXgXgXgXgXgXgXgXgXgXgXgXgXgXgXgXgXgXgXgXgXgXgXgXgXgXgXgXgXgXgXgXgXgXgXgXgXgXgXgXgXgXgXgXgXg P.L.` g.h.7.-.8 * * g.>X2.V 8 = % V 2.2.w.x.x.x.x.l.f.*.2.OXoXR.Y.0.' z , , 8 8 7 8 8 8 8 8 8 0 0 8 8 8 8 0 0 0 0 r r r r r ~ / / A A A A r r r A A r r r r r e e e 9 9 8 8 8 0 8 8 8 8 8 8 8 0 8 0 8 9 9 8 8 8 7 9 8 9 , * * , , 7 8 # * # * z ' O.O.+.L.e.-.,.z.x.x.x.f.w.2.2.` ^ -.,.,.p.<.# 9 ` _ c < & ..T.O.{ o.e.e.e.e.w.w.g.w.w.w.p.<.p.f.w.2...W W D B x ",
"' 1 e.2.1.2.2.5.e.h.z.l.l.j.w.e.g.f.l.g.4.2.2.....W F ..E.3.8 9 9 ^ r # # *.y.<.,.*.r =.;.<.h.h.h.w.w.w.-.0 0.0.3.3.O.W 1 : o o o o o % o % * * * % % % * % # o o o % % % o o % % % o % % % % % * , , < , 8 8 0 0 0 8 8 8 , 8 8 0 0 8 8 0 0 8 8 8 8 8 8 8 9 9 8 8 8 8 , , 8 8 , , * , 8 ( O.O.0.L.R.9.*.d.9X0XqXwX9Xf.5.2.0.0 < ~ 2.e.(.>Xw.# 7 *.;.;.2.' j v.B . gXgXgXgXgXgXgXgXgXgXgXgXgXgXgXgXgXgXgXgXgXgXgXgXgXgXgXgXgXgXgXgXgXgXgXgXgXgXgXgXgXgXgXgXgXgXgXgXgXgXgXgXgXgXgXgXgXgXgXgXgXgXgXgXgXgXgXgXgXgXgXgXgXgXgXgXgXgXgXgXgXgXgXgXgXgXgXgXgXgXgXgXgXgXgXgXgXgXgXgXgXgXgXgXgXgXgXgXgXgXgXgXgXgXgXgXgXgXgXgXgXgXgXgXgXgXgXgXgXgXgXgXgXgXgXgXgXgXgXgXgXgXgXgXgXgXgXgXgXgXgXgXgXgXgXgXgXgXgXgXgXgXgXgXgXgXgXgXgXgXgXgXgXgXgXgXgXgXgXgXgXgXgXgXgXgXgXgXgXgXgXgXgXgXgXgXgXgXgXgXgXgXgXgXgXgXgXgXgXgXgXgXgXgXgXgXgXgXgXgXgXgXgXgXgXgXgXgXgXgXgXgXgXgXgXgXgXgXgXgXgXgXgXgXgXf m.X.V g.h.<.*.8 * * g.,X4.` c < * D 2.2.w.f.g.j.x.x.f.*.2.%XXXY.Y.e.2._ 8 8 0 r 9 0 r 0 8 8 8 r 8 9 , , 7 7 , , 8 8 9 9 9 0 0 r r 8 8 0 0 9 8 9 0 0 8 8 8 8 9 8 8 8 8 , 7 8 < , , , , , : * * * * * * * , * * * * * , , , , , * * * * , * * < v ' @.@.C.L.0.-.,.z.x.x.l.w.9.0.2.D A *.,.<.p.-.# 8 [ [ c < & ..E.O.F ..2.w.w.f.w.w.w.w.w.w.7.<.<.w.5.....' W N B x ",
"=.1 e.9.1.2.=.2.e.h.z.z.x.h.w.g.h.l.g.4.2.2.2.o.....W ..E.2.< 9 8 ^ r # o *.f.p.<.*.r _ 2.w.w.w.w.w.r.g.-.A 0.3.O.3.O.W ( D % o # * * , , , , , : : : : > , : : , , , , * * * * * * * * * , , , , , , , , , , , , , , , , < 8 8 8 8 8 , , 8 8 0 0 0 c c 0 0 0 0 c 0 0 0 0 0 0 8 , * A V ' 0.Y.R.E.XX9.*.k.9X9XwXqX9Xg.2.0.Y.0 < _ 2.e.^.>X4.o , *.;.2.2...k v.W o gXgXgXgXgXgXgXgXgXgXgXgXgXgXgXgXgXgXgXgXgXgXgXgXgXgXgXgXgXgXgXgXgXgXgXgXgXgXgXgXgXgXgXgXgXgXgXgXgXgXgXgXgXgXgXgXgXgXgXgXgXgXgXgXgXgXgXgXgXgXgXgXgXgXgXgXgXgXgXgXgXgXgXgXgXgXgXgXgXgXgXgXgXgXgXgXgXgXgXgXgXgXgXgXgXgXgXgXgXgXgXgXgXgXgXgXgXgXgXgXgXgXgXgXgXgXgXgXgXgXgXgXgXgXgXgXgXgXgXgXgXgXgXgXgXgXgXgXgXgXgXgXgXgXgXgXgXgXgXgXgXgXgXgXgXgXgXgXgXgXgXgXgXgXgXgXgXgXgXgXgXgXgXgXgXgXgXgXgXgXgXgXgXgXgXgXgXgXgXgXgXgXgXgXgXgXgXgXgXgXgXgXgXgXgXgXgXgXgXgXgXgXgXgXgXgXgXgXgXgXgXgXgXgXgXgXgXgXgXgXgXgXgXgXgXs m.O.D g.h.7.:.e * , g.,X4.=.~ 8 8 ' 2.2.w.5.w.h.x.x.k.=.2.;XXXR.^.e.2.' c : * , , , * * * * * 2 # # # , 7 7 , , , 7 , , , < < < * < , , , , , , , : * * * * * % * * % o o # # * * * * * * # % * * * # # * < < < 8 8 , * # , , , 8 8 , o o , ~ ' ] 9.0.Y.T.e.*.,.z.x.x.f.w.e.0.2.m A <.p.p.p.-.# 8 =.' V < & ..T.O.{ ..2.4.f.f.l.l.f.f.f.p.f.w.4.4.2.' ....' W W W ",
"' < j.2.' 2.2.2.w.h.l.z.z.z.h.h.h.h.f.g.g.w.2.3.X.F D ..E.3.8 8 9 A r # # *.7.<.-./ 0 =.2.2.2.8.8.r.w.w.=.z 3.o.o.o.o.N z D s % * * = = > * * % * : : = = > < < 1 8 8 8 8 8 < 8 8 8 8 8 < < < < < < < * * , , * * * * : * * , , , * * * * * * * * , * , , * , , , , , , , : * * * 8 ;.2.' 0.~.;X/.XXe.*.k.0XwXqX9X0Xg.2.2.t.0 < m ' 3.~.>X<.# , ^ <.4.w.' j b.W o gXgXgXgXgXgXgXgXgXgXgXgXgXgXgXgXgXgXgXgXgXgXgXgXgXgXgXgXgXgXgXgXgXgXgXgXgXgXgXgXgXgXgXgXgXgXgXgXgXgXgXgXgXgXgXgXgXgXgXgXgXgXgXgXgXgXgXgXgXgXgXgXgXgXgXgXgXgXgXgXgXgXgXgXgXgXgXgXgXgXgXgXgXgXgXgXgXgXgXgXgXgXgXgXgXgXgXgXgXgXgXgXgXgXgXgXgXgXgXgXgXgXgXgXgXgXgXgXgXgXgXgXgXgXgXgXgXgXgXgXgXgXgXgXgXgXgXgXgXgXgXgXgXgXgXgXgXgXgXgXgXgXgXgXgXgXgXgXgXgXgXgXgXgXgXgXgXgXgXgXgXgXgXgXgXgXgXgXgXgXgXgXgXgXgXgXgXgXgXgXgXgXgXgXgXgXgXgXgXgXgXgXgXgXgXgXgXgXgXgXgXgXgXgXgXgXgXgXgXgXgXgXgXgXgXgXgXgXgXgXgXgXgXgXgXd b.} D w.f.<.*.0 * * g.uX4.-.*.r 8 ` 2.2.4.f.h.x.x.x.z.=.o.2X;X~.~.~.' _ *.8 % > < 8 < , , , 7 , , , , 7 7 , , , 9 9 < < < < < < < < < < < < < < 7 , * * * * * * , 7 , * * * , , * * : , * * * , , , * * , , , , , , , , , , , , , * * * % > ' ' 2.q.L.C.P.e.*.<.h.f.h.f.h.t.0.2.V r <.f.p.y.:.# 9 [ _ c < % ' R.3.{ ..1.4.f.f.k.z.z.f.f.a.k.f.f.f.4.=.' ' ' ' _ ..",
"' < j.2.' 1.2.4.w.h.l.z.z.z.z.z.z.h.z.f.f.f.w.2.{ H ' ..E.2.8 9 r A r o # *.f.7.<.*.r =.2.2.w.r.f.g.f.f.-.z 2.o.2.O.o.m < D N < < 8 z z z 1 8 8 1 8 8 s s z z 1 z z z z z z z z z z z z z v N m m m m m m A V A A c z z m m c c c 0 c 0 c c m c 0 0 0 0 8 8 0 8 8 8 < < > < < , 8 ^ 4.-.( 0.t.^.-XE.9.J k.9XwXwX0Xx.j.e.t.t.0 : c ' 2.~.>X<.o , ^ 4.w.g.' j b.W o gXgXgXgXgXgXgXgXgXgXgXgXgXgXgXgXgXgXgXgXgXgXgXgXgXgXgXgXgXgXgXgXgXgXgXgXgXgXgXgXgXgXgXgXgXgXgXgXgXgXgXgXgXgXgXgXgXgXgXgXgXgXgXgXgXgXgXgXgXgXgXgXgXgXgXgXgXgXgXgXgXgXgXgXgXgXgXgXgXgXgXgXgXgXgXgXgXgXgXgXgXgXgXgXgXgXgXgXgXgXgXgXgXgXgXgXgXgXgXgXgXgXgXgXgXgXgXgXgXgXgXgXgXgXgXgXgXgXgXgXgXgXgXgXgXgXgXgXgXgXgXgXgXgXgXgXgXgXgXgXgXgXgXgXgXgXgXgXgXgXgXgXgXgXgXgXgXgXgXgXgXgXgXgXgXgXgXgXgXgXgXgXgXgXgXgXgXgXgXgXgXgXgXgXgXgXgXgXgXgXgXgXgXgXgXgXgXgXgXgXgXgXgXgXgXgXgXgXgXgXgXgXgXgXgXgXgXgXgXgXgXgXgXgXgXs b.} D e.w.<.*.0 * * g.uX5.;.-.r 8 ` 2.2.w.f.x.0Xx.x.k.=.2.2X;X;X^.t.' V 2._ f s z z z 0 0 c c 0 8 < 8 8 8 1 1 < < 8 0 0 0 0 z z z 8 0 c c 0 8 8 0 0 8 1 < 8 8 < < 8 < > > , , > > < < < < < < 8 8 8 < < < < 1 < < = * , < , : : < < < 8 < z 2.' 2.R.R.T.T.t.*.,.h.h.f.h.x.j.0.2.V r <.p.p.p.-.o , ~ m c < % ' /.3.{ ..2.5.f.f.k.z.z.f.f.k.k.k.k.f.w.4.2.2.2...' 2.",
"=.8 j.2.' =.2.4.w.f.z.z.z.f.z.z.k.k.z.z.z.z.f.2.' D ' ..E.3.8 8 9 r 0 o # -.f.p.<.*.A ' ..o.w.h.h.f.f.f.^ 8 2.2.2.2...c = x ..z < < z z z M D D v m N N D D N N N N ( ( ( W ..............o.o.......1.2.2.2.2.2.2...' ' ..o.=.' [ =.=.;.=.2.2.2.2.2.2.=.[ =.2.2.2.=.' _ N v z z c ;.4.c m 9.e.j./.XX9.J k.0XwXwXx.z.e.0.t.t.0 , c ' 2.g.>X<.o , ^ 4.w.g.' j v.g o . gXgXgXgXgXgXgXgXgXgXgXgXgXgXgXgXgXgXgXgXgXgXgXgXgXgXgXgXgXgXgXgXgXgXgXgXgXgXgXgXgXgXgXgXgXgXgXgXgXgXgXgXgXgXgXgXgXgXgXgXgXgXgXgXgXgXgXgXgXgXgXgXgXgXgXgXgXgXgXgXgXgXgXgXgXgXgXgXgXgXgXgXgXgXgXgXgXgXgXgXgXgXgXgXgXgXgXgXgXgXgXgXgXgXgXgXgXgXgXgXgXgXgXgXgXgXgXgXgXgXgXgXgXgXgXgXgXgXgXgXgXgXgXgXgXgXgXgXgXgXgXgXgXgXgXgXgXgXgXgXgXgXgXgXgXgXgXgXgXgXgXgXgXgXgXgXgXgXgXgXgXgXgXgXgXgXgXgXgXgXgXgXgXgXgXgXgXgXgXgXgXgXgXgXgXgXgXgXgXgXgXgXgXgXgXgXgXgXgXgXgXgXgXgXgXgXgXgXgXgXgXgXgXgXgXgXgXgXgXgXgXgXgXgXs n.} B w.w.<.-.r : : g.,X4.-.^ 0 , D 2.2.w.l.l.x.x.h.f.-.0.3X4X,X^.e.[ c 2.2.( z B N ' ..o.2.2.2.' ..' ' ' ....' ' ' ' =.=.=.' ' ' 4.5.w.5.2.=.1.2.2...' ' _ ` _ ~ D _ N B z M m N _ _ _ _ ' ' ' ' ' ' D D N _ ' N N N m N N m z z z s 8 s _ 2.^ -.t.-XE.U.Y.^ ,.h.h.g.h.j.t.3.2.~ / <.p.p.p.*.# , ~ m z < % ' /.O.F ....4.w.f.z.z.z.f.f.f.k.k.k.k.g.w.4.2.1...' 3.",
"2.8 j.4.=.=.=.2.w.g.h.h.z.f.z.z.z.f.k.k.z.z.f.4.1.' ' ..E.3.8 8 8 0 r # # -.f.f.p.-.A ' ....5.h.x.f.f.<.^ z e.3.2.2.' c < z ..W z < z z v N D D D N N D { { { D ..............X.O.O.O.X...X.X.{ { X.3.2.2.2.2.2.3.2...........' ' 2.2.2.2.3.3.3.0.0.e.2.2.e.j.j.j.e.e.3.o.{ D B _ 4.-.8 _ 2.2.e.Y.R.9./ k.wXwXyXx.g.5.3.0.e.0 , V =.5.g.>X<.# 7 *.4.w.w.[ j v.g o . gXgXgXgXgXgXgXgXgXgXgXgXgXgXgXgXgXgXgXgXgXgXgXgXgXgXgXgXgXgXgXgXgXgXgXgXgXgXgXgXgXgXgXgXgXgXgXgXgXgXgXgXgXgXgXgXgXgXgXgXgXgXgXgXgXgXgXgXgXgXgXgXgXgXgXgXgXgXgXgXgXgXgXgXgXgXgXgXgXgXgXgXgXgXgXgXgXgXgXgXgXgXgXgXgXgXgXgXgXgXgXgXgXgXgXgXgXgXgXgXgXgXgXgXgXgXgXgXgXgXgXgXgXgXgXgXgXgXgXgXgXgXgXgXgXgXgXgXgXgXgXgXgXgXgXgXgXgXgXgXgXgXgXgXgXgXgXgXgXgXgXgXgXgXgXgXgXgXgXgXgXgXgXgXgXgXgXgXgXgXgXgXgXgXgXgXgXgXgXgXgXgXgXgXgXgXgXgXgXgXgXgXgXgXgXgXgXgXgXgXgXgXgXgXgXgXgXgXgXgXgXgXgXgXgXgXgXgXgXgXgXgXgXgXs X.} B 0.e.w.-.r : : e.>X;.^ A 8 * V 2.;.w.z.h.f.g.g.f.*.0.6X4X<X^.9.[ c ' 2...B D D ..0.0.3.3.3.3.3.2.2.3.3.O.....3.e.9.e.e.2.2.e.x.(.^.t.3.3.0.e.0.0.3.3.3.3.2.2.2.3.X.{ { ..........1.o.o...........{ { ......................B x g s N 2.2.V [ 9.Y.T.T.0.^ ,.h.h.g.g.g.3.2.3.` A <.y.p.p.*.# 9 ~ m c < % ( T.X.F ....2.w.f.k.k.k.f.f.f.k.z.k.k.f.f.4.=._ _ ' 3.",
"2.8 g.4.=.=.=.4.g.f.f.f.z.l.z.z.k.f.k.k.z.z.f.4.2.=.' ..E.3.8 8 8 A A # * -.f.f.p.-.A ' 2...2.g.x.f.f.7.*.c e.2.2.2.' A 8 1 D { N z s s x B B x B z s B { } { x W { { F { { } { } X.X.{ { X.} } { O.3.3.3.3...O.0.3.X...{ ........2.2.2.2.3.3.3.3.3.3.2.2.e.g.t.t.e.e.0.O.{ B B ' 2.^ 8 ' 2.9.2.0.Y.0./ f.wXyXx.l.g.3.2.3.e.0 7 ~ =.5.g.>X-.o 7 *.<.<.w.-.g v.g o . gXgXgXgXgXgXgXgXgXgXgXgXgXgXgXgXgXgXgXgXgXgXgXgXgXgXgXgXgXgXgXgXgXgXgXgXgXgXgXgXgXgXgXgXgXgXgXgXgXgXgXgXgXgXgXgXgXgXgXgXgXgXgXgXgXgXgXgXgXgXgXgXgXgXgXgXgXgXgXgXgXgXgXgXgXgXgXgXgXgXgXgXgXgXgXgXgXgXgXgXgXgXgXgXgXgXgXgXgXgXgXgXgXgXgXgXgXgXgXgXgXgXgXgXgXgXgXgXgXgXgXgXgXgXgXgXgXgXgXgXgXgXgXgXgXgXgXgXgXgXgXgXgXgXgXgXgXgXgXgXgXgXgXgXgXgXgXgXgXgXgXgXgXgXgXgXgXgXgXgXgXgXgXgXgXgXgXgXgXgXgXgXgXgXgXgXgXgXgXgXgXgXgXgXgXgXgXgXgXgXgXgXgXgXgXgXgXgXgXgXgXgXgXgXgXgXgXgXgXgXgXgXgXgXgXgXgXgXgXgXgXgXgXgXs  .} g 3.w.w.-.9 : : e.>X2.~ 0 * % V 2.2.w.l.l.f.w.w.f.=.0.3X4X,Xj.w.[ c V 2.o.W D W o.Y.0.3.2.3.3.3.2...X.X.{ { X.3.2.2.3.e.2.2.e.~.(.g.e.2.0.Y.e.3.O.O.3.3.3.3.2.2.O.{ } } X.......2.3.3.....{ ..{ { G } { { B B { ......o.O...B g g x ..0.' V =.9.2.L.E.R.^ <.f.g.g.g.g.2.3.3.` r <.y.p.p.-.# , ~ m c < % ( L.X.F ..2.4.g.f.f.k.k.z.z.k.z.z.k.k.z.g.4.[ D N W 3.",
"1.8 g.4.=.;.2.w.g.h.f.f.h.h.h.z.h.k.k.z.z.z.f.4.2.=.' ..E.3.1 8 8 A A o * -.f.p.<.-./ ..2.o.2.g.f.g.g.w.[ z 0.2.2.o...A , 1 B ..D 8 1 s x B B B B f s g { } F g F F F { } } { } } { { { X.X.} } { X.O.O.O...{ ..3.O.X.X.{ { F ..O.3.O.....X.O.O.O.O.o.2.2.2.5.2.2.2.0.3.o.{ W ..o.2.^ < ' 2.2.2.2.0.2./ f.x.x.g.g.j.e.2.2.e.0 7 ^ ;.5.g.].*.o 7 *.<.<.f.-.B v.g o . gXgXgXgXgXgXgXgXgXgXgXgXgXgXgXgXgXgXgXgXgXgXgXgXgXgXgXgXgXgXgXgXgXgXgXgXgXgXgXgXgXgXgXgXgXgXgXgXgXgXgXgXgXgXgXgXgXgXgXgXgXgXgXgXgXgXgXgXgXgXgXgXgXgXgXgXgXgXgXgXgXgXgXgXgXgXgXgXgXgXgXgXgXgXgXgXgXgXgXgXgXgXgXgXgXgXgXgXgXgXgXgXgXgXgXgXgXgXgXgXgXgXgXgXgXgXgXgXgXgXgXgXgXgXgXgXgXgXgXgXgXgXgXgXgXgXgXgXgXgXgXgXgXgXgXgXgXgXgXgXgXgXgXgXgXgXgXgXgXgXgXgXgXgXgXgXgXgXgXgXgXgXgXgXgXgXgXgXgXgXgXgXgXgXgXgXgXgXgXgXgXgXgXgXgXgXgXgXgXgXgXgXgXgXgXgXgXgXgXgXgXgXgXgXgXgXgXgXgXgXgXgXgXgXgXgXgXgXgXgXgXgXgXgXs  .Y a O.2.=./ 9 , , g.uXw.^ 0 , * V 2.2.g.x.l.g.w.w.i.-.3.OX-X^.g.w.=.c V o.o.' ' ' 2.0.0.3.2.3.3.3.O.....{ { X.O.O.o.o.2.0.2.2.e.e.0.0.2.3.0.L.L.O.X.{ ..o.2.2.2...{ { } X.O...' ' 2.3.3...{ { ..} } G G { } g g { { { { { { F g g g ..O.3.N z 2.0.O.L.E.E.` -.f.r.g.g.g.0.3.2.Z r ,.p.p.p.-.# , ~ E c , % ( L.X.F ..2.4.g.f.f.k.k.z.z.f.f.f.k.k.z.f.w.=._ _ W O.",
"=., g.4.-.;.w.w.w.f.f.f.h.f.h.h.h.h.z.z.z.z.f.4.2.' ' ..E.3.8 8 9 A A o * -.f.<.<.*.^ 1.2.2.e.g.w.r.w.w.[ z 3.2.0.3.2.~ , 1 ( ..' z s z D B D F F D B F } } j { } { } X.O.m.O.{ { { { X.O.O.O.X.} O.O.m.O.O.X.O.H.O.X.X.{ { { O.L.Y.L.3.O.O.O.O.O.3.O.0.e.2.2.2.2.2.2.2...W ..o.3.0.=.8 ' 2.2.o.' ..o.[ f.f.g.j.j.(.t.2.5.g.r , A =.5.g.x.*.o 9 *.<.7.f.-.B v.g o . gXgXgXgXgXgXgXgXgXgXgXgXgXgXgXgXgXgXgXgXgXgXgXgXgXgXgXgXgXgXgXgXgXgXgXgXgXgXgXgXgXgXgXgXgXgXgXgXgXgXgXgXgXgXgXgXgXgXgXgXgXgXgXgXgXgXgXgXgXgXgXgXgXgXgXgXgXgXgXgXgXgXgXgXgXgXgXgXgXgXgXgXgXgXgXgXgXgXgXgXgXgXgXgXgXgXgXgXgXgXgXgXgXgXgXgXgXgXgXgXgXgXgXgXgXgXgXgXgXgXgXgXgXgXgXgXgXgXgXgXgXgXgXgXgXgXgXgXgXgXgXgXgXgXgXgXgXgXgXgXgXgXgXgXgXgXgXgXgXgXgXgXgXgXgXgXgXgXgXgXgXgXgXgXgXgXgXgXgXgXgXgXgXgXgXgXgXgXgXgXgXgXgXgXgXgXgXgXgXgXgXgXgXgXgXgXgXgXgXgXgXgXgXgXgXgXgXgXgXgXgXgXgXgXgXgXgXgXgXgXgXgXgXgXs } Y } oX/.2./ 9 , , g.pXw.[ 0 , * V 2.2.g.x.x.l.r.w.4.*.o.R.R.^.j.g.2.c ` 2.2...' ' o.3.0.0.0.0.Y.0.3.O...{ } X.O.O.2.3.3.0.e.e.e.e.0.0.3.3.0.0.L.3.X.....o.3.2.o.' B F { X.....' ' 2.3.3...{ ....X.{ } } } } { { ..X...{ { F g g F { o.3.3.v z 3.L.3.O.m.0._ -.w.w.g.g.j.e.0.2.V r ,.p.p.p.,.# : _ _ c , % ( T.X.F ..2.4.w.f.z.k.k.k.k.a.f.f.z.k.k.g.w.2.' _ W O.",
"=.: e.2.' ' ' 2.w.f.k.k.z.f.w.f.f.k.s.k.z.f.f.;.-.^ ' o.E.3.1 8 9 A r o # *.7.<.<.*.A ..2.2.e.e.2.;.=.;.V 0 2.w.w.9.2.~ , 8 ~ c < > < < 1 < 1 < < < < < < < < < < 1 1 < < < < < < < < 8 8 0 z z 0 0 0 0 z s f z z z z z z z m M m m m ( ( m m m E E -.=.=.-.-.-.-.*.^ V V V ~ _ ` =.V c [ 2.' ..o.O.o.~ w.h.g.g.g.~.0.2.2.g.c * 0 ` 2.g.j.-.o 7 *.4.f.f.' d } g .   gXgXgXgXgXgXgXgXgXgXgXgXgXgXgXgXgXgXgXgXgXgXgXgXgXgXgXgXgXgXgXgXgXgXgXgXgXgXgXgXgXgXgXgXgXgXgXgXgXgXgXgXgXgXgXgXgXgXgXgXgXgXgXgXgXgXgXgXgXgXgXgXgXgXgXgXgXgXgXgXgXgXgXgXgXgXgXgXgXgXgXgXgXgXgXgXgXgXgXgXgXgXgXgXgXgXgXgXgXgXgXgXgXgXgXgXgXgXgXgXgXgXgXgXgXgXgXgXgXgXgXgXgXgXgXgXgXgXgXgXgXgXgXgXgXgXgXgXgXgXgXgXgXgXgXgXgXgXgXgXgXgXgXgXgXgXgXgXgXgXgXgXgXgXgXgXgXgXgXgXgXgXgXgXgXgXgXgXgXgXgXgXgXgXgXgXgXgXgXgXgXgXgXgXgXgXgXgXgXgXgXgXgXgXgXgXgXgXgXgXgXgXgXgXgXgXgXgXgXgXgXgXgXgXgXgXgXgXgXgXgXgXgXgXs  .} { 6X3Xo.r 8 , < g.uXw.-.A 8 * V 2.2.w.g.x.j.w.4.<.V 3.R.Y.~.j.w.2.V / [ ^ A A A c A A A V A c 0 0 8 8 0 0 0 0 0 A A A A A V ^ ^ ^ V V V V V 0 0 8 8 8 8 8 8 8 8 8 8 8 0 0 c c m V V V V D A M M z M M z z M M M M m v v v z f z v N 2.' z B O.+. .O.n.H.N ;.w.w.f.g.t.3.o.2.A r ,.y.y.<.*.o , ~ _ A 8 % ( T.X.F ..2.5.f.f.f.g.f.f.f.f.f.f.k.k.k.g.4.=.` _ ' o.",
"=.: e.2.' ' ' 2.4.h.z.z.z.f.w.w.f.f.f.z.z.f.4.;.=.-.' O.).3.8 8 8 A 0 o * -.p.p.7.-./ ' 3.2.5.2.2.2.2.2.^ z 9.t.j.j.9.~ 8 * o . . O O O O O O O O O     . . . o o . . . . o o o o . . . o . . . . . . o o O o o o o o o o o o o * * * # # # # o # # . . o o o # * * * * * * o o . # * < ` 2.2.0.0.L.3.^ g.h.g.w.w.e.3.3.2.g.r , 0 Z 1.g.(.=.o 7 =.4.w.g.=.g n.g .   gXgXgXgXgXgXgXgXgXgXgXgXgXgXgXgXgXgXgXgXgXgXgXgXgXgXgXgXgXgXgXgXgXgXgXgXgXgXgXgXgXgXgXgXgXgXgXgXgXgXgXgXgXgXgXgXgXgXgXgXgXgXgXgXgXgXgXgXgXgXgXgXgXgXgXgXgXgXgXgXgXgXgXgXgXgXgXgXgXgXgXgXgXgXgXgXgXgXgXgXgXgXgXgXgXgXgXgXgXgXgXgXgXgXgXgXgXgXgXgXgXgXgXgXgXgXgXgXgXgXgXgXgXgXgXgXgXgXgXgXgXgXgXgXgXgXgXgXgXgXgXgXgXgXgXgXgXgXgXgXgXgXgXgXgXgXgXgXgXgXgXgXgXgXgXgXgXgXgXgXgXgXgXgXgXgXgXgXgXgXgXgXgXgXgXgXgXgXgXgXgXgXgXgXgXgXgXgXgXgXgXgXgXgXgXgXgXgXgXgXgXgXgXgXgXgXgXgXgXgXgXgXgXgXgXgXgXgXgXgXgXgXgXgXs  .} } 6X3XO.A 9 , , e.(.4.[ c 7 * V 2.o.2.<.j.j.e.4.<.~ 2.E.Y.~.~.e.=.c , # # % % o o . o o o o o o o o o o o . . o o o o o o . . o o o o o o o o o o o . . o o . . . . . . . . o o o . . o o o o . . o o o o % % % * * % % % # # o o % . % < z o.+.+.C.L.L._ ;.r.w.w.g.t.3.o.2.A r <.p.y.<.*.O , [ ` A 9 * _ E...D ..4.f.g.f.h.f.p.p.f.k.f.f.z.z.f.w.4.-.` _ ' 3.",
"=.: e.2.' ' [ ;.4.h.z.z.z.f.w.f.g.f.f.f.f.4.;.=.=.[ ' o.!.3.8 8 8 A 0 # # -.f.f.f.-.^ ' 3.2.3.2.2.0.9.2.c 8 5.t.j.e.2.~ 8 * . o # , , , , , , , , , , , , , , * * , * * , , , , , , , , , , < 8 8 8 8 8 9 7 7 7 7 7 7 7 9 9 9 9 9 9 9 q q q q 7 7 9 8 8 0 0 0 0 r A A A r r 0 8 , # * 0 ` 2.2.e.Y.R.3.^ g.h.g.w.5.2.3.3.2.f.r , 0 V 2.e.(.-.o 8 ;.4.4.w.' s } g $ # gXgXgXgXgXgXgXgXgXgXgXgXgXgXgXgXgXgXgXgXgXgXgXgXgXgXgXgXgXgXgXgXgXgXgXgXgXgXgXgXgXgXgXgXgXgXgXgXgXgXgXgXgXgXgXgXgXgXgXgXgXgXgXgXgXgXgXgXgXgXgXgXgXgXgXgXgXgXgXgXgXgXgXgXgXgXgXgXgXgXgXgXgXgXgXgXgXgXgXgXgXgXgXgXgXgXgXgXgXgXgXgXgXgXgXgXgXgXgXgXgXgXgXgXgXgXgXgXgXgXgXgXgXgXgXgXgXgXgXgXgXgXgXgXgXgXgXgXgXgXgXgXgXgXgXgXgXgXgXgXgXgXgXgXgXgXgXgXgXgXgXgXgXgXgXgXgXgXgXgXgXgXgXgXgXgXgXgXgXgXgXgXgXgXgXgXgXgXgXgXgXgXgXgXgXgXgXgXgXgXgXgXgXgXgXgXgXgXgXgXgXgXgXgXgXgXgXgXgXgXgXgXgXgXgXgXgXgXgXgXgXgXgXgXa b.} { 3X$Xo.c 8 , , w.j.;.^ c , * V 2.....2.t.R.e.4.<.` 2.E.L.0.e.w.[ 0 , # * 8 8 8 0 9 8 8 9 9 9 e e e e 0 9 9 9 9 9 9 9 9 9 8 8 9 9 9 0 9 0 8 8 8 8 8 8 8 8 8 8 , , , , , , 7 7 7 , 7 7 7 9 9 9 7 , , , , , , 9 9 9 9 7 7 7 7 7 , # * . o 8 0 o.+.+.P.P.L._ ;.r.w.g.e.2...o.2.A r <.p.y.y.*.o , [ [ ~ 9 * ' /.o.N =.w.f.h.z.z.k.f.p.f.k.k.f.f.f.w.4.4.-.^ ~ ( 3.",
"=.* e.2.' ' =.;.w.f.k.k.h.f.g.f.f.h.f.g.w.4.4.2.' ' ' ..E.3.1 8 8 A 0 # * -.f.p.<.*.^ ..2...o.3.e.0.0.2.c 0 e.e.w.2.2.' 0 * * 9 8 < 1 1 1 1 1 1 1 1 1 < < < < < < < < , 1 0 9 9 9 9 8 8 8 9 0 0 9 9 e r r A A c 0 0 0 r r r r r 0 0 0 r r r r r r r A A A A r r r *.^ [ [ / / A r 9 7 0 V 2.3.Y.Y.Y.2.^ g.l.g.e.e.5.3.3.5.w.9 , 0 _ 2.g.^.;.o 8 =.2.5.w.' s } g % , gXgXgXgXgXgXgXgXgXgXgXgXgXgXgXgXgXgXgXgXgXgXgXgXgXgXgXgXgXgXgXgXgXgXgXgXgXgXgXgXgXgXgXgXgXgXgXgXgXgXgXgXgXgXgXgXgXgXgXgXgXgXgXgXgXgXgXgXgXgXgXgXgXgXgXgXgXgXgXgXgXgXgXgXgXgXgXgXgXgXgXgXgXgXgXgXgXgXgXgXgXgXgXgXgXgXgXgXgXgXgXgXgXgXgXgXgXgXgXgXgXgXgXgXgXgXgXgXgXgXgXgXgXgXgXgXgXgXgXgXgXgXgXgXgXgXgXgXgXgXgXgXgXgXgXgXgXgXgXgXgXgXgXgXgXgXgXgXgXgXgXgXgXgXgXgXgXgXgXgXgXgXgXgXgXgXgXgXgXgXgXgXgXgXgXgXgXgXgXgXgXgXgXgXgXgXgXgXgXgXgXgXgXgXgXgXgXgXgXgXgXgXgXgXgXgXgXgXgXgXgXgXgXgXgXgXgXgXgXgXgXgXgXgXj m. .} $X#Xo.c 8 , , 4.j.-.V c < * V 2...2.5.0.e.0.w.4.` 2.oXL.2.2.2.' m 9 8 r A A A A r r r r r r r r r r A r r r r / / / / / A A r J A A r r 0 0 0 0 0 0 0 0 0 0 8 8 8 8 8 8 9 9 9 9 9 r r r r r r 9 8 8 0 0 0 r r r r r r c c r r r 8 9 , 8 < ' 0.L.P.Y.L.V ;.g.w.g.w.2...o.2.A r ,.,.,.y.-.o , ` _ A 9 * ' /.2.' 2.w.f.f.k.k.z.k.f.k.k.k.k.f.4.2.5.4.;.^ E N o.",
"=.* e.2.=.2.2.4.w.f.f.f.f.h.f.f.g.j.h.g.w.g.f.2.1.' ' ..T.2.1 8 8 A r , * =.f.<.-./ A ..3...o.2.3.2.2.2.V 8 2.2.2.2.2.' z < * , , , < < , , < < < , , , , , , 8 8 8 < < 8 0 9 9 9 0 8 9 9 8 8 8 8 8 8 0 0 0 0 0 0 0 0 0 0 0 0 0 0 0 0 r r r 0 0 0 0 0 0 r r r r r A A r / / A A r 9 8 A c 2.2.e.Y.Y.2.~ g.h.e.g.e.e.3.3.2.5.9 * 0 ' 5.~.(.-.# 8 *.2.5.e.' u j d . . gXgXgXgXgXgXgXgXgXgXgXgXgXgXgXgXgXgXgXgXgXgXgXgXgXgXgXgXgXgXgXgXgXgXgXgXgXgXgXgXgXgXgXgXgXgXgXgXgXgXgXgXgXgXgXgXgXgXgXgXgXgXgXgXgXgXgXgXgXgXgXgXgXgXgXgXgXgXgXgXgXgXgXgXgXgXgXgXgXgXgXgXgXgXgXgXgXgXgXgXgXgXgXgXgXgXgXgXgXgXgXgXgXgXgXgXgXgXgXgXgXgXgXgXgXgXgXgXgXgXgXgXgXgXgXgXgXgXgXgXgXgXgXgXgXgXgXgXgXgXgXgXgXgXgXgXgXgXgXgXgXgXgXgXgXgXgXgXgXgXgXgXgXgXgXgXgXgXgXgXgXgXgXgXgXgXgXgXgXgXgXgXgXgXgXgXgXgXgXgXgXgXgXgXgXgXgXgXgXgXgXgXgXgXgXgXgXgXgXgXgXgXgXgXgXgXgXgXgXgXgXgXgXgXgXgXgXgXgXgXgXgXgXgXf m.| j P.A.{ m 0 < , w.j.=.D c 8 * m ......3.3.3.9.g.f.^ 2.U.L.o.2.2._ m 8 8 0 0 0 0 0 9 9 9 e e e e r r r r 0 0 r r r r r r r r r r r r r r r 0 0 0 0 0 8 0 0 0 0 0 9 8 8 8 8 8 0 0 0 0 0 0 0 0 0 0 0 0 8 0 0 0 0 0 0 9 0 0 0 0 0 0 0 8 9 * 0 z ( 0.L.P.P.0.~ ;.g.g.g.e.2.o.3.2.A r -.,.y.p.-.o , ~ ~ c , * ' R.3...2.w.f.f.k.k.z.z.k.k.k.z.f.f.4.5.e.5.2.' _ W O.",
"=.* e.2.1.2.5.w.w.f.f.f.z.h.f.f.g.g.g.g.h.f.g.5.1.' ' ..E.3.8 8 8 A 0 , * -.w.<.-./ A ..3...2.2.2.3.2.2.Z 0 =.o.o.2.2.D z M % % # # * * * * * * * * # # # # # * * * * * * * * * * : * * * * * * * * , , , , , , , , , , , , < , , , , 8 8 8 8 < , , , , , 8 8 8 8 8 8 8 8 8 8 < , , c ` m 2.2.3.0.3.o.A w.g.g.~.~.t.3.o.2.5.9 * 0 1.0.^.^.-.# 8 -.2.5.w.' u } g . . $ gXgXgXgXgXgXgXgXgXgXgXgXgXgXgXgXgXgXgXgXgXgXgXgXgXgXgXgXgXgXgXgXgXgXgXgXgXgXgXgXgXgXgXgXgXgXgXgXgXgXgXgXgXgXgXgXgXgXgXgXgXgXgXgXgXgXgXgXgXgXgXgXgXgXgXgXgXgXgXgXgXgXgXgXgXgXgXgXgXgXgXgXgXgXgXgXgXgXgXgXgXgXgXgXgXgXgXgXgXgXgXgXgXgXgXgXgXgXgXgXgXgXgXgXgXgXgXgXgXgXgXgXgXgXgXgXgXgXgXgXgXgXgXgXgXgXgXgXgXgXgXgXgXgXgXgXgXgXgXgXgXgXgXgXgXgXgXgXgXgXgXgXgXgXgXgXgXgXgXgXgXgXgXgXgXgXgXgXgXgXgXgXgXgXgXgXgXgXgXgXgXgXgXgXgXgXgXgXgXgXgXgXgXgXgXgXgXgXgXgXgXgXgXgXgXgXgXgXgXgXgXgXgXgXgXgXgXgXgXgXgXgXgXf m. .j U.U.X.D 0 < , f.(.2._ z < * D o.{ ..2.2.3.e.f.f.^ o.U.L.3.3.2._ _ 8 , * * , , , , , , , 7 , , , , , , , , , , , , , , , , , , , , , , , , , , , , , , , , , , : : : : : , , , , , , , 8 < < < , : * : , < , , < 8 8 8 8 8 7 7 , , * * ` m ( 3.L.C.L.0.~ -.g.g.g.g.e.0.0.2.~ r -.<.p.f.*.@ , ~ _ c < * ' Y...' 2.<.f.f.k.z.z.h.f.z.z.f.g.g.f.g.e.9.2.' ' ..3.",
"' * e.w.1.2.;.w.f.f.f.z.z.f.f.h.h.w.4.f.l.z.g.w.2.' ..o.E.3.8 8 8 A r , * *.<.-.-./ A ..3.2.2.0.3.0.2.2.V 0 2.2.2.2.2.m z ..z > > < 1 1 1 1 z z s 1 1 1 < < < > > < > > < < < < < < > < < > > < 8 8 8 8 < < < < < < < < < < < < < < < 1 < < < < < , , , 8 8 0 0 0 0 8 8 8 8 8 8 8 c =.2.m 2.2.2.O.3.2.V 4.g.e.t.e.5.O.o.2.w.8 * c ..5.^.^.;.o 9 -.;.;.2.' u } g o o o gXgXgXgXgXgXgXgXgXgXgXgXgXgXgXgXgXgXgXgXgXgXgXgXgXgXgXgXgXgXgXgXgXgXgXgXgXgXgXgXgXgXgXgXgXgXgXgXgXgXgXgXgXgXgXgXgXgXgXgXgXgXgXgXgXgXgXgXgXgXgXgXgXgXgXgXgXgXgXgXgXgXgXgXgXgXgXgXgXgXgXgXgXgXgXgXgXgXgXgXgXgXgXgXgXgXgXgXgXgXgXgXgXgXgXgXgXgXgXgXgXgXgXgXgXgXgXgXgXgXgXgXgXgXgXgXgXgXgXgXgXgXgXgXgXgXgXgXgXgXgXgXgXgXgXgXgXgXgXgXgXgXgXgXgXgXgXgXgXgXgXgXgXgXgXgXgXgXgXgXgXgXgXgXgXgXgXgXgXgXgXgXgXgXgXgXgXgXgXgXgXgXgXgXgXgXgXgXgXgXgXgXgXgXgXgXgXgXgXgXgXgXgXgXgXgXgXgXgXgXgXgXgXgXgXgXgXgXgXgXgXgXgXg m. .U U.U.O.D 0 < , f.>X5.` z > * _ 3...2.5.e.t.e.f.f.^ o.U.T.Y.e.3.' 1._ 1 * , , , < < < 8 8 8 , , , , , , , 7 7 < < < < < 8 8 8 8 8 8 8 8 < < 8 8 8 8 8 8 8 8 < < , , : : * * , , , , , , , , , , , , : * , , , , , 8 8 8 8 8 8 8 , * < c 2.( W o.O.m.L.L.~ -.g.h.j.g.t.L.0.3.^ r *.<.p.p.*.o , [ ' ~ , * ' 0...' ;.7.f.z.z.z.h.f.f.f.z.g.g.h.h.g.r.9.2.......3.",
"' * g.e.' 2.2.4.w.f.z.z.f.f.f.z.h.g.f.f.z.z.f.w.;.=.' o.R.2.8 8 8 r r , , *.<.,.-./ A ' 2.2.2.w.2.0.5.2.D 8 e.2.2.2.2.c z 2...s z z z f f x B B B B N D N B x N B B B B N N m z z z z z z z z z N _ _ _ _ D D D m m m m m m _ ` [ [ [ ~ m v z v m m N N _ ' =.=.=.2.' ` _ _ N B N ' 3.' N 2.2...O.O...~ w.w.5.2.3.3.3.3.2.w.8 * 8 V 1.g.(.*.o 9 *.;.-.;._ u } g . . gXgXgXgXgXgXgXgXgXgXgXgXgXgXgXgXgXgXgXgXgXgXgXgXgXgXgXgXgXgXgXgXgXgXgXgXgXgXgXgXgXgXgXgXgXgXgXgXgXgXgXgXgXgXgXgXgXgXgXgXgXgXgXgXgXgXgXgXgXgXgXgXgXgXgXgXgXgXgXgXgXgXgXgXgXgXgXgXgXgXgXgXgXgXgXgXgXgXgXgXgXgXgXgXgXgXgXgXgXgXgXgXgXgXgXgXgXgXgXgXgXgXgXgXgXgXgXgXgXgXgXgXgXgXgXgXgXgXgXgXgXgXgXgXgXgXgXgXgXgXgXgXgXgXgXgXgXgXgXgXgXgXgXgXgXgXgXgXgXgXgXgXgXgXgXgXgXgXgXgXgXgXgXgXgXgXgXgXgXgXgXgXgXgXgXgXgXgXgXgXgXgXgXgXgXgXgXgXgXgXgXgXgXgXgXgXgXgXgXgXgXgXgXgXgXgXgXgXgXgXgXgXgXgXgXgXgXgXgXgXgXgXgXgXg m. .Y Z.} D M 0 , 7 f.(.5.' M < * ` 2.2.2.w.g.j.r.f.f.^ 2.U.P.L.0.0.' ` 2.' f B N D ' ' ' o.2.' ' ' _ ` ' ' N ' ' ' _ ] =.=.=.=.;.2.' ' ..o...W ( ' ' _ _ ' ' ' _ _ _ W D B z z N _ _ [ [ _ m M m N N m z s f v v m m m _ ' ( m v v z 8 M 2.2.m ' o.o. .C.0.V -.r.g.j.t.R.Y.3.2.^ r *.,.,.y.%.o , [ [ A 9 % ' Y..._ =.w.f.f.z.h.f.<.w.f.h.f.f.f.k.h.g.3.2.' { { m.",
"' * g.e.' o.2.4.f.z.z.z.h.f.z.z.z.h.f.f.z.z.f.w.;.=.' ..Y.2.8 8 8 r r , * *.<.<.-./ r 1.2.=.2.e.e.9.5.2._ 8 e.e.2.9.2.A 8 ..o.N z z z x B B D D B D ' W N N D ' W D N N N ( _ N N ( _ ( ' ' D D _ ' ' =.=...2.2.2.2.2.=.' =.=.4.w.4.2.-.2.2.2.2.2.2.2.2.2.2.5.w.w.2.2.=.=.' ' ' ' 2.5._ _ 2.2.o.O.3.o.~ 4.4.4.5.5.3.L.K.e.g.0 * 8 m 1.g.(.*.o , *.<.-.<._ u  .g . . gXgXgXgXgXgXgXgXgXgXgXgXgXgXgXgXgXgXgXgXgXgXgXgXgXgXgXgXgXgXgXgXgXgXgXgXgXgXgXgXgXgXgXgXgXgXgXgXgXgXgXgXgXgXgXgXgXgXgXgXgXgXgXgXgXgXgXgXgXgXgXgXgXgXgXgXgXgXgXgXgXgXgXgXgXgXgXgXgXgXgXgXgXgXgXgXgXgXgXgXgXgXgXgXgXgXgXgXgXgXgXgXgXgXgXgXgXgXgXgXgXgXgXgXgXgXgXgXgXgXgXgXgXgXgXgXgXgXgXgXgXgXgXgXgXgXgXgXgXgXgXgXgXgXgXgXgXgXgXgXgXgXgXgXgXgXgXgXgXgXgXgXgXgXgXgXgXgXgXgXgXgXgXgXgXgXgXgXgXgXgXgXgXgXgXgXgXgXgXgXgXgXgXgXgXgXgXgXgXgXgXgXgXgXgXgXgXgXgXgXgXgXgXgXgXgXgXgXgXgXgXgXgXgXgXgXgXgXgXgXgXgXgXgXg C. .U  .{ W ^ 0 , , f.>X5.=.M < * ' 5.3.e.h.g.g.r.f.f.*.2.U.L.Y.3.0.=.V 2.2.N D W ..2.2.5.5.5.5.5.5.2.2.5.5.2.2.2.3.2.2.4.w.w.w.w.2.2.2.3.0.3.o.2.2.2.2.2.2.2.2.2.2.o.o.........o.o.2.2.e.2.' ' ......' ' { ....' ' ' =.o.o.' ' ' ' N m ' 9.=.m ..O.O.C.Z.0.V -.r.w.t.R./.E.Y.2.^ r :.y.y.y.#.o 9 ~ ~ r , * 2.^.3.' 2.4.f.f.f.f.f.f.g.z.z.f.g.f.z.x.j.e.o.' W { O.",
"' * j.e...2.2.4.f.z.z.f.f.z.z.z.z.x.l.f.z.z.f.w.;.=.' W Y.0.c 0 0 A A 7 , -.<.<.<./ 0 ` 2.=.w.r.t.e.2.=.~ < 2.e.e.e.2.r < _ o.D z z z x x B D N x D ' ' ' ' ' W W W D ( ( W N z v ' W N _ ' ' ' ' ' 1.2.=.' 2.2.2.2.2.;.2.;.;.4.w.w.<.-.2.w.2.2.2.2.2.2.4.4.w.w.g.w.w.4.2.' _ ( ' 2.2.c V 2.2.o.O.O.o.m w.g.g.5.2.3.3.3.3.w.8 * 0 V 2.g.>X*.X , *.<.<.<._ s | g . . gXgXgXgXgXgXgXgXgXgXgXgXgXgXgXgXgXgXgXgXgXgXgXgXgXgXgXgXgXgXgXgXgXgXgXgXgXgXgXgXgXgXgXgXgXgXgXgXgXgXgXgXgXgXgXgXgXgXgXgXgXgXgXgXgXgXgXgXgXgXgXgXgXgXgXgXgXgXgXgXgXgXgXgXgXgXgXgXgXgXgXgXgXgXgXgXgXgXgXgXgXgXgXgXgXgXgXgXgXgXgXgXgXgXgXgXgXgXgXgXgXgXgXgXgXgXgXgXgXgXgXgXgXgXgXgXgXgXgXgXgXgXgXgXgXgXgXgXgXgXgXgXgXgXgXgXgXgXgXgXgXgXgXgXgXgXgXgXgXgXgXgXgXgXgXgXgXgXgXgXgXgXgXgXgXgXgXgXgXgXgXgXgXgXgXgXgXgXgXgXgXgXgXgXgXgXgXgXgXgXgXgXgXgXgXgXgXgXgXgXgXgXgXgXgXgXgXgXgXgXgXgXgXgXgXgXgXgXgXgXgXgXgXgXg C. .P C.+.2.*.e , , f.>X<.` c < * [ e.2.w.g.g.e.e.h.f.^ 2.oXL.Y.e.w.2.c -.2._ N ( ..2.5.w.w.5.5.e.e.2.;.w.t.5.2.2.e.e.w.w.g.g.f.g.w.g.e.e.0.3.3.5.e.2.2.2.2.2.2.2.2.o.....o.o.o.o.2.2.2.2...' ' ....' { { W W ' ' ' ' 1.' ' ' ..' N x D 2.2._ 1 ' o.O.P.P.L._ ;.r.9.0.T.;X/.Y.2.^ r <.p.p.y.#.o 8 ~ ~ 0 , * 2./.3...=.;.4.f.f.f.f.h.l.z.z.g.g.f.z.l.j.3.2.' _ ..3.",
"' : j.e...2.=.w.h.x.k.f.f.z.z.z.z.z.z.f.f.f.f.2.=.[ _ ' R.e.c 0 0 A / 7 7 <.f.f.<.^ 0 V ;.;.w.g.g.r.;.;.A , 2.2.2.2.-.9 , N 3...z z x x g B B B g B B { ..{ B B B B D D B N D B D ....' ' ' ' ' ' ' ' ' ' ' 2.2.2.2.2.2.2.2.2.w.w.w.4.;.2.2.2.2.2.2.2.2.w.w.w.w.w.w.e.e.2...' ..2.w.;.8 ^ 2.2...{ O.o.m 5.j.g.g.e.e.3.3.e.g.8 # 0 ` 2.j.>X/   , -.w.<.4._ s | g . . gXgXgXgXgXgXgXgXgXgXgXgXgXgXgXgXgXgXgXgXgXgXgXgXgXgXgXgXgXgXgXgXgXgXgXgXgXgXgXgXgXgXgXgXgXgXgXgXgXgXgXgXgXgXgXgXgXgXgXgXgXgXgXgXgXgXgXgXgXgXgXgXgXgXgXgXgXgXgXgXgXgXgXgXgXgXgXgXgXgXgXgXgXgXgXgXgXgXgXgXgXgXgXgXgXgXgXgXgXgXgXgXgXgXgXgXgXgXgXgXgXgXgXgXgXgXgXgXgXgXgXgXgXgXgXgXgXgXgXgXgXgXgXgXgXgXgXgXgXgXgXgXgXgXgXgXgXgXgXgXgXgXgXgXgXgXgXgXgXgXgXgXgXgXgXgXgXgXgXgXgXgXgXgXgXgXgXgXgXgXgXgXgXgXgXgXgXgXgXgXgXgXgXgXgXgXgXgXgXgXgXgXgXgXgXgXgXgXgXgXgXgXgXgXgXgXgXgXgXgXgXgXgXgXgXgXgXgXgXgXgXgXgXgXg m. .U U.-Xe.*.e , # w.x.;.^ c < , -.5.2.2.<.r.w.e.h.w.^ 2.E.Y.~.w.4.;.0 A 5.2.( N ' ..2.w.w.2.5.e.e.2.2.e.0.2.1.2.2.4.w.w.w.w.w.w.e.t.e.2.o.o.O.0.e.0.2.2.2.2.=.2.2.2.' { o.o.o.o.2.3.2.....o.o.....{ { { F F { ........' ..o.o.W B W 2.2.2.~ 8 ' 0.O.C.P.L.V -.r.e.0.L.P.T.L.3.` r <.f.a.y.r X 9 [ ~ c 9 * ' R.3.' ' ' <.f.h.h.z.z.z.h.f.g.g.h.h.h.w.2.2.=.' ' 3.",
"..> j.e...1.=.5.g.z.f.f.h.z.k.z.x.z.f.f.g.4.4.=.' ` ' ..R.e.c 0 0 A / , 7 -.f.7.<./ 0 [ ;.;.e.^.t.w.;.;.~ < 2.2.2.2.[ 9 * z 3.o.B x x g g g B x g B { { { { B B B { { D B B B B W { { ..W ' ' ' ..' ' ' ' ' 2.2.2.2.2.' ' 2.2.2.2.2.2.2.2.2.2.2.2.5.2.0.e.e.2.2.2.3.e.e.2...' ..2.4.^ < ^ 2.2.o.X.O.o.m w.h.g.g.w.5.....2.w.8 * 0 ` 4.j.>X*.o , *.4.4.4.' s | g . . . gXgXgXgXgXgXgXgXgXgXgXgXgXgXgXgXgXgXgXgXgXgXgXgXgXgXgXgXgXgXgXgXgXgXgXgXgXgXgXgXgXgXgXgXgXgXgXgXgXgXgXgXgXgXgXgXgXgXgXgXgXgXgXgXgXgXgXgXgXgXgXgXgXgXgXgXgXgXgXgXgXgXgXgXgXgXgXgXgXgXgXgXgXgXgXgXgXgXgXgXgXgXgXgXgXgXgXgXgXgXgXgXgXgXgXgXgXgXgXgXgXgXgXgXgXgXgXgXgXgXgXgXgXgXgXgXgXgXgXgXgXgXgXgXgXgXgXgXgXgXgXgXgXgXgXgXgXgXgXgXgXgXgXgXgXgXgXgXgXgXgXgXgXgXgXgXgXgXgXgXgXgXgXgXgXgXgXgXgXgXgXgXgXgXgXgXgXgXgXgXgXgXgXgXgXgXgXgXgXgXgXgXgXgXgXgXgXgXgXgXgXgXgXgXgXgXgXgXgXgXgXgXgXgXgXgXgXgXgXgXgXgXgXf m.b.P #X;X9.*.e , , 7.x.;.^ c : * ` 2.1.2.w.g.e.w.w.<.^ 2.oX/.(.g.4.;.0 8 2.2...W W ' 2.5.2.2.2.3.2.2.2.2.2.2...2.2.2.9.w.2.;.w.g.e.0.e.3.o.o.O.3.3.3.3.2.2.o...o.2.2.....o.o.o.o...............{ { { ..{ { { { ................{ D W 2.2.=.0 8 =.9.3.O.C.O.V -.e.t.L.3.3.L.0.0.` r -.<.<.,.r X 9 [ [ A , % ' R.o.N ' ..4.g.f.f.h.z.z.f.f.f.g.h.f.f.w.2.2.=.=.o.0.",
"1.> g.e.' ..=.2.4.f.h.h.h.k.z.l.z.k.f.f.f.4.=.[ [ [ ` ..R.e.c 0 9 A A , 7 -.<.<.-.A 0 ~ ;.2.9.I.q.2.;.;.~ 1 2.2.2.' [ r * c 2.2.N z z B x m M M z m N N v B N B N N N N z z z N N N W ' _ N ( _ _ _ _ ~ _ _ ' ' ' ' ' ' _ ' =.=.=.' ' ' ' ' ' 1.1.1.2.2.2.2.2.2.2.2.2.2.2.2.' ' =.;.^ 8 [ w.e.R.E.Y.o.z <.g.j.j.g.5.....3.e.8 * 0 *.4.j.>X*.o * / ;.;.4.' d  .g . . . gXgXgXgXgXgXgXgXgXgXgXgXgXgXgXgXgXgXgXgXgXgXgXgXgXgXgXgXgXgXgXgXgXgXgXgXgXgXgXgXgXgXgXgXgXgXgXgXgXgXgXgXgXgXgXgXgXgXgXgXgXgXgXgXgXgXgXgXgXgXgXgXgXgXgXgXgXgXgXgXgXgXgXgXgXgXgXgXgXgXgXgXgXgXgXgXgXgXgXgXgXgXgXgXgXgXgXgXgXgXgXgXgXgXgXgXgXgXgXgXgXgXgXgXgXgXgXgXgXgXgXgXgXgXgXgXgXgXgXgXgXgXgXgXgXgXgXgXgXgXgXgXgXgXgXgXgXgXgXgXgXgXgXgXgXgXgXgXgXgXgXgXgXgXgXgXgXgXgXgXgXgXgXgXgXgXgXgXgXgXgXgXgXgXgXgXgXgXgXgXgXgXgXgXgXgXgXgXgXgXgXgXgXgXgXgXgXgXgXgXgXgXgXgXgXgXgXgXgXgXgXgXgXgXgXgXgXgXgXgXgXgXgXf b.b.P #X;X=.r 9 , , w.(.;.` c < * ~ 1...5.g.j.e.2.;.-.~ 2.-X,XyXh.w.;.A c 1.2.' _ _ _ =.1.2.=.=.=.' ' ' ' ' ' ' 2.2.2.2.;.-.[ ;.4.2.2.2.2.......' ....' ' ' ` _ ~ _ ' ......' ' ' ....' ' ' D ( ( ' ' ' W ( ( ' ' ' ' _ ' ' ' ' ' _ N ` [ -.8 V e.R.L.3. .o.V -.e.e.3.o.3.0.0.0.[ r *.-.:.,.r o 9 [ ~ A , % ' ^.o.B { ..2.e.g.f.h.z.h.f.7.<.w.f.f.f.w.2.;.-.=.2.t.",
"2.: g.e.' 1.2.2.4.f.h.h.f.k.z.h.f.f.l.h.g.5.4.2.' ' ` ../.e.c 0 9 r / 7 7 =.<.<.-.r 9 ~ ;.2.0.I.I.0.=.=.[ 1 2.2.2.] =.A , 0 _ v > % * * * * * # o # * * % % % % * * * * % o # o o % * * * * * * * * * * * * * * * * * * : * * * * : * * * * * * * * * , , , , , 7 , < 8 8 8 8 8 8 0 0 0 =.e.^.;X1XE.o.M <.w.g.j.g.2.X.X.3.5.8 * c =.4.g.(.^ o , ^ ;.;.4...d } g .     gXgXgXgXgXgXgXgXgXgXgXgXgXgXgXgXgXgXgXgXgXgXgXgXgXgXgXgXgXgXgXgXgXgXgXgXgXgXgXgXgXgXgXgXgXgXgXgXgXgXgXgXgXgXgXgXgXgXgXgXgXgXgXgXgXgXgXgXgXgXgXgXgXgXgXgXgXgXgXgXgXgXgXgXgXgXgXgXgXgXgXgXgXgXgXgXgXgXgXgXgXgXgXgXgXgXgXgXgXgXgXgXgXgXgXgXgXgXgXgXgXgXgXgXgXgXgXgXgXgXgXgXgXgXgXgXgXgXgXgXgXgXgXgXgXgXgXgXgXgXgXgXgXgXgXgXgXgXgXgXgXgXgXgXgXgXgXgXgXgXgXgXgXgXgXgXgXgXgXgXgXgXgXgXgXgXgXgXgXgXgXgXgXgXgXgXgXgXgXgXgXgXgXgXgXgXgXgXgXgXgXgXgXgXgXgXgXgXgXgXgXgXgXgXgXgXgXgXgXgXgXgXgXgXgXgXgXgXgXgXgXgXgXf m.b.P oX,X=.r 9 * , f.>X5.=.M , * ~ 2.2.e.h.j.t.e.<.-.^ o.R.,X(.z.w.-.Z c c 8 8 , , 7 7 , 7 7 , , , , * * * * , , , < , , , , , , * * : , , , , , , , , , , * # # # * * * * * * , , , * * * * * * * * * * * * * * * * * * , , , , , , * , < , ^ e.t.L.3. .0.V -.w.e.e.0.0.0.0.2.V r *.:.<.<.r o , ~ ~ A 8 * ' /.3.F ....2.9.w.g.h.h.z.f.w.4.w.f.h.f.w.<.;.;.2.2.t.",
"1., g.w.' 2.=.;.w.f.z.f.f.k.z.g.f.f.l.h.g.5.4.2.1.' _ ..R.e.c 8 9 r ~ , , -.<.<.-.r 8 ^ =...P.+XU.L.2.=.` 1 2.2.o.2.=.~ , * * % o o o # # # # # # # # # # # * # # * # # # # % # o o # * * # # * * # # # # # # # * * * * * * * * * * * * * * * * * * * * , 7 , , , , , , , 7 , , , * * 0 _ 9.~./.R.L.o.A 4.g.g.g.w.2.2.o.2.e.8 * 8 ` 2.t.(.*.o , -.4.4.4...d } d . . gXgXgXgXgXgXgXgXgXgXgXgXgXgXgXgXgXgXgXgXgXgXgXgXgXgXgXgXgXgXgXgXgXgXgXgXgXgXgXgXgXgXgXgXgXgXgXgXgXgXgXgXgXgXgXgXgXgXgXgXgXgXgXgXgXgXgXgXgXgXgXgXgXgXgXgXgXgXgXgXgXgXgXgXgXgXgXgXgXgXgXgXgXgXgXgXgXgXgXgXgXgXgXgXgXgXgXgXgXgXgXgXgXgXgXgXgXgXgXgXgXgXgXgXgXgXgXgXgXgXgXgXgXgXgXgXgXgXgXgXgXgXgXgXgXgXgXgXgXgXgXgXgXgXgXgXgXgXgXgXgXgXgXgXgXgXgXgXgXgXgXgXgXgXgXgXgXgXgXgXgXgXgXgXgXgXgXgXgXgXgXgXgXgXgXgXgXgXgXgXgXgXgXgXgXgXgXgXgXgXgXgXgXgXgXgXgXgXgXgXgXgXgXgXgXgXgXgXgXgXgXgXgXgXgXgXgXgXgXgXgXgXgXgXf m.b.P ;X,X8.r 9 * , g.>Xw.' m , * _ 2.2.e.g.g.g.e.4.;.r =.R.j.g.f.4.;.A 8 * o * # # * , , , , , * * * * * * * , , , , , , , , , , * * , * * , 8 9 9 , , , , , * * * * * , , , , , , , , * , , * * * , 7 , , 7 9 7 7 7 7 , 7 7 7 9 9 7 , % * , 0 5.e.0.0.O.0.~ [ 4.w.j.~.e.0.2...V e %.:.<.<.r . , c m A 8 * ' /.3.....o.o.2.w.g.h.z.z.g.w.w.g.f.h.h.w.4.;.;.;.2.t.",
"=.: e.e.=.2.;.2.w.g.f.f.z.z.z.f.f.f.f.f.f.4.4.2.1._ ( ..T.0.c 8 0 A / , ; -.<.,.-.r 8 ^ 2.3.T.U.U.0.2.=.V 1 2.2...2.=.V , * , , , 8 8 0 0 0 0 8 8 8 8 8 8 8 0 < 8 8 8 8 8 8 8 < < < 8 8 8 8 8 8 8 0 0 0 8 8 8 8 8 8 8 8 8 8 8 8 8 8 8 0 8 8 8 8 0 0 9 9 9 r 0 9 9 r r A A A A r r 0 8 0 c ] 2.3.2.2.' V f.g.h.g.g.w.3.o.2.e.8 * 8 D 1.e.x.*.o , -.4.4.w.' d } j = 1 gXgXgXgXgXgXgXgXgXgXgXgXgXgXgXgXgXgXgXgXgXgXgXgXgXgXgXgXgXgXgXgXgXgXgXgXgXgXgXgXgXgXgXgXgXgXgXgXgXgXgXgXgXgXgXgXgXgXgXgXgXgXgXgXgXgXgXgXgXgXgXgXgXgXgXgXgXgXgXgXgXgXgXgXgXgXgXgXgXgXgXgXgXgXgXgXgXgXgXgXgXgXgXgXgXgXgXgXgXgXgXgXgXgXgXgXgXgXgXgXgXgXgXgXgXgXgXgXgXgXgXgXgXgXgXgXgXgXgXgXgXgXgXgXgXgXgXgXgXgXgXgXgXgXgXgXgXgXgXgXgXgXgXgXgXgXgXgXgXgXgXgXgXgXgXgXgXgXgXgXgXgXgXgXgXgXgXgXgXgXgXgXgXgXgXgXgXgXgXgXgXgXgXgXgXgXgXgXgXgXgXgXgXgXgXgXgXgXgXgXgXgXgXgXgXgXgXgXgXgXgXgXgXgXgXgXgXgXgXgXgXgXgXgXg Z.b.U ;X>Xw./ 8 * * 4.(.2._ z * * D 2.o.9.w.f.g.e.w.<.r [ ^.e.w.4.4.;.^ 8 * , 8 9 0 0 0 0 0 0 0 0 0 0 8 8 8 9 0 c c 0 0 0 0 0 0 0 0 0 0 0 0 c c 9 0 0 0 0 0 0 0 0 8 8 0 0 c 0 0 0 9 0 0 0 0 r 9 9 0 0 A A r A A A r r A r r A A A A A 0 0 8 8 8 ' e.0.L.O.3.~ [ 4.w.g.j.e.3.o..._ r *.:.,.,.r o , c m A 0 * ' E.O.....o.2.3.5.g.h.h.h.f.w.g.f.g.g.w.w.w.2.;.;.2.t.",
"=.: e.e.=.2.;.4.5.w.w.f.z.z.l.z.f.f.f.f.f.4.4.2..._ N ..T.0.z 8 0 ~ / , # -.<.<.-.r 8 [ 5.3.L.0.I.t.9.[ c < o.o...2.o.m * * , , , : : : , , , < < < < < < < < < < < < < < < < , , , , < 8 8 , 7 8 8 8 8 8 8 8 8 0 0 c r 0 0 0 0 0 0 0 9 9 8 8 0 0 r 0 0 A r r r r A A A A A A A r c 8 0 c [ ] ' ..2.=.^ f.l.l.z.l.h.t.3.2.e.8 * 8 ' 1.e.>X*.o , -.4.w.w.' g } g > < gXgXgXgXgXgXgXgXgXgXgXgXgXgXgXgXgXgXgXgXgXgXgXgXgXgXgXgXgXgXgXgXgXgXgXgXgXgXgXgXgXgXgXgXgXgXgXgXgXgXgXgXgXgXgXgXgXgXgXgXgXgXgXgXgXgXgXgXgXgXgXgXgXgXgXgXgXgXgXgXgXgXgXgXgXgXgXgXgXgXgXgXgXgXgXgXgXgXgXgXgXgXgXgXgXgXgXgXgXgXgXgXgXgXgXgXgXgXgXgXgXgXgXgXgXgXgXgXgXgXgXgXgXgXgXgXgXgXgXgXgXgXgXgXgXgXgXgXgXgXgXgXgXgXgXgXgXgXgXgXgXgXgXgXgXgXgXgXgXgXgXgXgXgXgXgXgXgXgXgXgXgXgXgXgXgXgXgXgXgXgXgXgXgXgXgXgXgXgXgXgXgXgXgXgXgXgXgXgXgXgXgXgXgXgXgXgXgXgXgXgXgXgXgXgXgXgXgXgXgXgXgXgXgXgXgXgXgXgXgXgXgXgX& B Z.b.j ^.uXf.*.9 * * <.g.;._ 1 * * D 2.=.w.f.f.g.r.w.<.A [ Y.2.2.=.=.` 8 < < 8 0 A A A r r r r 0 0 0 0 9 0 9 9 0 0 0 0 0 0 0 8 8 0 8 8 8 8 0 0 0 0 0 8 8 8 8 8 8 8 8 8 8 8 0 0 0 8 8 0 0 8 8 8 8 8 8 8 8 8 0 0 0 0 0 0 c 0 c c A A A A 0 0 8 8 c E 2.0.T.0.3.~ *.w.w.w.e.e.3.o...D A *.-.-.-.9 o , ~ V A 0 * ' T...' ..o.3.0.w.g.h.h.h.f.g.f.h.g.<.4.w.4.;.;.;.=.t.",
"=.: e.e.=.2.2.2.2.4.4.f.h.z.z.z.z.h.f.f.f.w.5.2.....W ..E.0.z 8 0 ^ ^ , * *.<.-.-.r 8 ` 5.2.2.9.t.x.t.=.c < ..o.o.o.3.' < = . o o * * * * * < = * > > > > < < > : * * * * % * * * * * * * * , , , < < < < < < * * * < < : : * , , , * : : , , * > > > > < , , : : < < < < 8 8 8 8 , , 0 V 9.9.2.2.e.2./ f.z.z.0X0Xx.h.2.2.e.8 * c 2.5.e.^.[ o , ^ <.w.g._ f } f . . gXgXgXgXgXgXgXgXgXgXgXgXgXgXgXgXgXgXgXgXgXgXgXgXgXgXgXgXgXgXgXgXgXgXgXgXgXgXgXgXgXgXgXgXgXgXgXgXgXgXgXgXgXgXgXgXgXgXgXgXgXgXgXgXgXgXgXgXgXgXgXgXgXgXgXgXgXgXgXgXgXgXgXgXgXgXgXgXgXgXgXgXgXgXgXgXgXgXgXgXgXgXgXgXgXgXgXgXgXgXgXgXgXgXgXgXgXgXgXgXgXgXgXgXgXgXgXgXgXgXgXgXgXgXgXgXgXgXgXgXgXgXgXgXgXgXgXgXgXgXgXgXgXgXgXgXgXgXgXgXgXgXgXgXgXgXgXgXgXgXgXgXgXgXgXgXgXgXgXgXgXgXgXgXgXgXgXgXgXgXgXgXgXgXgXgXgXgXgXgXgXgXgXgXgXgXgXgXgXgXgXgXgXgXgXgXgXgXgXgXgXgXgXgXgXgXgXgXgXgXgXgXgXgXgXgXgXgXgXgXgXgXgX% g C.} B ^.yXf.*.8 , , w.(.2._ 8 * * D 2.2.h.x.x.g.w.7.<.A ` Y.0.2.o.o.( 8 , : : , , 8 8 8 , , , , , , , , , , , : : * * * * * % * * * * * * : : > , , , * * , , , , , * * * < , * % % % * * * * : , * * : = * * : : * * * < < < < , , , < * * c ~ _ e.0.L.0.0.^ *.4.w.w.w.2.2.....D ^ <.<.<.-.9 o 7 ~ _ A 0 * ' L...' ..o...2.w.g.h.h.k.f.z.k.z.z.f.w.w.4.2.;.;.=.t.",
"=.: e.t.2.2.4.2.4.w.g.f.f.h.z.z.z.z.z.z.z.g.5.2.2...W { T.Y.c 0 A -.-.7 # r -.-.*.J 8 D 2.2.w.r.h.h.j.2.c 8 o.o.o.o.3...z m % % % * * * * * * * * % % % % * * * * * * % * * * * % % % % * * * * * * = = * * * * % % % = = * * = = = = = = = = = = = < = = < < < > > < < > < < < 8 : V =.~ w.e.e.0.0.] r f.z.z.9X9Xx.g.2.2.e.8 * c 2.5.e.x.*.o , ^ ;.4.w._ f X.g . . gXgXgXgXgXgXgXgXgXgXgXgXgXgXgXgXgXgXgXgXgXgXgXgXgXgXgXgXgXgXgXgXgXgXgXgXgXgXgXgXgXgXgXgXgXgXgXgXgXgXgXgXgXgXgXgXgXgXgXgXgXgXgXgXgXgXgXgXgXgXgXgXgXgXgXgXgXgXgXgXgXgXgXgXgXgXgXgXgXgXgXgXgXgXgXgXgXgXgXgXgXgXgXgXgXgXgXgXgXgXgXgXgXgXgXgXgXgXgXgXgXgXgXgXgXgXgXgXgXgXgXgXgXgXgXgXgXgXgXgXgXgXgXgXgXgXgXgXgXgXgXgXgXgXgXgXgXgXgXgXgXgXgXgXgXgXgXgXgXgXgXgXgXgXgXgXgXgXgXgXgXgXgXgXgXgXgXgXgXgXgXgXgXgXgXgXgXgXgXgXgXgXgXgXgXgXgXgXgXgXgXgXgXgXgXgXgXgXgXgXgXgXgXgXgXgXgXgXgXgXgXgXgXgXgXgXgXgXgXgXgXgXgX& g m.} z j.wXp.-.8 * , g.>X4._ 0 * * D 2.2.f.x.x.g.w.7.<.A ` L.o.......m _ 0 * % * > < 1 8 8 1 < < < < = = * * < < < < 1 1 1 1 1 < < < < < = = < 1 < < > = > < < * > > > = = < > > = = > > > : : : , * * > < < > > < < < < < < < < < < < 8 * c 2.' ] e.3.3.O.3.^ ^ w.g.g.w.2.o.....' ^ =.-.-.-.9 O , ` _ A 0 * _ L.........' ' w.g.h.z.z.k.k.z.k.z.z.f.w.5.2.2.=.=.e.",
"1.> g.t.2.2.w.w.w.g.h.h.f.f.f.k.k.k.k.z.z.f.w.2.o...N F P.0.c 9 r ^ ^ , # r -.-.*.r 9 V 2.] 2.r.h.h.e.2.m z o...' o.2.' s 1.M 1 1 z z c m m m m N m M M M V D m m c z z c c z z z z z z z z z z z z z z z z M m v m v N N N D D D _ D N N M M M N D N v N D D D _ _ _ V V m M M m V e.t.m 2.e.e.0.0.[ 9 <.f.z.z.z.z.f.2.2.e.8 # c 2.5.e.x.*.# , ^ ;.;.;._ g X.g . . gXgXgXgXgXgXgXgXgXgXgXgXgXgXgXgXgXgXgXgXgXgXgXgXgXgXgXgXgXgXgXgXgXgXgXgXgXgXgXgXgXgXgXgXgXgXgXgXgXgXgXgXgXgXgXgXgXgXgXgXgXgXgXgXgXgXgXgXgXgXgXgXgXgXgXgXgXgXgXgXgXgXgXgXgXgXgXgXgXgXgXgXgXgXgXgXgXgXgXgXgXgXgXgXgXgXgXgXgXgXgXgXgXgXgXgXgXgXgXgXgXgXgXgXgXgXgXgXgXgXgXgXgXgXgXgXgXgXgXgXgXgXgXgXgXgXgXgXgXgXgXgXgXgXgXgXgXgXgXgXgXgXgXgXgXgXgXgXgXgXgXgXgXgXgXgXgXgXgXgXgXgXgXgXgXgXgXgXgXgXgXgXgXgXgXgXgXgXgXgXgXgXgXgXgXgXgXgXgXgXgXgXgXgXgXgXgXgXgXgXgXgXgXgXgXgXgXgXgXgXgXgXgXgXgXgXgXgXgXgXgXgXgX% g n.G s g.'.p.-.0 * * g.>X<.^ c * * D 2.=.w.f.f.w.w.w.<./ [ XX0.O.O.o.( 2.=.z > 1 m _ _ ' ' ' ' ` V V V V m m V D D W m m m m m c c m m M z z M N V _ N M M m c z z z z z z v v v v m m m m m m m c c m N N x f z c m m V V V m m M z z 8 8 =.e._ ` 2.2.o...2.A *.g.j.g.w.;.=.' .._ c A A A *.8 O , ^ _ A 0 * ' T.o.' ' o.=.4.f.f.z.z.z.z.k.z.k.k.z.z.g.w.2.2.=.' e.",
"1.> g.t.2.2.w.w.w.g.h.z.k.k.z.z.k.k.k.z.z.f.f.2...W N F Y.3.c 9 r / ^ , # / <.-.*.r 9 V 2.] 2.4.e.e.9.2.m s o.' ..o.2._ % 2...x B B B D D { ....{ ............o.........................o.O.O.O.o.o.o.2.3.3.3.3.3.o.....2.2.2.2.2.2.2.2.2.2.2.2.2.3.o.2.2.2.2.2.w.w.w.5.2.2...' ' 2.^.2.c 2.w.e.0.0.=.0 ,.7.h.z.z.z.w.2.2.e.8 * 0 =.2.e.x.-.# 7 ` =.' =.N d } d . . gXgXgXgXgXgXgXgXgXgXgXgXgXgXgXgXgXgXgXgXgXgXgXgXgXgXgXgXgXgXgXgXgXgXgXgXgXgXgXgXgXgXgXgXgXgXgXgXgXgXgXgXgXgXgXgXgXgXgXgXgXgXgXgXgXgXgXgXgXgXgXgXgXgXgXgXgXgXgXgXgXgXgXgXgXgXgXgXgXgXgXgXgXgXgXgXgXgXgXgXgXgXgXgXgXgXgXgXgXgXgXgXgXgXgXgXgXgXgXgXgXgXgXgXgXgXgXgXgXgXgXgXgXgXgXgXgXgXgXgXgXgXgXgXgXgXgXgXgXgXgXgXgXgXgXgXgXgXgXgXgXgXgXgXgXgXgXgXgXgXgXgXgXgXgXgXgXgXgXgXgXgXgXgXgXgXgXgXgXgXgXgXgXgXgXgXgXgXgXgXgXgXgXgXgXgXgXgXgXgXgXgXgXgXgXgXgXgXgXgXgXgXgXgXgXgXgXgXgXgXgXgXgXgXgXgXgXgXgXgXgXgXgX% f X.G s g.x.7.*.0 * * f.(.;.^ A 8 * ' 2.2.w.f.f.w.w.w.<./ 2.;XL.......N ~ 5.=.m D ..o.o.2.2.e.w.;.=.;.2.2.=.=.=.2.2.2.;.2.4.4.<.<.<.w.4.2.2.2.2.2.2.0.3.2...o.2.2.o.o.2.2.2.2.o...o.o.2.2.2.2.' _ _ ' ' ..........] ' [ ' =.1...' ' N B M ' 2.e.v V =.2.2...2.A *.f.g.w.w.4.2.=.' _ z A / *.*.e . , ~ _ ~ 0 * ' T...' ' 2.w.f.k.z.k.k.z.z.z.z.z.z.k.z.h.e.2.2...' e.",
"=.< g.j.2.2.5.5.w.f.z.z.k.z.z.k.k.k.f.f.f.f.w.2...D D { T.3.c 9 r / *.7 # *.<.-.*.r 8 m 2.2.2.1.2.9.9.0.m 1 o.o.2.2.2._ % ..X.B B B B B B { { { { { { { { { { { { { ............o.o.....o...X.X...o.o.2.3.3.3.0.0.3.3.2.e.e.e.e.e.e.t.t.t.e.t.t.e.e.e.t.j.j.g.g.g.j.g.g.e.2.2.2.2.e.~._ 0 2.2.2.3.0.2.0 -.<.f.f.z.f.g.3.2.3.8 * 0 ` 1.e.x.-.# , ^ =.' 2.{ d } d .   gXgXgXgXgXgXgXgXgXgXgXgXgXgXgXgXgXgXgXgXgXgXgXgXgXgXgXgXgXgXgXgXgXgXgXgXgXgXgXgXgXgXgXgXgXgXgXgXgXgXgXgXgXgXgXgXgXgXgXgXgXgXgXgXgXgXgXgXgXgXgXgXgXgXgXgXgXgXgXgXgXgXgXgXgXgXgXgXgXgXgXgXgXgXgXgXgXgXgXgXgXgXgXgXgXgXgXgXgXgXgXgXgXgXgXgXgXgXgXgXgXgXgXgXgXgXgXgXgXgXgXgXgXgXgXgXgXgXgXgXgXgXgXgXgXgXgXgXgXgXgXgXgXgXgXgXgXgXgXgXgXgXgXgXgXgXgXgXgXgXgXgXgXgXgXgXgXgXgXgXgXgXgXgXgXgXgXgXgXgXgXgXgXgXgXgXgXgXgXgXgXgXgXgXgXgXgXgXgXgXgXgXgXgXgXgXgXgXgXgXgXgXgXgXgXgXgXgXgXgXgXgXgXgXgXgXgXgXgXgXgXgXgX% f n.} g j.x.<./ 8 * * w.x.<.^ A 8 * ' 2.2.w.f.g.w.4.4.<.~ 2.;XL.X.O.o.( c ;.2.' ' ....o.2.e.j.g.w.w.g.g.e.w.w.w.e.e.0.w.g.h.h.g.g.h.j.g.e.t.t.e.0.e.R.Y.3.2.2.2.2.3.2.2.0.0.3.3.3.0.e.t.e.e.e.e.5.5.e.0.3.3.O.3.e.e.5.;.;.4.5.5.2...{ { ' ..3.2.z A =.1.2.2.2.~ *.<.w.w.w.w.w.4.=.~ 8 A *.*.*.8   , ^ _ A 0 * ' T...' =.w.f.z.k.z.k.k.z.z.z.z.z.z.k.z.h.e.2.o.....3.",
"' < t.j.=.=.2.2.w.f.z.z.k.k.z.z.z.k.f.f.f.f.4.2...W { X.T.2.c 9 r *.*.9 # -.<.-./ r 0 _ 2.2.2.2.2.w.w.e.~ 1 2.3.2.3.2.~ : ' 3.B B F F F F { { ..{ { { { { { X.X.{ { { { { ..X.X.X.O.o.....X.O.o...o.3.3.3.O.3.0.0.0.0.0.t.t.e.e.e.e.e.e.0.t.~.t.3.2.0.0.t.g.r.w.e.j.x.j.0.3.3.2.2.e.e.c 0 2.2.2.3.0.o.c -.<.4.f.z.l.g.e.3.2.8 * 0 _ 1.e.j.*.# , A =.1.6.F i G s .   gXgXgXgXgXgXgXgXgXgXgXgXgXgXgXgXgXgXgXgXgXgXgXgXgXgXgXgXgXgXgXgXgXgXgXgXgXgXgXgXgXgXgXgXgXgXgXgXgXgXgXgXgXgXgXgXgXgXgXgXgXgXgXgXgXgXgXgXgXgXgXgXgXgXgXgXgXgXgXgXgXgXgXgXgXgXgXgXgXgXgXgXgXgXgXgXgXgXgXgXgXgXgXgXgXgXgXgXgXgXgXgXgXgXgXgXgXgXgXgXgXgXgXgXgXgXgXgXgXgXgXgXgXgXgXgXgXgXgXgXgXgXgXgXgXgXgXgXgXgXgXgXgXgXgXgXgXgXgXgXgXgXgXgXgXgXgXgXgXgXgXgXgXgXgXgXgXgXgXgXgXgXgXgXgXgXgXgXgXgXgXgXgXgXgXgXgXgXgXgXgXgXgXgXgXgXgXgXgXgXgXgXgXgXgXgXgXgXgXgXgXgXgXgXgXgXgXgXgXgXgXgXgXgXgXgXgXgXgXgXgXgXgX% s n.G d 0.g.-./ 9 * , w.(.;.` A 8 * _ 2.4.g.h.g.w.4.4.<.A ' E.L.O.3.3.' 0 ^ <.=.( { { ..3.g.(.g.e.g.j.j.g.~.R.Y.Y.3.3.0.t.j.g.g.g.j.g.e.t.t.Y.0.0.e.Y.L.3.3.3.3.2.0.3.3.0.3.3.0.3.3.0.e.e.e.e.w.3.e.0.3.O.X.} ..2.2.2.2.2.2.5.e.3...{ { ....0.=.8 A =...o.2.1.A / <.<.w.w.g.h.w.;.A 8 A *.*.*.9 . , ^ ~ c 8 * ` R...' 2.w.f.h.k.k.k.z.z.z.z.z.z.z.z.z.r.0.2.O.X.{ 3.",
"=.< t.g.=.=.=.2.w.f.z.z.k.k.z.z.z.z.f.f.f.z.g.2...' ....Y.3.0 9 r -.-.9 * -.<.-./ r 0 ' 2.2.=.2.2.w.e.e.` 0 2.0.3.2.2.~ * D 3.D B B B F F { { } j } } } } } } } { j } } } } } } }  .} { { X.X.{ ..O.O.O.O.O.O.O.0.0.L.Y.e.0.3.3.0.0.0.0.0.e.Y.e.3.O.3.3.e.e.e.e.t.j.^.^.Y.3.3.o.2.e.e.0 m 2.2.2.3.Y.o.0 =.<.4.f.z.l.g.3.3.0.8 # 8 D 1.e.x.*.# , A 1.2.6.F i j s .   gXgXgXgXgXgXgXgXgXgXgXgXgXgXgXgXgXgXgXgXgXgXgXgXgXgXgXgXgXgXgXgXgXgXgXgXgXgXgXgXgXgXgXgXgXgXgXgXgXgXgXgXgXgXgXgXgXgXgXgXgXgXgXgXgXgXgXgXgXgXgXgXgXgXgXgXgXgXgXgXgXgXgXgXgXgXgXgXgXgXgXgXgXgXgXgXgXgXgXgXgXgXgXgXgXgXgXgXgXgXgXgXgXgXgXgXgXgXgXgXgXgXgXgXgXgXgXgXgXgXgXgXgXgXgXgXgXgXgXgXgXgXgXgXgXgXgXgXgXgXgXgXgXgXgXgXgXgXgXgXgXgXgXgXgXgXgXgXgXgXgXgXgXgXgXgXgXgXgXgXgXgXgXgXgXgXgXgXgXgXgXgXgXgXgXgXgXgXgXgXgXgXgXgXgXgXgXgXgXgXgXgXgXgXgXgXgXgXgXgXgXgXgXgXgXgXgXgXgXgXgXgXgXgXgXgXgXgXgXgXgXgXgX% s n.G i 2.w.-.*.0 , , w.(.2.^ c , * _ 2.2.w.h.g.w.w.4.<.A ' E.P.Y.Y.3.' 0 A 2.2.W B { ..3.0.e.e.0.t.t.0.0.L.L.L.L.H.H.0.e.t.e.j.j.t.t.t.e.Y.Y.0.3.Y.L.3.O.O.3.3.0.0.O.3.0.3.3.L.L.O.O.3.0.0.3.O.O.3.O.X.} } } { ..o.2.3.3.O.3.3.O.{ } } ..o.e.m 1 ~ ' o.o.2.' A ^ 8.w.w.g.g.g.w.2.V 8 A *.*.*.9 O , ^ ~ c 8 * _ R.2.' =.4.f.h.z.z.z.z.z.z.z.k.z.z.z.f.e.3.2.2.....0.",
"=.< e.t.=.=.=.=.w.h.z.k.z.z.h.z.z.f.f.f.z.z.f.w.5.' m B L.3.0 8 0 *.*.7 * -.<.-.*.r 0 ' 2.2.=.=.;.;.4.5.~ z 2.3.2.2.2.E * V 3...W N W { ..X.....{ } X.} } { X...{ { ..X.O.O.O.} } O.O.X.X.X.o...o.0.0.0.3.3.3.O.3.3.0.0.3.2.2.0.0.e.0.3.3.0.e.0.0.0.3.3.e.t.t.~.^.-X-X/.e.3.3.3.e.(.w.< ~ e.2.' o.0.2.0 <.<.4.w.g.g.e.2.2.0.8 # 8 D 2.e.x.*.# , A 2.2...W u j s .   gXgXgXgXgXgXgXgXgXgXgXgXgXgXgXgXgXgXgXgXgXgXgXgXgXgXgXgXgXgXgXgXgXgXgXgXgXgXgXgXgXgXgXgXgXgXgXgXgXgXgXgXgXgXgXgXgXgXgXgXgXgXgXgXgXgXgXgXgXgXgXgXgXgXgXgXgXgXgXgXgXgXgXgXgXgXgXgXgXgXgXgXgXgXgXgXgXgXgXgXgXgXgXgXgXgXgXgXgXgXgXgXgXgXgXgXgXgXgXgXgXgXgXgXgXgXgXgXgXgXgXgXgXgXgXgXgXgXgXgXgXgXgXgXgXgXgXgXgXgXgXgXgXgXgXgXgXgXgXgXgXgXgXgXgXgXgXgXgXgXgXgXgXgXgXgXgXgXgXgXgXgXgXgXgXgXgXgXgXgXgXgXgXgXgXgXgXgXgXgXgXgXgXgXgXgXgXgXgXgXgXgXgXgXgXgXgXgXgXgXgXgXgXgXgXgXgXgXgXgXgXgXgXgXgXgXgXgXgXgXgXgXgX& s n.G d 5.g.7.=.r , * w.j.;.A 8 * * ` 2.=.;.4.f.g.w.w.<.A [ oXoXE.T.3.' c A 2.2.......o.3.3.0.e.e.Y.Y.Y.Y.L.L.L.Y.Y.Y.0.e.e.e.j.j.j.~.R.e.0.Y.Y.Y.e.0.3.0.0.0.0.0.0.3.0.0.3.0.L.3.O.3.0.L.Y.0.3.3.3.O.O.O.O.{ { ..3.0.3.3.0.0.3.O.o.....o.3.5.c 1 _ ' ' o.2.=.V [ w.w.g.w.w.4.4.2.^ 8 A *.*.*.9   , A ~ c 8 * _ Y.2.' [ ;.w.f.f.f.f.f.k.k.k.z.z.z.z.f.g.0.3.2.....e.",
"=.: e.t.=.;.2.;.w.h.z.z.z.z.h.f.f.g.f.z.z.k.f.g.4.` m W Y.3.c 8 0 ^ / , * -.<.<.-./ r ' 3.2.2.2.2.2.-.=.V z 2.2.2.2.2.E : V 2.' m 8 0 z m m D m m v z z z z z 0 0 z z z z z z f s z z z z z z 1 0 V ~ ~ _ ` ' _ _ _ _ ~ ~ ^ [ -.[ ^ ~ V V ~ ^ ` [ =.` ` -.-.;.;.4.r.w.2.=.=.=.1.-.=.A , ^ w.2.' ..0.2.0 <.4.<.f.g.f.2.3.3.e.8 % 8 V 2.e.x.*.# , ^ 2.2.2.' s j s . . gXgXgXgXgXgXgXgXgXgXgXgXgXgXgXgXgXgXgXgXgXgXgXgXgXgXgXgXgXgXgXgXgXgXgXgXgXgXgXgXgXgXgXgXgXgXgXgXgXgXgXgXgXgXgXgXgXgXgXgXgXgXgXgXgXgXgXgXgXgXgXgXgXgXgXgXgXgXgXgXgXgXgXgXgXgXgXgXgXgXgXgXgXgXgXgXgXgXgXgXgXgXgXgXgXgXgXgXgXgXgXgXgXgXgXgXgXgXgXgXgXgXgXgXgXgXgXgXgXgXgXgXgXgXgXgXgXgXgXgXgXgXgXgXgXgXgXgXgXgXgXgXgXgXgXgXgXgXgXgXgXgXgXgXgXgXgXgXgXgXgXgXgXgXgXgXgXgXgXgXgXgXgXgXgXgXgXgXgXgXgXgXgXgXgXgXgXgXgXgXgXgXgXgXgXgXgXgXgXgXgXgXgXgXgXgXgXgXgXgXgXgXgXgXgXgXgXgXgXgXgXgXgXgXgXgXgXgXgXgXgXgXgX$ s n.} d e.h.w.=.r 7 , w.j.=.A 8 # * =.e.2.4.w.h.h.g.f.<.A _ ;X-XR.0.2.=.c 0 ^ -.~ V V m V V ~ ^ ^ ` ^ V m V V D V m m c 0 r A ^ ^ ^ ~ ~ c c V V _ E c m _ _ ~ ~ ~ E c c c z z z M m m ~ V m c c z z z z z z < < 8 0 A V _ _ _ V V V V V ~ ^ Z 8 0 [ ;.' 2.2.=.A ^ w.g.g.w.4.4.5.5.` 0 / *.*.*.9   * A ~ c 0 * _ T.3.' ' ;.f.f.f.f.f.w.f.k.k.z.z.k.k.f.g.e.0...' ' w.",
"=.> e.e.;.2.4.w.g.l.z.z.z.z.z.h.f.g.f.z.k.k.f.<.-.V D ..T.3.c 8 0 Z ^ 7 * -.7.<.-./ A ..2.1.2.e.5.=.^ -.c z 2.2.2.2.2.~ , 8 8 * o     . . . . . X                                                             . .                                           O       o o o o o . . o   , ;.2.2.2.2.0.2.0 <.f.w.g.g.w.2.3.0.e.8 * 8 V ' e.(.*.o , ^ ;.;.2.' s F s . . gXgXgXgXgXgXgXgXgXgXgXgXgXgXgXgXgXgXgXgXgXgXgXgXgXgXgXgXgXgXgXgXgXgXgXgXgXgXgXgXgXgXgXgXgXgXgXgXgXgXgXgXgXgXgXgXgXgXgXgXgXgXgXgXgXgXgXgXgXgXgXgXgXgXgXgXgXgXgXgXgXgXgXgXgXgXgXgXgXgXgXgXgXgXgXgXgXgXgXgXgXgXgXgXgXgXgXgXgXgXgXgXgXgXgXgXgXgXgXgXgXgXgXgXgXgXgXgXgXgXgXgXgXgXgXgXgXgXgXgXgXgXgXgXgXgXgXgXgXgXgXgXgXgXgXgXgXgXgXgXgXgXgXgXgXgXgXgXgXgXgXgXgXgXgXgXgXgXgXgXgXgXgXgXgXgXgXgXgXgXgXgXgXgXgXgXgXgXgXgXgXgXgXgXgXgXgXgXgXgXgXgXgXgXgXgXgXgXgXgXgXgXgXgXgXgXgXgXgXgXgXgXgXgXgXgXgXgXgXgXgXgXgX$ s n.} g e.h.7.*.r , , 5.j.=.A 8 * % ` e.w.g.h.h.j.g.f.<.r m Y.e.e.w.4.-.A 7 , # o o . . . . O O . . O o o o o o o O                   . . . . . .     .       .     .             . O                                             O O .       o 9 -.4.e.e.w.=.A / w.r.g.w.w.w.w.5.V 0 / *.*.*.9   * A ~ A 0 * _ R.3.' =.4.f.f.f.f.f.w.f.h.z.k.k.k.z.f.e.3.2...' ' r.",
"=.= e.g.=.2.4.w.g.f.f.h.z.z.z.z.f.w.g.h.k.k.i.-.V m _ ..E.3.z 8 9 ^ *.9 * -.<.<.-./ r ' 2.2.4.w.;.[ -.;.c z 2.3.2.2.2.~ , o o o o * * : * * * * , * * * * * # * # # # # # * # * , , * * # # * * # # # # * * * , , , , , , , 7 , , 7 7 , 7 7 7 7 7 , , 7 9 9 9 9 9 9 9 0 e 9 9 9 , , # 8 [ 2.2.2.2.3.2.0 <.f.f.f.f.w.5.3.3.t.8 * 8 V =.e.>X[ o , ^ <.w.w.=.s { s .   gXgXgXgXgXgXgXgXgXgXgXgXgXgXgXgXgXgXgXgXgXgXgXgXgXgXgXgXgXgXgXgXgXgXgXgXgXgXgXgXgXgXgXgXgXgXgXgXgXgXgXgXgXgXgXgXgXgXgXgXgXgXgXgXgXgXgXgXgXgXgXgXgXgXgXgXgXgXgXgXgXgXgXgXgXgXgXgXgXgXgXgXgXgXgXgXgXgXgXgXgXgXgXgXgXgXgXgXgXgXgXgXgXgXgXgXgXgXgXgXgXgXgXgXgXgXgXgXgXgXgXgXgXgXgXgXgXgXgXgXgXgXgXgXgXgXgXgXgXgXgXgXgXgXgXgXgXgXgXgXgXgXgXgXgXgXgXgXgXgXgXgXgXgXgXgXgXgXgXgXgXgXgXgXgXgXgXgXgXgXgXgXgXgXgXgXgXgXgXgXgXgXgXgXgXgXgXgXgXgXgXgXgXgXgXgXgXgXgXgXgXgXgXgXgXgXgXgXgXgXgXgXgXgXgXgXgXgXgXgXgXgXgX$ s m.} s e.x.7.-.0 * , w.(.2.V 8 * % ` e.w.f.x.l.x.g.f.<.r c e.w.w.w.<.;.Z < % * , , , , 7 7 7 7 7 9 9 9 9 9 , 7 7 7 7 , 7 7 , 7 , , , 8 8 7 8 7 7 , 7 7 * 3 3 3 * * , , , , , * * * , , * * * * * * * # # # o # # , 7 , , , , , , , * * o # o # 0 [ 2.e.e.w.;.r A <.w.w.g.g.w.w.2.c 8 A -.-.*.9 O # A ~ A 0 * _ R.2.' ;.w.f.f.f.h.f.w.w.f.k.k.k.k.z.f.4.....' ' ' g.",
"=.< g.g.=.2.4.w.w.f.f.f.z.z.z.z.f.w.g.f.f.f.<.-.` D ' O.!.0.z 8 9 ^ *.7 * *.<.<.-.A 0 ` 5.w.w.<.-.;.<.;.c z 3.e.3.2.2.[ 8 # # , , < < < < , , , , < 8 8 < < < < < < < , , * < , , , , , 8 : , , , 7 7 8 8 8 8 8 < 9 8 8 9 8 8 8 8 9 9 0 0 8 8 8 0 0 8 0 0 r r r 0 A A A A r r 0 8 8 , , c =.2.....2.2.A <.f.f.<.<.5.5.2.2.e.8 * 8 V =.g.>X*.# , ^ w.f.h.;.s { f . . gXgXgXgXgXgXgXgXgXgXgXgXgXgXgXgXgXgXgXgXgXgXgXgXgXgXgXgXgXgXgXgXgXgXgXgXgXgXgXgXgXgXgXgXgXgXgXgXgXgXgXgXgXgXgXgXgXgXgXgXgXgXgXgXgXgXgXgXgXgXgXgXgXgXgXgXgXgXgXgXgXgXgXgXgXgXgXgXgXgXgXgXgXgXgXgXgXgXgXgXgXgXgXgXgXgXgXgXgXgXgXgXgXgXgXgXgXgXgXgXgXgXgXgXgXgXgXgXgXgXgXgXgXgXgXgXgXgXgXgXgXgXgXgXgXgXgXgXgXgXgXgXgXgXgXgXgXgXgXgXgXgXgXgXgXgXgXgXgXgXgXgXgXgXgXgXgXgXgXgXgXgXgXgXgXgXgXgXgXgXgXgXgXgXgXgXgXgXgXgXgXgXgXgXgXgXgXgXgXgXgXgXgXgXgXgXgXgXgXgXgXgXgXgXgXgXgXgXgXgXgXgXgXgXgXgXgXgXgXgXgXgXgX$ s m.} s g.x.7.*.0 * * w.(.5.^ 0 * % ` e.e.h.x.x.x.g.g.<.r c e.w.g.f.<.-./ 8 < < 8 8 8 8 9 9 0 0 9 9 9 0 0 0 0 0 0 0 0 8 0 0 0 0 0 0 8 0 8 8 8 8 8 8 8 9 7 9 9 7 8 9 8 8 8 8 8 8 8 8 8 8 8 < < 8 8 < , , 8 8 8 < < < 8 8 8 < < 8 8 8 8 1 , , * * 8 _ 2.2.2.2.-.r / <.w.r.g.g.r.w.2.c 8 r *.*./ 9 O , A ~ A 0 % m R.2.' 2.f.f.f.f.h.g.w.w.f.f.h.k.k.z.g.4...' ' ' =.g.",
"=.< ~.~.2.2.=.2.5.r.g.f.z.z.z.z.f.w.g.h.k.f.4.;.=._ ' X.!.0.z 8 9 *.-.7 * *.<.-.*.r 0 _ 2.w.w.w.<.<.<.;.c z 3.e.3.2.3.` 8 * % * * * * * * * * * , < > , > > < : < , , * * * * * * * * * = : : : , , , , , , , , : , , , 7 7 8 9 , , 8 < < 8 8 8 8 8 8 8 8 8 8 8 9 0 0 0 0 0 0 8 7 8 * % 0 [ 2.3.3.3.1.c 4.f.f.f.i.5.5.2.2.0.8 # 8 m ' j.>X-.o , -.w.g.f.<.s O.B . . gXgXgXgXgXgXgXgXgXgXgXgXgXgXgXgXgXgXgXgXgXgXgXgXgXgXgXgXgXgXgXgXgXgXgXgXgXgXgXgXgXgXgXgXgXgXgXgXgXgXgXgXgXgXgXgXgXgXgXgXgXgXgXgXgXgXgXgXgXgXgXgXgXgXgXgXgXgXgXgXgXgXgXgXgXgXgXgXgXgXgXgXgXgXgXgXgXgXgXgXgXgXgXgXgXgXgXgXgXgXgXgXgXgXgXgXgXgXgXgXgXgXgXgXgXgXgXgXgXgXgXgXgXgXgXgXgXgXgXgXgXgXgXgXgXgXgXgXgXgXgXgXgXgXgXgXgXgXgXgXgXgXgXgXgXgXgXgXgXgXgXgXgXgXgXgXgXgXgXgXgXgXgXgXgXgXgXgXgXgXgXgXgXgXgXgXgXgXgXgXgXgXgXgXgXgXgXgXgXgXgXgXgXgXgXgXgXgXgXgXgXgXgXgXgXgXgXgXgXgXgXgXgXgXgXgXgXgXgXgXgXgXgX$ s m.} s g.x.p.*.0 * * f.(.4.~ 8 * * ` e.5.g.l.l.x.h.g.<.r c 4.w.w.4.4.;.9 * * , , , , , 9 9 8 < 8 8 8 9 9 8 8 < , < < < < < < 8 9 9 , 8 , , , < , , , , , , , , , , , < , , , , , , < , : : : : * : * * , , < , , , , < < < 8 , , < < , , * * % 8 _ 2.2.2.2.=.c ^ <.w.w.w.g.g.w.4.A 8 0 e r J 9 O , ~ ^ A 9 % m Y.2._ =.w.g.g.f.f.f.w.2.;.w.f.k.k.k.f.w.2.' ' ' =.g.",
"=.< ~.~.2.=.=.=.4.w.g.f.h.z.z.z.g.f.f.z.z.f.4.2.2._ ' O.1XL.z 8 9 ^ *.3 * *.w.<.*.r 0 ' 5.w.w.w.<.<.w.<.~ z 2.3.2.2.2.z > < % o # # * * * * * * * * * * * * * % * * * % % % o o # # o % % % % % % % % % * * * : * * * * * * * * * * : * * * , , , , , , , , , , , , , , , , * * * % % 8 0 ' 2.O.O.3.2.A w.z.z.z.z.g.w.5.e.e.8 % 8 V ..j.>X-.o , -.w.g.f.<.f H.W . . gXgXgXgXgXgXgXgXgXgXgXgXgXgXgXgXgXgXgXgXgXgXgXgXgXgXgXgXgXgXgXgXgXgXgXgXgXgXgXgXgXgXgXgXgXgXgXgXgXgXgXgXgXgXgXgXgXgXgXgXgXgXgXgXgXgXgXgXgXgXgXgXgXgXgXgXgXgXgXgXgXgXgXgXgXgXgXgXgXgXgXgXgXgXgXgXgXgXgXgXgXgXgXgXgXgXgXgXgXgXgXgXgXgXgXgXgXgXgXgXgXgXgXgXgXgXgXgXgXgXgXgXgXgXgXgXgXgXgXgXgXgXgXgXgXgXgXgXgXgXgXgXgXgXgXgXgXgXgXgXgXgXgXgXgXgXgXgXgXgXgXgXgXgXgXgXgXgXgXgXgXgXgXgXgXgXgXgXgXgXgXgXgXgXgXgXgXgXgXgXgXgXgXgXgXgXgXgXgXgXgXgXgXgXgXgXgXgXgXgXgXgXgXgXgXgXgXgXgXgXgXgXgXgXgXgXgXgXgXgXgXgXgX$ s m.} s g.x.p.*.8 * * f.x.;.V 8 * * ` e.5.w.f.z.h.g.g.<.A m 2.5.w.5.4.[ 8 * % * * * * * * * , , 8 7 7 7 , , , , * * * * * * * * , , * * * * * * * * * * * * % * # # * * * * # # # # * * * * * * * * # * * , * * * * * * * * * * # # # # o # o , c m 2.5.5.5.2.A [ w.w.4.4.5.5.e.w.V 8 9 e r J 9 O , ^ [ ~ 9 % m R.2._ =.w.g.g.f.z.z.f.4.<.f.f.k.k.k.f.w.2...' ' =.g.",
"=.< ~.j.2.=.=.;.4.w.f.f.g.g.f.h.f.f.f.f.f.f.4.2.2._ _ O.1XY.z 0 9 / / , * *.<.-.*.r 0 ' 4.w.w.w.w.<.4.<.A 1 ..2.2.2.o.x s D > o # # * * * * * * * * * * , : % * * * * * * * * * * * * * * * * * * * * * * * * > > * * , , * * , : , < , , , , , , , * * * * , < , , , , * = * * * * 1 ' 0 ' 3.O.O.3.2.A w.x.0X0Xx.g.w.5.e.0.8 * 8 ` ..t.>X-.o , *.w.f.f.<.z H.' . . gXgXgXgXgXgXgXgXgXgXgXgXgXgXgXgXgXgXgXgXgXgXgXgXgXgXgXgXgXgXgXgXgXgXgXgXgXgXgXgXgXgXgXgXgXgXgXgXgXgXgXgXgXgXgXgXgXgXgXgXgXgXgXgXgXgXgXgXgXgXgXgXgXgXgXgXgXgXgXgXgXgXgXgXgXgXgXgXgXgXgXgXgXgXgXgXgXgXgXgXgXgXgXgXgXgXgXgXgXgXgXgXgXgXgXgXgXgXgXgXgXgXgXgXgXgXgXgXgXgXgXgXgXgXgXgXgXgXgXgXgXgXgXgXgXgXgXgXgXgXgXgXgXgXgXgXgXgXgXgXgXgXgXgXgXgXgXgXgXgXgXgXgXgXgXgXgXgXgXgXgXgXgXgXgXgXgXgXgXgXgXgXgXgXgXgXgXgXgXgXgXgXgXgXgXgXgXgXgXgXgXgXgXgXgXgXgXgXgXgXgXgXgXgXgXgXgXgXgXgXgXgXgXgXgXgXgXgXgXgXgXgXgX$ f H.X.z g.x.p.*.8 * * f.j.=.V 8 * % D 5.2.w.f.z.h.g.w.<.A V e.2.2.2.2.[ V 0 * % : , , , 7 8 8 8 8 8 8 8 8 8 8 7 , * * * * * * * * , , * * * * * * * * * * * * * * * * * * * % # # # * % * * * * * * * * * * # # * * * * * * , * * * # # o # * V ` M 2.2.e.e.2.c *.w.w.2.=.' 1.2.2.m 8 r A *.*.e O , ^ ^ A 0 % m R.2._ =.w.f.g.g.f.f.w.w.4.f.k.z.z.z.g.w.2.o.' ' ' t.",
"=.< g.t.=.=.2.;.4.f.f.f.4.w.r.h.f.f.f.f.f.f.4.2.2._ ( O.1XY.z 0 9 J / 7 * *.<.-.*.A 0 [ 4.w.w.w.4.4.2.;.V z 1...' ....D B ..N * * * * = > = > = > > > = = : & % = > < < 1 s < < > < 1 1 1 > > < 1 1 1 z z z z 1 1 8 1 1 < < 8 8 8 8 z c c 0 0 0 0 0 < < 8 z z c c r 0 c c z 8 1 8 8 ' 2.1 2.3.3.L.0.2.c <.x.x.0Xx.h.w.5.e.0.8 * 0 ' 2.t.>X*.o , *.w.f.f.<.z H.W . . gXgXgXgXgXgXgXgXgXgXgXgXgXgXgXgXgXgXgXgXgXgXgXgXgXgXgXgXgXgXgXgXgXgXgXgXgXgXgXgXgXgXgXgXgXgXgXgXgXgXgXgXgXgXgXgXgXgXgXgXgXgXgXgXgXgXgXgXgXgXgXgXgXgXgXgXgXgXgXgXgXgXgXgXgXgXgXgXgXgXgXgXgXgXgXgXgXgXgXgXgXgXgXgXgXgXgXgXgXgXgXgXgXgXgXgXgXgXgXgXgXgXgXgXgXgXgXgXgXgXgXgXgXgXgXgXgXgXgXgXgXgXgXgXgXgXgXgXgXgXgXgXgXgXgXgXgXgXgXgXgXgXgXgXgXgXgXgXgXgXgXgXgXgXgXgXgXgXgXgXgXgXgXgXgXgXgXgXgXgXgXgXgXgXgXgXgXgXgXgXgXgXgXgXgXgXgXgXgXgXgXgXgXgXgXgXgXgXgXgXgXgXgXgXgXgXgXgXgXgXgXgXgXgXgXgXgXgXgXgXgXgXgX% f m.X.z g.z.p.-.r * * 4.g.-.c 8 : * ` 2.2.w.l.x.h.w.w.<.~ ` 3...D D ' _ _ =.c < 1 1 z z c c c m m M c c m c c c 0 1 < < < 8 9 0 0 c 0 0 0 8 z z 8 8 < < 1 1 1 8 8 8 8 < < < > > : : > < 8 z z 8 8 0 c 8 > = * > < < < < < 1 8 1 < > * * * * c 2.' z 1.2.e.e.2.c *.4.4.4.=.' ' ....z 8 ^ *.-.-.e O , A c r 8 % m R.3.' =.w.w.g.w.w.<.4.5.5.f.z.z.z.h.g.w.2.2.' ' ' e.",
"=.< g.t.' 2.2.4.w.g.f.w.w.e.w.g.f.f.k.k.f.f.2.2..._ ( o.1XY.z 8 9 r / 7 # / <.-.-./ 0 ' 2.4.w.2.2.2.=.=.V M 2.' ( ( ..B s ....s s z f x x x x z f g g g g g g s s x x x x x x x x B B B B B W ( E N _ _ _ ` _ m ' ' _ _ V _ ' ' ' =.=.1.2.2.2.o....._ ] 2.2.o.' ] -.;.;.=.' _ D c m 2.2.< 2.3.3.3.3...c <.z.z.z.z.f.w.4.e.0.8 * c ' o.t.>X*.# , -.w.g.g.<.s m.W . . gXgXgXgXgXgXgXgXgXgXgXgXgXgXgXgXgXgXgXgXgXgXgXgXgXgXgXgXgXgXgXgXgXgXgXgXgXgXgXgXgXgXgXgXgXgXgXgXgXgXgXgXgXgXgXgXgXgXgXgXgXgXgXgXgXgXgXgXgXgXgXgXgXgXgXgXgXgXgXgXgXgXgXgXgXgXgXgXgXgXgXgXgXgXgXgXgXgXgXgXgXgXgXgXgXgXgXgXgXgXgXgXgXgXgXgXgXgXgXgXgXgXgXgXgXgXgXgXgXgXgXgXgXgXgXgXgXgXgXgXgXgXgXgXgXgXgXgXgXgXgXgXgXgXgXgXgXgXgXgXgXgXgXgXgXgXgXgXgXgXgXgXgXgXgXgXgXgXgXgXgXgXgXgXgXgXgXgXgXgXgXgXgXgXgXgXgXgXgXgXgXgXgXgXgXgXgXgXgXgXgXgXgXgXgXgXgXgXgXgXgXgXgXgXgXgXgXgXgXgXgXgXgXgXgXgXgXgXgXgXgXgXgX% f O.{ s f.z.a.<.r * * 4.g.=.M 1 = * ` 2.2.g.x.l.w.2.2.2.^ ' 2...W ' ' m z 4.=.M v D ....' 2.2.2.2.2.2.2.2.2.2.2.2.......' -.;.;.;.;.4.4.;.=.2.2.' ~ [ ' ' _ ~ ~ ` ` _ D D D D B B N W ........' ' ' 1.' B g B D ..' D v z m _ ( N z f f s < 1.e.D M 1.6.2.2.' c -.4.4.5.2.2.o.o.' 0 8 *.*.-.*.e . , A c r 9 * m R.3.' 2.w.f.g.w.w.4.5.2.5.w.f.f.f.f.w.2.2.2.2...' 3.",
"=.< g.t.' =.2.5.w.g.g.g.e.e.w.g.h.k.z.k.z.g.4.2...' ' O.;X0.z 8 9 r *.7 # / <.-.-./ r _ 2.2.2.2.2.o._ _ m M 2.o.' ....N = v ..D x N D D F F F W W B B { { { { { { { { { ....F { ..o.......o.o.2.o...2.2.2.2.' o.e.0.2.2.2.2.2.2.2.2.5.5.w.w.e.0.2.2.2.0.e.2.2.;.2.w.4.;.2.1.' _ V [ 3.~ < 2.2.......' 8 <.f.f.f.f.f.w.5.5.e.< * 0 ' 2.~.uX-.# 9 -.w.g.f.<.s H.W . . gXgXgXgXgXgXgXgXgXgXgXgXgXgXgXgXgXgXgXgXgXgXgXgXgXgXgXgXgXgXgXgXgXgXgXgXgXgXgXgXgXgXgXgXgXgXgXgXgXgXgXgXgXgXgXgXgXgXgXgXgXgXgXgXgXgXgXgXgXgXgXgXgXgXgXgXgXgXgXgXgXgXgXgXgXgXgXgXgXgXgXgXgXgXgXgXgXgXgXgXgXgXgXgXgXgXgXgXgXgXgXgXgXgXgXgXgXgXgXgXgXgXgXgXgXgXgXgXgXgXgXgXgXgXgXgXgXgXgXgXgXgXgXgXgXgXgXgXgXgXgXgXgXgXgXgXgXgXgXgXgXgXgXgXgXgXgXgXgXgXgXgXgXgXgXgXgXgXgXgXgXgXgXgXgXgXgXgXgXgXgXgXgXgXgXgXgXgXgXgXgXgXgXgXgXgXgXgXgXgXgXgXgXgXgXgXgXgXgXgXgXgXgXgXgXgXgXgXgXgXgXgXgXgXgXgXgXgXgXgXgXgXgX% s O.} s w.z.p.-.0 * * 5.j.;.V s = * _ 2.2.r.l.g.5.2.2.;.^ [ 0.2.o.....m 1 ` ' N B { ..3.2.e.t.0.0.0.t.e.e.e.e.e.2.3.3.3.2.5.r.f.w.w.w.w.w.w.e.3.2.2.e.0.2.2.=.;.-.` ' 1.............o.o.2.o.....2.2.2.....{ { ..O.3.2.' N _ 2.2.o...B g x x e.2.c V 1.....' N c -.w.w.w.w.2.o.o.' z 8 A *.*.-.e O , ^ ^ A 9 * m R.3.' 2.w.w.g.g.g.g.r.w.4.f.f.f.f.w.w.e.e.0.0.3...O.",
"=.< g.t.' =.=.2.5.w.g.g.w.2.2.g.x.z.z.k.z.f.w.2.2.....O.1X0.z 8 9 / -.7 * *.<.-.-./ A ' 1.=.2.e.0.3...' M z ..2.2.2.o.D = M o.{ g N N W F ' W ....B B ..{ B g B F { { { ....D ..3.2.2.o.2.2.O.2.1.=.2.2.5.2.' 2.R.0.o.0.R.t.e.2.2.e.g.w.r.g.g.e.2.1.0.e.e.2.=.4.g.g.w.;.2.2.1.' ` 2.3.z 8 2.2...o.3...0 ;.f.g.f.g.g.g.w.e.e.< , c ' 2.^.pX-.# 9 -.w.g.f.;.f H.W . . gXgXgXgXgXgXgXgXgXgXgXgXgXgXgXgXgXgXgXgXgXgXgXgXgXgXgXgXgXgXgXgXgXgXgXgXgXgXgXgXgXgXgXgXgXgXgXgXgXgXgXgXgXgXgXgXgXgXgXgXgXgXgXgXgXgXgXgXgXgXgXgXgXgXgXgXgXgXgXgXgXgXgXgXgXgXgXgXgXgXgXgXgXgXgXgXgXgXgXgXgXgXgXgXgXgXgXgXgXgXgXgXgXgXgXgXgXgXgXgXgXgXgXgXgXgXgXgXgXgXgXgXgXgXgXgXgXgXgXgXgXgXgXgXgXgXgXgXgXgXgXgXgXgXgXgXgXgXgXgXgXgXgXgXgXgXgXgXgXgXgXgXgXgXgXgXgXgXgXgXgXgXgXgXgXgXgXgXgXgXgXgXgXgXgXgXgXgXgXgXgXgXgXgXgXgXgXgXgXgXgXgXgXgXgXgXgXgXgXgXgXgXgXgXgXgXgXgXgXgXgXgXgXgXgXgXgXgXgXgXgXgXgX$ s O.{ s w.z.p.*.0 * , g.(.2._ z < < ' e.2.w.g.g.e.3.0.4.^ [ t.3.o.o...V 8 ~ 2.' B { ..3.e.~.~.0.3.0.j.j.g.j.g.5.2.2.3.O.3.w.g.f.f.g.g.w.w.t.0.3...2.3.3.2...2.4.=.[ 2.2.o.....o.....' o.2.2.2.2.e.e.5.2.2.O.{ ....2.3.2.=.2.w.2.o.' B g x N 3._ 0 ~ ;.2.X...D c -.w.g.g.2.2.' ' o.c 8 A *.-.<.r o , [ -./ 0 % m R.2.' =.5.w.g.h.h.f.f.g.w.f.z.h.g.g.e.t.t.e.0.3.{ O.",
"=.< g.e.' ' 2.<.w.f.z.f.g.w.w.f.z.z.z.z.f.f.f.2...2...o.-X0.c 8 9 / / 7 # *.<.*.*.r 0 =.' ..2.5.3.X...' c 8 ' 2.2.2.o.m * z o...g s f f f g D D B g g F F g d g g B B B F F D B D W W W W W W W ' ' ' o.o...' o.3.....2.2.3.2...' 2.5.2.2.e.t.e.2.=.o.2.3.2.=.2.g.g.4.' ' ..' _ ' e.4.8 8 =.2.2.0.e.=.8 =.w.r.f.g.g.g.2.e.9.8 * c ..3.^.uX-.o 9 -.4.4.4.;.x H.W . . gXgXgXgXgXgXgXgXgXgXgXgXgXgXgXgXgXgXgXgXgXgXgXgXgXgXgXgXgXgXgXgXgXgXgXgXgXgXgXgXgXgXgXgXgXgXgXgXgXgXgXgXgXgXgXgXgXgXgXgXgXgXgXgXgXgXgXgXgXgXgXgXgXgXgXgXgXgXgXgXgXgXgXgXgXgXgXgXgXgXgXgXgXgXgXgXgXgXgXgXgXgXgXgXgXgXgXgXgXgXgXgXgXgXgXgXgXgXgXgXgXgXgXgXgXgXgXgXgXgXgXgXgXgXgXgXgXgXgXgXgXgXgXgXgXgXgXgXgXgXgXgXgXgXgXgXgXgXgXgXgXgXgXgXgXgXgXgXgXgXgXgXgXgXgXgXgXgXgXgXgXgXgXgXgXgXgXgXgXgXgXgXgXgXgXgXgXgXgXgXgXgXgXgXgXgXgXgXgXgXgXgXgXgXgXgXgXgXgXgXgXgXgXgXgXgXgXgXgXgXgXgXgXgXgXgXgXgXgXgXgXgXgX$ s X.{ s 2.r.-./ 8 * 8 g.(.4.` M < = ' e.2.2.2.e.0.3.3.2.A [ e.2.2.' ' V 1 0 ` _ B B B ..2.9.e.0.2.2.5.e.g.e.5.2.1.6.O.o.2.e.g.<.<.4.e.2...2.2.......o...{ ..2.2.1.' ....{ { O.O...W D { ..2...[ 2.2.2.o.' ' B B N ' ' ' ' 2.' ( z N N f s ..2.0 < _ 1.3.t.e._ 8 ^ w.g.w.2.=.' 1.' c 8 A -.<.<.#.o , ^ ~ A 8 * V Y.2.' ' o.o.w.g.h.h.f.f.f.f.f.z.z.f.g.w.2.2.2.o...3.",
"*.< g.e.1.2.2.w.f.x.z.z.h.g.g.f.h.z.z.z.f.f.g.5.....W o./.0.c 8 9 / / , # *.<.-.*./ r *.1...' ' ......' V 8 ..2.2.2...m * < ..o.W f s s f g x x x x B F F F F B B B B B D ..B B x W { { W B B W W ' ' ( ( W W ' o.............' ' ' ......3.3.2.2.2.o.2.2...' 2.2.2.2.' ' D ' 2.e.g.=., 0 =.2.2.0.e.2.c =.4.w.f.g.g.g.3.5.w.8 * c ..0.^.uX-.# 9 -.4.4.4.;.x H.W . . gXgXgXgXgXgXgXgXgXgXgXgXgXgXgXgXgXgXgXgXgXgXgXgXgXgXgXgXgXgXgXgXgXgXgXgXgXgXgXgXgXgXgXgXgXgXgXgXgXgXgXgXgXgXgXgXgXgXgXgXgXgXgXgXgXgXgXgXgXgXgXgXgXgXgXgXgXgXgXgXgXgXgXgXgXgXgXgXgXgXgXgXgXgXgXgXgXgXgXgXgXgXgXgXgXgXgXgXgXgXgXgXgXgXgXgXgXgXgXgXgXgXgXgXgXgXgXgXgXgXgXgXgXgXgXgXgXgXgXgXgXgXgXgXgXgXgXgXgXgXgXgXgXgXgXgXgXgXgXgXgXgXgXgXgXgXgXgXgXgXgXgXgXgXgXgXgXgXgXgXgXgXgXgXgXgXgXgXgXgXgXgXgXgXgXgXgXgXgXgXgXgXgXgXgXgXgXgXgXgXgXgXgXgXgXgXgXgXgXgXgXgXgXgXgXgXgXgXgXgXgXgXgXgXgXgXgXgXgXgXgXgXgX$ < X.} s 2.4.;./ 8 * , g.(.w.` M < > [ w.2...2.4.3.3.2.=.A ^ e.5.2.2.=.~ 8 8 ^ ' ( B N ' ' 2.2.3...' ' 2.e.e.2.2.3.3.3.X.2.w.w.4.2.4.2.2.o.o.o.......X.X.......' ' ..........O.O...{ W ........B { { { X.{ { g g B N N B N ' ( v f z x z N 2.[ < 8 D 1.0.Y.e._ z ^ 4.w.4.2.2.;.2.2.V 0 *.<.<.<.J o , ^ ~ A 8 * V Y.2.' ' o.] 2.w.f.f.f.f.f.f.f.f.k.f.g.w.4.2.2.....3.",
"` < ~.e.2.2.2.r.h.z.k.k.h.h.f.f.f.f.f.f.f.f.g.w.....W ../.0.c 8 9 r r # # / <.,.*.r r -.2..._ ` ` 2...=.V 8 ' 2.2...' M * 8 =.2...N z s f z z z z N z z s s s s s s s s z N x z z z N N z z z N N N m z z m m z v N B z v v B N v z z B W ' ' ....o.' ' ' ' ' ' [ -.=.=.' N D ' 2.4.A , 0 =.2.3.3.5.=.c =.=.;.w.g.g.g.2.3.5.8 * c ' 3.^.uX-.o 7 *.4.4.4.;.x H.W . . gXgXgXgXgXgXgXgXgXgXgXgXgXgXgXgXgXgXgXgXgXgXgXgXgXgXgXgXgXgXgXgXgXgXgXgXgXgXgXgXgXgXgXgXgXgXgXgXgXgXgXgXgXgXgXgXgXgXgXgXgXgXgXgXgXgXgXgXgXgXgXgXgXgXgXgXgXgXgXgXgXgXgXgXgXgXgXgXgXgXgXgXgXgXgXgXgXgXgXgXgXgXgXgXgXgXgXgXgXgXgXgXgXgXgXgXgXgXgXgXgXgXgXgXgXgXgXgXgXgXgXgXgXgXgXgXgXgXgXgXgXgXgXgXgXgXgXgXgXgXgXgXgXgXgXgXgXgXgXgXgXgXgXgXgXgXgXgXgXgXgXgXgXgXgXgXgXgXgXgXgXgXgXgXgXgXgXgXgXgXgXgXgXgXgXgXgXgXgXgXgXgXgXgXgXgXgXgXgXgXgXgXgXgXgXgXgXgXgXgXgXgXgXgXgXgXgXgXgXgXgXgXgXgXgXgXgXgXgXgXgXgXgX$ < } } d 2.w.;.*.0 * , 4.j.4.V z < * -.5.2.1.2.2.2.o.1.=.c ^ e.w.w.5.2.^ 8 8 ^ [ ~ m c V ~ E m m m c 0 0 m m c V ' N N B ( _ ^ ~ ~ _ _ _ N N N N ( D W W D N N V ` _ _ N B B N B v z z N N N x B B B B W B g f f v m v m N _ ( m z s z z m ' 0 , c _ ..2.2.2._ c ~ =.<.w.g.g.4.2.=.A 0 *.<.<.-.r X , ^ ~ A 8 * D Y.2.' ' o.2.5.w.g.f.g.f.f.f.f.p.f.f.f.f.4.4.2.1...e.",
"` < ~.e.2.2.2.w.g.h.f.f.f.f.f.f.f.f.f.f.g.f.g.e.o...' ..R.0.z 8 8 r r # # A <.-.*.r r =.2.o.' [ =.2.2.=.~ 8 ' 2.1.' ' V 7 9 A V 1 < * % % % % % % % o o o o % . % % % % o * % % % % % % % % % % * * * * * * * % * % % % * * * * * * * * , : * , 8 8 8 9 9 < 8 < < 8 8 8 < < < , , 8 , 8 ^ ;.2.e.5.2.=.c ' 2.2.4.g.g.t.2.2.5.8 * 0 _ 2.j.uX-.o , ^ 4.4.4.;.D H.B . . gXgXgXgXgXgXgXgXgXgXgXgXgXgXgXgXgXgXgXgXgXgXgXgXgXgXgXgXgXgXgXgXgXgXgXgXgXgXgXgXgXgXgXgXgXgXgXgXgXgXgXgXgXgXgXgXgXgXgXgXgXgXgXgXgXgXgXgXgXgXgXgXgXgXgXgXgXgXgXgXgXgXgXgXgXgXgXgXgXgXgXgXgXgXgXgXgXgXgXgXgXgXgXgXgXgXgXgXgXgXgXgXgXgXgXgXgXgXgXgXgXgXgXgXgXgXgXgXgXgXgXgXgXgXgXgXgXgXgXgXgXgXgXgXgXgXgXgXgXgXgXgXgXgXgXgXgXgXgXgXgXgXgXgXgXgXgXgXgXgXgXgXgXgXgXgXgXgXgXgXgXgXgXgXgXgXgXgXgXgXgXgXgXgXgXgXgXgXgXgXgXgXgXgXgXgXgXgXgXgXgXgXgXgXgXgXgXgXgXgXgXgXgXgXgXgXgXgXgXgXgXgXgXgXgXgXgXgXgXgXgXgXgXo : } G s 2.e.w.-.0 * , 4.g.;.m 8 = * -.w.2.2.3.5.3.....=.c ^ g.r.w.w.;.^ r 8 8 , , * * * * * * * # # o o o o o * : * * * , , , , , : * > : * , < < : < < , , , , 9 , : % % % % % * % % * % % * * # # # * * * % % * * * * * < > : * % % * % : * , A ' ........V c ~ =.w.g.g.h.w.4.2.~ r ^ -.*.*.r O , ^ ^ A 0 : _ R.2.' ' o.2.e.g.f.g.w.g.f.f.p.p.f.f.g.f.f.4.2.1...w.",
"*.< (.e.2.2.2.5.e.g.f.f.g.f.f.f.f.z.f.g.w.4.w.2.o...' ..R.0.z 8 9 r r * % r -.*./ r r ' 2.2...' =.2.2.=.A 8 ' 2...2.2.[ 9 o # o o # # # # # # # * # # # # # # # # # # # o # # * # # * , , , , , , , 7 9 9 9 7 9 8 9 9 8 9 9 7 7 7 7 9 7 9 7 7 9 e 9 9 9 9 9 9 8 8 9 9 9 8 9 9 8 , , , 0 -.4.2.e.e.2.-.c ..2.2.w.h.j.e.1.2.2.< * c _ 1.e.>X*.o , ^ 4.4.4.;.D m.B . . gXgXgXgXgXgXgXgXgXgXgXgXgXgXgXgXgXgXgXgXgXgXgXgXgXgXgXgXgXgXgXgXgXgXgXgXgXgXgXgXgXgXgXgXgXgXgXgXgXgXgXgXgXgXgXgXgXgXgXgXgXgXgXgXgXgXgXgXgXgXgXgXgXgXgXgXgXgXgXgXgXgXgXgXgXgXgXgXgXgXgXgXgXgXgXgXgXgXgXgXgXgXgXgXgXgXgXgXgXgXgXgXgXgXgXgXgXgXgXgXgXgXgXgXgXgXgXgXgXgXgXgXgXgXgXgXgXgXgXgXgXgXgXgXgXgXgXgXgXgXgXgXgXgXgXgXgXgXgXgXgXgXgXgXgXgXgXgXgXgXgXgXgXgXgXgXgXgXgXgXgXgXgXgXgXgXgXgXgXgXgXgXgXgXgXgXgXgXgXgXgXgXgXgXgXgXgXgXgXgXgXgXgXgXgXgXgXgXgXgXgXgXgXgXgXgXgXgXgXgXgXgXgXgXgXgXgXgXgXgXgXgXgXo & j j d 3.e.<.^ 8 * , 4.g.;.V z < * -.w.2.2.3.5.3.....=.0 ^ j.g.g.w.;.-.~ 8 * o * , , 7 7 7 9 9 9 7 7 7 7 9 , 9 9 9 r 0 r 9 9 8 8 8 8 8 8 8 9 0 0 9 9 9 9 9 7 7 9 9 7 , , , , , , , , * * * * , , * * , 7 7 , , , 7 7 , , , , 7 9 9 9 7 , # * 8 c 1.3.3.3.2._ c ~ 2.2.4.w.w.w.w.2.~ r / *.*.*.r X * ^ [ ~ 0 : ' R.3.' ' o.2.5.g.g.g.w.4.w.7.p.f.f.g.g.g.w.<.=...' w.",
"` 8 (.e.2.2.2.2.5.w.w.w.g.f.f.f.f.h.f.w.4.;.4.2.' 1.' ..E.0.z 8 9 0 r * % 0 *.J r r r ` 1.2.2.2.2.o...` A 8 ' o.o.2.2.-.8 # # # , , , 9 9 9 9 8 8 8 8 8 0 0 c A 0 0 8 8 9 9 0 0 8 8 0 r r 0 0 0 0 r r r r r 0 0 A r A A A r r 9 9 r r r r r r r *./ / / / / / / *./ *.*.*.*.*.-.^ 0 8 0 ^ w.g.g.w.2.-.M ..2.2.g.j.g.w.=.2.w.< * r ` 2.e.(.*.o * A 4.4.<.;.D m.g . . gXgXgXgXgXgXgXgXgXgXgXgXgXgXgXgXgXgXgXgXgXgXgXgXgXgXgXgXgXgXgXgXgXgXgXgXgXgXgXgXgXgXgXgXgXgXgXgXgXgXgXgXgXgXgXgXgXgXgXgXgXgXgXgXgXgXgXgXgXgXgXgXgXgXgXgXgXgXgXgXgXgXgXgXgXgXgXgXgXgXgXgXgXgXgXgXgXgXgXgXgXgXgXgXgXgXgXgXgXgXgXgXgXgXgXgXgXgXgXgXgXgXgXgXgXgXgXgXgXgXgXgXgXgXgXgXgXgXgXgXgXgXgXgXgXgXgXgXgXgXgXgXgXgXgXgXgXgXgXgXgXgXgXgXgXgXgXgXgXgXgXgXgXgXgXgXgXgXgXgXgXgXgXgXgXgXgXgXgXgXgXgXgXgXgXgXgXgXgXgXgXgXgXgXgXgXgXgXgXgXgXgXgXgXgXgXgXgXgXgXgXgXgXgXgXgXgXgXgXgXgXgXgXgXgXgXgXgXgXgXgXgXgX$ & j j d 0.w.-.^ 8 * * 4.j.4._ M < * ` w.2.2.3.5.3.X...-.0 / j.g.g.w.4.-.V 0 , 7 9 9 9 0 9 r r A r r r r r r r ~ ^ ^ *.*.^ ^ / A A ~ Z A A ~ ^ ^ ^ ^ ~ A r r r r r r 0 0 0 0 0 9 0 0 0 0 0 r 0 c c c 0 0 0 r r 0 9 r r r 0 r r A A r r r 9 , 7 8 0 ' 0.3.2.2.[ V _ ....2.5.w.w.4.2.~ 0 / *.-.*.r   * ~ [ ~ 0 : ' R.3.....2.=.w.f.h.w.4.4.<.<.p.f.f.w.w.w.w.;.' ' ' e.",
"^ < ^.e.=.2.2.2.2.2.w.r.g.f.f.f.f.f.g.e.w.5.w.e.2.1._ o.-X0.c 8 8 0 r * * A *.*.*.r 9 ' ......3.2...W D A 8 ' ..2.0.2.` 8 * # # * * : : < < 8 0 8 8 < 1 z z z z 1 1 < 1 1 8 8 1 < > 1 z z z z z 8 0 0 0 0 0 8 1 z c c z 1 1 < 1 1 1 1 8 8 8 0 0 c c c c 0 c A A c 0 c c c A A A 0 , , 8 0 4.g.e.2.;.-.M ....3.g.g.e.5.2.2.w.8 * 0 ` 2.g.>X*.o , ^ 4.4.4.;.D m.f . . gXgXgXgXgXgXgXgXgXgXgXgXgXgXgXgXgXgXgXgXgXgXgXgXgXgXgXgXgXgXgXgXgXgXgXgXgXgXgXgXgXgXgXgXgXgXgXgXgXgXgXgXgXgXgXgXgXgXgXgXgXgXgXgXgXgXgXgXgXgXgXgXgXgXgXgXgXgXgXgXgXgXgXgXgXgXgXgXgXgXgXgXgXgXgXgXgXgXgXgXgXgXgXgXgXgXgXgXgXgXgXgXgXgXgXgXgXgXgXgXgXgXgXgXgXgXgXgXgXgXgXgXgXgXgXgXgXgXgXgXgXgXgXgXgXgXgXgXgXgXgXgXgXgXgXgXgXgXgXgXgXgXgXgXgXgXgXgXgXgXgXgXgXgXgXgXgXgXgXgXgXgXgXgXgXgXgXgXgXgXgXgXgXgXgXgXgXgXgXgXgXgXgXgXgXgXgXgXgXgXgXgXgXgXgXgXgXgXgXgXgXgXgXgXgXgXgXgXgXgXgXgXgXgXgXgXgXgXgXgXgXgXgX$ : j j u 3.r.-.^ 0 * , w.(.w.[ m < * [ e.2.2.3.3.3.3...` 9 ^ t.e.e.w.w.=.c , * 8 8 9 8 8 8 8 0 0 0 0 0 0 0 < < c V c A c c z 0 0 0 r 0 0 0 c c c m c c z c 0 8 8 8 < < < < > < < > < < < , < 8 8 < 8 8 8 8 8 0 8 0 0 9 8 8 0 c c 0 0 0 8 9 , * , 8 ' 0.3.2.2.` m N D D ..5.g.w.4.2.V 0 / *.-.*.r   * ~ ^ ~ 0 : ' R.3...2.2.w.h.f.h.g.w.4.w.f.f.f.f.2.2.e.w.2.' ....0.",
"^ , x.e.1.2.2.2.w.g.f.f.g.g.f.f.f.f.f.g.f.g.f.4.2.' ..o./.e.0 , 9 0 9 # % 0 -.*./ r r D ..{ { { { { D V c < _ ..1.2.2.z > % . o # # # # # # , , * , , , , , , , , * * * * * * * * * * , , : : , , , , , , , , < < < < , , , , < , , , < < < , , < 8 < 8 8 8 8 8 , 7 , < , , , , # , , 0 V =.5.2.2.2.=.c D { { X.3.e.e.2.2.5.8 # e ` 2.g.>X<.. * ^ 4.w.w.1.g { g .   gXgXgXgXgXgXgXgXgXgXgXgXgXgXgXgXgXgXgXgXgXgXgXgXgXgXgXgXgXgXgXgXgXgXgXgXgXgXgXgXgXgXgXgXgXgXgXgXgXgXgXgXgXgXgXgXgXgXgXgXgXgXgXgXgXgXgXgXgXgXgXgXgXgXgXgXgXgXgXgXgXgXgXgXgXgXgXgXgXgXgXgXgXgXgXgXgXgXgXgXgXgXgXgXgXgXgXgXgXgXgXgXgXgXgXgXgXgXgXgXgXgXgXgXgXgXgXgXgXgXgXgXgXgXgXgXgXgXgXgXgXgXgXgXgXgXgXgXgXgXgXgXgXgXgXgXgXgXgXgXgXgXgXgXgXgXgXgXgXgXgXgXgXgXgXgXgXgXgXgXgXgXgXgXgXgXgXgXgXgXgXgXgXgXgXgXgXgXgXgXgXgXgXgXgXgXgXgXgXgXgXgXgXgXgXgXgXgXgXgXgXgXgXgXgXgXgXgXgXgXgXgXgXgXgXgXgXgXgXgXgXgXgX$ > G j s 2.w.<.^ 9 * , g.(.5.' M > , =.5.3.3.3.{ X.{ ..` 0 r g.w.w.5.2.=.c * o * , , , , < 8 8 8 8 8 8 < < < < 8 1 1 0 8 8 8 8 8 < < < < < < < 1 1 < , , < , , , , , * * , * * , * * * * * * * * * * * * * * * , , * * * * , , , , , , , # # * 8 ~ _ 2.3...' [ c z F F ..2.w.w.w.=.V 0 r *.-.*.e   # V [ A 8 , [ ^.3.1.2.w.f.z.h.f.g.f.f.f.f.f.g.w.5.w.w.4.2.....{ 0.",
"` , x.g.2.2.2.e.g.h.f.f.f.f.g.g.f.g.g.f.f.f.g.4.2.....2./.0.8 , 9 0 0 # o r -.-.*.r 9 D ..{ { ..X.{ N M 0 1 ..3.e.2.2.m M c o . o % * * * * , , , , , , , < < , , , , , , , , , < , < < < < < < , , , < 8 < 8 < < < < < , , < < < < , < , < < < 8 0 < 8 8 8 0 0 0 8 8 8 < < 8 0 8 8 0 =.' =.w.2.3.2.=.M ' ..X...2.w.e.2.2.e.9 * 9 ` 5.(.uX-.o * A 4.e.5...d } g .   gXgXgXgXgXgXgXgXgXgXgXgXgXgXgXgXgXgXgXgXgXgXgXgXgXgXgXgXgXgXgXgXgXgXgXgXgXgXgXgXgXgXgXgXgXgXgXgXgXgXgXgXgXgXgXgXgXgXgXgXgXgXgXgXgXgXgXgXgXgXgXgXgXgXgXgXgXgXgXgXgXgXgXgXgXgXgXgXgXgXgXgXgXgXgXgXgXgXgXgXgXgXgXgXgXgXgXgXgXgXgXgXgXgXgXgXgXgXgXgXgXgXgXgXgXgXgXgXgXgXgXgXgXgXgXgXgXgXgXgXgXgXgXgXgXgXgXgXgXgXgXgXgXgXgXgXgXgXgXgXgXgXgXgXgXgXgXgXgXgXgXgXgXgXgXgXgXgXgXgXgXgXgXgXgXgXgXgXgXgXgXgXgXgXgXgXgXgXgXgXgXgXgXgXgXgXgXgXgXgXgXgXgXgXgXgXgXgXgXgXgXgXgXgXgXgXgXgXgXgXgXgXgXgXgXgXgXgXgXgXgXgXgX$ > } G x e.g.8.*.0 * , g.(.5.' z > * =.0.3.3.2.......' _ 0 A g.e.e.e.5.` c 8 % o * , , < , , , , , 8 , , , , < 8 8 8 8 8 8 8 8 8 8 8 8 8 8 8 0 0 0 0 0 8 8 8 8 8 8 8 8 8 8 < , , , , , , , , , , , , , , , < < < 8 8 8 8 8 8 8 8 , , , , , , 8 ^ =.' 3.3...' _ A N { { { 3.3.2.=.' m 0 A =.=.*.r . # ` =.~ 8 , ' R.3.' 2.g.f.f.f.f.f.h.h.f.f.f.f.w.e.r.g.4.4.1.....0.",
"Z , x.g.2.2.2.2.w.g.f.f.f.f.g.g.w.f.g.g.f.f.f.4.2.......E.0.8 8 7 0 0 # % r -.-./ r 9 V ..' W ......N c 0 1 ..3.2.2...N ' 2.M = = < 8 s s z z z 0 0 0 z z 0 0 z z M c c c c V V V m V V m c m V A c c m V V V m _ _ ~ V A A V m V m m m c A ~ ~ ~ V ~ ~ ` ` [ [ ` ^ ^ ~ ~ _ _ ` ^ A ' e.2.2.e.t.e.5.=.c D ......2.r.e.0.3.e.0 * 0 ` 3.~.,X*.o * A 4.e.2.' d } g . . gXgXgXgXgXgXgXgXgXgXgXgXgXgXgXgXgXgXgXgXgXgXgXgXgXgXgXgXgXgXgXgXgXgXgXgXgXgXgXgXgXgXgXgXgXgXgXgXgXgXgXgXgXgXgXgXgXgXgXgXgXgXgXgXgXgXgXgXgXgXgXgXgXgXgXgXgXgXgXgXgXgXgXgXgXgXgXgXgXgXgXgXgXgXgXgXgXgXgXgXgXgXgXgXgXgXgXgXgXgXgXgXgXgXgXgXgXgXgXgXgXgXgXgXgXgXgXgXgXgXgXgXgXgXgXgXgXgXgXgXgXgXgXgXgXgXgXgXgXgXgXgXgXgXgXgXgXgXgXgXgXgXgXgXgXgXgXgXgXgXgXgXgXgXgXgXgXgXgXgXgXgXgXgXgXgXgXgXgXgXgXgXgXgXgXgXgXgXgXgXgXgXgXgXgXgXgXgXgXgXgXgXgXgXgXgXgXgXgXgXgXgXgXgXgXgXgXgXgXgXgXgXgXgXgXgXgXgXgXgXgXgXgX$ > } G B w.f.<./ 8 # , f.(.2.D s * * [ 0.2.2.2.5.2.' _ _ c ^ j.t.e.e.2._ c =.m > 1 z M m m c ~ V m E c c ^ ~ V ` [ ~ V ^ ` [ -.[ [ [ [ [ -.-.=.-.` A V ~ _ _ ^ ^ ~ ~ V _ _ m z m V m V ~ ^ ~ A c A A c c c c z z z M m m m V m c c A m c c c D 5.2.' 6.2.2..._ c N { { { ..o.o.2...z 8 A ^ A A 0 . # [ 2.` 8 * ' Y...' 2.e.g.g.w.f.g.g.f.f.f.f.f.w.w.r.g.4.;.' ....3.",
"V , x.e.1.1.2.2.5.g.f.f.f.f.g.w.w.w.w.g.f.h.f.w.2.......R.0.z 8 7 0 0 # % 0 ^ / A r 9 V ' ' ..1.=.' V c 0 1 ....{ ....z z 6...z s z x B B N W ' ' ' ' ..W N N N W ' ' ' ' ' ........2.2.2.' ..2.2.2.2.o.2.2...2.2.2.2.2.;.2.2.1.......2.5.w.e.w.;.=.2.2.2.2.2.w.w.w.2.2.2.2.2.1.' _ 2.e.' ' e.t.e.9.=.c D ....2.w.g.t.0.3.e.8 * 0 D ..0.(.^ o , c 2.5.2.' d } d . . gXgXgXgXgXgXgXgXgXgXgXgXgXgXgXgXgXgXgXgXgXgXgXgXgXgXgXgXgXgXgXgXgXgXgXgXgXgXgXgXgXgXgXgXgXgXgXgXgXgXgXgXgXgXgXgXgXgXgXgXgXgXgXgXgXgXgXgXgXgXgXgXgXgXgXgXgXgXgXgXgXgXgXgXgXgXgXgXgXgXgXgXgXgXgXgXgXgXgXgXgXgXgXgXgXgXgXgXgXgXgXgXgXgXgXgXgXgXgXgXgXgXgXgXgXgXgXgXgXgXgXgXgXgXgXgXgXgXgXgXgXgXgXgXgXgXgXgXgXgXgXgXgXgXgXgXgXgXgXgXgXgXgXgXgXgXgXgXgXgXgXgXgXgXgXgXgXgXgXgXgXgXgXgXgXgXgXgXgXgXgXgXgXgXgXgXgXgXgXgXgXgXgXgXgXgXgXgXgXgXgXgXgXgXgXgXgXgXgXgXgXgXgXgXgXgXgXgXgXgXgXgXgXgXgXgXgXgXgXgXgXgXgX& < } j B w.f.<./ 8 # , w.(.1.z < * * ^ 2.2.2.4.r.w.-.` ` c ^ ~.t.2.2.1.V 0 2.2.N x N ' ..2.2.0.3.2.2.3.3.0.3.3.e.e.2.2.2.e.t.t.e.w.2.e.e.g.g.g.w.2.=.2.2.2.2.2.2.2.=.2.2.2...' ..2.' =.2.2.2.=.=.=.=.=.=.' ` ' W ' ' ' ' ' ' ' ' ' ' _ D V m ' e.' m ' 1.6...~ 0 V ..{ { ....2.2...v z z c 8 0 0 o * _ o._ < * ' 0...' o.2.w.w.f.f.f.w.w.f.f.p.w.w.w.w.w.w.4.=.....2.",
"_ < (.e.' ..2.2.2.w.w.f.g.f.w.5.2.w.w.w.g.f.g.w.2......./.0.c 8 9 0 0 # o 8 ~ A A 0 0 D ' ' 5.5.;.=.[ A c z ........o.m = N 3.D s z x x B D { ......O.O...F { { { { ........o.2.2.3.3.2.2.2.2.2.2.2.2.2.3.2.o.2.3.3.2.2.4.e.e.2.2.3.3.e.j.^.^.j.e.2.e.e.e.e.e.e.e.e.9.2.2.o.....' ' 5.2.m ' 2.3.3.2.=.c ' 2.3.2.e.j.g.3.2.e.8 * 0 D ..3.~.[ o , A =.' ' D d } d . . gXgXgXgXgXgXgXgXgXgXgXgXgXgXgXgXgXgXgXgXgXgXgXgXgXgXgXgXgXgXgXgXgXgXgXgXgXgXgXgXgXgXgXgXgXgXgXgXgXgXgXgXgXgXgXgXgXgXgXgXgXgXgXgXgXgXgXgXgXgXgXgXgXgXgXgXgXgXgXgXgXgXgXgXgXgXgXgXgXgXgXgXgXgXgXgXgXgXgXgXgXgXgXgXgXgXgXgXgXgXgXgXgXgXgXgXgXgXgXgXgXgXgXgXgXgXgXgXgXgXgXgXgXgXgXgXgXgXgXgXgXgXgXgXgXgXgXgXgXgXgXgXgXgXgXgXgXgXgXgXgXgXgXgXgXgXgXgXgXgXgXgXgXgXgXgXgXgXgXgXgXgXgXgXgXgXgXgXgXgXgXgXgXgXgXgXgXgXgXgXgXgXgXgXgXgXgXgXgXgXgXgXgXgXgXgXgXgXgXgXgXgXgXgXgXgXgXgXgXgXgXgXgXgXgXgXgXgXgXgXgXgXgX$ s } G v w.f.<.^ 9 * * 4.g.' z s * * ^ 2.o.w.g.r.w.;.[ ^ c ~ Y.e.2.....D 8 *.2...B D ....3.Y.R.L.3.3.Y.Y.L.L.Y.R.Y.3.3.3.e.R.R.t.e.0.t.~.^.^.j.e.2.3.3.3.3.3.3.3.2.2.2.2.2.o.o.3.2...2.2.2.2.2.2.2.9.2.2...........o.o.o.o.2.2.o.....' N m N ..2.c z ' ' ' _ m 0 ^ 1.....2.5.4.4.2.D z z z 8 0 0 o o V ' V 8 * ' 0.o.....] ;.w.f.f.g.w.4.w.w.4.4.5.w.w.w.w.4.2.....2.",
"_ < j.e.' ' o.2.2.2.5.w.w.e.w.2.2.2.9.4.w.w.w.5.2...' ..^.0.0 9 9 r 9 # o 8 ^ [ ^ 0 9 D ' ' 4.4.<.<.=.^ c 1 .........._ * 1 2.D s s x x B B { { { { X.X.{ F { { { ....X.X.X...o.3.0.3.o...O.O.3.2...o.O.3.o.o.O.3.2.2.2.w.t.e.2.o.3.0.e.t.~.~.R.e.e.Y.0.0.0.3.2.3.e.3.2.........' ..e.1.z ' o...o.2.' z _ 2.2.w.g.j.g.3.2.5., * c D ..0.^.*.# * c [ ` ' D s } d . . gXgXgXgXgXgXgXgXgXgXgXgXgXgXgXgXgXgXgXgXgXgXgXgXgXgXgXgXgXgXgXgXgXgXgXgXgXgXgXgXgXgXgXgXgXgXgXgXgXgXgXgXgXgXgXgXgXgXgXgXgXgXgXgXgXgXgXgXgXgXgXgXgXgXgXgXgXgXgXgXgXgXgXgXgXgXgXgXgXgXgXgXgXgXgXgXgXgXgXgXgXgXgXgXgXgXgXgXgXgXgXgXgXgXgXgXgXgXgXgXgXgXgXgXgXgXgXgXgXgXgXgXgXgXgXgXgXgXgXgXgXgXgXgXgXgXgXgXgXgXgXgXgXgXgXgXgXgXgXgXgXgXgXgXgXgXgXgXgXgXgXgXgXgXgXgXgXgXgXgXgXgXgXgXgXgXgXgXgXgXgXgXgXgXgXgXgXgXgXgXgXgXgXgXgXgXgXgXgXgXgXgXgXgXgXgXgXgXgXgXgXgXgXgXgXgXgXgXgXgXgXgXgXgXgXgXgXgXgXgXgXgXgX% s } j z w.p.<.*.0 * * ;.g.=.m z * * _ 2.o.2.w.4.4.;.-.` c ~ 3.3.o.....D < c 2...B D F ..3.T.T.H.O.3.L.H.H.H.L.L.3.3.3.3.Y.Y.0.3.3.0.0.Y.~.Y.t.0.3.3.3.O.O...o.2.3.2.....o.o.o.O.O...o.2.2.o.o.o.2.0.3.2.o...{ { ....{ { ........{ { W D B D ..o.1 c =.' ' ( ~ 0 ^ 2.2.2.2.4.4.4.=.M z z c 0 r 9 . o c _ V 8 : ' Y.o.....2.;.w.f.g.w.2.=.2.5.2.2.2.w.w.w.f.w.2.....2.",
"' < j.e...o.o.2.2.3.3.2.2.2.2.2.2.2.0.4.w.<.<.2.2.....o.^.9.0 , 7 r r # o 8 [ ;.*.r 0 D ' ' 2.<.<.<.;.-.A 8 ........' ` < < ' ..g s g g B B F D g B { { g g { B F { { { { { W { ..o.......{ ..o...........{ { ..o.....2.w.e.2.....O.O.3.3.3.0.0.3.3.0.0.0.3.3.2.3.Y.0.o...{ ....' o.e._ z ' ..' ..1.1.c _ =.2.w.g.j.g.3.2.2., * c ' 3.Y.,X*.# , A ;.;.2._ s } s .   gXgXgXgXgXgXgXgXgXgXgXgXgXgXgXgXgXgXgXgXgXgXgXgXgXgXgXgXgXgXgXgXgXgXgXgXgXgXgXgXgXgXgXgXgXgXgXgXgXgXgXgXgXgXgXgXgXgXgXgXgXgXgXgXgXgXgXgXgXgXgXgXgXgXgXgXgXgXgXgXgXgXgXgXgXgXgXgXgXgXgXgXgXgXgXgXgXgXgXgXgXgXgXgXgXgXgXgXgXgXgXgXgXgXgXgXgXgXgXgXgXgXgXgXgXgXgXgXgXgXgXgXgXgXgXgXgXgXgXgXgXgXgXgXgXgXgXgXgXgXgXgXgXgXgXgXgXgXgXgXgXgXgXgXgXgXgXgXgXgXgXgXgXgXgXgXgXgXgXgXgXgXgXgXgXgXgXgXgXgXgXgXgXgXgXgXgXgXgXgXgXgXgXgXgXgXgXgXgXgXgXgXgXgXgXgXgXgXgXgXgXgXgXgXgXgXgXgXgXgXgXgXgXgXgXgXgXgXgXgXgXgXgX% s } F z w.f.<.*.0 * * 4.(.4._ m < * ` 2...2.;.=.2.2.=.[ 0 ~ o.....o...` 8 8 ` ' B D D ..3.0.0.O.O.O.O.O.O.O.3.3.....3.3.3.3.3.3.3.3.3.0.0.3.2.2.X.X.X.X.X.....................X.X.....o.o.o.....2.2.2.......F F { ..{ { ....O...{ B B B B W o.' < ~ =.2.o.' ~ 0 A =...' 2.2.;.2.' z < c c r r e o o c ` ~ 8 , =.Y...' 2.e.w.w.f.f.w.2.' 1.2.2.....2.4.w.w.w.2.2...3.",
"` < j.e...2.2.2.0.3.3.2...o.e.e.2.o.2.2.w.w.<.;.2.....o.R.2.0 , 7 r r o o 8 ^ ^ ^ A z D ..' ` =.<.;.;.-.A < ' ....1.=._ < 1 ' ' N s s B W W D D B { ..{ B B W W { { { { | o.....o.........{ { X.O.O.O.X.............o.2.2.3.2.2.o.2.2.3.2.3.e.5.2.2.2.0.t.t.3.2.0.R.e.2.o.......' e.e.V < ' ' ' 2.2...z ^ =.=.4.g.(.~.3.2.3.8 * c ..3.~.(./ # , A <.4.w.[ s } s . . gXgXgXgXgXgXgXgXgXgXgXgXgXgXgXgXgXgXgXgXgXgXgXgXgXgXgXgXgXgXgXgXgXgXgXgXgXgXgXgXgXgXgXgXgXgXgXgXgXgXgXgXgXgXgXgXgXgXgXgXgXgXgXgXgXgXgXgXgXgXgXgXgXgXgXgXgXgXgXgXgXgXgXgXgXgXgXgXgXgXgXgXgXgXgXgXgXgXgXgXgXgXgXgXgXgXgXgXgXgXgXgXgXgXgXgXgXgXgXgXgXgXgXgXgXgXgXgXgXgXgXgXgXgXgXgXgXgXgXgXgXgXgXgXgXgXgXgXgXgXgXgXgXgXgXgXgXgXgXgXgXgXgXgXgXgXgXgXgXgXgXgXgXgXgXgXgXgXgXgXgXgXgXgXgXgXgXgXgXgXgXgXgXgXgXgXgXgXgXgXgXgXgXgXgXgXgXgXgXgXgXgXgXgXgXgXgXgXgXgXgXgXgXgXgXgXgXgXgXgXgXgXgXgXgXgXgXgXgXgXgXgXgX% < } F z w.h.<./ 8 * * 4.(.4.-.~ 8 * ` 2.2.1.;.=.2.2.2.=.c V { ......1.` , , V ' W B B { O.3.L.L.3.3.L.L.0.0.3.3.o.o.3.3.3.3.3.3.3.3.0.3.2.2.o.o.....O.3.O.O.O.3.3.3.3.2.2.3.3.O.O.o.3.3.3.3.2.........o.o...F { { ..O.O.O.3.O.{ { { { { W o.3.V < A -.' ....[ 0 0 D ' ' 2.2.2.2.' c < z V c c 8 O o c ` A 8 * ' Y...' 2.w.w.g.w.<.w.4.=.2.2...F { ..2.<.w.4.2.....2.",
"` < ~.0.' ..' 2.e.t.e.0.5.3.e.e.' ' ' 2.g.j.g.w.2.....o.^.2.0 7 9 r r # o 8 ^ ^ ^ A c ' ..' [ -.<.4.;.^ c 8 ' ..' ' =.^ * < ` 2...N N ' ' _ N N v ( _ ( m m N ( ( ' ' ' ' ' ' ' ' ' ' _ _ N ( ' ' ....' ' ' ' ' ' ' ' ' ' 2.1.' _ _ _ ` ` ` =.=.=.` ` =.;.=.` ^ ` [ ~ V V _ _ ~ ` 2.4.A 0 =.2.2.5.2.' 0 ^ -.=.4.g.j.g.3.3.e.8 , M ..3.~.(.[ # 9 ^ 4.w.w.[ s } f . . gXgXgXgXgXgXgXgXgXgXgXgXgXgXgXgXgXgXgXgXgXgXgXgXgXgXgXgXgXgXgXgXgXgXgXgXgXgXgXgXgXgXgXgXgXgXgXgXgXgXgXgXgXgXgXgXgXgXgXgXgXgXgXgXgXgXgXgXgXgXgXgXgXgXgXgXgXgXgXgXgXgXgXgXgXgXgXgXgXgXgXgXgXgXgXgXgXgXgXgXgXgXgXgXgXgXgXgXgXgXgXgXgXgXgXgXgXgXgXgXgXgXgXgXgXgXgXgXgXgXgXgXgXgXgXgXgXgXgXgXgXgXgXgXgXgXgXgXgXgXgXgXgXgXgXgXgXgXgXgXgXgXgXgXgXgXgXgXgXgXgXgXgXgXgXgXgXgXgXgXgXgXgXgXgXgXgXgXgXgXgXgXgXgXgXgXgXgXgXgXgXgXgXgXgXgXgXgXgXgXgXgXgXgXgXgXgXgXgXgXgXgXgXgXgXgXgXgXgXgXgXgXgXgXgXgXgXgXgXgXgXgXgX% < { { x 4.p.-.A 8 * * 5.(.4.-.~ 8 = ' 2.2.4.4.4.2.2.2.1.m V ..X.....' ^ 8 8 ^ 1...D B N ' ' ..' ' ' ' =.2.2.2.' [ ' ' ' ' ' ` ` ` ` ` ~ V D _ N m M m N B B v m V m M M m m V m m m m N N E m m m m D _ ' ' v z z z v z z z f 1 s f f f N ' 2.V 8 A =.' ....' 0 0 _ ' ' 1.2.2.1.' M 1 M D A 0 8 . o c ^ A 8 * ' Y.6.' 2.w.w.w.4.4.4.w.w.e.2...F { 2.w.w.4.2.2.....2.",
"^ < ~.3.' _ D ' 5.e.w.5.w.4.4.5.' ' ' 2.g.j.g.e.2.' ' o.~.2.0 7 9 r 0 o o 0 -.-.^ A c ....' =.<.4.4.;.~ 0 8 ' ' ' =.-.A , 0 =.=.c * o o o o . . . . . . . . . o o o o o o o o o o o o o o . . o o o o o o # # # # # # # * * * % o . . . . . o o o o o o o # . . . o o # # * * * , 8 8 , r =.2.w.e.2._ 8 ^ ;.2.4.w.e.e.3.3.0.9 * c ' 2.~.>X/ # 9 -.<.<.8.[ s } g . . . gXgXgXgXgXgXgXgXgXgXgXgXgXgXgXgXgXgXgXgXgXgXgXgXgXgXgXgXgXgXgXgXgXgXgXgXgXgXgXgXgXgXgXgXgXgXgXgXgXgXgXgXgXgXgXgXgXgXgXgXgXgXgXgXgXgXgXgXgXgXgXgXgXgXgXgXgXgXgXgXgXgXgXgXgXgXgXgXgXgXgXgXgXgXgXgXgXgXgXgXgXgXgXgXgXgXgXgXgXgXgXgXgXgXgXgXgXgXgXgXgXgXgXgXgXgXgXgXgXgXgXgXgXgXgXgXgXgXgXgXgXgXgXgXgXgXgXgXgXgXgXgXgXgXgXgXgXgXgXgXgXgXgXgXgXgXgXgXgXgXgXgXgXgXgXgXgXgXgXgXgXgXgXgXgXgXgXgXgXgXgXgXgXgXgXgXgXgXgXgXgXgXgXgXgXgXgXgXgXgXgXgXgXgXgXgXgXgXgXgXgXgXgXgXgXgXgXgXgXgXgXgXgXgXgXgXgXgXgXgXgXgX$ < } } x 2.-.*.A 0 * * 5.(.4.` c 8 * ' 2.2.w.w.w.5.=.' ' z ( 3.3.3.3.' V 0 8 0 8 : % % * * * # # # # # # # # # # # # # o # # # o o o o o # # # # o # # % % o o o X o o o o # # o o o o # o o o o o o o # * * * * o o o o o o o o o o o # % : 0 8 8 c _ 2.2.2.' 8 0 ' ' ' 1.2.1.' 1.m 1 c Z 0 8 8 O o r ^ ~ 8 * _ 0...W ..2.2.2.2.2.2.2.e.e.2.D N ..2.w.w.4.;.2.o...2.",
"Z < ~.2._ _ _ ` ;.4.;.-.-.-.-.;.=.' ' 2.e.w.w.2.2.' ' 1.~.2.0 7 9 0 8 . o 0 -.-.*.A z ....' 4.4.<.-.[ V 0 8 ' =.2.2.=.A , 7 7 * o # # # # # # * # # # # * * # # # # * * * # * * , , 7 7 9 9 8 8 9 9 9 9 9 7 7 7 7 7 9 7 9 9 7 7 7 7 9 7 7 7 7 7 9 7 7 7 7 7 7 7 , 7 7 9 9 9 9 9 , * # , ^ ;.w.e.w.2._ 8 *.4.w.w.w.w.3.2.3.0.8 * 0 D 2.~.>X[ # 9 *.<.;.<.[ s X.g . . gXgXgXgXgXgXgXgXgXgXgXgXgXgXgXgXgXgXgXgXgXgXgXgXgXgXgXgXgXgXgXgXgXgXgXgXgXgXgXgXgXgXgXgXgXgXgXgXgXgXgXgXgXgXgXgXgXgXgXgXgXgXgXgXgXgXgXgXgXgXgXgXgXgXgXgXgXgXgXgXgXgXgXgXgXgXgXgXgXgXgXgXgXgXgXgXgXgXgXgXgXgXgXgXgXgXgXgXgXgXgXgXgXgXgXgXgXgXgXgXgXgXgXgXgXgXgXgXgXgXgXgXgXgXgXgXgXgXgXgXgXgXgXgXgXgXgXgXgXgXgXgXgXgXgXgXgXgXgXgXgXgXgXgXgXgXgXgXgXgXgXgXgXgXgXgXgXgXgXgXgXgXgXgXgXgXgXgXgXgXgXgXgXgXgXgXgXgXgXgXgXgXgXgXgXgXgXgXgXgXgXgXgXgXgXgXgXgXgXgXgXgXgXgXgXgXgXgXgXgXgXgXgXgXgXgXgXgXgXgXgXgXgX$ < } } g =.<.-.^ 8 * * 5.(.2.m 8 * * ' 5.4.w.f.g.w.-._ _ z D 3.L.Y.e.=.A 0 , * o o * , 9 9 9 9 9 e e e e 9 9 9 9 9 9 9 9 9 9 9 9 7 7 7 7 9 9 9 9 9 7 7 7 7 7 7 7 7 7 7 7 7 7 7 7 , 7 7 7 7 7 7 7 7 7 , 7 7 7 7 7 7 7 7 7 ; # 7 7 , # # 7 # # , 9 A _ ' 2.2.2.' 8 0 ' ' 1.=.=.=.2.2.N s 0 r 0 9 0 O o r ^ ~ 8 * ' 3.o.' ' ..o.o.o.2.2.=.2.=.[ ~ V _ ' 4.f.w.2.o.....2.",
"Z 1 ~.2.( _ ` ` -.;.-.^ ^ *.*.-.=.' ' 2.e.w.e.w.2.' ' 2.^.3.c 9 9 8 8 o o 0 -.-.-.^ c W ' 2.g.f.4.;.' ` c < [ 2.5.2.[ c , * o # , , , 8 8 8 8 0 8 0 9 9 0 9 8 9 9 9 9 e e 9 9 0 0 0 r r r r r 0 0 0 r r r r r r r A A A A r r r r r r e e e e r r r r r r r r 9 9 r r c A A A / r 9 , 8 ^ -.2.5.5.2.' 0 *.4.w.g.h.g.2.o.3.e.0 , r V 1.g.>X*.# 9 *.;.<.8.[ d } g .   gXgXgXgXgXgXgXgXgXgXgXgXgXgXgXgXgXgXgXgXgXgXgXgXgXgXgXgXgXgXgXgXgXgXgXgXgXgXgXgXgXgXgXgXgXgXgXgXgXgXgXgXgXgXgXgXgXgXgXgXgXgXgXgXgXgXgXgXgXgXgXgXgXgXgXgXgXgXgXgXgXgXgXgXgXgXgXgXgXgXgXgXgXgXgXgXgXgXgXgXgXgXgXgXgXgXgXgXgXgXgXgXgXgXgXgXgXgXgXgXgXgXgXgXgXgXgXgXgXgXgXgXgXgXgXgXgXgXgXgXgXgXgXgXgXgXgXgXgXgXgXgXgXgXgXgXgXgXgXgXgXgXgXgXgXgXgXgXgXgXgXgXgXgXgXgXgXgXgXgXgXgXgXgXgXgXgXgXgXgXgXgXgXgXgXgXgXgXgXgXgXgXgXgXgXgXgXgXgXgXgXgXgXgXgXgXgXgXgXgXgXgXgXgXgXgXgXgXgXgXgXgXgXgXgXgXgXgXgXgXgXgXgX$ < } } g 2.<.-.~ 8 * * 5.(.2.M 8 * * ' 5.4.w.f.g.w.;.=._ z B 3.0.0.2.[ A 0 , , 9 9 9 e r r r / / / *.*.*.^ ^ ^ ^ ^ / A V A A r r r r r r r r 9 0 0 e r r 0 9 9 9 9 9 8 8 8 8 0 8 8 8 8 9 9 9 9 0 0 0 9 r r r r r r r r 9 8 9 9 9 e r r e e 9 7 9 c V ' 2.2.2.D 8 A =.=.2.;.;.;.2.2.N z c A r r 9 O o r ^ ~ 8 * ' 0.3.......o.o.o.2.' =.=.^ ~ ~ A m ~ =.4.4.=.2.....2.",
"` 8 t.2._ ~ ^ ` ` V A A 0 r A ^ ^ [ ' 2.w.e.g.e.4.=.1.2.^.3.c 7 7 9 0 # o 0 -.-.=.^ m W ..2.g.f.f.4.' ` c < [ 2.2.2.[ 0 , * # # , , , , 9 9 8 8 8 8 8 8 8 8 8 9 9 8 8 8 8 0 0 0 8 8 0 0 0 0 z 0 0 0 0 0 0 0 0 0 0 c c c c A c 0 0 0 9 0 9 9 9 9 0 0 0 0 r r 0 0 0 0 0 0 c A A A r 9 , 8 A V ' =.;.2.` 8 -.w.g.g.h.g.w.2.3.5.0 * r V 2.g.>X*.# , ^ ;.<.<.[ s } f .   gXgXgXgXgXgXgXgXgXgXgXgXgXgXgXgXgXgXgXgXgXgXgXgXgXgXgXgXgXgXgXgXgXgXgXgXgXgXgXgXgXgXgXgXgXgXgXgXgXgXgXgXgXgXgXgXgXgXgXgXgXgXgXgXgXgXgXgXgXgXgXgXgXgXgXgXgXgXgXgXgXgXgXgXgXgXgXgXgXgXgXgXgXgXgXgXgXgXgXgXgXgXgXgXgXgXgXgXgXgXgXgXgXgXgXgXgXgXgXgXgXgXgXgXgXgXgXgXgXgXgXgXgXgXgXgXgXgXgXgXgXgXgXgXgXgXgXgXgXgXgXgXgXgXgXgXgXgXgXgXgXgXgXgXgXgXgXgXgXgXgXgXgXgXgXgXgXgXgXgXgXgXgXgXgXgXgXgXgXgXgXgXgXgXgXgXgXgXgXgXgXgXgXgXgXgXgXgXgXgXgXgXgXgXgXgXgXgXgXgXgXgXgXgXgXgXgXgXgXgXgXgXgXgXgXgXgXgXgXgXgXgXgX$ < } } B 2.<.-.A 8 * * 5.(.2.V 0 * * [ 2.;.<.f.w.w.4.4.-.z m 2.0.2.=.-.~ 0 , * , 8 9 8 9 0 r A A ^ ^ ^ ^ ~ ^ ^ ^ ^ ~ ~ V A A r 0 0 0 0 0 0 0 0 0 0 0 0 0 0 8 8 8 8 8 , , 9 8 8 8 8 8 8 8 8 8 0 8 0 0 8 8 0 0 0 0 0 0 0 8 9 8 8 8 8 0 8 8 9 7 , , 8 c =.1.1.' m 8 A -.=.;.<.<.4.4.2.m 1 A *./ r 0 O . r [ ~ 9 * ' e.2.....o.....2.=.-.;.*.A A A c z M ^ -.2.2.o.....2.",
"' 1 e.o._ ^ ~ ^ ~ < * * * * * * , ` =.=.5.g.g.g.w.;.2.2.^.5.c , 7 r r o o r ;.-.-.^ M ..o.2.f.f.g.w.2.` c 1 ' ' _ ' [ c * o o o o o o # o o # # * * * * * * * * * * * * * * * * * * * > < > > > : * : , , * * * * , , < < : : * * * * * * * * * * : : , , , , , , , , , 8 8 9 9 , , * 8 r ^ 2.;.=.' V 8 -.f.f.g.f.g.e.2.5.5.8 * r ^ 5.^.uX[ # , Z ;.<.<.[ s G s . . gXgXgXgXgXgXgXgXgXgXgXgXgXgXgXgXgXgXgXgXgXgXgXgXgXgXgXgXgXgXgXgXgXgXgXgXgXgXgXgXgXgXgXgXgXgXgXgXgXgXgXgXgXgXgXgXgXgXgXgXgXgXgXgXgXgXgXgXgXgXgXgXgXgXgXgXgXgXgXgXgXgXgXgXgXgXgXgXgXgXgXgXgXgXgXgXgXgXgXgXgXgXgXgXgXgXgXgXgXgXgXgXgXgXgXgXgXgXgXgXgXgXgXgXgXgXgXgXgXgXgXgXgXgXgXgXgXgXgXgXgXgXgXgXgXgXgXgXgXgXgXgXgXgXgXgXgXgXgXgXgXgXgXgXgXgXgXgXgXgXgXgXgXgXgXgXgXgXgXgXgXgXgXgXgXgXgXgXgXgXgXgXgXgXgXgXgXgXgXgXgXgXgXgXgXgXgXgXgXgXgXgXgXgXgXgXgXgXgXgXgXgXgXgXgXgXgXgXgXgXgXgXgXgXgXgXgXgXgXgXgXgXgX$ < } G g 2.<.-./ 8 * * 4.(.2.V c * * ' w.4.w.p.w.w.<.<.*.0 _ 0.2.;.;.;.-.z * o o * % * : , , , 7 8 8 8 8 , < 8 8 8 8 8 8 8 7 , , , 7 , * * , , , * * * * * * # * * % o o * * * * * * * * * * * * * * * * * , , , , , , , , * * * * * * * * # * 9 0 -.2.=.D z c 0 A -.;.<.4.f.w.4.2._ z Z -./ r 0   . r [ ~ 9 * ..Y.2.' 2.2.2.' =.;.;.A , , , , : > < < c ' 2.......2.",
"_ 1 3...' _ ~ m 8 .   $ % % % . . 0 2.=.5.g.e.w.4.2.2.2./.0.z , 7 0 r o o 0 =.-.^ c M ' 2.2.w.4.w.4.2.` z < _ W N ' ' z > : % % % % * * & % * : = % & & = * * = = = & % % % % & = % % = > > > < < < < < < > > > > > > < < > > * * * % % & & & & & > = = = = > * * * * % : > : * % % < ~ V ` 2.2.=.N M 8 -.f.f.f.g.g.e.5.e.e.8 * e *.e.>XuX*.# , V ;.;.;._ s G s . . gXgXgXgXgXgXgXgXgXgXgXgXgXgXgXgXgXgXgXgXgXgXgXgXgXgXgXgXgXgXgXgXgXgXgXgXgXgXgXgXgXgXgXgXgXgXgXgXgXgXgXgXgXgXgXgXgXgXgXgXgXgXgXgXgXgXgXgXgXgXgXgXgXgXgXgXgXgXgXgXgXgXgXgXgXgXgXgXgXgXgXgXgXgXgXgXgXgXgXgXgXgXgXgXgXgXgXgXgXgXgXgXgXgXgXgXgXgXgXgXgXgXgXgXgXgXgXgXgXgXgXgXgXgXgXgXgXgXgXgXgXgXgXgXgXgXgXgXgXgXgXgXgXgXgXgXgXgXgXgXgXgXgXgXgXgXgXgXgXgXgXgXgXgXgXgXgXgXgXgXgXgXgXgXgXgXgXgXgXgXgXgXgXgXgXgXgXgXgXgXgXgXgXgXgXgXgXgXgXgXgXgXgXgXgXgXgXgXgXgXgXgXgXgXgXgXgXgXgXgXgXgXgXgXgXgXgXgXgXgXgXgXgX$ < } j s 4.w.<./ 8 * % 2.g.2.D z , * ' e.4.<.p.f.f.<.<.*.0 _ e.w.;.;.4.-.c c * $ % & : < > > > 1 1 1 1 < < < < < < > > > < < : : : , * * * * * * * * > > : > > < > > < < < < = > > : < < : : : > > > = < < < < < < > > : : : : : > * * * * * : V V [ 2.2.` M z 0 A -.;.<.<.f.f.4.2.V z A *.A 8 9 O . 0 ^ A 8 * ' Y.2.' 2.w.w.4.-.-.-., . . % % o $ $ . * N ......' o.",
"V z 3.' N V A z ,     < z v > .   8 2.2.5.w.w.4.4.2.2.2./.0.z , 7 0 8 o o 0 -.-./ c M _ 2.5.w.;.;.2.' _ z > _ W N ' ..x s D 1 % < s s s f f f z z z z z f s f z f s f f f s s z z z z z f z z z z z c m m m m z m v v N v v z z z z z z v z B v z z z x z z z z z m m v z z z m z 1 _ 2.` ' 2.2.' D m 8 -.w.<.w.g.j.g.w.2.0.8 # 9 *.w.(.>X*.o , V =.;.=.D u j s .   gXgXgXgXgXgXgXgXgXgXgXgXgXgXgXgXgXgXgXgXgXgXgXgXgXgXgXgXgXgXgXgXgXgXgXgXgXgXgXgXgXgXgXgXgXgXgXgXgXgXgXgXgXgXgXgXgXgXgXgXgXgXgXgXgXgXgXgXgXgXgXgXgXgXgXgXgXgXgXgXgXgXgXgXgXgXgXgXgXgXgXgXgXgXgXgXgXgXgXgXgXgXgXgXgXgXgXgXgXgXgXgXgXgXgXgXgXgXgXgXgXgXgXgXgXgXgXgXgXgXgXgXgXgXgXgXgXgXgXgXgXgXgXgXgXgXgXgXgXgXgXgXgXgXgXgXgXgXgXgXgXgXgXgXgXgXgXgXgXgXgXgXgXgXgXgXgXgXgXgXgXgXgXgXgXgXgXgXgXgXgXgXgXgXgXgXgXgXgXgXgXgXgXgXgXgXgXgXgXgXgXgXgXgXgXgXgXgXgXgXgXgXgXgXgXgXgXgXgXgXgXgXgXgXgXgXgXgXgXgXgXgXgX$ > } j f w.h.<./ 8 % % 2.t.2._ z , * ' 2.2.<.7.p.f.w.<.*.0 ( g.g.4.<.;.` c =.M < < s g B N N N N N N D W D D N N N x N m m m m m c c z z z B z z z z z z z z m m M M M c M M M z z z c c M m m z v v N N m z z z z z z z z m M v m z z z s 1 z =._ ` 2.2.2.` m 0 c =.;.<.<.w.w.4.2.m z 0 A 0 8 9 X o c [ / 0 * N 0...' 2.w.w.w.;.-.[ * . % < M < $ . . * m ..{ { D { ",
"c 8 3.' m c c z *   . z ' ( 1 .   , 2.1.4.4.4.w.w.2.2.3.;X0.c 7 7 8 8 . o 8 -.-.^ c c _ 2.w.w.2.=.o._ m 8 < ' ( N ' ' z 1 2._ = < s f f x x x B ( W D B x z x B D D B B W W ( ' ..' ' ' ( W ..' ' ' ' ' ............' ' ' ' ' ' ' W ..' ..o.2.2.' ' 2.2.2.o.' ' 2.=.2.2.......' _ ' e.e.~ [ 2.2.=.1.D 8 *.<.;.4.e.j.g.e.3.3.8 # 0 ` 2.t.>X*.o , V =.=.-.D u j s . . gXgXgXgXgXgXgXgXgXgXgXgXgXgXgXgXgXgXgXgXgXgXgXgXgXgXgXgXgXgXgXgXgXgXgXgXgXgXgXgXgXgXgXgXgXgXgXgXgXgXgXgXgXgXgXgXgXgXgXgXgXgXgXgXgXgXgXgXgXgXgXgXgXgXgXgXgXgXgXgXgXgXgXgXgXgXgXgXgXgXgXgXgXgXgXgXgXgXgXgXgXgXgXgXgXgXgXgXgXgXgXgXgXgXgXgXgXgXgXgXgXgXgXgXgXgXgXgXgXgXgXgXgXgXgXgXgXgXgXgXgXgXgXgXgXgXgXgXgXgXgXgXgXgXgXgXgXgXgXgXgXgXgXgXgXgXgXgXgXgXgXgXgXgXgXgXgXgXgXgXgXgXgXgXgXgXgXgXgXgXgXgXgXgXgXgXgXgXgXgXgXgXgXgXgXgXgXgXgXgXgXgXgXgXgXgXgXgXgXgXgXgXgXgXgXgXgXgXgXgXgXgXgXgXgXgXgXgXgXgXgXgXgX$ > G j x g.h.<.A 8 % % 1.g.2.` c * * _ 2.-.-.p.f.f.w.<.*.0 _ j.j.4.4.;.~ z 2.2.z s B { ....3.3.2.....2.2.2.2.o...' ' 2.2.2.o.2.2.2...' 2.3.3...................' [ ' ' ' ' ' ' ' ' ' ' ' ' ' ' ' ....2.2..._ ' ......_ _ ....' ' ....' D N z _ 2.~ ~ 2.2.2.2._ 8 c =.4.w.4.4.2.2.2.N z 8 0 8 8 9 O o A -.^ 9 % x 3.' ' 2.w.w.4.;.-.~ * . % f o.v $ $ o * m D D D B F ",
"c 1 2.` m V A c :   . f B s : .   , ' ` 4.w.g.g.r.2...o.E.0.0 , 7 8 8 # o 8 *.-.*.A z ` e.e.w.9.2...( z 8 < _ ' ' ' =.z 1 2.2.z s x B D W D x W ......D B B D ..3.3.{ { { O.O.O.3.3.3.O.o.o.3.0.0.3.2.o.O.3.3.3.Y.3.o.o.2.2.5.3.o.' ..o.2.3.e.0.2.2.t.Y.0.2.2.2.e.e.w.2.3.3.3...' 2.~.w.0 _ 2.2.e.5.` < A ;.;.4.4.w.e.5.3.3.0 o 0 D ..0.-X*.o , A ;.2.2.' u j s . . gXgXgXgXgXgXgXgXgXgXgXgXgXgXgXgXgXgXgXgXgXgXgXgXgXgXgXgXgXgXgXgXgXgXgXgXgXgXgXgXgXgXgXgXgXgXgXgXgXgXgXgXgXgXgXgXgXgXgXgXgXgXgXgXgXgXgXgXgXgXgXgXgXgXgXgXgXgXgXgXgXgXgXgXgXgXgXgXgXgXgXgXgXgXgXgXgXgXgXgXgXgXgXgXgXgXgXgXgXgXgXgXgXgXgXgXgXgXgXgXgXgXgXgXgXgXgXgXgXgXgXgXgXgXgXgXgXgXgXgXgXgXgXgXgXgXgXgXgXgXgXgXgXgXgXgXgXgXgXgXgXgXgXgXgXgXgXgXgXgXgXgXgXgXgXgXgXgXgXgXgXgXgXgXgXgXgXgXgXgXgXgXgXgXgXgXgXgXgXgXgXgXgXgXgXgXgXgXgXgXgXgXgXgXgXgXgXgXgXgXgXgXgXgXgXgXgXgXgXgXgXgXgXgXgXgXgXgXgXgXgXgXgX$ < } G N g.h.<.A 8 * * 2.(.2.` c * % _ 1.-.-.w.f.g.w.<.=.0 ~ g.w.-.;.;.~ z ;.w.' z B ..O.3.0.~.e.o...2.3.3.3.0.3.o.o.e.~.~.e.3.0.3.3.2.2.3.3.O.O.X.X.O.L.T.3...' 2.5.e.0.3.3.......o.3.3.2.' D ..o.3.3.3.......O.3.2...' 2.3.o.........{ D B 2.w.A A =.2.2.2._ 0 V 2.5.w.2.2.2.2.2.N s 8 0 8 8 7 O o A =.^ 8 % z 3...' 2.5.4.<.-.[ A : . o > E > & $ . * N D B B D { ",
"` 0 2._ V V A z : . . < s > % .   , ` ` 4.g.x.h.r.2.' ..T.3.8 , 7 0 0 # o 0 -.-.-.A c _ e.w.2.2.2...( c 8 < ' ' ..2.` 8 < V =.D s d x B D z f D 2.....{ { F H ..3.O.{ B { X.X.O.O.O.O.O.X.X.3.T.Y.3.o...o.O.O.3.K.3.X...2.0.Y.Y.2.o.2.2.3.0.~.t.e.e.t.Y.0.0.2.2.e.j.e.2.2.3.O.....e.~.;.< ~ 2.5.e.2._ < A 2.w.w.5.5.2.2.2.3.8 o 8 N ..Y./.*.o , V 2.5.e.' t g s . . gXgXgXgXgXgXgXgXgXgXgXgXgXgXgXgXgXgXgXgXgXgXgXgXgXgXgXgXgXgXgXgXgXgXgXgXgXgXgXgXgXgXgXgXgXgXgXgXgXgXgXgXgXgXgXgXgXgXgXgXgXgXgXgXgXgXgXgXgXgXgXgXgXgXgXgXgXgXgXgXgXgXgXgXgXgXgXgXgXgXgXgXgXgXgXgXgXgXgXgXgXgXgXgXgXgXgXgXgXgXgXgXgXgXgXgXgXgXgXgXgXgXgXgXgXgXgXgXgXgXgXgXgXgXgXgXgXgXgXgXgXgXgXgXgXgXgXgXgXgXgXgXgXgXgXgXgXgXgXgXgXgXgXgXgXgXgXgXgXgXgXgXgXgXgXgXgXgXgXgXgXgXgXgXgXgXgXgXgXgXgXgXgXgXgXgXgXgXgXgXgXgXgXgXgXgXgXgXgXgXgXgXgXgXgXgXgXgXgXgXgXgXgXgXgXgXgXgXgXgXgXgXgXgXgXgXgXgXgXgXgXgXgX& < } j f w.g.-.r 8 % * 5.(.2.V 0 * * ' 2.2.<.w.g.w.<.<.<.A ^ e.2.=.=.=._ z -.w.2.N W ..3.0.~./.0.2.2.2.e.e.e.e.e.5.2.t.^.^.Y.0.L.Y.Y.0.e.Y.T.T.L.L.3.L.E.E.Y.3.3.3.Y.Y.L.H.O.O.X...O.Y.Y.3.....O.3.3.3.3.3.X.X.3.3.3.....o.3.X.{ ........B ..e.e.c c =.2.o.' D c ` w.w.w.2.2.......N z c V c 8 8 O o V =.^ 9 * N 3..._ ' ;.;.;.;.;.~ , . o % > > & & . * v D D ' ..o.",
"' 8 2.V m V c s : . . : > & % .   , ` ` 2.f.h.g.w.2.....R.3.8 , 7 0 0 # o 0 -.-.[ A c _ 2.2.2.2.2...N m 0 < ' ' ' .._ c 8 A =.' x B D D D N D ......{ ..X.{ ........{ { ..X.O.O.3.O.O.O.O.O.3.0.0.o.....o.O.O.O.3.3.O.2.3.0.0.e.2.2.3.e.e.t.t.e.e.e.2.e.e.e.2.2.0.t.t.Y.0.3.3.3.0.Y.j.A , V ..1....._ , / 4.e.w.e.e.2.' 2.3.8 % < v ..Y.^.^ o , V =.=.2.D t g s . . gXgXgXgXgXgXgXgXgXgXgXgXgXgXgXgXgXgXgXgXgXgXgXgXgXgXgXgXgXgXgXgXgXgXgXgXgXgXgXgXgXgXgXgXgXgXgXgXgXgXgXgXgXgXgXgXgXgXgXgXgXgXgXgXgXgXgXgXgXgXgXgXgXgXgXgXgXgXgXgXgXgXgXgXgXgXgXgXgXgXgXgXgXgXgXgXgXgXgXgXgXgXgXgXgXgXgXgXgXgXgXgXgXgXgXgXgXgXgXgXgXgXgXgXgXgXgXgXgXgXgXgXgXgXgXgXgXgXgXgXgXgXgXgXgXgXgXgXgXgXgXgXgXgXgXgXgXgXgXgXgXgXgXgXgXgXgXgXgXgXgXgXgXgXgXgXgXgXgXgXgXgXgXgXgXgXgXgXgXgXgXgXgXgXgXgXgXgXgXgXgXgXgXgXgXgXgXgXgXgXgXgXgXgXgXgXgXgXgXgXgXgXgXgXgXgXgXgXgXgXgXgXgXgXgXgXgXgXgXgXgXgXgX& < } F z g.h.<./ 8 * o =.t.[ c 8 * * ' 2.2.4.w.4.;.;.-.;.A ~ 2.e.2.=.[ m 1 A 2.2...{ ..3.Y.^.~.e.2.2.e.e.e.e.5.e.e.e.t.j.t.0.e.e.Y.R.^.^././.R.Y.L.H.L.L.L.O.O.3.3.H.H.O.O.m.m.O.X.3.L.3.o.O.3.3.3.3.3.3.3.3.X.O.O.O...{ ..O.....X.X...{ { 3.~.2.8 c ' ' ' ' m 0 ^ 4.w.e.w.2.......x s M Z c 8 7 O o c ` ~ 9 * N 3...N _ =.;.;.;.-.A , . % % % > > & . * D ' ' ' ' o.",
"' z 2.m z z 8 1 %   . & : % % .   , [ ` ;.w.g.g.w.2.2.2.R.3.8 7 7 9 0 # o 0 *./ r 0 c ' ..2.e.0.3...W D c 1 ' ' ' ' ' c , 0 ^ ` N x x z x D D D ' F { { { W W B B F ..........O.O.........X.O.3.3.o.o.........{ ..........3.2.2.2.2.2.2.e.w.5.5.2.2.2.2.e.e.e.3.e.t.Y.R.Y.Y.Y.Y.Y.R.e.9 9 ` ' ....2.' , ^ w.w.e.e.e.e.2.2.3.8 o 8 N o.e.~./ o 7 A ` ` ` v t g s . . gXgXgXgXgXgXgXgXgXgXgXgXgXgXgXgXgXgXgXgXgXgXgXgXgXgXgXgXgXgXgXgXgXgXgXgXgXgXgXgXgXgXgXgXgXgXgXgXgXgXgXgXgXgXgXgXgXgXgXgXgXgXgXgXgXgXgXgXgXgXgXgXgXgXgXgXgXgXgXgXgXgXgXgXgXgXgXgXgXgXgXgXgXgXgXgXgXgXgXgXgXgXgXgXgXgXgXgXgXgXgXgXgXgXgXgXgXgXgXgXgXgXgXgXgXgXgXgXgXgXgXgXgXgXgXgXgXgXgXgXgXgXgXgXgXgXgXgXgXgXgXgXgXgXgXgXgXgXgXgXgXgXgXgXgXgXgXgXgXgXgXgXgXgXgXgXgXgXgXgXgXgXgXgXgXgXgXgXgXgXgXgXgXgXgXgXgXgXgXgXgXgXgXgXgXgXgXgXgXgXgXgXgXgXgXgXgXgXgXgXgXgXgXgXgXgXgXgXgXgXgXgXgXgXgXgXgXgXgXgXgXgXgX$ > G g z g.l.<.A 8 * % =.e._ c 8 * * ' 2.2.2.w.=.=.[ -.-.A m 3.t.t.2.[ V < 0 -.2.o...o.3.0.0.0.e.w.w.e.e.e.e.5.e.e.e.t.e.0.3.e.3.3.0.e.e.Y.0.3.2.o.3.3.O.O.O.O.O.O.O.O.O.X.O.O.X.O.H.3.3.O.O.O.O.O.3.2.3.O.O.X.X.X.X.X...X.O.X...X.X...{ X.Y.g.^ 8 m ' ' ...._ 0 A 2.w.w.2.2.......x s c V c 8 9 O . 0 ~ A 9 * N 0.' m [ ;.<.;.-.-.r 7 . o % > > > % . * D D D ( ' ..",
"' z 2.m 1 1 > < %   . : : % o     , [ ` ;.4.w.g.w.2.2.2.R.3.8 , 7 9 0 # o 8 ^ A 0 8 0 ' 2.0.t.e.3...' ' m 1 ' ' ' ' _ c , r *.` ` M z z v _ N N v z x z z z z B N ( ' ' ' ' _ ' _ _ E m N ( _ ' ' ' ' _ _ _ _ ' ' ' ' ' ' ' ' ' ' _ _ _ [ [ ^ ^ ` ` ` ` [ =.=.=.=.` _ D m m N _ ' 2.=., 8 [ ' 1.2.0.2.< *.w.4.w.e.e.e.3.2.2.8 o 8 ' o.0.j.r o , A =.=.=.M & d s . . gXgXgXgXgXgXgXgXgXgXgXgXgXgXgXgXgXgXgXgXgXgXgXgXgXgXgXgXgXgXgXgXgXgXgXgXgXgXgXgXgXgXgXgXgXgXgXgXgXgXgXgXgXgXgXgXgXgXgXgXgXgXgXgXgXgXgXgXgXgXgXgXgXgXgXgXgXgXgXgXgXgXgXgXgXgXgXgXgXgXgXgXgXgXgXgXgXgXgXgXgXgXgXgXgXgXgXgXgXgXgXgXgXgXgXgXgXgXgXgXgXgXgXgXgXgXgXgXgXgXgXgXgXgXgXgXgXgXgXgXgXgXgXgXgXgXgXgXgXgXgXgXgXgXgXgXgXgXgXgXgXgXgXgXgXgXgXgXgXgXgXgXgXgXgXgXgXgXgXgXgXgXgXgXgXgXgXgXgXgXgXgXgXgXgXgXgXgXgXgXgXgXgXgXgXgXgXgXgXgXgXgXgXgXgXgXgXgXgXgXgXgXgXgXgXgXgXgXgXgXgXgXgXgXgXgXgXgXgXgXgXgXgX$ > F g z g.x.<.A 8 % % 2.~.` M 8 * % ' ..' 2.4.4.4.;.;.-.c ~ 2.0.0.2.=.` 1 8 [ 2.' ' ' =.=.=.=.=.;.=.-.-.[ =.[ ' [ ' =.=.=.' =.' ` ' =.=.=.' ` _ ` ' ' ..........' ' ....W W ( B D D N ( _ ( N ' ' ' _ ' ' ' D D B F ........{ W W W W B 2.e.5.c 8 m ' ' 2.2._ 8 c ;.4.2.;.2.......x s c A 0 0 7 O . 0 ^ A 8 * N 0.' _ [ 2.4.;.-.^ r 9 . . % > > > % . - M D N N ' ..",
"[ z 1.N < > > s >   . % & : % .   , ' ` ;.4.w.w.w.2...3.R.0.8 , 7 9 0 * o 8 ^ ^ c 8 0 ' 2.w.e.w.2.....' m < ' ' ' ' _ c 7 r ^ A 0 * * * * < < * < < = * * * * * * * * * , , , , , * * * * * * * , , , , , , , , , , , , , , , * * * * , , , * * * * * * * * , * * * * * * * * * , 8 8 , 0 [ ' 2.5.e.=.< -.w.4.w.g.g.e.2.2.2.8 o 8 N o.0.g.r o , ^ ;.4.4.m & d y . . gXgXgXgXgXgXgXgXgXgXgXgXgXgXgXgXgXgXgXgXgXgXgXgXgXgXgXgXgXgXgXgXgXgXgXgXgXgXgXgXgXgXgXgXgXgXgXgXgXgXgXgXgXgXgXgXgXgXgXgXgXgXgXgXgXgXgXgXgXgXgXgXgXgXgXgXgXgXgXgXgXgXgXgXgXgXgXgXgXgXgXgXgXgXgXgXgXgXgXgXgXgXgXgXgXgXgXgXgXgXgXgXgXgXgXgXgXgXgXgXgXgXgXgXgXgXgXgXgXgXgXgXgXgXgXgXgXgXgXgXgXgXgXgXgXgXgXgXgXgXgXgXgXgXgXgXgXgXgXgXgXgXgXgXgXgXgXgXgXgXgXgXgXgXgXgXgXgXgXgXgXgXgXgXgXgXgXgXgXgXgXgXgXgXgXgXgXgXgXgXgXgXgXgXgXgXgXgXgXgXgXgXgXgXgXgXgXgXgXgXgXgXgXgXgXgXgXgXgXgXgXgXgXgXgXgXgXgXgXgXgXgXgX$ > G B z g.h.-.A 8 * % 2.(.` M 8 * % _ 2.` 4.4.w.g.w.;.-.0 ~ 3.2.2.2.=.[ M 9 r 0 8 8 8 9 7 , , , , , * * * * , , , , , , , * * * * * , , , , , , , * * * * * * , , , , , * * * # # # # # * * * * * , * * * * * * * * < < 8 < < < < , , , 8 r 0 8 c m ` 2.w.2._ 1 c =.2.;.;.;.;.2...x s c c 0 0 9 O . A -.A 8 * N 3.=.` -.;.;.=.` A r , . o % u p > % . o z D D D _ o.",
"_ z 2.N s 1 1 s *   . % > < % .   * ` _ 2.w.g.w.w.2.' 2.~.0.8 , 7 9 0 * . 8 *.*.A 8 8 =.5.w.w.;.[ ' ' _ c < ' ....o.] c , , , o . . . . . . . . . . . . . o o O O o o o # # o o # o o o # # % % * * * # # # * * * * * # o o # * * * * * * * % % % * o o o # * * * * * * * * * * * # # , ^ -.' 2.5.5.' 8 -.4.<.w.w.g.t.2.2.3.8 o 8 m ..e.j.r o , ^ ;.4.4.m & d s . . gXgXgXgXgXgXgXgXgXgXgXgXgXgXgXgXgXgXgXgXgXgXgXgXgXgXgXgXgXgXgXgXgXgXgXgXgXgXgXgXgXgXgXgXgXgXgXgXgXgXgXgXgXgXgXgXgXgXgXgXgXgXgXgXgXgXgXgXgXgXgXgXgXgXgXgXgXgXgXgXgXgXgXgXgXgXgXgXgXgXgXgXgXgXgXgXgXgXgXgXgXgXgXgXgXgXgXgXgXgXgXgXgXgXgXgXgXgXgXgXgXgXgXgXgXgXgXgXgXgXgXgXgXgXgXgXgXgXgXgXgXgXgXgXgXgXgXgXgXgXgXgXgXgXgXgXgXgXgXgXgXgXgXgXgXgXgXgXgXgXgXgXgXgXgXgXgXgXgXgXgXgXgXgXgXgXgXgXgXgXgXgXgXgXgXgXgXgXgXgXgXgXgXgXgXgXgXgXgXgXgXgXgXgXgXgXgXgXgXgXgXgXgXgXgXgXgXgXgXgXgXgXgXgXgXgXgXgXgXgXgXgXgX$ > F g s w.f.-.A 8 * * ;.(.` M 8 * % _ 2.' 4.w.w.g.4.;.-.c ` 0.2.2.2.=.[ 0 * * % % * * * * * * * * * * % o o o o o o % o o o o % * * % * * * * * * o o o # # # o # # # # # # # # o O # # # # # o # o o o o o o o O . o o o # # o o o o # o o o , c V =.4.w.2.' 1 c ;.;.4.4.w.w.2.1.z < z c c r 9 O . A -./ 8 * N 3.' ' =.2.' _ V c 0 ,   . % p R u . . o 8 D D D _ o.",
"D z o.B s z f z *     & f f %     * _ _ 2.w.e.w.w.2.' 2.~.0.8 , 7 9 0 * o 0 =.-.^ 0 0 ;.4.w.4.;.^ ` _ _ c : ' 2...2.2.c * o o o o # * * , , , < , , , , , , , , , , , , 9 8 , , 8 < , , 8 , , 8 , 8 9 8 8 9 8 8 8 8 8 8 8 8 8 8 8 8 8 0 0 8 8 8 0 0 8 8 8 8 8 0 0 9 9 8 8 8 8 , , , * 9 *.-.=.2.2.;.^ 8 ;.4.<.4.2.5.e.5.2.3., o 8 c ' e.(./ o , ^ ;.;.4.N t d s . . gXgXgXgXgXgXgXgXgXgXgXgXgXgXgXgXgXgXgXgXgXgXgXgXgXgXgXgXgXgXgXgXgXgXgXgXgXgXgXgXgXgXgXgXgXgXgXgXgXgXgXgXgXgXgXgXgXgXgXgXgXgXgXgXgXgXgXgXgXgXgXgXgXgXgXgXgXgXgXgXgXgXgXgXgXgXgXgXgXgXgXgXgXgXgXgXgXgXgXgXgXgXgXgXgXgXgXgXgXgXgXgXgXgXgXgXgXgXgXgXgXgXgXgXgXgXgXgXgXgXgXgXgXgXgXgXgXgXgXgXgXgXgXgXgXgXgXgXgXgXgXgXgXgXgXgXgXgXgXgXgXgXgXgXgXgXgXgXgXgXgXgXgXgXgXgXgXgXgXgXgXgXgXgXgXgXgXgXgXgXgXgXgXgXgXgXgXgXgXgXgXgXgXgXgXgXgXgXgXgXgXgXgXgXgXgXgXgXgXgXgXgXgXgXgXgXgXgXgXgXgXgXgXgXgXgXgXgXgXgXgXgXgX$ & g g f w.g.<.^ 0 * * ;.g._ c < * % D 2.-.4.w.w.w.<.=.=.A D 3.2.2.2.2.~ > % * , 8 0 0 r c c 0 0 0 0 0 8 8 8 8 8 8 8 8 8 7 7 8 8 8 8 8 8 8 8 8 8 8 8 7 8 8 8 8 8 8 < , , , , , , , , , 7 7 , , , , , , , , , , : * , < < < , , , * * # # # , # * c ` =.2.=.' ` < A ;.;.<.4.w.w.2.2.z < z c c r 9   . c -.^ 0 * N 3...' 2.2._ m m z 0 ,   . : U  .a . . # 8 _ D N _ ' ",
"_ z o.D x N x s %   . s K f : .   * N x ' 2.2.2.5.2...2.~.0.8 * , 9 0 * o 0 *./ 0 8 0 -.4.;.;.2.=.[ ` _ 0 , ' 2...' _ z : * o * * , , , , 8 , , 7 , , , , , , , : : : : , < 8 8 8 8 8 8 8 8 8 8 8 8 0 0 8 8 8 8 8 8 8 8 8 8 8 8 8 8 8 9 9 9 9 9 9 9 8 8 8 8 8 8 0 0 0 0 0 0 8 8 8 9 , 9 ^ =.2.=.[ [ A 0 ;.w.w.4.2.2.5.5.2.2., o 8 V 1.e.(./ o * A -.-.4.N u d s . . gXgXgXgXgXgXgXgXgXgXgXgXgXgXgXgXgXgXgXgXgXgXgXgXgXgXgXgXgXgXgXgXgXgXgXgXgXgXgXgXgXgXgXgXgXgXgXgXgXgXgXgXgXgXgXgXgXgXgXgXgXgXgXgXgXgXgXgXgXgXgXgXgXgXgXgXgXgXgXgXgXgXgXgXgXgXgXgXgXgXgXgXgXgXgXgXgXgXgXgXgXgXgXgXgXgXgXgXgXgXgXgXgXgXgXgXgXgXgXgXgXgXgXgXgXgXgXgXgXgXgXgXgXgXgXgXgXgXgXgXgXgXgXgXgXgXgXgXgXgXgXgXgXgXgXgXgXgXgXgXgXgXgXgXgXgXgXgXgXgXgXgXgXgXgXgXgXgXgXgXgXgXgXgXgXgXgXgXgXgXgXgXgXgXgXgXgXgXgXgXgXgXgXgXgXgXgXgXgXgXgXgXgXgXgXgXgXgXgXgXgXgXgXgXgXgXgXgXgXgXgXgXgXgXgXgXgXgXgXgXgXgXgX. & i s s w.g.<./ 8 * * ;.g.` c 1 % $ V 2.-.;.<.w.w.<.-.=.M V 3.2.2.2.2.~ > , , 9 9 8 9 9 0 0 r c c r r 0 9 9 8 8 8 8 8 8 9 9 9 9 9 9 9 9 9 9 8 8 8 8 8 8 0 0 0 0 0 0 0 0 8 8 8 < , , , < < < , , , , , , , , : * * > > : : , , , , < < < , 9 * , c ` ' ' ` ` ` 8 A ;.;.4.w.w.w.2.2.m 1 0 c r r 9   . 0 -.^ 0 * D e...' 1.1...' v z 0 ,   . > R T p $ . # 0 N D D N ' ",
"' z o.N x B z s %   o f a u % .   : N z D ' 1.2.5.2.1.2.Y.9.8 * , 9 0 * * 0 *./ 0 8 0 -.2.2.1.2.2...D V 0 < ' ..' ' 2.m 0 < o o o # # # # * * * * * * * * * * * * * * * % * * * * * * * * * * * * * * * * * * * * * * * * * * * * * * , , , , , , , * * * * * * * , , , * * * * * * o , A ' 2.' ' ' m 8 -.;.2.2.w.e.e.2.2.e.9 o 8 Z 2.e.x./ o * A *.;.;.m u d y . . gXgXgXgXgXgXgXgXgXgXgXgXgXgXgXgXgXgXgXgXgXgXgXgXgXgXgXgXgXgXgXgXgXgXgXgXgXgXgXgXgXgXgXgXgXgXgXgXgXgXgXgXgXgXgXgXgXgXgXgXgXgXgXgXgXgXgXgXgXgXgXgXgXgXgXgXgXgXgXgXgXgXgXgXgXgXgXgXgXgXgXgXgXgXgXgXgXgXgXgXgXgXgXgXgXgXgXgXgXgXgXgXgXgXgXgXgXgXgXgXgXgXgXgXgXgXgXgXgXgXgXgXgXgXgXgXgXgXgXgXgXgXgXgXgXgXgXgXgXgXgXgXgXgXgXgXgXgXgXgXgXgXgXgXgXgXgXgXgXgXgXgXgXgXgXgXgXgXgXgXgXgXgXgXgXgXgXgXgXgXgXgXgXgXgXgXgXgXgXgXgXgXgXgXgXgXgXgXgXgXgXgXgXgXgXgXgXgXgXgXgXgXgXgXgXgXgXgXgXgXgXgXgXgXgXgXgXgXgXgXgXgXgX. & d d z e.h.w.*.9 * * ;.g.` c 1 * % A 4.-.;.<.8.g.4.;.^ c V 3.3.2.2.2._ z , , * # # , , , , , , , , , , , , , , , , , , , , , , , , , , 8 0 9 9 , , , , , , , , , 7 * * * * * * % % * * * * * , , , * * * * # # * * ; 4 2 * * * * * * * * * # < c D 2...' ' _ < 0 ^ ;.4.5.2.2.2.2._ c c A r 0 7   . 0 [ ^ 0 * D e...D ' ..{ { D z c ,   . > K a > %   # c D N m m _ ",
"D z ..N s s s s %   o p p > : .   , ( B ' ..2.5.5.1.' 2.Y.0.8 * * 8 0 # o 8 / A 0 8 < ` 2.......o...' m 8 , ' ' ' ] ' 1 < 1 o o o o * * * * * , * * * * * * * * * * * * % * * * * * * * * * * * * * * * * > > , , : * * : : : : : , , * : : : * * * * * * * * * * : < < < > : , * % , ^ ^ _ ..2.3.2.m < _ ' =.2.e.g.t.2.2.e.9 o 8 V 1.e.j.r o * A -.;.;.m t d u . . gXgXgXgXgXgXgXgXgXgXgXgXgXgXgXgXgXgXgXgXgXgXgXgXgXgXgXgXgXgXgXgXgXgXgXgXgXgXgXgXgXgXgXgXgXgXgXgXgXgXgXgXgXgXgXgXgXgXgXgXgXgXgXgXgXgXgXgXgXgXgXgXgXgXgXgXgXgXgXgXgXgXgXgXgXgXgXgXgXgXgXgXgXgXgXgXgXgXgXgXgXgXgXgXgXgXgXgXgXgXgXgXgXgXgXgXgXgXgXgXgXgXgXgXgXgXgXgXgXgXgXgXgXgXgXgXgXgXgXgXgXgXgXgXgXgXgXgXgXgXgXgXgXgXgXgXgXgXgXgXgXgXgXgXgXgXgXgXgXgXgXgXgXgXgXgXgXgXgXgXgXgXgXgXgXgXgXgXgXgXgXgXgXgXgXgXgXgXgXgXgXgXgXgXgXgXgXgXgXgXgXgXgXgXgXgXgXgXgXgXgXgXgXgXgXgXgXgXgXgXgXgXgXgXgXgXgXgXgXgXgXgXgXgX& d s s w.g.<.*.8 * * ;.g.` c < * % A 4.-.<.w.w.w.w.;.[ 0 c 3.3.e.t.w._ m 8 * * , , , < < 8 8 8 8 8 7 , : : * * * , * * * * * * * * % * * * * * * * , , , , , , , < < < * * * * * * * * * * , : : * * * * * # # * * * * * * * * * * * % * o o 8 m m ' ......M < z ^ 2.2.2.2.o.2.2.m 0 A A r 9 ,   . 0 ` ^ 0 * D 0...N W ..{ { F z z ,   . u a p > %   # A D D M v ( ",
"D z 2.N s s z f $ . $ u u p 1 .   , _ B ' ' w.e.5.' ' 2.Y.0.8 * * 9 8 # o 8 ^ *.A 0 8 _ 1.....{ ....' D 0 < ` ' 2.2.2.z z _ < % * * , < , , < 8 z z z 1 1 1 8 1 1 f z z z z z c c z 8 8 8 8 z z z z z c c m m m c z 0 z z c c c c c c z c c c z z z c A A c c c c c c c c z 8 < : , V e.=._ 3.3.3.2.N s ' 1.2.2.2.e.t.e.2.2., . 8 A ..0.j.r . , A -.;.;.N t d s . . gXgXgXgXgXgXgXgXgXgXgXgXgXgXgXgXgXgXgXgXgXgXgXgXgXgXgXgXgXgXgXgXgXgXgXgXgXgXgXgXgXgXgXgXgXgXgXgXgXgXgXgXgXgXgXgXgXgXgXgXgXgXgXgXgXgXgXgXgXgXgXgXgXgXgXgXgXgXgXgXgXgXgXgXgXgXgXgXgXgXgXgXgXgXgXgXgXgXgXgXgXgXgXgXgXgXgXgXgXgXgXgXgXgXgXgXgXgXgXgXgXgXgXgXgXgXgXgXgXgXgXgXgXgXgXgXgXgXgXgXgXgXgXgXgXgXgXgXgXgXgXgXgXgXgXgXgXgXgXgXgXgXgXgXgXgXgXgXgXgXgXgXgXgXgXgXgXgXgXgXgXgXgXgXgXgXgXgXgXgXgXgXgXgXgXgXgXgXgXgXgXgXgXgXgXgXgXgXgXgXgXgXgXgXgXgXgXgXgXgXgXgXgXgXgXgXgXgXgXgXgXgXgXgXgXgXgXgXgXgXgXgXgXgX& d d z e.x.f.-.e * * ;.g.^ c < % % A w.;.<.w.w.w.<.<.;.0 0 ..2.2.e.2.D _ ` < * < < 8 z z z c c c c c c z z z z z z c c c m c c c V D m z z z z z z c m c z 0 z z z z f f 1 1 f z z z f s f z z z 8 8 8 8 8 < 1 1 < < < > , : : : : : : * % < ' 1.N ' ....' M < c ' 2.2.2.o.o.2.2.c 8 r A 0 9 ,   . 0 ^ ^ 0 = W 0.2.' ....X.} F x z ,   . > u a g %   # M ` D N N _ ",
"D z ' N z m m z $ . o > a P : .   , _ m ` ;.5.5.5.=.' o.^.0.< * , , 9 o o 8 / / r 0 8 _ 2.' ........' _ c < _ ' ' 1.' z < 2.D % < z z N x B D ..W D N B x x x v D D D D D D N ..' D D D N N ' ' ' _ ' ' ' ' ..' ' ' ' ' ' ....o.o.......2.o.....o.2.] 2.2.2.' _ _ ` ' ' W W N z s m 2.e.` ' 3.....o.D s D ..2.2.2.5.3.2.2.4., . 9 c ' e.j.^ . * A ;.=.2.N & d s . gXgXgXgXgXgXgXgXgXgXgXgXgXgXgXgXgXgXgXgXgXgXgXgXgXgXgXgXgXgXgXgXgXgXgXgXgXgXgXgXgXgXgXgXgXgXgXgXgXgXgXgXgXgXgXgXgXgXgXgXgXgXgXgXgXgXgXgXgXgXgXgXgXgXgXgXgXgXgXgXgXgXgXgXgXgXgXgXgXgXgXgXgXgXgXgXgXgXgXgXgXgXgXgXgXgXgXgXgXgXgXgXgXgXgXgXgXgXgXgXgXgXgXgXgXgXgXgXgXgXgXgXgXgXgXgXgXgXgXgXgXgXgXgXgXgXgXgXgXgXgXgXgXgXgXgXgXgXgXgXgXgXgXgXgXgXgXgXgXgXgXgXgXgXgXgXgXgXgXgXgXgXgXgXgXgXgXgXgXgXgXgXgXgXgXgXgXgXgXgXgXgXgXgXgXgXgXgXgXgXgXgXgXgXgXgXgXgXgXgXgXgXgXgXgXgXgXgXgXgXgXgXgXgXgXgXgXgXgXgXgXgXgXgXgX& d d s w.h.f.-.8 * * ;.g.` c < % $ A 4.;.-.;.w.w.4.4.-.0 8 ..0.2.2.2.m c 2.D s B B ' ' ..2.2.2.2.2.2.3.2.......o.o.2.2.2.2.2.' 2.e.2.2.....W W ' ..o.2.' N N ' ' ' ..{ D N ' ' ....' D N N D D N N D D N B W ' ..D x g B z z z x z s 1 > < ..3.3.N ....{ ' v < M ' 2.2...2.....2.z , 8 0 8 , 7   . 8 [ ^ 0 = ' 0.o.....X.......s z ,   . & g T I &   # z D N v v ' ",
"D 1 ' m z m m z : . . f T P & .   , ` N =.2.2.2.2.1...2.^.3.1 * * , 8 # o 8 ^ / r 8 8 ` 2.' ' ' ' ' ' _ 0 < _ =.' _ ` z < ..3.z z M m N D ' ' ..W ..{ W B { { X.X...{ { ..o.......O.O...{ ..2.2...2.2.2.2.2.5.2.2.2.2.2.2.2.2.e.5.2.2.5.e.2.2.2.e.t.e.t.t.e.3.2.3.0.0.0.3.O.o...W 2.e.4.V D ......2.N s ....2.2.5.5.2.2.2.5.9 o 8 A ..5.(.A . , A -.=.2.N t d s . gXgXgXgXgXgXgXgXgXgXgXgXgXgXgXgXgXgXgXgXgXgXgXgXgXgXgXgXgXgXgXgXgXgXgXgXgXgXgXgXgXgXgXgXgXgXgXgXgXgXgXgXgXgXgXgXgXgXgXgXgXgXgXgXgXgXgXgXgXgXgXgXgXgXgXgXgXgXgXgXgXgXgXgXgXgXgXgXgXgXgXgXgXgXgXgXgXgXgXgXgXgXgXgXgXgXgXgXgXgXgXgXgXgXgXgXgXgXgXgXgXgXgXgXgXgXgXgXgXgXgXgXgXgXgXgXgXgXgXgXgXgXgXgXgXgXgXgXgXgXgXgXgXgXgXgXgXgXgXgXgXgXgXgXgXgXgXgXgXgXgXgXgXgXgXgXgXgXgXgXgXgXgXgXgXgXgXgXgXgXgXgXgXgXgXgXgXgXgXgXgXgXgXgXgXgXgXgXgXgXgXgXgXgXgXgXgXgXgXgXgXgXgXgXgXgXgXgXgXgXgXgXgXgXgXgXgXgXgXgXgXgXgXgXgX& d i s e.g.<.*.8 * * 2.j.' m < * % c 4.;.-.;.;.w.w.2.` 8 0 0.Y.0.3...M 8 2.o.W { { o.2.2.e.g.g.5.w.e.t.e.5.0.Y.0.0.t.e.j.g.w.4.2.e.w.2.2.2.....2.3.3.2.' D ' 2.2.3.3.....o.2.2.3.3.2.....2.3.o.{ ..O.O.o...2.3.3.......o...{ } } } F g f ( 3.0.' x ........N < M ' ..6...3.....2.M , < 8 8 , 9   o 0 -.` 0 = W e...' ..3.3.3...z M ,   . & P T P %   o z M z z m ' ",
"D 1 ' N z m m s : . % g R a % .   * ` _ =.2.2.2.2.2.....R.2.< * # , 8 # o 8 ^ A 0 8 8 ' 2.' ' ` ` [ [ ~ c < _ ' ' ' ` 0 % D K...z N v N D ' D D ..2...{ F { ..O.O.X.X.X.O.O.....O.3.3.{ ..3.3.2.o.2.2.2.2.2.e.e.e.0.2.2.2.2.e.t.e.2.2.2.2.2.2.0.e.e.e.t.t.0.3.3.0.Y.0.O.O.O.X.....2.e.=.0 m ..2.3.3.N s ..2.2.w.w.e.2.2.2.w.8 . 8 v ..3.~.c o , r -.=.2.D t j s . gXgXgXgXgXgXgXgXgXgXgXgXgXgXgXgXgXgXgXgXgXgXgXgXgXgXgXgXgXgXgXgXgXgXgXgXgXgXgXgXgXgXgXgXgXgXgXgXgXgXgXgXgXgXgXgXgXgXgXgXgXgXgXgXgXgXgXgXgXgXgXgXgXgXgXgXgXgXgXgXgXgXgXgXgXgXgXgXgXgXgXgXgXgXgXgXgXgXgXgXgXgXgXgXgXgXgXgXgXgXgXgXgXgXgXgXgXgXgXgXgXgXgXgXgXgXgXgXgXgXgXgXgXgXgXgXgXgXgXgXgXgXgXgXgXgXgXgXgXgXgXgXgXgXgXgXgXgXgXgXgXgXgXgXgXgXgXgXgXgXgXgXgXgXgXgXgXgXgXgXgXgXgXgXgXgXgXgXgXgXgXgXgXgXgXgXgXgXgXgXgXgXgXgXgXgXgXgXgXgXgXgXgXgXgXgXgXgXgXgXgXgXgXgXgXgXgXgXgXgXgXgXgXgXgXgXgXgXgXgXgXgXgXgXgX& d i s e.g.<.*.e 7 * 4.^.=.M < * % c 4.;.=.;.;.4.2.=.~ 0 V 0.0.2.2...N 1 ` 2...W { ..3.w.g.j.g.5.w.e.e.3.e.t.Y.0.e.t.j.j.g.g.w.4.w.w.2.2.3.2.o.2.0.e.3.1.' ' 2.2.0.3...{ o.3.3.3.3.2.o...o.....X.3.3.3.3.3.3.3.O.....O.3.O.{ } } { G B { o.0.2.M z ....6.2.' < M _ ' 1...3.....2.m < 8 0 8 7 8   o 0 [ ^ 0 = D 0...' ..2.2.2.=.m c ,   . & U T u -   . z M z z m ' ",
"V 1 ' m z m c z & . % u a a > .   * ` ' =.2.2.2.2.2.....R.2.< * # , 8 # o , A ^ A 8 8 ` 2.=.=.=.-.-.^ ^ A < _ ' ' ' _ 0 & x 3...g x x x B B B B H ....F F F } } X.X.X.X.X...{ X.O.3.X.{ { ..X...o.o.o.o.....o.o.3.3.2.2...2.0.e.e.2.2.2.2.o.o.3.0.e.9.e.e.0.3.O.0.Y.3.{ ......{ ..2.2.[ 0 m 2.2.0.0.( z =.=.2.w.g.g.5.2.2.w.9 o 8 v ..3.e.c o , r -.1.2.D t j s . gXgXgXgXgXgXgXgXgXgXgXgXgXgXgXgXgXgXgXgXgXgXgXgXgXgXgXgXgXgXgXgXgXgXgXgXgXgXgXgXgXgXgXgXgXgXgXgXgXgXgXgXgXgXgXgXgXgXgXgXgXgXgXgXgXgXgXgXgXgXgXgXgXgXgXgXgXgXgXgXgXgXgXgXgXgXgXgXgXgXgXgXgXgXgXgXgXgXgXgXgXgXgXgXgXgXgXgXgXgXgXgXgXgXgXgXgXgXgXgXgXgXgXgXgXgXgXgXgXgXgXgXgXgXgXgXgXgXgXgXgXgXgXgXgXgXgXgXgXgXgXgXgXgXgXgXgXgXgXgXgXgXgXgXgXgXgXgXgXgXgXgXgXgXgXgXgXgXgXgXgXgXgXgXgXgXgXgXgXgXgXgXgXgXgXgXgXgXgXgXgXgXgXgXgXgXgXgXgXgXgXgXgXgXgXgXgXgXgXgXgXgXgXgXgXgXgXgXgXgXgXgXgXgXgXgXgXgXgXgXgXgXgXgXgX& j d s e.g.<.*.e , * 4.(.=.M < * % c 4.2.2.2.2.2.=.[ ^ 0 c 2.3.2.2.2.' < c 2...D W W ..w.j.g.e.5.e.0.e.0.0.Y.0.3.0.t.~.j.e.w.w.2.5.2.2.2.3.o...2.3.3.3.2.......o.O.o.{ F { O.3.3.3.o.o.{ { { { X.6.X...X.3.X.X.......X.X...{ B B B B D { 3.2.[ 1 m ' ..2.2.' < A ' ..2.2.........M 8 c ^ A 8 8 . # 8 ^ A 8 = N 0.o.' ' =.=.;.-.^ ~ 7   . u U P & o   . z D D m m _ ",
"V z ..m z z c z : . . > K | 1 .   * ` ' =.2.2.2.2.1.....R.2.1 * # , 8 % o , A ^ A 0 < D 2.=.4.4.<.;.-.^ A < ` ' _ _ _ c < < D ..B x x B B D D F { { } U U } } } U } } { { { { ..{ { { { { F { ..o.o.......o.....2.2.o.o...o.3.0.2.2.2.3.3.2.2.2.2.2.2.0.0.0.3.2.0.0.2...o.o.....o.2.5.A 8 ` 2.2.3.0.' z =.=.2.w.g.g.5.2.2.w.8 # 8 N ..3.e.A o , ~ =.' ' B t j s . gXgXgXgXgXgXgXgXgXgXgXgXgXgXgXgXgXgXgXgXgXgXgXgXgXgXgXgXgXgXgXgXgXgXgXgXgXgXgXgXgXgXgXgXgXgXgXgXgXgXgXgXgXgXgXgXgXgXgXgXgXgXgXgXgXgXgXgXgXgXgXgXgXgXgXgXgXgXgXgXgXgXgXgXgXgXgXgXgXgXgXgXgXgXgXgXgXgXgXgXgXgXgXgXgXgXgXgXgXgXgXgXgXgXgXgXgXgXgXgXgXgXgXgXgXgXgXgXgXgXgXgXgXgXgXgXgXgXgXgXgXgXgXgXgXgXgXgXgXgXgXgXgXgXgXgXgXgXgXgXgXgXgXgXgXgXgXgXgXgXgXgXgXgXgXgXgXgXgXgXgXgXgXgXgXgXgXgXgXgXgXgXgXgXgXgXgXgXgXgXgXgXgXgXgXgXgXgXgXgXgXgXgXgXgXgXgXgXgXgXgXgXgXgXgXgXgXgXgXgXgXgXgXgXgXgXgXgXgXgXgXgXgXgXgX& F d s e.h.7.*.e , * 4.^.' c < * % c 4.2.2.2.2.2.=.;.=.c 0 ' o.3.3.2.` 8 0 ;.] ' ' ' _ 2.e.t.e.2.e.e.e.0.0.0.0.3.0.Y.R.t.e.e.e.5.e.5.2.3.3.o.o.o.o.o...................{ { ..o.o.3.O.o.......X.X.X.X.X.X.X.X.....o...{ { { { } { F F { ..2.2.A < m ' ' ..o._ 8 c ' 2.2.2...' ....z c ^ -.Z 8 7 . # 8 ~ A 8 * N 0.2...' =.-.;.-.-.^ ,   . s R a > o   . c ' _ V m ' ",
"D z ..m z m c z : . . f  .| < .   * ` ` =.;.5.w.w.=.' ..R.2.< * # # , o o , A ^ A 8 , m =.=.4.w.4.<.-.^ A 8 [ [ ~ _ _ c 8 < M ' _ D D D N N ( N N W W W W { { { W W W W ( ( W W g W W W B x B ( _ _ N D V _ _ _ ' ' D N _ _ _ _ D ~ ^ ~ V m _ ] =.' ' 2.=.=.] ' ' _ _ ` ` _ _ ' ..2.2.0 0 2.....3.3.D z -.;.w.w.g.e.3...o.2.8 o 8 N 2.t.j.A o , A [ N B B t j s . gXgXgXgXgXgXgXgXgXgXgXgXgXgXgXgXgXgXgXgXgXgXgXgXgXgXgXgXgXgXgXgXgXgXgXgXgXgXgXgXgXgXgXgXgXgXgXgXgXgXgXgXgXgXgXgXgXgXgXgXgXgXgXgXgXgXgXgXgXgXgXgXgXgXgXgXgXgXgXgXgXgXgXgXgXgXgXgXgXgXgXgXgXgXgXgXgXgXgXgXgXgXgXgXgXgXgXgXgXgXgXgXgXgXgXgXgXgXgXgXgXgXgXgXgXgXgXgXgXgXgXgXgXgXgXgXgXgXgXgXgXgXgXgXgXgXgXgXgXgXgXgXgXgXgXgXgXgXgXgXgXgXgXgXgXgXgXgXgXgXgXgXgXgXgXgXgXgXgXgXgXgXgXgXgXgXgXgXgXgXgXgXgXgXgXgXgXgXgXgXgXgXgXgXgXgXgXgXgXgXgXgXgXgXgXgXgXgXgXgXgXgXgXgXgXgXgXgXgXgXgXgXgXgXgXgXgXgXgXgXgXgXgXgXgX> j d s g.l.g.-.r * * 4.(.` c < > * c 5.2.2.2.2.2.5.w.;.r 0 N ' o.2.2.` 0 A 2.=.' ' [ ` ` 2.2.2.' =.=.2.' ' ' ' 1.2.2.=.=.-.-.-.-.[ -.' [ ' ' ' ' ' ' _ ' ' ' ' ' ' ' ' ' ' ' ' ' ' ' D N N N N N B ( ' ' ' ' ' ' ' _ _ _ W { { W B D { ..2.=.8 8 V ' ' ' ' _ 8 c [ 2.5.2.1.' ..' c 0 ^ ^ ^ 8 7 . # 8 ~ A 8 % N 0.2...=.=.=.;.-.-.^ 7   . > U a K $   o c _ _ D _ ' ",
"` z ' m z m c z :   . g +.W : .   * _ _ -.=.4.r.w.=.' o./.3.< * * # , o o , / / r 8 , m ' -.4.w.4.;.^ V V 8 _ ` ~ _ _ z 8 c V m < * % o o . . . o . . $ $ $ $ $ o o o o . . . . . . o . o % % % o o o o o . . . . . . o o o o . . .     . .   . . o . % o . o . . . . . . o o % % * , * A 2.2.......D M =.;.w.w.e.5...{ ..5.8 * 8 v 2.t.x.^ o , A ` _ { B i j s . gXgXgXgXgXgXgXgXgXgXgXgXgXgXgXgXgXgXgXgXgXgXgXgXgXgXgXgXgXgXgXgXgXgXgXgXgXgXgXgXgXgXgXgXgXgXgXgXgXgXgXgXgXgXgXgXgXgXgXgXgXgXgXgXgXgXgXgXgXgXgXgXgXgXgXgXgXgXgXgXgXgXgXgXgXgXgXgXgXgXgXgXgXgXgXgXgXgXgXgXgXgXgXgXgXgXgXgXgXgXgXgXgXgXgXgXgXgXgXgXgXgXgXgXgXgXgXgXgXgXgXgXgXgXgXgXgXgXgXgXgXgXgXgXgXgXgXgXgXgXgXgXgXgXgXgXgXgXgXgXgXgXgXgXgXgXgXgXgXgXgXgXgXgXgXgXgXgXgXgXgXgXgXgXgXgXgXgXgXgXgXgXgXgXgXgXgXgXgXgXgXgXgXgXgXgXgXgXgXgXgXgXgXgXgXgXgXgXgXgXgXgXgXgXgXgXgXgXgXgXgXgXgXgXgXgXgXgXgXgXgXgXgXgXgX< G j z g.l.f.-.r * * 4.j.` c 1 < * V 5.2.2.2...2.w.w.-.0 A ' ' ' 2.2.-.A 0 ~ 0 : % % o o o . . . .       . . . o o . o o . o . . .   . . . % * % o o # o o o o o . . . o o o % % o o o o . . . . . . o # % % % o o o o o o o o o o o * % * < * c _ N ' ' ' [ 0 A [ 2.4.5.2.' ..' c 8 A / *.9 * . o 0 ^ A 8 % ( t.2.' =.2.=.=.-.*.^ 7     % g h  .$   # c ' _ D ~ ' ",
"_ z ..N z M M c :   . 0 E > % .   % ( D -.;.4.w.g.4.;.2.R.2.< * # , , o o , A A 0 8 < ( ' ` ;.4.;.-.^ A 0 < M _ ' ` ` c 8 , #               . . .   . . . . .     . . O o o . o o o o o # # # # # # # # # # # # # # # # o # * % # # # # # # * , , * * * * , , , , , , , , , > > * % o * c ....' 1.2._ 0 -.<.w.w.w.e.3.3.3.2.8 % s v 1.e.j./ o = c _ ' { F i G s . gXgXgXgXgXgXgXgXgXgXgXgXgXgXgXgXgXgXgXgXgXgXgXgXgXgXgXgXgXgXgXgXgXgXgXgXgXgXgXgXgXgXgXgXgXgXgXgXgXgXgXgXgXgXgXgXgXgXgXgXgXgXgXgXgXgXgXgXgXgXgXgXgXgXgXgXgXgXgXgXgXgXgXgXgXgXgXgXgXgXgXgXgXgXgXgXgXgXgXgXgXgXgXgXgXgXgXgXgXgXgXgXgXgXgXgXgXgXgXgXgXgXgXgXgXgXgXgXgXgXgXgXgXgXgXgXgXgXgXgXgXgXgXgXgXgXgXgXgXgXgXgXgXgXgXgXgXgXgXgXgXgXgXgXgXgXgXgXgXgXgXgXgXgXgXgXgXgXgXgXgXgXgXgXgXgXgXgXgXgXgXgXgXgXgXgXgXgXgXgXgXgXgXgXgXgXgXgXgXgXgXgXgXgXgXgXgXgXgXgXgXgXgXgXgXgXgXgXgXgXgXgXgXgXgXgXgXgXgXgXgXgXgXgXgXgXG j x w.f.4.^ 0 * % 2.g.' 0 < < * _ 5.2.......2.2.;.-.0 r ....' ' =.[ 0 , # o o o * , , 7 7 7 7 , , , , , 7 7 7 , , , * * , * , , # # # * * * * # # # # # # # o o o o # # # # # # * # # # # # * * , , , , , * * # # # * * * * % % % % o . o % 8 V D ` =.' ` < c ;.<.<.4.2.' ' ' z 8 0 A A 9 # o o 8 / c < % D 0.3...1.2.4.<.;.^ A 7     % p P R $   # c ` _ m m ' ",
"D z 1.N z z z 0 : . . % > > : .   o ( ` =.;.4.e.g.w.2.2.Y.2.< * # 9 7 # o , A *.^ 0 , m 2.[ -.;.;.-.^ A c 8 D ' _ ' ` 8 o . .   o # * * * * * * , * , : : : * , , , : : , , , , , 8 8 , , 9 9 9 9 9 9 9 9 9 9 9 9 7 7 7 9 9 8 8 8 9 9 9 9 8 9 9 9 9 9 9 9 9 0 0 0 0 0 0 0 0 0 0 8 , * * 8 _ ' ' 2.2.' c -.<.4.w.f.g.e.2.3.2.9 % z N 2.e.g./ o , c [ ' ..B i } d . gXgXgXgXgXgXgXgXgXgXgXgXgXgXgXgXgXgXgXgXgXgXgXgXgXgXgXgXgXgXgXgXgXgXgXgXgXgXgXgXgXgXgXgXgXgXgXgXgXgXgXgXgXgXgXgXgXgXgXgXgXgXgXgXgXgXgXgXgXgXgXgXgXgXgXgXgXgXgXgXgXgXgXgXgXgXgXgXgXgXgXgXgXgXgXgXgXgXgXgXgXgXgXgXgXgXgXgXgXgXgXgXgXgXgXgXgXgXgXgXgXgXgXgXgXgXgXgXgXgXgXgXgXgXgXgXgXgXgXgXgXgXgXgXgXgXgXgXgXgXgXgXgXgXgXgXgXgXgXgXgXgXgXgXgXgXgXgXgXgXgXgXgXgXgXgXgXgXgXgXgXgXgXgXgXgXgXgXgXgXgXgXgXgXgXgXgXgXgXgXgXgXgXgXgXgXgXgXgXgXgXgXgXgXgXgXgXgXgXgXgXgXgXgXgXgXgXgXgXgXgXgXgXgXgXgXgXgXgXgXgXgXgXgXgXgX} j B w.w.<.^ 9 * * 4.(.=.0 8 , % V 5.2.1.2.o.2.;.;.-.r c 2.2.' =.=.` 0 , * , 8 0 0 r 9 e r r e 9 9 9 9 9 9 9 9 8 8 9 9 8 8 9 9 8 9 9 8 8 8 8 8 9 9 9 9 9 9 9 9 , , 9 9 9 9 9 9 9 8 8 8 9 8 8 8 8 9 9 9 0 8 0 9 8 9 9 8 8 8 8 8 8 8 8 , * * * < c _ ' 2.=.[ 8 c ;.w.4.w.e.2.2.=.c 8 0 A r 9 o o . 9 / A < % D 0.3...2.5.5.4.;.^ ^ 9   . & a P P $   o c V M m D =.",
"m s 1.M 1 z z 1 :   . : p a :     o ( ` -.4.w.w.w.;.;.2.R.o.< * * 9 9 # o , / -.*.0 , m 2.=.-.;.;.;.*.A 0 < D ' ' ..' m < < # o * * : : * % % % * * % % % % % * % % % % % % % * * * * * * * * * , , , , * * , , * * * * * * * * * * * * * * , , , , , , , , , , , , < < 8 8 , , * * * , 0 ` 2.5.w.2._ 0 -.<.<.f.f.g.5.2.5.w.9 % 8 V 2.w.h.[ o , A -.' ..F i } d . gXgXgXgXgXgXgXgXgXgXgXgXgXgXgXgXgXgXgXgXgXgXgXgXgXgXgXgXgXgXgXgXgXgXgXgXgXgXgXgXgXgXgXgXgXgXgXgXgXgXgXgXgXgXgXgXgXgXgXgXgXgXgXgXgXgXgXgXgXgXgXgXgXgXgXgXgXgXgXgXgXgXgXgXgXgXgXgXgXgXgXgXgXgXgXgXgXgXgXgXgXgXgXgXgXgXgXgXgXgXgXgXgXgXgXgXgXgXgXgXgXgXgXgXgXgXgXgXgXgXgXgXgXgXgXgXgXgXgXgXgXgXgXgXgXgXgXgXgXgXgXgXgXgXgXgXgXgXgXgXgXgXgXgXgXgXgXgXgXgXgXgXgXgXgXgXgXgXgXgXgXgXgXgXgXgXgXgXgXgXgXgXgXgXgXgXgXgXgXgXgXgXgXgXgXgXgXgXgXgXgXgXgXgXgXgXgXgXgXgXgXgXgXgXgXgXgXgXgXgXgXgXgXgXgXgXgXgXgXgXgXgXgXgXgXgXgXj x w.g.4.-.r , * 5.(.;.A 8 , * V 5.2.;.2.2.2.2.;.-.c m 2.w.2.2.=._ V 0 < < 8 8 8 9 9 9 0 9 , , , , * , , , * * * * * * * * * * * * * * * * * * * * # # * * * * * * * * * * * * * * * * * * * * , , , : , , , , , , , : : : : , , , * * # , 8 V 2.=.2.=.[ 8 c 2.w.w.w.w.2.2.=.c 8 0 A r 8 o o . 7 / ~ 8 % D 3.2.' ..2.5.4.=.` ` 8   . : g P p o   o z m m m D =.",
"m s ..m 1 z z z :   . g U P > .   o E ` -.4.g.4.2.;.=.2.Y.o.< * * 9 9 * o , / -.*.0 9 m 2.=.;.;.-.;.-.A 0 < V 1.' ' ' M c V * . o % % % % % % % % % o o o % % o o o o % % % % % % % % % % o o % * * * * * % * * * % # # * * * * * * * % % * * * * * * * * * : : : * : * * * * # o o , A ^ =.e.e.w.2._ 0 -.<.<.f.f.g.4.2.w.g.9 # 8 V ;.w.h.*.o , ^ ;.2.2...u } d . gXgXgXgXgXgXgXgXgXgXgXgXgXgXgXgXgXgXgXgXgXgXgXgXgXgXgXgXgXgXgXgXgXgXgXgXgXgXgXgXgXgXgXgXgXgXgXgXgXgXgXgXgXgXgXgXgXgXgXgXgXgXgXgXgXgXgXgXgXgXgXgXgXgXgXgXgXgXgXgXgXgXgXgXgXgXgXgXgXgXgXgXgXgXgXgXgXgXgXgXgXgXgXgXgXgXgXgXgXgXgXgXgXgXgXgXgXgXgXgXgXgXgXgXgXgXgXgXgXgXgXgXgXgXgXgXgXgXgXgXgXgXgXgXgXgXgXgXgXgXgXgXgXgXgXgXgXgXgXgXgXgXgXgXgXgXgXgXgXgXgXgXgXgXgXgXgXgXgXgXgXgXgXgXgXgXgXgXgXgXgXgXgXgXgXgXgXgXgXgXgXgXgXgXgXgXgXgXgXgXgXgXgXgXgXgXgXgXgXgXgXgXgXgXgXgXgXgXgXgXgXgXgXgXgXgXgXgXgXgXgXgXgXgXgXgXgXj x w.f.4.-.r , * w.>X4.A 8 , * ^ w.4.<.4.4.4.4.<.;.A m w.e.w.w.2._ D c > * = * , , , , , , , , * * * * * * * * * * % % % * * * * * * * % % * * * * * * * % % % o % % % % * * * * * % * * % * * * * * * * * * * * * * % % % % o o o o o o 8 A -.2.2.2.=.` 8 A ;.4.w.w.5.;.2.=.A 8 r A r 9 o o . 8 ^ ^ 1 % D 3...' ' 2.2.2.[ _ ` 8   . > g a p $   o z m m D _ =.",
"N 1 ' m c m M z >   . a I h > .   o m ` <.w.g.4.4.2.2.2.Y.2.< * * , , # o , / *./ 9 8 N 2.4.w.w.;.*.*.A 0 < m ' ' ..' z z _ > . % * * * % % % * * % % % % % % * * * * * * * > = : * * * % * * * * * * * : < < < * * * * : : * * : : , : > < < < , < 8 < < < < < < > > : : * * * % % 0 ;.=.' 6.2.2..._ 0 <.<.f.l.z.f.4.2.g.h.9 # 0 V =.w.h.-.# , ^ <.w.2...u G s   gXgXgXgXgXgXgXgXgXgXgXgXgXgXgXgXgXgXgXgXgXgXgXgXgXgXgXgXgXgXgXgXgXgXgXgXgXgXgXgXgXgXgXgXgXgXgXgXgXgXgXgXgXgXgXgXgXgXgXgXgXgXgXgXgXgXgXgXgXgXgXgXgXgXgXgXgXgXgXgXgXgXgXgXgXgXgXgXgXgXgXgXgXgXgXgXgXgXgXgXgXgXgXgXgXgXgXgXgXgXgXgXgXgXgXgXgXgXgXgXgXgXgXgXgXgXgXgXgXgXgXgXgXgXgXgXgXgXgXgXgXgXgXgXgXgXgXgXgXgXgXgXgXgXgXgXgXgXgXgXgXgXgXgXgXgXgXgXgXgXgXgXgXgXgXgXgXgXgXgXgXgXgXgXgXgXgXgXgXgXgXgXgXgXgXgXgXgXgXgXgXgXgXgXgXgXgXgXgXgXgXgXgXgXgXgXgXgXgXgXgXgXgXgXgXgXgXgXgXgXgXgXgXgXgXgXgXgXgXgXgXgXgXgXgXgXgXgXx r.f.<.*.9 , * w.(.4.A 8 7 * ^ w.4.w.f.w.w.<.<.;.A M w.e.5.w.2._ ` _ 1 % % = < < < < < < < < < > > > > > : : > < > : < < < < 8 8 8 < < > > > * * < < < < * : * * * = > = = = : : = > > > < < 8 < < < < < > > > > > = = = * * * * % % * ^ -.-.=.2.2.` V 8 A -.;.4.w.w.2.5.2.~ 0 r A A 9 # o . 8 [ ^ 1 & ' 3.2.' ' 2.2.=.[ _ [ 0   . > g a R =   o z _ V _ ' 2.",
"D 8 =._ V ` _ z >   . p P P > .   o E =.4.w.w.5.4.;.;.2.Y.2.< * * , , # o , A ^ A 0 8 N 2.4.w.w.-.-.*.A 0 * M ' ' ' ' s 1 ' z $ % > > > < < < 1 s s s s s s s s s s 1 < 1 1 z z z c z z s z z z s s s s s z z z s 1 1 s z z 0 0 0 z c c c m c c c A A V V V m m V m m v z f s s < < ` w.` m ' ' ' ..D 0 ,.<.f.l.z.f.4.2.j.g.8 % 0 V =.w.h.[ o , ^ <.w.5...u { x   gXgXgXgXgXgXgXgXgXgXgXgXgXgXgXgXgXgXgXgXgXgXgXgXgXgXgXgXgXgXgXgXgXgXgXgXgXgXgXgXgXgXgXgXgXgXgXgXgXgXgXgXgXgXgXgXgXgXgXgXgXgXgXgXgXgXgXgXgXgXgXgXgXgXgXgXgXgXgXgXgXgXgXgXgXgXgXgXgXgXgXgXgXgXgXgXgXgXgXgXgXgXgXgXgXgXgXgXgXgXgXgXgXgXgXgXgXgXgXgXgXgXgXgXgXgXgXgXgXgXgXgXgXgXgXgXgXgXgXgXgXgXgXgXgXgXgXgXgXgXgXgXgXgXgXgXgXgXgXgXgXgXgXgXgXgXgXgXgXgXgXgXgXgXgXgXgXgXgXgXgXgXgXgXgXgXgXgXgXgXgXgXgXgXgXgXgXgXgXgXgXgXgXgXgXgXgXgXgXgXgXgXgXgXgXgXgXgXgXgXgXgXgXgXgXgXgXgXgXgXgXgXgXgXgXgXgXgXgXgXgXgXgXgXgXgXgXgXd r.f.<.*.9 * * w.(.4.A 8 , * ^ w.w.f.f.g.w.<.;.-.c A w.e.5.5.2.~ ~ =.m < < z N ' ' ' =.` _ _ _ m M M M c c c c c c m m V V _ V ~ ^ ~ m M x z z s z z c c c c z z z z s s f z z z z z z s z M m m z z z z z f s s f s s s s s s s > * c =.-.~ ` ' ` V D 8 A ;.;.w.w.w.2.2.2._ 0 A ~ A 9 * o o < ~ ~ 1 & ..0.3.' 2.5.5.2.' [ -.8   . : a P  .=   o c ' _ _ ' 1.",
"D 8 =._ V _ _ s <   . a T a : .   o ( =.<.4.w.w.w.;.;.2.R.2.< * * , , o o , A ^ A 8 8 N 2.;.<.8.<.w.-.^ 0 * m 2.2.2.' s : ' ' s < s s f z z N D B B F { F g d F F F B B N ' ' ..' 2.' ' ' ' ' ' ' D ' ' D D ..' ........' ' ' ' =.2.2.2.2.2.2.2.2.4.2.w.w.2.=.;.2.2.2.2...' W W D N 2.5.c z ..1.1..._ 0 <.f.l.l.z.f.w.5.g.g.8 % 0 Z ;.w.g.~ o , A -.4.5...u X.v   gXgXgXgXgXgXgXgXgXgXgXgXgXgXgXgXgXgXgXgXgXgXgXgXgXgXgXgXgXgXgXgXgXgXgXgXgXgXgXgXgXgXgXgXgXgXgXgXgXgXgXgXgXgXgXgXgXgXgXgXgXgXgXgXgXgXgXgXgXgXgXgXgXgXgXgXgXgXgXgXgXgXgXgXgXgXgXgXgXgXgXgXgXgXgXgXgXgXgXgXgXgXgXgXgXgXgXgXgXgXgXgXgXgXgXgXgXgXgXgXgXgXgXgXgXgXgXgXgXgXgXgXgXgXgXgXgXgXgXgXgXgXgXgXgXgXgXgXgXgXgXgXgXgXgXgXgXgXgXgXgXgXgXgXgXgXgXgXgXgXgXgXgXgXgXgXgXgXgXgXgXgXgXgXgXgXgXgXgXgXgXgXgXgXgXgXgXgXgXgXgXgXgXgXgXgXgXgXgXgXgXgXgXgXgXgXgXgXgXgXgXgXgXgXgXgXgXgXgXgXgXgXgXgXgXgXgXgXgXgXgXgXgXgXgXgXgXgXd w.f.<.*.r * , w.(.2.A 8 * % V w.4.f.k.h.f.<.=.*.c A e.g.4.2.;.~ V 2._ m D ....o.2.e.e.w.2.2.2.2.2.2.2.2.2.2.2.2.e.w.2.2.2.2.2.4.w.4.2.2.........' D ' ' 1.1.6.................' ' ' ' ' ..1.2.2.' ' ........' ' ..{ { { { F g g B z ' 2.[ c _ ' ' ' ` c ^ -.<.w.w.2.' ' ' ~ 0 A / A 9 * # o , c c 1 > ..t.5.2.2.w.w.5.=.[ -.9   . > P b.U $ . % m D D D D ` ",
"^ < 1.D z M c z <   . K R a &     o _ ;.;.2.w.e.5.;.1.3.R.3.< * * * * o o * A ^ A < < N ..=.;.;.<.<.<.*.0 * z ..2..._ 1 & _ ..x s s z z z x ( ' B B B F B d s B B B g B B x D ' =.2.=.' N D ' ....' N ' ......' ......' =.-.;.;.` ' 2.2.2.2.2.2.2.2.w.w.w.r.w.;.;.e.5.2...' W F B N 4.;.8 M ....' ' ( c -.<.w.f.f.f.5.2.4.w.7 o 8 V ' 5.g.A o , / -.=.2...s X.B . gXgXgXgXgXgXgXgXgXgXgXgXgXgXgXgXgXgXgXgXgXgXgXgXgXgXgXgXgXgXgXgXgXgXgXgXgXgXgXgXgXgXgXgXgXgXgXgXgXgXgXgXgXgXgXgXgXgXgXgXgXgXgXgXgXgXgXgXgXgXgXgXgXgXgXgXgXgXgXgXgXgXgXgXgXgXgXgXgXgXgXgXgXgXgXgXgXgXgXgXgXgXgXgXgXgXgXgXgXgXgXgXgXgXgXgXgXgXgXgXgXgXgXgXgXgXgXgXgXgXgXgXgXgXgXgXgXgXgXgXgXgXgXgXgXgXgXgXgXgXgXgXgXgXgXgXgXgXgXgXgXgXgXgXgXgXgXgXgXgXgXgXgXgXgXgXgXgXgXgXgXgXgXgXgXgXgXgXgXgXgXgXgXgXgXgXgXgXgXgXgXgXgXgXgXgXgXgXgXgXgXgXgXgXgXgXgXgXgXgXgXgXgXgXgXgXgXgXgXgXgXgXgXgXgXgXgXgXgXgXgXgXgXgXgXgXgXgXz g.z.7.*.8 * * 5.^.2.c < * % V 4.<.f.f.z.w.;.^ ^ A c e.g.2.2.' V 0 -.;._ N ..D ' 2.e.~.e.2.2.2.2.1.1.6.1.2.2.2.w.r.w.g.w.-.;.w.w.w.w.5.2.........' N ' 1.1.1.......B g D ....2.2.' ( ' ....2.2.2.2...2.2.2.3.2.' ..o.....{ F B g s W [ ;.V z ' 3.2.1.~ 8 ^ =.2.e.2...' ....c 8 0 A A 8 # # . : A c 8 = ..R.3.1.2.5.4.4.;.-.` 8   . > R I p .   . z D M M M _ ",
"^ < 2.m z z c m >   o s p u & .   $ ( -.;.2.e.e.e.5.2.3.E.3.< * , , , o o * A -.^ 0 < m 2.=.;.;.<.w.;.[ c 1 m ' ' ( m 1 = m o.D x z z z f x D D B g g d d d s g F F { { { W B ' ..2.............D x x D D F B B B D W ' ..2.e.w.' ..o.....2.2.2.2.2.2.2.e.t.e.2.2.3.3.2...D B B { 2.5.^ 8 M ' ' ' .._ c -.<.4.f.g.g.g.w.5.e.8 # 8 V =.e.g./ # , / ;.;.;.o.f } x . gXgXgXgXgXgXgXgXgXgXgXgXgXgXgXgXgXgXgXgXgXgXgXgXgXgXgXgXgXgXgXgXgXgXgXgXgXgXgXgXgXgXgXgXgXgXgXgXgXgXgXgXgXgXgXgXgXgXgXgXgXgXgXgXgXgXgXgXgXgXgXgXgXgXgXgXgXgXgXgXgXgXgXgXgXgXgXgXgXgXgXgXgXgXgXgXgXgXgXgXgXgXgXgXgXgXgXgXgXgXgXgXgXgXgXgXgXgXgXgXgXgXgXgXgXgXgXgXgXgXgXgXgXgXgXgXgXgXgXgXgXgXgXgXgXgXgXgXgXgXgXgXgXgXgXgXgXgXgXgXgXgXgXgXgXgXgXgXgXgXgXgXgXgXgXgXgXgXgXgXgXgXgXgXgXgXgXgXgXgXgXgXgXgXgXgXgXgXgXgXgXgXgXgXgXgXgXgXgXgXgXgXgXgXgXgXgXgXgXgXgXgXgXgXgXgXgXgXgXgXgXgXgXgXgXgXgXgXgXgXgXgXgXgXgXgXgXF N j.z.7.*.8 * * 5.(.2.c < * * ^ 4.4.g.f.l.g.2.[ [ c z 2.2.' _ ' ~ 8 ~ 2.' D { ....o.3.Y.0.....2.3.O.....W ..o.2.2.e.e.t.e.' 2.e.e.w.w.2...{ { ........1.2.........{ F F F ..2.5.e.o.W { ......o.o.......2.2.3.o.D H ..{ { B g g d D o.;.=.c z ..2.2.2.[ 0 ~ =.2.2.2.....o.1.m 8 8 r 0 , * # o * A A 8 = ..R.3.' 2.5.5.4.=.-.` 8   . > { P u .   o 8 M z z z _ ",
"^ < 2.m z z z s &   . < K a &     $ m A -.5.e.e.t.5.2.3.E.2.< % * , , o o * A ;.-.0 < m ' =.;.;.;.2.;.[ c < N ....' _ M % f ' B z s s s f g g x g g d d s s s s g g g B B x g B W ' W { { ....D B B F D F F F F B B B D ..2.2.o.' W ..{ ......o.o.o...o.2.2.2...' ......D B B { ..2.4.r * M ' D ..2.' 0 -.;.;.w.g.g.g.e.5.0.8 o 8 M ' e.j.A # , ^ 4.w.w.2.s { x . gXgXgXgXgXgXgXgXgXgXgXgXgXgXgXgXgXgXgXgXgXgXgXgXgXgXgXgXgXgXgXgXgXgXgXgXgXgXgXgXgXgXgXgXgXgXgXgXgXgXgXgXgXgXgXgXgXgXgXgXgXgXgXgXgXgXgXgXgXgXgXgXgXgXgXgXgXgXgXgXgXgXgXgXgXgXgXgXgXgXgXgXgXgXgXgXgXgXgXgXgXgXgXgXgXgXgXgXgXgXgXgXgXgXgXgXgXgXgXgXgXgXgXgXgXgXgXgXgXgXgXgXgXgXgXgXgXgXgXgXgXgXgXgXgXgXgXgXgXgXgXgXgXgXgXgXgXgXgXgXgXgXgXgXgXgXgXgXgXgXgXgXgXgXgXgXgXgXgXgXgXgXgXgXgXgXgXgXgXgXgXgXgXgXgXgXgXgXgXgXgXgXgXgXgXgXgXgXgXgXgXgXgXgXgXgXgXgXgXgXgXgXgXgXgXgXgXgXgXgXgXgXgXgXgXgXgXgXgXgXgXgXgXgXgXgXgXF D j.z.<.*.8 * * 5.j.' c 8 * * ` w.4.f.f.f.e.w.2.[ z s ' D ' ' ' _ < 8 =.2.N x x B W o.3.3...........{ { { { ....2.2.3.0.2.' ..2.2.2.2.....{ { { { { ..2.1.......{ F F g g B ..2.2.' D { ..{ { { ....{ { { ......g B F { B g d g g ' =.;./ < 8 =.2.2.2.=.0 m _ ........2.2.2.V 8 8 0 8 , # * o : A A 8 = ' Y.3.' ' 2.e.5.=.=.^ 8   . : j P p .   o 8 A z z z D ",
"` < 2.N z z z < %   . < R P &     $ v A *.2.5.e.e.2...O.E.3.8 * , 8 8 o o * 0 -.-.0 8 V 2.=.=.=.2...=.` c < N ....' ' m > 1 _ ( m c z z M N N z z z z f s s z z z N N N N v B N N ( ( W ' D D N N ' ' D D D D D x N N ' ' 2.' ' ' ' ' ' ' ....2.2.2.....' ' ' _ ' ' ' _ N N ' ..2.4.<.9 , m ' ' 2.3.' 0 -.<.4.w.w.e.e.5.5.0.8 o 1 M ..e.t.c # , *.f.h.g.2.s { x . gXgXgXgXgXgXgXgXgXgXgXgXgXgXgXgXgXgXgXgXgXgXgXgXgXgXgXgXgXgXgXgXgXgXgXgXgXgXgXgXgXgXgXgXgXgXgXgXgXgXgXgXgXgXgXgXgXgXgXgXgXgXgXgXgXgXgXgXgXgXgXgXgXgXgXgXgXgXgXgXgXgXgXgXgXgXgXgXgXgXgXgXgXgXgXgXgXgXgXgXgXgXgXgXgXgXgXgXgXgXgXgXgXgXgXgXgXgXgXgXgXgXgXgXgXgXgXgXgXgXgXgXgXgXgXgXgXgXgXgXgXgXgXgXgXgXgXgXgXgXgXgXgXgXgXgXgXgXgXgXgXgXgXgXgXgXgXgXgXgXgXgXgXgXgXgXgXgXgXgXgXgXgXgXgXgXgXgXgXgXgXgXgXgXgXgXgXgXgXgXgXgXgXgXgXgXgXgXgXgXgXgXgXgXgXgXgXgXgXgXgXgXgXgXgXgXgXgXgXgXgXgXgXgXgXgXgXgXgXgXgXgXgXgXgXgXgXF N j.z.7.*.0 * , 5.j.' c 8 * * -.r.w.w.w.4.2.2.2.=.z f ..' ..' ' _ 8 8 *.2.' N N ' ' ..2...' ' ' W W W ' ' ' ' ' ' ' ' ....' 2.2.=.=.=.....' ' N ( ' ..' ' ' ' ' ' W D B N ' ' ' ' ' ' ' ........' ' ..' ' ' ' W D ' N W W N B N D 1.=.;.r , 8 ` 1.2.2.[ 0 m ' ....' ' 2.2.2.V 8 8 0 8 * # , o , ~ ~ 0 = D Y.o.D ' 3.5.2.=.' ` 8     % a P { %   . z M M M M D ",
"` < ' N z z s 1 $   . s R a &     $ v ^ *.1.5.e.3.....O.R.3.8 * , 8 8 o o * 9 ~ A 8 8 ~ 2.=.=.' ....' _ c 8 D ......' _ 1 < c 0 < , * * , < , : , < < > * , : * : : : : : * : * * * * : * * * * : , * * * * * * * * < , , < , , < < < : < < < 8 8 < < < , , , : , < < < < < 8 0 0 8 9 7 8 ' ' ..2.3.' c -.w.g.g.g.g.g.5.3.0.8 % 8 M ..5.e.c * 9 *.<.f.f.1.s X.B . gXgXgXgXgXgXgXgXgXgXgXgXgXgXgXgXgXgXgXgXgXgXgXgXgXgXgXgXgXgXgXgXgXgXgXgXgXgXgXgXgXgXgXgXgXgXgXgXgXgXgXgXgXgXgXgXgXgXgXgXgXgXgXgXgXgXgXgXgXgXgXgXgXgXgXgXgXgXgXgXgXgXgXgXgXgXgXgXgXgXgXgXgXgXgXgXgXgXgXgXgXgXgXgXgXgXgXgXgXgXgXgXgXgXgXgXgXgXgXgXgXgXgXgXgXgXgXgXgXgXgXgXgXgXgXgXgXgXgXgXgXgXgXgXgXgXgXgXgXgXgXgXgXgXgXgXgXgXgXgXgXgXgXgXgXgXgXgXgXgXgXgXgXgXgXgXgXgXgXgXgXgXgXgXgXgXgXgXgXgXgXgXgXgXgXgXgXgXgXgXgXgXgXgXgXgXgXgXgXgXgXgXgXgXgXgXgXgXgXgXgXgXgXgXgXgXgXgXgXgXgXgXgXgXgXgXgXgXgXgXgXgXgXgXgXgXgXF v g.z.7.*.r , * 4.j.=.c 8 < * ` w.w.g.f.w.4.2.;.-.M z o.....' ' ' ~ 9 r r 0 8 8 8 0 0 0 8 8 < , : < > < < < < < < , < < 8 8 0 0 8 8 8 8 < < , < < < 8 8 7 < < < < < < < < , , , , < < < : < < < < < < < < : < < < < < < < < < < < < , 9 , < c _ ' 1.=.` 0 ~ 2.2.2.1.' 2.5.2.c < 8 0 0 , # * o < ^ ^ c = N Y.3.' ..2.2...' ' ` 8     $ g T | %   o 1 z v N m _ ",
"` < ..m f f 1 > $   . s { g &     $ N ^ -.2.3.3.2.o...3.R.2.8 * , , , o o % 0 ~ A 8 < m =.=.' ..o...' _ z 8 D 2.3.3...' < o o . . . . . . . . . . . . . . . . . .         . . .         .   . . . . . . . . . . . . . . O o . o o o . . o o o o o o . o . o o o o o o o o o o o o . O # c ' ' _ ' ..' r <.f.h.l.l.x.h.w.2.2.8 % 8 M ..5.e.A # 9 -.<.7.w.2.g X.B . gXgXgXgXgXgXgXgXgXgXgXgXgXgXgXgXgXgXgXgXgXgXgXgXgXgXgXgXgXgXgXgXgXgXgXgXgXgXgXgXgXgXgXgXgXgXgXgXgXgXgXgXgXgXgXgXgXgXgXgXgXgXgXgXgXgXgXgXgXgXgXgXgXgXgXgXgXgXgXgXgXgXgXgXgXgXgXgXgXgXgXgXgXgXgXgXgXgXgXgXgXgXgXgXgXgXgXgXgXgXgXgXgXgXgXgXgXgXgXgXgXgXgXgXgXgXgXgXgXgXgXgXgXgXgXgXgXgXgXgXgXgXgXgXgXgXgXgXgXgXgXgXgXgXgXgXgXgXgXgXgXgXgXgXgXgXgXgXgXgXgXgXgXgXgXgXgXgXgXgXgXgXgXgXgXgXgXgXgXgXgXgXgXgXgXgXgXgXgXgXgXgXgXgXgXgXgXgXgXgXgXgXgXgXgXgXgXgXgXgXgXgXgXgXgXgXgXgXgXgXgXgXgXgXgXgXgXgXgXgXgXgXgXgXgXgXgXB M g.h.<.*.0 * * 4.j.=.M 8 = * Z 4.4.f.h.h.w.;.-.-.V z ....' ..1.' V , # o o # # * # # # # # # # o . o o # o o o . . o . . . . .     . o o . . . . . . . . o . . o o o o . o .   o o . o o o o o o o o o o o o o o o o o o o o o . .   o o < M _ ' ' ` _ 0 ` 2.5.w.4.2.;.2.=.z < 8 c 0 * # # o < [ ^ c = N e.2.' ........' ' ` 8     % g | { %   o z M v N N ' ",
"Z < 2.m s s < 1 %   . > p & %     % ( ^ =.2.2.2.2.2.2.2.~.2.8 * , , , o o * 0 [ ^ 8 , m 2.2.2.2.2...' ( m 8 D ......D z * . . . o o * * * % * * * * % % % * # % % % # # # # # # # # # # # # # * # # # # * * # # ; , , , # , , , , , , , , , , , 7 7 , , , , 7 , 9 9 , , 7 9 , , * # # * z D N m N ..' A <.f.z.x.x.x.l.w.2.2.8 % 8 M ..e.t.A # 7 -.<.7.g.2.g O.B . gXgXgXgXgXgXgXgXgXgXgXgXgXgXgXgXgXgXgXgXgXgXgXgXgXgXgXgXgXgXgXgXgXgXgXgXgXgXgXgXgXgXgXgXgXgXgXgXgXgXgXgXgXgXgXgXgXgXgXgXgXgXgXgXgXgXgXgXgXgXgXgXgXgXgXgXgXgXgXgXgXgXgXgXgXgXgXgXgXgXgXgXgXgXgXgXgXgXgXgXgXgXgXgXgXgXgXgXgXgXgXgXgXgXgXgXgXgXgXgXgXgXgXgXgXgXgXgXgXgXgXgXgXgXgXgXgXgXgXgXgXgXgXgXgXgXgXgXgXgXgXgXgXgXgXgXgXgXgXgXgXgXgXgXgXgXgXgXgXgXgXgXgXgXgXgXgXgXgXgXgXgXgXgXgXgXgXgXgXgXgXgXgXgXgXgXgXgXgXgXgXgXgXgXgXgXgXgXgXgXgXgXgXgXgXgXgXgXgXgXgXgXgXgXgXgXgXgXgXgXgXgXgXgXgXgXgXgXgXgXgXgXgXgXgXgXgXB N h.k.<.*.0 * * 4.j.=.M 8 * * Z 4.4.g.f.f.w.<.<.<.^ m ..D x ' 1.D 8 % o * , , 7 7 7 9 9 9 9 9 , , , , 7 7 7 , , , , , , , , * , * * * * * , # # * * * * * * * * * , , , * * * * , , , , , , , , , , # * * , , , , * * * * * * , , * o # * z M ' ' ' ' [ 0 ^ 2.w.w.w.w.;.[ _ z 1 z c 0 * # # . 8 [ ^ c = N t.2.......' ..' ' _ 8     % s p u o . o z D v N N D ",
"Z < 2.m 1 1 z z %   . & > > & .   % V *.=.2.2.2.2.2.2.2.~.2.8 , , 9 , o o # r *.^ 0 * z 2.2.w.w.2...' _ m 1 N ..W D N s & $ . # * * * * , , * * , , : > : , , < , : : , * * * * * * * * * * * * * * * # * * * * * * , , , , , , , , , , , , , , , , , 7 , , , , , 8 , , , , , 8 , , , : s ' ' ' ..1.` / <.f.z.x.x.0Xl.w.2.2.8 # 8 M ' e.r.r o 7 *.<.p.f.=.d X.x   gXgXgXgXgXgXgXgXgXgXgXgXgXgXgXgXgXgXgXgXgXgXgXgXgXgXgXgXgXgXgXgXgXgXgXgXgXgXgXgXgXgXgXgXgXgXgXgXgXgXgXgXgXgXgXgXgXgXgXgXgXgXgXgXgXgXgXgXgXgXgXgXgXgXgXgXgXgXgXgXgXgXgXgXgXgXgXgXgXgXgXgXgXgXgXgXgXgXgXgXgXgXgXgXgXgXgXgXgXgXgXgXgXgXgXgXgXgXgXgXgXgXgXgXgXgXgXgXgXgXgXgXgXgXgXgXgXgXgXgXgXgXgXgXgXgXgXgXgXgXgXgXgXgXgXgXgXgXgXgXgXgXgXgXgXgXgXgXgXgXgXgXgXgXgXgXgXgXgXgXgXgXgXgXgXgXgXgXgXgXgXgXgXgXgXgXgXgXgXgXgXgXgXgXgXgXgXgXgXgXgXgXgXgXgXgXgXgXgXgXgXgXgXgXgXgXgXgXgXgXgXgXgXgXgXgXgXgXgXgXgXgXgXgXgXgXgXF N h.z.7./ 9 * * 4.g.=.m 8 % % ` 5.4.f.f.f.f.7.p.<.^ M 2.' N ( ' N s < * 8 < , 8 9 9 9 8 8 8 , , , * , , 7 , , , , , , , , , 7 7 , , , , , , * , , , * , , , : : : : , , , , , , 8 , < , , , , , , , , , , , , , 7 , : , , , , , , , * : : 1 z ' 1.2.2._ 0 ` 4.4.w.r.w.<.-.D M < z V c * # # . 8 ` ~ 0 > D e.3.....2.' =.' ` ~ 9     * s g f .   % 8 M v z z N ",
"^ 8 2.( z m m z :   . 1 B W f o   o m D =.2.5.5.e.2.' 2.~.5.8 , , 8 , o % * r *.^ 0 < M 2.2.w.w.2.' =.[ ~ 1 N ..' D N z s m % o o * * * * # o o o o % % % % % % % o o o o o o o o o o o o o . . . . o o o o o . o o o o o o o o % % o $ o % % o o o # * * * * * % % o % * * * * * * , 0 v ..5.5.2.2.-./ <.k.l.x.x.x.g.5.5.e.8 # 0 D 2.t.g.r # 9 -.<.p.f.;.d } f   gXgXgXgXgXgXgXgXgXgXgXgXgXgXgXgXgXgXgXgXgXgXgXgXgXgXgXgXgXgXgXgXgXgXgXgXgXgXgXgXgXgXgXgXgXgXgXgXgXgXgXgXgXgXgXgXgXgXgXgXgXgXgXgXgXgXgXgXgXgXgXgXgXgXgXgXgXgXgXgXgXgXgXgXgXgXgXgXgXgXgXgXgXgXgXgXgXgXgXgXgXgXgXgXgXgXgXgXgXgXgXgXgXgXgXgXgXgXgXgXgXgXgXgXgXgXgXgXgXgXgXgXgXgXgXgXgXgXgXgXgXgXgXgXgXgXgXgXgXgXgXgXgXgXgXgXgXgXgXgXgXgXgXgXgXgXgXgXgXgXgXgXgXgXgXgXgXgXgXgXgXgXgXgXgXgXgXgXgXgXgXgXgXgXgXgXgXgXgXgXgXgXgXgXgXgXgXgXgXgXgXgXgXgXgXgXgXgXgXgXgXgXgXgXgXgXgXgXgXgXgXgXgXgXgXgXgXgXgXgXgXgXgXgXgXgXgXB N h.z.p.*.0 * * 4.g.;.D z * % ` 5.2.w.f.f.f.7.p.p.*.V 3.o.......N x z = > * * * % * * * * % % % # * % o o o o o o o o o % # # # # * * * * o # * * * o o o # * # o o o o o # o o * % o o o o o o o o o o o o % * % % % * % % * * * * * % > z z ..5.e.w.` 0 ^ 2.w.g.g.w.;.2.' N < z V A , * # . < ` A 0 > D t.2.' ' 2.2.4.2.' ^ 9   . 8 o.o.( o . % z N v M z v ",
"^ < 2._ m m m z > . . z ' o.v o   o v V -.5.e.t.t.2.' 2.Y.2.8 , , 8 8 o o * r *.^ 0 < z 2.2.4.4.=.=.=.[ ' z N ' N N N s s 2.> $ % % * * % o % o o o $ $ $ $ & . o o o o o o o o o o o # # o % o % % % * * % % * * * % * * * % % * * * * * * * = > < , * * * * : % : : * % % * * * . 9 -.D ' 2.w.5.5.-./ 7.f.l.l.z.f.w.2.2.3., o 0 D 2.e.g.9 o 7 -.<.f.g.=.d } f   gXgXgXgXgXgXgXgXgXgXgXgXgXgXgXgXgXgXgXgXgXgXgXgXgXgXgXgXgXgXgXgXgXgXgXgXgXgXgXgXgXgXgXgXgXgXgXgXgXgXgXgXgXgXgXgXgXgXgXgXgXgXgXgXgXgXgXgXgXgXgXgXgXgXgXgXgXgXgXgXgXgXgXgXgXgXgXgXgXgXgXgXgXgXgXgXgXgXgXgXgXgXgXgXgXgXgXgXgXgXgXgXgXgXgXgXgXgXgXgXgXgXgXgXgXgXgXgXgXgXgXgXgXgXgXgXgXgXgXgXgXgXgXgXgXgXgXgXgXgXgXgXgXgXgXgXgXgXgXgXgXgXgXgXgXgXgXgXgXgXgXgXgXgXgXgXgXgXgXgXgXgXgXgXgXgXgXgXgXgXgXgXgXgXgXgXgXgXgXgXgXgXgXgXgXgXgXgXgXgXgXgXgXgXgXgXgXgXgXgXgXgXgXgXgXgXgXgXgXgXgXgXgXgXgXgXgXgXgXgXgXgXgXgXgXgXgXB m h.z.p.-.0 * , 4.g.;.V c , % ` w.;.7.f.f.f.w.f.<.*._ 3.2.2.2...N N ..s & * : > > > : * = = * % % % % % * : : : * % % % * * % % % * * % % % * o o o % % % % % # o o # o o # # # % % % % * * * * * * * * * * % % % % * * % % % % % o : % z ' z ..0.e.2._ c ` 4.e.j.g.w.;.w.2.N 8 c V A , * o . 8 [ ~ 0 > D 0.o.N ' 2.e.w.2.[ ~ ,   o c 3. .W . . $ s N N N N D ",
"^ < 1.N z z c z : . o z ' ' v o   o m V ` 2.e.e.w.=._ ..Y.2.8 * # 9 , . o * A -.^ 8 , z ' =.2.w.4.2.=.-.` 8 z _ M B N f < 2.s & < < 1 z z f f f s s s s s g g f f f f f f s s f z 0 0 0 8 8 8 0 z 8 1 z z f z c c c c c A c c M c c c c c M V V ~ ` ^ ~ V V V ~ m c m c z < < , < , *.g.' ( 2.5.2.2.*.*.7.f.f.f.f.w.4.2.2.3.8 # 8 c ` w.g.9 o 7 -.f.f.f.;.s } s   gXgXgXgXgXgXgXgXgXgXgXgXgXgXgXgXgXgXgXgXgXgXgXgXgXgXgXgXgXgXgXgXgXgXgXgXgXgXgXgXgXgXgXgXgXgXgXgXgXgXgXgXgXgXgXgXgXgXgXgXgXgXgXgXgXgXgXgXgXgXgXgXgXgXgXgXgXgXgXgXgXgXgXgXgXgXgXgXgXgXgXgXgXgXgXgXgXgXgXgXgXgXgXgXgXgXgXgXgXgXgXgXgXgXgXgXgXgXgXgXgXgXgXgXgXgXgXgXgXgXgXgXgXgXgXgXgXgXgXgXgXgXgXgXgXgXgXgXgXgXgXgXgXgXgXgXgXgXgXgXgXgXgXgXgXgXgXgXgXgXgXgXgXgXgXgXgXgXgXgXgXgXgXgXgXgXgXgXgXgXgXgXgXgXgXgXgXgXgXgXgXgXgXgXgXgXgXgXgXgXgXgXgXgXgXgXgXgXgXgXgXgXgXgXgXgXgXgXgXgXgXgXgXgXgXgXgXgXgXgXgXgXgXgXgXgXgXg m h.z.y.*.9 * , 4.g.=.M 8 * % _ 5.;.7.7.f.g.w.w.<.~ N 0.2.o.o...z x 3...s s z z z N N _ ' ' ' N m m v v v z z v m m m m m V V m m m m M z z 0 0 8 8 0 0 0 1 s z z c z z 8 0 z z z z z z z c c c c c c A c z f f z z z c z < < < < : > 1 2...x ......' V c ` 2.5.5.w.w.;.5.2.m 8 z V c * * o . 8 -.^ 0 < D 3..._ ' 2.e.2.' D c ,   o 0 ' | K . . % z N N D D ' ",
"Z < 2.( z z c z *   o 0 m m v %   # m V ` 2.2.2.2.[ _ 6.Y.2.8 * o , , . o * ^ -.A 8 , z ' ' 2.2.4.;.-.[ ^ < z _ D M x z < 2.' s g x B D { { { } } } } } } } } } } { { { { { { { W ' ' ' W _ _ _ ' ' _ ( ( ( _ [ =.=.=.=.-.=.2.2.2.2.2.=.2.4.4.w.w.w.w.w.e.e.e.w.5.w.e.0.2..._ m z M 5.g.D z ` 2.2.;.*.*.p.g.f.w.g.f.5.2.3.0.8 # 8 c _ w.g.r o 9 -.f.f.w.[ d G s   gXgXgXgXgXgXgXgXgXgXgXgXgXgXgXgXgXgXgXgXgXgXgXgXgXgXgXgXgXgXgXgXgXgXgXgXgXgXgXgXgXgXgXgXgXgXgXgXgXgXgXgXgXgXgXgXgXgXgXgXgXgXgXgXgXgXgXgXgXgXgXgXgXgXgXgXgXgXgXgXgXgXgXgXgXgXgXgXgXgXgXgXgXgXgXgXgXgXgXgXgXgXgXgXgXgXgXgXgXgXgXgXgXgXgXgXgXgXgXgXgXgXgXgXgXgXgXgXgXgXgXgXgXgXgXgXgXgXgXgXgXgXgXgXgXgXgXgXgXgXgXgXgXgXgXgXgXgXgXgXgXgXgXgXgXgXgXgXgXgXgXgXgXgXgXgXgXgXgXgXgXgXgXgXgXgXgXgXgXgXgXgXgXgXgXgXgXgXgXgXgXgXgXgXgXgXgXgXgXgXgXgXgXgXgXgXgXgXgXgXgXgXgXgXgXgXgXgXgXgXgXgXgXgXgXgXgXgXgXgXgXgXgXgXgXgXgXg N g.k.y.*.9 * , 5.g.=.M < o o V 2.2.w.7.w.w.<.<.-.~ N 2.3.2.2...z z 3.L.o.W ' ....o.2.2.3.0.9.2.2.2.o.o.o.o.o.2.2.2.0.e.e.w.2.3.2.2.2.2.2.2.2.2.2.2.o.' ' ....o.2.2.o.....2.2...........' ' 2.;.2.2.=.=.' ' ......o...o...{ D x z z s ' 0.' z N ' ' ' _ c ^ =.=.-.;.g.4.4.=._ 8 8 c 0 * * # . 8 [ ^ 0 > v 2.o.' ' ..2.2..._ m ,   o 0 _ W L .   % z m D _ _ ' ",
"A < 2._ z z c z :   o 0 V c 0 o   % m V ` 2.2.2.2.[ ' 6.Y.2.1 * o * * . o * 0 V c 8 , M ' ' =.=.2.;.-.^ ~ < c ' D N v z = ' 3.....X...o.O.O.O.m.b.b.n.n. .} { { } | X.X.X.X.} { ..o.3.3.O.......0.0.3...' ' 2.e.g.w.5.w.r.t.e.0.3.e.t.e.e.e.g.j.x.g.g.j.(.(.(.g.e.^.^.Y.3.O.O.o...2.e.5.M z D ' =.=./ J <.f.4.f.f.g.w.2.3.0., # 8 c [ e.j.r o 7 -.<.w.w.[ g } u   gXgXgXgXgXgXgXgXgXgXgXgXgXgXgXgXgXgXgXgXgXgXgXgXgXgXgXgXgXgXgXgXgXgXgXgXgXgXgXgXgXgXgXgXgXgXgXgXgXgXgXgXgXgXgXgXgXgXgXgXgXgXgXgXgXgXgXgXgXgXgXgXgXgXgXgXgXgXgXgXgXgXgXgXgXgXgXgXgXgXgXgXgXgXgXgXgXgXgXgXgXgXgXgXgXgXgXgXgXgXgXgXgXgXgXgXgXgXgXgXgXgXgXgXgXgXgXgXgXgXgXgXgXgXgXgXgXgXgXgXgXgXgXgXgXgXgXgXgXgXgXgXgXgXgXgXgXgXgXgXgXgXgXgXgXgXgXgXgXgXgXgXgXgXgXgXgXgXgXgXgXgXgXgXgXgXgXgXgXgXgXgXgXgXgXgXgXgXgXgXgXgXgXgXgXgXgXgXgXgXgXgXgXgXgXgXgXgXgXgXgXgXgXgXgXgXgXgXgXgXgXgXgXgXgXgXgXgXgXgXgXgXgXgXgXgXgXj W g.k.u.*.0 , , 5.g.;.M < o o V 2.2.w.7.<.<.-.-.-.V _ 2.2.2.2.' z z O.T.0.2.2.0.e.Y.Y.t.j.^.^.^.Y.0.Y.R.R.L.0.e.t.^.^.^.~.t.e.Y.t.e.t.Y.Y.Y.3.0.L.T.L.3.e.3.3.3.e.e.0.3.0.Y.T.H.H.H.3.3.3.0.e.e.e.e.e.e.0.Y.L.0.0.0.e.0.3.O.O.} { { B 3.2.M z M N ' ' ~ 0 ^ -.[ -.;.w.w.w.2.=.8 z c 0 * * o . < ~ A 0 > v 2.2.' D ......' _ _ ,   o r _ W v . . % z V D D D _ ",
"Z < 2._ z m m z <   O , 0 , %   O , _ D ` 2.2.2.=.` ` 6.Y.2.< * * , * . o o 8 A A 8 , m 1.' ' =.w.w.;.-.^ < m ' D N N z < c 2.3.O.O.O.o.o.O.0.P.C.m.m.m.m.O.O. .O.O.0.0.0.0.O.X.o.2.3.3.3.....o.0.e.2.2.2.2.e.j.g.w.w.w.g.j.e.2.2.e.~.t.e.e.g.j.j.g.g.g.j.x.j.e.r.^.R.0.X.} O.O.O.3.2.' z z M D ' 1.^ J <.f.f.h.l.g.4.2.2.3.7 # 9 A =.g.j.A o , *.<.<.f.] g } u   gXgXgXgXgXgXgXgXgXgXgXgXgXgXgXgXgXgXgXgXgXgXgXgXgXgXgXgXgXgXgXgXgXgXgXgXgXgXgXgXgXgXgXgXgXgXgXgXgXgXgXgXgXgXgXgXgXgXgXgXgXgXgXgXgXgXgXgXgXgXgXgXgXgXgXgXgXgXgXgXgXgXgXgXgXgXgXgXgXgXgXgXgXgXgXgXgXgXgXgXgXgXgXgXgXgXgXgXgXgXgXgXgXgXgXgXgXgXgXgXgXgXgXgXgXgXgXgXgXgXgXgXgXgXgXgXgXgXgXgXgXgXgXgXgXgXgXgXgXgXgXgXgXgXgXgXgXgXgXgXgXgXgXgXgXgXgXgXgXgXgXgXgXgXgXgXgXgXgXgXgXgXgXgXgXgXgXgXgXgXgXgXgXgXgXgXgXgXgXgXgXgXgXgXgXgXgXgXgXgXgXgXgXgXgXgXgXgXgXgXgXgXgXgXgXgXgXgXgXgXgXgXgXgXgXgXgXgXgXgXgXgXgXgXgXgXgXj { e.p.,.*.0 , , 4.g.;.V 1 # o V 2.2.g.f.f.w.<.<.<.^ ( 5.2.2.' ' M z D Y.0.2.2.e.~.^.^.^.-X>X>X>X^.Y.R.R.T.0.3.0.j.^.^.^.j.j.(.~.t.t.Y.R.Y.L.3.3.L.L.0.0.R.0.0.w.e.e.e.0.Y.R.L.H.L.L.L.L.0.0.t.t.t.0.0.0.0.L.L.0.0.t.^.e.O.O.m.m.O.X.X.3.' 1 1 c N ' ' ~ 0 ^ =.-.4.<.w.f.f.;.` z z c 0 * * o . < V 0 0 < v 5.2.' ' ......' ' ~ 8 . . * * % %   O % 8 V N M z N ",
"Z 8 2._ m m m z 1 % o * * o o # * 8 m _ ' 2.4.2.=._ m ' 3.1.< * # , * . o o 8 V A 0 , m 2.' ] 2.e.g.<.-.~ 1 D .._ N v c < < m N D B N N v N ..O.| { { { o.o.o.o.o.o.o.o.o.O.O.o...o.o.....{ { { ....' ' o.2.2.2.2.2.2.2.2.3.3.....2.e.e.e.2.5.e.e.e.2.5.w.w.2.2.2.e.3.......X.X.O.o..._ z z M N ' 2.^ / <.f.f.x.l.f.w.1.2.3.7 o 8 V 1.e.g.c o , / -.<.f.] j v.f . gXgXgXgXgXgXgXgXgXgXgXgXgXgXgXgXgXgXgXgXgXgXgXgXgXgXgXgXgXgXgXgXgXgXgXgXgXgXgXgXgXgXgXgXgXgXgXgXgXgXgXgXgXgXgXgXgXgXgXgXgXgXgXgXgXgXgXgXgXgXgXgXgXgXgXgXgXgXgXgXgXgXgXgXgXgXgXgXgXgXgXgXgXgXgXgXgXgXgXgXgXgXgXgXgXgXgXgXgXgXgXgXgXgXgXgXgXgXgXgXgXgXgXgXgXgXgXgXgXgXgXgXgXgXgXgXgXgXgXgXgXgXgXgXgXgXgXgXgXgXgXgXgXgXgXgXgXgXgXgXgXgXgXgXgXgXgXgXgXgXgXgXgXgXgXgXgXgXgXgXgXgXgXgXgXgXgXgXgXgXgXgXgXgXgXgXgXgXgXgXgXgXgXgXgXgXgXgXgXgXgXgXgXgXgXgXgXgXgXgXgXgXgXgXgXgXgXgXgXgXgXgXgXgXgXgXgXgXgXgXgXgXgXgXgXgXgXv.} 2.<.,.*.9 * , 4.g.;.M < % o V 2.4.w.g.f.g.f.7.<.^ D 3.2.' ` _ m z x ....' _ ..2.0.3.9.e.e.g.g.e.o.o.o.....o.o.3.0.e.w.w.e.g.e.2.2.3.3.3.O.X.X.X.X...o.3.2.=.=.;.2.2.2.3.3.O.X.O.O.3.3.2.2.2.2.3.3.3.o.X.X.X...o.0.t.2.{ { X.X.O.X.X...z < 1 c N ' 2.V 0 ^ ;.-.w.w.f.w.<.-.~ 8 8 c 0 * # o   , A 0 0 < N e.2.....o.1.1.' ' m 0 , * % o o o o * < z M z s z N ",
"Z 8 2._ M m m z z z 0 8 8 8 8 0 0 m c _ =.4.5.4.=.' N ' 0.1.8 * # ; , . o * 0 ^ A 8 , c 2.2.2.e.w.4.-.-.` 1 m ..' N v z < z z M m z z z z f N ..' B v W ' ' ' ' ' ( E N ( ' ' ( ( W W N B D D F B B N ' ' ' ' ( ( ' ' ' ............2.2.2.....2.1.' ' ' ' ' ' ' ' o.' ( ' W N B N ' ' ( z z z v ..2.^ *.p.f.f.x.x.h.w.' ..0.7 o 8 V ' e.e.r o , / ;.w.f.2.j N.g . gXgXgXgXgXgXgXgXgXgXgXgXgXgXgXgXgXgXgXgXgXgXgXgXgXgXgXgXgXgXgXgXgXgXgXgXgXgXgXgXgXgXgXgXgXgXgXgXgXgXgXgXgXgXgXgXgXgXgXgXgXgXgXgXgXgXgXgXgXgXgXgXgXgXgXgXgXgXgXgXgXgXgXgXgXgXgXgXgXgXgXgXgXgXgXgXgXgXgXgXgXgXgXgXgXgXgXgXgXgXgXgXgXgXgXgXgXgXgXgXgXgXgXgXgXgXgXgXgXgXgXgXgXgXgXgXgXgXgXgXgXgXgXgXgXgXgXgXgXgXgXgXgXgXgXgXgXgXgXgXgXgXgXgXgXgXgXgXgXgXgXgXgXgXgXgXgXgXgXgXgXgXgXgXgXgXgXgXgXgXgXgXgXgXgXgXgXgXgXgXgXgXgXgXgXgXgXgXgXgXgXgXgXgXgXgXgXgXgXgXgXgXgXgXgXgXgXgXgXgXgXgXgXgXgXgXgXgXgXgXgXgXgXgXgXgXgXN.} 2.<.,./ 9 * * 4.g.;.m 1 % % D 4.2.4.w.f.f.f.p.<.*.V 3.2.' ` ` D N W W W N N _ ' ' ' ' ' 2.=.=.=.' W D B B W W W ' ' ' ` =.=.' _ N N D D D { { F F B W ' ` ` V V D _ ' ' { { W D ' ' ' ' ' ' ' ........{ { { ....2.] _ ( W D B B f x z s < 1 c m ' 2.V c -.-.-.w.f.g.<.;.[ ~ 8 8 c 0 o # o O , A 0 8 < N e.2...2.2.5.4.=.' V ~ c c 0 8 < 8 8 c V _ N z f z N ",
"V 8 2._ m m m z m _ _ c c c c V m _ m ` ;.w.w.w.2.' ( ..0.2.8 * # , , . o * 0 ^ A 8 , z 2.2.2.2.;.;.<.-.-.8 M 2.' z z s z ' D M M M M m z z m _ _ m c c A c c ~ A c 0 0 A ~ _ _ _ _ N m N N D D D N _ _ ' ' ' _ D D D D V _ _ _ ` [ -.-.-.-.-.[ ` V N N ( _ ' ' ..( m N _ D z z s m _ D z < z ' 3.2.^ <.f.f.f.l.x.h.w.1.2.e.8 o 8 M ' 2.w.0 # , / <.g.h.2.h v.g . gXgXgXgXgXgXgXgXgXgXgXgXgXgXgXgXgXgXgXgXgXgXgXgXgXgXgXgXgXgXgXgXgXgXgXgXgXgXgXgXgXgXgXgXgXgXgXgXgXgXgXgXgXgXgXgXgXgXgXgXgXgXgXgXgXgXgXgXgXgXgXgXgXgXgXgXgXgXgXgXgXgXgXgXgXgXgXgXgXgXgXgXgXgXgXgXgXgXgXgXgXgXgXgXgXgXgXgXgXgXgXgXgXgXgXgXgXgXgXgXgXgXgXgXgXgXgXgXgXgXgXgXgXgXgXgXgXgXgXgXgXgXgXgXgXgXgXgXgXgXgXgXgXgXgXgXgXgXgXgXgXgXgXgXgXgXgXgXgXgXgXgXgXgXgXgXgXgXgXgXgXgXgXgXgXgXgXgXgXgXgXgXgXgXgXgXgXgXgXgXgXgXgXgXgXgXgXgXgXgXgXgXgXgXgXgXgXgXgXgXgXgXgXgXgXgXgXgXgXgXgXgXgXgXgXgXgXgXgXgXgXgXgXgXgXgXgXN. .2.p.,.*.9 * * 4.g.;.m 1 % % D 5.=.-.7.f.f.f.f.7.-.c 2.2.' D D ..2.6...D N D ` ' ` ` [ [ [ ^ ^ ^ _ _ D N m _ _ D _ _ ` ` ' =.[ [ ` _ D ' ' ' W D D B N ~ _ _ D D N N N ( ' ' ' _ _ _ ` ` ~ V V _ _ D V m m N D V V A ~ ` D V z z c c M M 1 < z D ..2.V ~ -.<.;.<.w.4.;.;.[ m 8 8 c 0 o * o O , A 0 8 < N e.o.' o.9.w.5.2.=.` [ ` ^ A c ~ ^ ^ ` =.' N N N z m ",
"c , 2.' v M M m ' 2.' ~ c m V ~ V ' V ` ;.w.g.w.2.' D ..5.2.8 * # , , . . o 8 Z A 8 , m 2.1.2.2.4.w.w.<.-.0 z ' _ B N N N m 8 = < < < < < < > 1 1 < , * * , : * * , * , , , : : : * * * > = = > > > < , < < < < < < > , , , , , , , , 8 8 8 8 8 8 < < 1 1 1 1 s f 1 1 0 z 8 8 8 8 8 8 < = 1 ( 3.0.2.^ <.f.f.f.f.f.g.w.2.2.0.8 o 8 c D 2.w.8 o 9 *.w.x.x.' i k s   gXgXgXgXgXgXgXgXgXgXgXgXgXgXgXgXgXgXgXgXgXgXgXgXgXgXgXgXgXgXgXgXgXgXgXgXgXgXgXgXgXgXgXgXgXgXgXgXgXgXgXgXgXgXgXgXgXgXgXgXgXgXgXgXgXgXgXgXgXgXgXgXgXgXgXgXgXgXgXgXgXgXgXgXgXgXgXgXgXgXgXgXgXgXgXgXgXgXgXgXgXgXgXgXgXgXgXgXgXgXgXgXgXgXgXgXgXgXgXgXgXgXgXgXgXgXgXgXgXgXgXgXgXgXgXgXgXgXgXgXgXgXgXgXgXgXgXgXgXgXgXgXgXgXgXgXgXgXgXgXgXgXgXgXgXgXgXgXgXgXgXgXgXgXgXgXgXgXgXgXgXgXgXgXgXgXgXgXgXgXgXgXgXgXgXgXgXgXgXgXgXgXgXgXgXgXgXgXgXgXgXgXgXgXgXgXgXgXgXgXgXgXgXgXgXgXgXgXgXgXgXgXgXgXgXgXgXgXgXgXgXgXgXgXgXgXgXb.} 2.f.,.*.9 * * 4.g.2.m 8 % % ` 5.;.;.w.h.f.f.p.7.-.0 ' e.5...' o...V z < < 8 8 0 0 9 8 8 9 9 7 7 , , < < < < 8 8 8 < < < < > < < < , , < < < < < > > < 8 1 1 1 1 < < < < > < < : , , , 8 , , , 8 < < 7 , , 8 8 8 , 8 8 8 8 , 8 8 , 8 8 8 < < m o.2._ 0 *.<.<.<.=.-.;.;.=._ m 8 8 c c % * o O , c 9 8 < N 0.o...o.9.r.w.4.;.-.;.-.-.^ ^ -.-.-.-.' ( N D N z v ",
"c < 2.' N N V ' ..2.2.' ' =.=.=.' 2.' =.;.w.r.w.2.' m ..0.2.8 * # , , . o o , A A 0 , 1 ' ' ' 2.4.4.<.;.<.-.8 8 m N N N < % % % % % % % % % * > > > * % * > : * % % % % * * : , , , , , , < < , , , * * * # # # # * * * * * * * * * * # # # # # # o # * * * * * : > < < , , , 7 8 < , : 8 _ 2.2.' V -.f.z.z.l.f.f.g.e.2.6.e.8 o 8 c N 2.2.9 # 9 *.g.x.l.=.i k s   gXgXgXgXgXgXgXgXgXgXgXgXgXgXgXgXgXgXgXgXgXgXgXgXgXgXgXgXgXgXgXgXgXgXgXgXgXgXgXgXgXgXgXgXgXgXgXgXgXgXgXgXgXgXgXgXgXgXgXgXgXgXgXgXgXgXgXgXgXgXgXgXgXgXgXgXgXgXgXgXgXgXgXgXgXgXgXgXgXgXgXgXgXgXgXgXgXgXgXgXgXgXgXgXgXgXgXgXgXgXgXgXgXgXgXgXgXgXgXgXgXgXgXgXgXgXgXgXgXgXgXgXgXgXgXgXgXgXgXgXgXgXgXgXgXgXgXgXgXgXgXgXgXgXgXgXgXgXgXgXgXgXgXgXgXgXgXgXgXgXgXgXgXgXgXgXgXgXgXgXgXgXgXgXgXgXgXgXgXgXgXgXgXgXgXgXgXgXgXgXgXgXgXgXgXgXgXgXgXgXgXgXgXgXgXgXgXgXgXgXgXgXgXgXgXgXgXgXgXgXgXgXgXgXgXgXgXgXgXgXgXgXgXgXgXgXgXv.F 2.f.,./ 8 * * 4.e.1.M 8 % % ` 5.w.h.h.z.f.f.p.7.<./ : m 2.2.2.' M , * % * , , , , , # # # * * * * * # # * # # o o o o % % o % % o o o # * * * * * * , 7 , , , , * : > < < : : , , , * * * , , 8 8 8 8 < < 1 1 8 8 1 1 8 < , , < 7 7 8 8 z N ' ' N 8 A -.<.<.;.=.=.;.-.` _ m < 1 c 8 o * o   , 0 8 8 , v 0...D ' 2.2.w.w.4.<.4.4.4.;.;.<.<.<.2.' ..{ D D x B ",
"V > =._ N ' ' ....2.2.;.;.;.<.4.;.2.;.4.4.4.2.2.=.' m ' e.2.8 * # , , . o o * A A r , 0 2.2.2.w.g.g.w.<.4.<.~ 8 8 c m m z 8 z c m V V V c m V D N N m M N N N D m m m _ ` ` [ -.^ ^ ^ -.[ =.=.*.-.*.^ ^ A / / / A A / ^ ^ ^ ^ ^ ^ V ^ ^ -.-.-.^ ^ ^ / / ^ ^ -.-.=.` [ ' -.` ^ *.-.*.^ [ [ [ [ _ c [ f.f.f.z.z.f.f.g.e.1...0.8 o 8 M D 2.2.8 o , / <.w.w.' i k s   gXgXgXgXgXgXgXgXgXgXgXgXgXgXgXgXgXgXgXgXgXgXgXgXgXgXgXgXgXgXgXgXgXgXgXgXgXgXgXgXgXgXgXgXgXgXgXgXgXgXgXgXgXgXgXgXgXgXgXgXgXgXgXgXgXgXgXgXgXgXgXgXgXgXgXgXgXgXgXgXgXgXgXgXgXgXgXgXgXgXgXgXgXgXgXgXgXgXgXgXgXgXgXgXgXgXgXgXgXgXgXgXgXgXgXgXgXgXgXgXgXgXgXgXgXgXgXgXgXgXgXgXgXgXgXgXgXgXgXgXgXgXgXgXgXgXgXgXgXgXgXgXgXgXgXgXgXgXgXgXgXgXgXgXgXgXgXgXgXgXgXgXgXgXgXgXgXgXgXgXgXgXgXgXgXgXgXgXgXgXgXgXgXgXgXgXgXgXgXgXgXgXgXgXgXgXgXgXgXgXgXgXgXgXgXgXgXgXgXgXgXgXgXgXgXgXgXgXgXgXgXgXgXgXgXgXgXgXgXgXgXgXgXgXgXgXgXv.F 2.f.,.r 8 # * =.5.` c < # % ` w.g.x.x.h.f.f.p.p.7.<.A 8 8 _ ' ' _ ~ ^ ^ -.-.;.-.;.-.*.*.*.-.-.^ A A A A ^ ^ / A c A V ^ ^ ^ V V V ~ / ^ ~ A A A A A ^ -.=.-.-.` ^ Z ` ` _ _ ~ ^ ^ ^ ` -.^ ^ ` [ =.=.' ' ' _ _ ` ' ' ' _ ~ ~ ` ` ^ Z A c V m z 1 z A -.<.<.<.;.2.;.;.=.2.2.m < < z 8 o % o   , c 0 8 : z t.2.....2.4.w.f.f.w.f.4.4.4.w.w.w.w.4.2.O...F B B D ",
"V < 2.' N ' ' ..3.3.w.w.4.4.<.4.<.4.4.w.w.5.2.2.=.` m =.t.2.8 * ; , , o o o * V ~ r , z =.2.2.w.w.w.w.w.<.<.-./ c 0 8 8 8 c 0 8 0 c c c 8 1 1 1 s s s s s s s 1 1 < 1 8 c c c c c 0 c c m D D ` ` ^ ^ ^ Z ^ *.` ~ V ` [ *.` ~ V m c c c A ^ ^ V c c c c c c V ^ ^ V V ~ V V m m A A A A A 0 0 V =.<.f.f.h.h.f.g.f.g.e.2.2.0.8 o 8 M ' 2.2.9 o 9 / -.-.<._ i k <   gXgXgXgXgXgXgXgXgXgXgXgXgXgXgXgXgXgXgXgXgXgXgXgXgXgXgXgXgXgXgXgXgXgXgXgXgXgXgXgXgXgXgXgXgXgXgXgXgXgXgXgXgXgXgXgXgXgXgXgXgXgXgXgXgXgXgXgXgXgXgXgXgXgXgXgXgXgXgXgXgXgXgXgXgXgXgXgXgXgXgXgXgXgXgXgXgXgXgXgXgXgXgXgXgXgXgXgXgXgXgXgXgXgXgXgXgXgXgXgXgXgXgXgXgXgXgXgXgXgXgXgXgXgXgXgXgXgXgXgXgXgXgXgXgXgXgXgXgXgXgXgXgXgXgXgXgXgXgXgXgXgXgXgXgXgXgXgXgXgXgXgXgXgXgXgXgXgXgXgXgXgXgXgXgXgXgXgXgXgXgXgXgXgXgXgXgXgXgXgXgXgXgXgXgXgXgXgXgXgXgXgXgXgXgXgXgXgXgXgXgXgXgXgXgXgXgXgXgXgXgXgXgXgXgXgXgXgXgXgXgXgXgXgXgXgXgX} B 4.f.,./ 8 * * 2.2._ z < % % ` w.w.g.l.h.f.f.f.p.<.<.-.A 8 < 1 8 0 z m m m V _ ` ` ` ^ / / ~ A A c m V _ ~ [ [ ^ Z V V V A A A A A V A A A m c A A A Z ^ ^ ^ ^ V m V _ D v M m V c c c z z z z z z z z z z z c c c c 8 8 < 8 0 c c 8 8 0 0 0 8 c ^ *.<.<.<.<.;.;.-.-.;.2.' M < 1 c 0 o * o   , V 0 8 < N e.2...2.2.4.w.f.f.g.g.w.4.4.w.g.f.w.w.3.3.X.{ F B D ",
"A < 2.' N N _ ..3.e.w.4.w.f.p.f.4.4.4.w.f.w.4.2.=.' D 1.~.2.0 , , 9 9 o o o , ^ ^ A , c 2.2.w.w.4.4.;.4.<.;.;.-.-.^ ~ M M V c 0 c m V m z 1 1 1 z z z z s s z z 8 1 1 8 8 8 0 0 z 8 8 z z z z c A A c 0 c c V c z c V _ ` m z 1 8 0 0 8 0 A V c c c 0 8 8 0 c c A A V ^ ~ V V ~ ^ *.*.*.*.*.-.4.f.f.p.f.z.z.h.f.g.g.e.2.2.0.8 o 8 M ..3.5.8 o 9 / -.<.<._ i k <   gXgXgXgXgXgXgXgXgXgXgXgXgXgXgXgXgXgXgXgXgXgXgXgXgXgXgXgXgXgXgXgXgXgXgXgXgXgXgXgXgXgXgXgXgXgXgXgXgXgXgXgXgXgXgXgXgXgXgXgXgXgXgXgXgXgXgXgXgXgXgXgXgXgXgXgXgXgXgXgXgXgXgXgXgXgXgXgXgXgXgXgXgXgXgXgXgXgXgXgXgXgXgXgXgXgXgXgXgXgXgXgXgXgXgXgXgXgXgXgXgXgXgXgXgXgXgXgXgXgXgXgXgXgXgXgXgXgXgXgXgXgXgXgXgXgXgXgXgXgXgXgXgXgXgXgXgXgXgXgXgXgXgXgXgXgXgXgXgXgXgXgXgXgXgXgXgXgXgXgXgXgXgXgXgXgXgXgXgXgXgXgXgXgXgXgXgXgXgXgXgXgXgXgXgXgXgXgXgXgXgXgXgXgXgXgXgXgXgXgXgXgXgXgXgXgXgXgXgXgXgXgXgXgXgXgXgXgXgXgXgXgXgXgXgXgXgX} B 4.a.,.*.9 * * 2.e.' c 8 * o ` w.2.4.f.k.z.h.h.f.7.<.<.<.*.A A A A z z z z z z v m V ~ / / r 0 0 c c c c c c A c 0 0 0 r r r r c c c c c c c c 0 0 0 0 0 8 8 8 1 1 1 z N N m m V A c 0 z c c c m m m M M m V A c c 0 0 c 0 r r 0 c c c V ~ ~ ^ [ ;.-.-.-.<.w.;.-.;.=.-.V c z < 8 V c * * .   8 ^ r 8 > N t.2...3.w.w.f.f.f.h.h.g.f.w.g.g.h.f.w.e.O.X.{ F D N ",
"A < 2...D ( ' ..2.w.w.4.w.f.f.f.4.2.e.g.g.g.w.2.=.' ' ..Y.2.8 , , 9 9 o o o , ^ ^ A , 0 w.e.2.2.2.5.2.;.;.-.-.-.-.-.[ _ ....' _ _ ' ' ' ' _ _ ~ ~ ~ _ N m z m ~ V m z z M M m m ' ' N m M M M m ~ Z V A A c c c c c V V V M z z c ^ ^ ^ ^ [ -.^ / [ *./ / ^ [ -.-.-.-.4.4.;.-.;.<.<.<.w.<.-.<.7.f.f.p.a.z.z.f.w.w.5.2.....3.8 o 8 M ..e.g.9 o , A <.<.w._ i G >   gXgXgXgXgXgXgXgXgXgXgXgXgXgXgXgXgXgXgXgXgXgXgXgXgXgXgXgXgXgXgXgXgXgXgXgXgXgXgXgXgXgXgXgXgXgXgXgXgXgXgXgXgXgXgXgXgXgXgXgXgXgXgXgXgXgXgXgXgXgXgXgXgXgXgXgXgXgXgXgXgXgXgXgXgXgXgXgXgXgXgXgXgXgXgXgXgXgXgXgXgXgXgXgXgXgXgXgXgXgXgXgXgXgXgXgXgXgXgXgXgXgXgXgXgXgXgXgXgXgXgXgXgXgXgXgXgXgXgXgXgXgXgXgXgXgXgXgXgXgXgXgXgXgXgXgXgXgXgXgXgXgXgXgXgXgXgXgXgXgXgXgXgXgXgXgXgXgXgXgXgXgXgXgXgXgXgXgXgXgXgXgXgXgXgXgXgXgXgXgXgXgXgXgXgXgXgXgXgXgXgXgXgXgXgXgXgXgXgXgXgXgXgXgXgXgXgXgXgXgXgXgXgXgXgXgXgXgXgXgXgXgXgXgXgXgXgX} B ;.p.,.%.9 , * =.g.' c 8 # o V 3.o.2.w.z.z.k.h.f.p.<.<.<.<.-.=.-.=.^ ~ _ ' ' ( ( _ ' ;.-.<.-.-.-.=.;.-.-.*.*.*.*.^ ^ ^ *.*.-.*.*.^ ^ *.*.-.*.*./ A ^ V Z V m m m m M D ' =.-.-.=.=.-.` ^ -.-.-.-.[ ^ ~ [ -.-.[ ^ ^ / ~ [ -.*.*.[ *.*.*.*.[ [ [ [ -.-.-.-.<.;.;.-.;.=.` V c c 8 8 V c * * .   , ^ Z 0 > N j.3.{ ..2.w.f.f.h.g.g.g.g.g.f.f.h.h.w.5.O.{ D W ' _ ",
"A < 2...W ' ..2.2.w.4.<.f.f.f.f.<.;.5.g.f.f.r.4.2.' ' ..Y.2.8 , * , 9 o # # , V ^ A 8 8 2.e.=.=.2.5.w.4.;.-.;.;.;.;.^ _ ' ' ' _ _ _ ' ' _ _ ` [ _ ` [ ` N M M D W B g g N N x W ....N v N V m V ~ ^ *.-.-.[ ` ` ` ` ` ^ ^ V m m ` -.*.*.-.-.*.*.*.-.*.=.-.-.;.-.-.-.<.4.;.;.;.-.<.<.<.w.<.-.<.7.w.f.f.f.z.f.7.<.;.;.2.....2.8 * 8 M ..t.g.9 o , r -.<.w._ d G >   gXgXgXgXgXgXgXgXgXgXgXgXgXgXgXgXgXgXgXgXgXgXgXgXgXgXgXgXgXgXgXgXgXgXgXgXgXgXgXgXgXgXgXgXgXgXgXgXgXgXgXgXgXgXgXgXgXgXgXgXgXgXgXgXgXgXgXgXgXgXgXgXgXgXgXgXgXgXgXgXgXgXgXgXgXgXgXgXgXgXgXgXgXgXgXgXgXgXgXgXgXgXgXgXgXgXgXgXgXgXgXgXgXgXgXgXgXgXgXgXgXgXgXgXgXgXgXgXgXgXgXgXgXgXgXgXgXgXgXgXgXgXgXgXgXgXgXgXgXgXgXgXgXgXgXgXgXgXgXgXgXgXgXgXgXgXgXgXgXgXgXgXgXgXgXgXgXgXgXgXgXgXgXgXgXgXgXgXgXgXgXgXgXgXgXgXgXgXgXgXgXgXgXgXgXgXgXgXgXgXgXgXgXgXgXgXgXgXgXgXgXgXgXgXgXgXgXgXgXgXgXgXgXgXgXgXgXgXgXgXgXgXgXgXgXgXgXU x ;.p.,.%.e , * =.g.=.V 0 , # V 2...2.f.f.k.k.k.h.a.p.p.<.<.-.<.<.<.-.-.[ =.=.[ ` [ =.;.<.<.<.-.-.;.;.<.<.<.-.-.=.-.-.-.-.-.<.-.-.*.*.-.-.-.=.-.^ V ^ ` *.` V V ~ _ D _ ` ' =.=.=.' ` ` -.-.-.-.-.[ [ [ *.-.-.-.-.*.^ ` ' ;.-.-.;.=.-.-.;.*.-.-.;.-.-.*.-.;.-.;.;.;.=.` V M z 8 z V c % * o   , ^ ^ r > N R.3.{ ..2.w.g.h.g.w.r.g.h.h.g.g.g.h.g.w...{ N N N _ ",
"A < 2...W ' ..2.2.4.4.7.f.p.f.w.;.=.4.w.g.w.w.4.2.' D ..Y.2.8 , * , 9 o # # , V V A 8 < N _ _ =.4.w.w.w.4.;.;.<.<.=.[ _ ' =.' ' ' ' ' ' ' 2.;.;.` [ [ ' _ D N D D B g B W N B W B N N m [ ` ^ ~ ` -.-.-.-.-.-.-.=.;.=.-.-.[ ` ' =.=.*.-.-.-.-.=.-.-.-.<.<.-.-.<.<.<.<.4.;.;.-.<.<.<.w.w.<.<.<.7.w.f.f.f.h.f.<.w.w.2.3.......8 * 8 c ' 5.w.9 o , r -.<.w._ d G <   gXgXgXgXgXgXgXgXgXgXgXgXgXgXgXgXgXgXgXgXgXgXgXgXgXgXgXgXgXgXgXgXgXgXgXgXgXgXgXgXgXgXgXgXgXgXgXgXgXgXgXgXgXgXgXgXgXgXgXgXgXgXgXgXgXgXgXgXgXgXgXgXgXgXgXgXgXgXgXgXgXgXgXgXgXgXgXgXgXgXgXgXgXgXgXgXgXgXgXgXgXgXgXgXgXgXgXgXgXgXgXgXgXgXgXgXgXgXgXgXgXgXgXgXgXgXgXgXgXgXgXgXgXgXgXgXgXgXgXgXgXgXgXgXgXgXgXgXgXgXgXgXgXgXgXgXgXgXgXgXgXgXgXgXgXgXgXgXgXgXgXgXgXgXgXgXgXgXgXgXgXgXgXgXgXgXgXgXgXgXgXgXgXgXgXgXgXgXgXgXgXgXgXgXgXgXgXgXgXgXgXgXgXgXgXgXgXgXgXgXgXgXgXgXgXgXgXgXgXgXgXgXgXgXgXgXgXgXgXgXgXgXgXgXgXgXgXG z ;.p.,.J 9 , # =.g.=.V 0 , * V 2...2.g.f.k.k.k.k.f.p.7.<.<.<.<.4.w.<.-.-.;.<.;.;.4.;.<.<.<.<.<.<.;.<.<.<.<.<.<.<.-.-.-.<.<.<.<.<.=.=.=.;.=.=.` ` ` ` =.=.-.[ ^ ` ` _ _ ' ' ..' ' ' ' ' -.-.;.;.-.[ -.-.-.-.-.-.-.;.-.' ' ;.<.<.<.<.<.;.-.*.;.;.;.-.-.-.<.4.;.=.2.2.[ m c c 8 8 c V c o * o   , ^ A 0 > B t.3.{ ..2.w.h.g.w.4.w.g.h.h.g.w.w.h.h.r.2...N z v _ ",
"V < 2.' N N ' ..2.w.g.f.p.p.7.w.4.4.4.w.f.<.;.=.=._ D ..Y.2.8 * * , , o # # , V V V 0 < z N ' =.2.w.w.w.w.w.w.4.w.;.' ' ;.2.=.2...' ( N ' 2.2.;.~ ^ -.-.[ ( N D x x B W ' D W W N _ [ ` [ -.[ ` ' =.=.-.;.;.;.=.=.-.-.-.=.=.' ' 2.<.<.<.<.<.<.-.-.<.w.w.<.-.<.<.4.;.;.;.;.;.<.<.<.w.w.<.<.p.p.p.f.f.p.f.f.f.7.2.2.3.o.W D ..0 * 8 M ' 2.w.9 o , r -.<.<._ d G <   gXgXgXgXgXgXgXgXgXgXgXgXgXgXgXgXgXgXgXgXgXgXgXgXgXgXgXgXgXgXgXgXgXgXgXgXgXgXgXgXgXgXgXgXgXgXgXgXgXgXgXgXgXgXgXgXgXgXgXgXgXgXgXgXgXgXgXgXgXgXgXgXgXgXgXgXgXgXgXgXgXgXgXgXgXgXgXgXgXgXgXgXgXgXgXgXgXgXgXgXgXgXgXgXgXgXgXgXgXgXgXgXgXgXgXgXgXgXgXgXgXgXgXgXgXgXgXgXgXgXgXgXgXgXgXgXgXgXgXgXgXgXgXgXgXgXgXgXgXgXgXgXgXgXgXgXgXgXgXgXgXgXgXgXgXgXgXgXgXgXgXgXgXgXgXgXgXgXgXgXgXgXgXgXgXgXgXgXgXgXgXgXgXgXgXgXgXgXgXgXgXgXgXgXgXgXgXgXgXgXgXgXgXgXgXgXgXgXgXgXgXgXgXgXgXgXgXgXgXgXgXgXgXgXgXgXgXgXgXgXgXgXgXgXgXgXgXgXB ;.p.,.*.9 7 # =.g.2.c 8 , * Z 2.' 2.w.z.z.k.k.k.f.f.<.<.<.<.<.4.w.<.<.8.w.4.<.4.w.;.-.w.f.p.7.<.;.<.<.<.<.<.<.<.<.-.<.<.<.y.<.<.<.<.=.;.-.V V ' 2.1.=.-.*.*.*.[ ^ ~ _ _ _ D N N ' ' _ ` =.4.4.-.*.;.-.-.<.<.<.;.;.2.=.' ;.7.<.<.<.<.;.-.;.;.;.<.<.;.<.8.w.2.=.2.2.~ 8 8 z 8 0 c ~ 0 o * o   , A c 8 > N e.3.{ ..2.w.h.g.w.4.e.g.h.h.g.4.4.g.h.g.2...' m N _ ",
"^ = 5.' v N ' ..4.h.z.k.f.p.p.f.f.w.w.f.g.<.;.^ ` _ ' ..^.2.8 * * , , # # # < ` _ _ V m z m ' 2.4.4.;.4.w.w.w.4.<.;.=.4.w.w.4.2.2.2...' ' =.;.;.~ ^ -.;.=._ ( z z z N x B ' N N _ ` ^ ^ ^ ^ V M m N _ [ =.;.;.;.*.^ ` -.=.=._ _ ' ;.<.-.-.-.<.<.<.7.w.w.;.-.<.w.f.4.;.2.w.g.g.f.<.<.<.<.7.f.p.f.f.f.<.<.f.f.w.2.2...N s v 2.A * 8 V ' e.j.8 o , r *.-.<.~ d G >   gXgXgXgXgXgXgXgXgXgXgXgXgXgXgXgXgXgXgXgXgXgXgXgXgXgXgXgXgXgXgXgXgXgXgXgXgXgXgXgXgXgXgXgXgXgXgXgXgXgXgXgXgXgXgXgXgXgXgXgXgXgXgXgXgXgXgXgXgXgXgXgXgXgXgXgXgXgXgXgXgXgXgXgXgXgXgXgXgXgXgXgXgXgXgXgXgXgXgXgXgXgXgXgXgXgXgXgXgXgXgXgXgXgXgXgXgXgXgXgXgXgXgXgXgXgXgXgXgXgXgXgXgXgXgXgXgXgXgXgXgXgXgXgXgXgXgXgXgXgXgXgXgXgXgXgXgXgXgXgXgXgXgXgXgXgXgXgXgXgXgXgXgXgXgXgXgXgXgXgXgXgXgXgXgXgXgXgXgXgXgXgXgXgXgXgXgXgXgXgXgXgXgXgXgXgXgXgXgXgXgXgXgXgXgXgXgXgXgXgXgXgXgXgXgXgXgXgXgXgXgXgXgXgXgXgXgXgXgXgXgXgXgXgXgXgXgXgXv -.p.,./ 8 , # =.g.2.c < * # ^ 2.' 2.e.z.h.f.f.f.f.f.<.<.7.w.<.<.<.<.w.f.f.f.f.g.w.-.*.<.w.w.p.<.-.-.<.g.f.<.<.<.-.<.<.<.-.<.f.p.<.<.=.-.` M z N ' ' _ ` ;.;.<.;.-.` ' ' ' ' W ' ....o.2.2.2.2.=.=.-.-.-.<.4.;.-.-.4.2.' ;.4.<.<.-.-.-.;.;.;.;.w.4.<.-.;.<.2.2.=._ 0 1 0 0 8 c V ` c % * o   * A 0 8 > N e.3...2.w.w.g.g.g.g.h.h.f.f.g.w.4.w.f.w.2.1.' N D _ ",
"^ * 2.' m _ ' 1.5.f.k.f.f.p.p.7.w.w.<.w.g.w.4.;.=._ ' 2.^.2.8 * * , 7 # # # < _ D _ ` ` M c ~ 2.w.;.=.;.w.w.8.<.;.;.w.w.f.f.8.;.=.=.' ' _ [ [ ` _ ` -.=.=.' B x N B B B B ' ( v ( _ _ _ ' V m z B N _ ' =.;.<.;.^ A ^ -.=.=.D B N ` -.*.*.-.<.w.w.w.;.;.;.-.<.4.w.;.=.=.4.g.f.<.-.-.<.w.f.p.p.f.f.7.<.<.w.w.4.4.1.N s s _ 2.c * 8 M ' e.j.9 . , r *.-.<.V d G <   gXgXgXgXgXgXgXgXgXgXgXgXgXgXgXgXgXgXgXgXgXgXgXgXgXgXgXgXgXgXgXgXgXgXgXgXgXgXgXgXgXgXgXgXgXgXgXgXgXgXgXgXgXgXgXgXgXgXgXgXgXgXgXgXgXgXgXgXgXgXgXgXgXgXgXgXgXgXgXgXgXgXgXgXgXgXgXgXgXgXgXgXgXgXgXgXgXgXgXgXgXgXgXgXgXgXgXgXgXgXgXgXgXgXgXgXgXgXgXgXgXgXgXgXgXgXgXgXgXgXgXgXgXgXgXgXgXgXgXgXgXgXgXgXgXgXgXgXgXgXgXgXgXgXgXgXgXgXgXgXgXgXgXgXgXgXgXgXgXgXgXgXgXgXgXgXgXgXgXgXgXgXgXgXgXgXgXgXgXgXgXgXgXgXgXgXgXgXgXgXgXgXgXgXgXgXgXgXgXgXgXgXgXgXgXgXgXgXgXgXgXgXgXgXgXgXgXgXgXgXgXgXgXgXgXgXgXgXgXgXgXgXgXgXgXgXgXF z -.y.,.r 9 * # ;.j.2.c < % # *.4.=.=.5.f.f.w.f.f.f.<.<.<.<.<.<.<.<.4.f.f.f.f.w.w.<.-.-.-.4.<.<.<.;.<.w.f.<.<.<.<.<.<.<.*.*.-.<.<.<.-.-.^ ~ D N x x B m _ -.<.;.-.^ ~ ` [ ` ' ' ' ' ' ....' ' ' 2.=.=.-.-.<.;.-.[ ' -.=.' =.w.w.4.-.*.;.;.;.;.4.w.<.<.-.-.;.;.=.` c 0 0 c 0 0 c V ` c % * .   * A 0 9 > N Y.3...2.r.w.g.f.h.h.f.f.f.f.g.f.w.f.h.g.4.=.' ' _ _ ",
"^ * 5.2.( ' ..2.w.f.f.f.f.f.f.f.f.w.<.g.f.f.w.w.5.' D ..^.5.8 * * , 7 # # # < V m V V ` ~ c 0 ~ 2.;.;.4.w.w.<.;.-.;.w.w.7.7.<.;.=.2.2.' ..2.' _ ' ' _ ' ' W B ..{ { { { { ..W v N ' ' ....D N N D W ' ' ` =.;.=.^ V ` =.-.' ' D _ =.;.-.*.-.w.w.<.;.-.;.;.<.<.<.w.4.2.2.w.g.g.<.<.<.w.f.f.p.p.f.f.7.<.<.w.8.;.1.' z s m =.;.8 * 8 M ..t.x.9 o * e *.-.<.m d } <   gXgXgXgXgXgXgXgXgXgXgXgXgXgXgXgXgXgXgXgXgXgXgXgXgXgXgXgXgXgXgXgXgXgXgXgXgXgXgXgXgXgXgXgXgXgXgXgXgXgXgXgXgXgXgXgXgXgXgXgXgXgXgXgXgXgXgXgXgXgXgXgXgXgXgXgXgXgXgXgXgXgXgXgXgXgXgXgXgXgXgXgXgXgXgXgXgXgXgXgXgXgXgXgXgXgXgXgXgXgXgXgXgXgXgXgXgXgXgXgXgXgXgXgXgXgXgXgXgXgXgXgXgXgXgXgXgXgXgXgXgXgXgXgXgXgXgXgXgXgXgXgXgXgXgXgXgXgXgXgXgXgXgXgXgXgXgXgXgXgXgXgXgXgXgXgXgXgXgXgXgXgXgXgXgXgXgXgXgXgXgXgXgXgXgXgXgXgXgXgXgXgXgXgXgXgXgXgXgXgXgXgXgXgXgXgXgXgXgXgXgXgXgXgXgXgXgXgXgXgXgXgXgXgXgXgXgXgXgXgXgXgXgXgXgXgXgX} m <.p.,.A 8 , * 2.(.2.c = % o / 4.=.' 2.w.w.w.f.f.f.4.<.<.<.7.<.<.7.<.i.f.w.7.<.<.;.;.;.-.;.;.<.;.;.4.w.<.-.-.4.i.w.4.;.;.;.;.-.<.<.-.-.` ( ' ..W ..W _ [ -.<.;.=.` ` =.=.=.2.2.........W N W ..2.2.' ;.;.;.-.` [ =.[ =.' =.4.<.;.<.<.;.;.;.-.<.<.<.<.<.;.;.=.` V c V ~ A A A c m _ c % # O   , A r 0 > B Y.o...2.r.g.h.h.z.z.f.f.h.h.f.f.f.z.z.f.w.2.' ' ' D ",
"Z * 5.2.W ' ' ..2.w.w.w.f.f.f.f.f.f.f.f.f.f.w.4.2.' ' ..^.2.8 * * , 7 # # * < z z m ~ E _ ~ V V ~ [ ;.<.<.<.<.<.-.;.;.8.4.;.;.2.2.2.2.2...' _ ' W ' { W B B { F { { { B B D W B B D ........D D B B D ' ' _ _ _ _ D V _ _ ' ' ' ' ' =.-.[ [ =.2.' ' _ [ -.=.=.;.2.w.w.2.=.2.w.w.7.7.w.<.7.7.7.7.7.7.<.<.w.4.;.D v z z [ ;.r * * 8 M ..e.g.9 o * r *.*.;.m i } s   gXgXgXgXgXgXgXgXgXgXgXgXgXgXgXgXgXgXgXgXgXgXgXgXgXgXgXgXgXgXgXgXgXgXgXgXgXgXgXgXgXgXgXgXgXgXgXgXgXgXgXgXgXgXgXgXgXgXgXgXgXgXgXgXgXgXgXgXgXgXgXgXgXgXgXgXgXgXgXgXgXgXgXgXgXgXgXgXgXgXgXgXgXgXgXgXgXgXgXgXgXgXgXgXgXgXgXgXgXgXgXgXgXgXgXgXgXgXgXgXgXgXgXgXgXgXgXgXgXgXgXgXgXgXgXgXgXgXgXgXgXgXgXgXgXgXgXgXgXgXgXgXgXgXgXgXgXgXgXgXgXgXgXgXgXgXgXgXgXgXgXgXgXgXgXgXgXgXgXgXgXgXgXgXgXgXgXgXgXgXgXgXgXgXgXgXgXgXgXgXgXgXgXgXgXgXgXgXgXgXgXgXgXgXgXgXgXgXgXgXgXgXgXgXgXgXgXgXgXgXgXgXgXgXgXgXgXgXgXgXgXgXgXgXgXgXgXG v 4.f.<.r 9 * * =.~...z = % . 7 =.4.=.' =.=.4.w.w.w.4.;.<.<.<.;.;.<.7.7.7.<.<.2.2.2.2.2.=.=.2.;.=.=.2.2.' _ [ 2.4.4.2.;.;.=.-.=.-.[ ` ` D N N D ..{ W _ _ -.-.` ` ` ' ' ' ' ' ' ' ' ' ......H D D W _ _ ' ' _ _ [ _ ' ' ' ' =.=.;.;.;.;.;.;.;.;.;.;.-.;.-.[ A c A V ~ V V ~ V c c c < o # O O , A r 8 < m R.3...2.w.w.g.g.h.f.f.f.h.h.f.z.k.k.z.g.w.2.=.' D _ ",
"` * 5.2.' ' ' ..2.<.7.<.<.w.7.f.w.f.f.f.f.f.w.;.1.' ' ..~.5.8 * * , 7 # # , < c m V ` ~ [ -.-.-.` ` ^ Z / [ ` ` ^ ~ ~ ^ ^ V D N N D _ D N D ' _ ' ......D N N D ' ' ' _ _ _ ' ' ' _ _ _ _ D N N N N m m m m m V V V V V M N v N D _ ` ` V _ _ _ D D m ( _ V m _ ' ' ' ` D ` -.-.-.-.-.-.-.;.-.-.-.-.=.-.=.' _ N M M ` ` 0 , * 8 c x ..e.e.8 . * 0 *.-.<.~ d G <   gXgXgXgXgXgXgXgXgXgXgXgXgXgXgXgXgXgXgXgXgXgXgXgXgXgXgXgXgXgXgXgXgXgXgXgXgXgXgXgXgXgXgXgXgXgXgXgXgXgXgXgXgXgXgXgXgXgXgXgXgXgXgXgXgXgXgXgXgXgXgXgXgXgXgXgXgXgXgXgXgXgXgXgXgXgXgXgXgXgXgXgXgXgXgXgXgXgXgXgXgXgXgXgXgXgXgXgXgXgXgXgXgXgXgXgXgXgXgXgXgXgXgXgXgXgXgXgXgXgXgXgXgXgXgXgXgXgXgXgXgXgXgXgXgXgXgXgXgXgXgXgXgXgXgXgXgXgXgXgXgXgXgXgXgXgXgXgXgXgXgXgXgXgXgXgXgXgXgXgXgXgXgXgXgXgXgXgXgXgXgXgXgXgXgXgXgXgXgXgXgXgXgXgXgXgXgXgXgXgXgXgXgXgXgXgXgXgXgXgXgXgXgXgXgXgXgXgXgXgXgXgXgXgXgXgXgXgXgXgXgXgXgXgXgXgXgX} W w.f.<.r 9 * * =.0.' N M < % . 9 ;.2.=.' ' ` [ -.-.[ ~ ` ` ~ V ~ ^ [ [ ^ V m N N D N M m V V ` [ [ [ ' ` V _ ` Z ` _ _ ' ' ` ~ V m m m M z z x N B N D D ~ ~ V V _ ` ' D D D _ ' ' ' ' ' ....' N m m m _ _ m V _ _ _ ` ' ' N m _ ' ` ` ` ~ V ~ ^ ^ ~ V A A V V ^ ^ ^ ` ` _ V c c c 8 o #     , A A 8 < N Y.3...2.w.w.w.w.g.f.z.z.z.f.h.x.x.z.f.f.4.=._ N D ( ",
"` * 5.2.' ' ' 1.2.w.f.w.4.w.w.7.f.f.f.f.f.f.w.;.' D ' o.^.e.0 * * , 7 # o * < M M M D ' ' -.-.;.;.-.-.` ^ ^ V ` ^ ~ V m N D D x z z z M V c 8 0 c c z z 8 8 8 8 8 8 8 8 8 8 0 0 0 9 8 8 8 8 8 8 1 < < , , 8 < < < < < < < < < 1 8 0 0 8 8 8 8 8 z z z 1 > > > s z 0 1 z M m A ^ / ^ ` ` ^ ~ ~ ^ ` ` V A M M v N D ' ` c * , 1 V _ N { e.t.8 . * 0 *.-.<._ i G &   gXgXgXgXgXgXgXgXgXgXgXgXgXgXgXgXgXgXgXgXgXgXgXgXgXgXgXgXgXgXgXgXgXgXgXgXgXgXgXgXgXgXgXgXgXgXgXgXgXgXgXgXgXgXgXgXgXgXgXgXgXgXgXgXgXgXgXgXgXgXgXgXgXgXgXgXgXgXgXgXgXgXgXgXgXgXgXgXgXgXgXgXgXgXgXgXgXgXgXgXgXgXgXgXgXgXgXgXgXgXgXgXgXgXgXgXgXgXgXgXgXgXgXgXgXgXgXgXgXgXgXgXgXgXgXgXgXgXgXgXgXgXgXgXgXgXgXgXgXgXgXgXgXgXgXgXgXgXgXgXgXgXgXgXgXgXgXgXgXgXgXgXgXgXgXgXgXgXgXgXgXgXgXgXgXgXgXgXgXgXgXgXgXgXgXgXgXgXgXgXgXgXgXgXgXgXgXgXgXgXgXgXgXgXgXgXgXgXgXgXgXgXgXgXgXgXgXgXgXgXgXgXgXgXgXgXgXgXgXgXgXgXgXgXgXgXgX{ z ;.<.-.r 8 * * =.Y...' D z z * o , ^ 2...' D _ [ ' ` _ _ _ ^ ~ V V V ~ V V M z s s s M M z 8 8 c c 0 0 0 0 0 0 8 8 8 8 z 0 0 0 0 8 8 8 8 8 8 z z z 0 0 0 8 8 8 8 8 8 8 < < < 8 8 8 < 1 8 8 8 8 8 8 8 8 8 8 8 8 8 8 8 8 8 z m N m m z z m V V V V Z V V V V ` =.-.*.^ ` ` _ D m z c 8 # o     * 0 0 8 < N e.3...2.e.g.4.2.w.f.z.k.z.f.h.l.x.z.f.w.2.' _ v v N ",
"V * 4.2.N ' ' 2.4.g.h.f.4.w.w.w.f.f.f.f.f.f.4.;.=.D W o./.e.0 * * , 9 # o , 8 M z z z m ' =.2.;.-.-.-.-.-.-.[ -.;.;.=._ D ' ' N z z c V c * . . . . . . . O O O . . . O O O o o . o . o o O O X o o O O O O O   O               O O O O O O . . . . . . . . o : z ~ m m _ [ -.-.-.<.4.4.;.-.;.-.=.=.' _ N ' ..' ' ' V < < 0 m ' ' D ..L.e.8 . * 0 ^ -.;.m t j &   gXgXgXgXgXgXgXgXgXgXgXgXgXgXgXgXgXgXgXgXgXgXgXgXgXgXgXgXgXgXgXgXgXgXgXgXgXgXgXgXgXgXgXgXgXgXgXgXgXgXgXgXgXgXgXgXgXgXgXgXgXgXgXgXgXgXgXgXgXgXgXgXgXgXgXgXgXgXgXgXgXgXgXgXgXgXgXgXgXgXgXgXgXgXgXgXgXgXgXgXgXgXgXgXgXgXgXgXgXgXgXgXgXgXgXgXgXgXgXgXgXgXgXgXgXgXgXgXgXgXgXgXgXgXgXgXgXgXgXgXgXgXgXgXgXgXgXgXgXgXgXgXgXgXgXgXgXgXgXgXgXgXgXgXgXgXgXgXgXgXgXgXgXgXgXgXgXgXgXgXgXgXgXgXgXgXgXgXgXgXgXgXgXgXgXgXgXgXgXgXgXgXgXgXgXgXgXgXgXgXgXgXgXgXgXgXgXgXgXgXgXgXgXgXgXgXgXgXgXgXgXgXgXgXgXgXgXgXgXgXgXgXgXgXgXgXgXB z ;.<.*.r 8 * * 1./.3...` z z z < o * ~ 1...' =.2.4.4.` ` *.;.<.-.-.-.=.;.;.=.' N x N _ 0 * o o o o . . . . . . . . . o o o o o o o o . . . . . . . O   O       O   . .   O O O . .     O O         O . O   O   . . O . . # 0 [ ` c c A ` -.-.-.-.-.-.-.` *.;.4.;.;.[ ` ' ' ' N z M 0 * o O O * 8 8 8 < D Y.3.o.5.g.g.w.5.w.l.z.z.z.h.g.h.l.h.f.g.w.2.' D x N ",
"V % 4.2.( ' 2.2.4.w.f.f.4.7.f.f.f.f.f.f.f.f.f.4.2.' N ..R.2.8 * , , 9 o o , 8 z s s z x ..2.2.=.[ [ ;.w.w.<.;.-.<.w.;.[ D N N m z c V 0 #   o # # # # # # # # # # # # # # # * # # # # * # # # # # # # # # # # o o o o # # # # # # # # # # o # # # # # # * # o o % 0 [ =.=.;.;.-.<.f.f.w.<.<.<.<.=.=.2.2.....' D ` ' z = z M ' ..' W ..L.0.9 . * 0 ^ ` -.z t l &   gXgXgXgXgXgXgXgXgXgXgXgXgXgXgXgXgXgXgXgXgXgXgXgXgXgXgXgXgXgXgXgXgXgXgXgXgXgXgXgXgXgXgXgXgXgXgXgXgXgXgXgXgXgXgXgXgXgXgXgXgXgXgXgXgXgXgXgXgXgXgXgXgXgXgXgXgXgXgXgXgXgXgXgXgXgXgXgXgXgXgXgXgXgXgXgXgXgXgXgXgXgXgXgXgXgXgXgXgXgXgXgXgXgXgXgXgXgXgXgXgXgXgXgXgXgXgXgXgXgXgXgXgXgXgXgXgXgXgXgXgXgXgXgXgXgXgXgXgXgXgXgXgXgXgXgXgXgXgXgXgXgXgXgXgXgXgXgXgXgXgXgXgXgXgXgXgXgXgXgXgXgXgXgXgXgXgXgXgXgXgXgXgXgXgXgXgXgXgXgXgXgXgXgXgXgXgXgXgXgXgXgXgXgXgXgXgXgXgXgXgXgXgXgXgXgXgXgXgXgXgXgXgXgXgXgXgXgXgXgXgXgXgXgXgXgXgXB M 4.<.-.9 9 * * ..E.3.1.' x s s 1 * % * A =.5.w.w.w.w.-.*.<.p.f.f.w.<.<.<.<.;.=.' ' _ 0 # . o # # * * # # # , * # # # # # # 2 # # # o # # # # # # # # # # # # # # # # # # # # # # ; # # # # o o o o o o . O o o o o . O O . # 0 -.^ ^ ^ *.-.-.<.-.-.-.-.-.=.=.=.;.;.' ' ' ..D x z z 0 , o     * 0 0 0 < N t.3.o.5.e.f.g.g.g.f.z.z.x.z.f.f.h.z.l.x.g.2...D B x ",
"_ * 4.2.' ..2.2.2.w.f.p.p.p.f.f.f.f.k.k.k.f.f.w.2._ N ..Y.2.8 * , , 9 o # * , z s s g F ..2.2.' [ 2.;.<.f.<.-.-.<.w.4.=._ N m m m A 8 #   . * 8 , * * o o o o * * * * * * * * * * * * * * * # # # # # # # # # # # # * * # o o o o # # # # # # * # # * * * * , * o . 8 ;.2.;.-.<.f.f.f.f.8.<.w.g.4.[ ' 2.2.' m _ =.` 1 = z m W ......X.L.O., . * 0 ^ [ =.z t l &   gXgXgXgXgXgXgXgXgXgXgXgXgXgXgXgXgXgXgXgXgXgXgXgXgXgXgXgXgXgXgXgXgXgXgXgXgXgXgXgXgXgXgXgXgXgXgXgXgXgXgXgXgXgXgXgXgXgXgXgXgXgXgXgXgXgXgXgXgXgXgXgXgXgXgXgXgXgXgXgXgXgXgXgXgXgXgXgXgXgXgXgXgXgXgXgXgXgXgXgXgXgXgXgXgXgXgXgXgXgXgXgXgXgXgXgXgXgXgXgXgXgXgXgXgXgXgXgXgXgXgXgXgXgXgXgXgXgXgXgXgXgXgXgXgXgXgXgXgXgXgXgXgXgXgXgXgXgXgXgXgXgXgXgXgXgXgXgXgXgXgXgXgXgXgXgXgXgXgXgXgXgXgXgXgXgXgXgXgXgXgXgXgXgXgXgXgXgXgXgXgXgXgXgXgXgXgXgXgXgXgXgXgXgXgXgXgXgXgXgXgXgXgXgXgXgXgXgXgXgXgXgXgXgXgXgXgXgXgXgXgXgXgXgXgXgXgXB z 4.<.-.9 7 # % ..E.3.2.2...N s < < = * * V 5.w.w.4.4.;.-.<.p.a.f.f.<.<.<.<.<.;.=._ 1 o o # , , < < , , , , , , , * * * * # # * # # # * * * * * * # # * * * * * * * # o o o o o # * * * % o # * * % % o o o # * * o * * # o   o z -.-.^ *.=.<.<.<.-.-.-.=.2.=.` =.=.' ' F B g d s s 1 , o     , V ~ 0 < x Y.2...2.4.4.g.z.z.z.h.l.l.z.f.f.z.z.z.h.g.2...D B D ",
"[ * 4.2.o.2.2.6.2.w.f.k.f.f.p.p.f.f.k.k.z.z.z.f.<.=.' 2.^.e.0 , , , 9 o o * , z z x g F ..2.o.[ ' 2.4.w.g.4.-.-.4.w.4.2...' ' _ V 8 o . % % % % * < 1 < < * * * * * * * * * * , : : , , < > > > > < 1 < < < < < < < 1 z z s 1 1 1 z z 8 c c c c z 0 1 1 8 < , , , . . 8 -.;.<.f.g.f.g.g.w.w.g.g.w.=.1.o._ m V 1.2.0 < z z z D ..2.3.O.L.3.,   * c *.=.;.m t F &   gXgXgXgXgXgXgXgXgXgXgXgXgXgXgXgXgXgXgXgXgXgXgXgXgXgXgXgXgXgXgXgXgXgXgXgXgXgXgXgXgXgXgXgXgXgXgXgXgXgXgXgXgXgXgXgXgXgXgXgXgXgXgXgXgXgXgXgXgXgXgXgXgXgXgXgXgXgXgXgXgXgXgXgXgXgXgXgXgXgXgXgXgXgXgXgXgXgXgXgXgXgXgXgXgXgXgXgXgXgXgXgXgXgXgXgXgXgXgXgXgXgXgXgXgXgXgXgXgXgXgXgXgXgXgXgXgXgXgXgXgXgXgXgXgXgXgXgXgXgXgXgXgXgXgXgXgXgXgXgXgXgXgXgXgXgXgXgXgXgXgXgXgXgXgXgXgXgXgXgXgXgXgXgXgXgXgXgXgXgXgXgXgXgXgXgXgXgXgXgXgXgXgXgXgXgXgXgXgXgXgXgXgXgXgXgXgXgXgXgXgXgXgXgXgXgXgXgXgXgXgXgXgXgXgXgXgXgXgXgXgXgXgXgXgXgXgXB z 4.f.=.0 8 * % ../.0.2.2.2...x s s < % % 1 m ` 2.w.w.e.w.w.f.f.f.h.w.w.w.w.w.2.o.z % o * 7 * * > < < < : : * % * % = = * * , < : * * * * * % % * * % : > > > > 1 < > < < < < < < < < < < < 1 1 1 z s 1 f z m _ _ _ D D m 1 % . $ c ' =.-.-.<.<.<.<.=.-.2.2.1.` [ =.....F g d d f s 1 , # .   < ^ ^ 0 > B Y.3.....2.<.w.z.9Xx.h.g.f.z.z.z.z.z.z.f.w.2...H D D ",
"` * 4.5.......1.4.w.a.f.f.f.7.<.<.f.z.k.k.z.f.7.-.[ _ o.^.e.0 * , 7 7 o o * * < s s x x F H ....1.1.4.w.f.4.-.;.<.<.;.2.' ' _ V 8 # o % * % % < _ ' ' W W m =.......' ' ............o.3.O.X.X.O.O.X.O.O.......{ { ..3.3.3.3.O.X.O.3.3.6.o...o.2.2.2.2.2.2.=._ r , # . o 1 [ <.7.f.f.f.f.w.f.f.h.h.<.=.2.2.2.2.2.^ , < z z D ( ' ..3.L.Y.3., . * 8 ~ ' =.v i g &   gXgXgXgXgXgXgXgXgXgXgXgXgXgXgXgXgXgXgXgXgXgXgXgXgXgXgXgXgXgXgXgXgXgXgXgXgXgXgXgXgXgXgXgXgXgXgXgXgXgXgXgXgXgXgXgXgXgXgXgXgXgXgXgXgXgXgXgXgXgXgXgXgXgXgXgXgXgXgXgXgXgXgXgXgXgXgXgXgXgXgXgXgXgXgXgXgXgXgXgXgXgXgXgXgXgXgXgXgXgXgXgXgXgXgXgXgXgXgXgXgXgXgXgXgXgXgXgXgXgXgXgXgXgXgXgXgXgXgXgXgXgXgXgXgXgXgXgXgXgXgXgXgXgXgXgXgXgXgXgXgXgXgXgXgXgXgXgXgXgXgXgXgXgXgXgXgXgXgXgXgXgXgXgXgXgXgXgXgXgXgXgXgXgXgXgXgXgXgXgXgXgXgXgXgXgXgXgXgXgXgXgXgXgXgXgXgXgXgXgXgXgXgXgXgXgXgXgXgXgXgXgXgXgXgXgXgXgXgXgXgXgXgXgXgXgXgXB z ;.<./ 9 7 * % { E.e.4.e.e.2.N s > > : % = c ~ -.w.f.f.f.f.f.f.f.f.f.w.w.w.w.2.c * * , 7 , < M _ ' 2.' ......o.2.2.O.o...o.2.2.....3.3.3.3.3.O...X.O.3.3.3.3.3.O.o.3.3.O.O.3.3.O.o.3.3.3.3.2.3.3.0.0.0.e.5.0.L.0.2.[ [ V z < % . . 8 ` =.-.<.<.w.;.*.*.<.4.2.[ ^ ' ' D g g B g s < 1 * .     , V A 0 > z 0.o.W ..2.4.w.z.z.z.z.f.<.g.z.z.z.z.k.f.2.1.' ' D ' ",
"` * 4.2.W ' ..2.w.f.a.p.f.f.f.7.<.f.f.f.z.k.p.<.-.[ ' 2.^.e.0 , , , 7 o o , 8 z z x x d d B D ..2.2.2.4.w.4.;.;.;.-.;.2.2.2.` 8 # o * < < < c [ _ ' D V m m D ' ..' N N D D N B B B B D W ' ' { { F F B B B B F D D ....o...............' W _ ' o.2.0.e.w.2.=.[ A * o o * 8 [ <.g.g.w.<.w.r.g.h.h.g.e.w.w.w.w.=.8 < 8 c N ' ..=.2.0.E.E.L., O # 8 ~ [ =.v s g &   gXgXgXgXgXgXgXgXgXgXgXgXgXgXgXgXgXgXgXgXgXgXgXgXgXgXgXgXgXgXgXgXgXgXgXgXgXgXgXgXgXgXgXgXgXgXgXgXgXgXgXgXgXgXgXgXgXgXgXgXgXgXgXgXgXgXgXgXgXgXgXgXgXgXgXgXgXgXgXgXgXgXgXgXgXgXgXgXgXgXgXgXgXgXgXgXgXgXgXgXgXgXgXgXgXgXgXgXgXgXgXgXgXgXgXgXgXgXgXgXgXgXgXgXgXgXgXgXgXgXgXgXgXgXgXgXgXgXgXgXgXgXgXgXgXgXgXgXgXgXgXgXgXgXgXgXgXgXgXgXgXgXgXgXgXgXgXgXgXgXgXgXgXgXgXgXgXgXgXgXgXgXgXgXgXgXgXgXgXgXgXgXgXgXgXgXgXgXgXgXgXgXgXgXgXgXgXgXgXgXgXgXgXgXgXgXgXgXgXgXgXgXgXgXgXgXgXgXgXgXgXgXgXgXgXgXgXgXgXgXgXgXgXgXgXgXgXg s ;.<.*.r 8 7 * F E.e.w.t.5.2.' z < > = * * m ' =.<.g.h.f.w.w.g.f.f.w.4.w.w.;.c * = < , 0 ~ =.2.o.2.2.2.' _ ..2.2...........2.' D D ........F F B D ........' ' W ' ' ' ..................' ' ' ' ' ' 2.2.4.2.0.e.g.2.=.V z z < % . . * V =.<.<.w.4.-.;.w.w.w.=.=.2.' D D F B g s z z * o . O 8 ~ A 0 > z 0.2.' ..2.w.f.z.z.x.x.h.f.f.z.z.z.z.k.f.4.1.' D D W ",
"` * 5.2.N W ..2.w.f.a.p.f.f.f.f.f.f.f.f.f.f.f.<.-.=._ ..R.5.0 , , , , O o 8 ^ _ ' N v x x x N ' ' ..-.;.4.4.;.;.;.[ ' 2.2.` 8 # o * , 8 c E _ ' _ ' ' D Z ~ _ ' ' _ m m D D m m N N m N N ` ' _ B B B B x x D D N N D ' ..' N N D ' ' D D D ^ -.2.Y.I.2.-.-.-.-.[ 0 : * * < 0 -.;.;.;.;.;.w.w.w.w.w.w.w.e.w.2.0 * 8 z m ' ' 2.;.;.3.E.E.L.,   # 0 ~ [ =.v s d &   gXgXgXgXgXgXgXgXgXgXgXgXgXgXgXgXgXgXgXgXgXgXgXgXgXgXgXgXgXgXgXgXgXgXgXgXgXgXgXgXgXgXgXgXgXgXgXgXgXgXgXgXgXgXgXgXgXgXgXgXgXgXgXgXgXgXgXgXgXgXgXgXgXgXgXgXgXgXgXgXgXgXgXgXgXgXgXgXgXgXgXgXgXgXgXgXgXgXgXgXgXgXgXgXgXgXgXgXgXgXgXgXgXgXgXgXgXgXgXgXgXgXgXgXgXgXgXgXgXgXgXgXgXgXgXgXgXgXgXgXgXgXgXgXgXgXgXgXgXgXgXgXgXgXgXgXgXgXgXgXgXgXgXgXgXgXgXgXgXgXgXgXgXgXgXgXgXgXgXgXgXgXgXgXgXgXgXgXgXgXgXgXgXgXgXgXgXgXgXgXgXgXgXgXgXgXgXgXgXgXgXgXgXgXgXgXgXgXgXgXgXgXgXgXgXgXgXgXgXgXgXgXgXgXgXgXgXgXgXgXgXgXgXgXgXgXgXg s =.<.-.A 8 3 % D T.2.<.w.5.5.=.D z s = * % 8 [ -.-.<.w.4.-.<.w.f.g.w.w.4.;.0 * , , 8 V ' 2.1.' ' 2.t.j.2.' 2.2.2.1.' ' ' ' 2.' N D D D v v x v v N ' ' ' _ _ _ ~ _ ` ' ' D N N _ ' [ ` ' ` _ ` [ ` [ ;.;.w.e.Y.e.4.4.;.[ ~ c 8 > o . . * A =.<.2.;.;.;.2.2.=.[ -.=._ N N D N z z z 8 * o . O 8 ~ A 0 > z Y.2.' 2.4.f.z.z.z.z.z.z.z.k.k.z.k.k.h.f.4.1...D x D ",
"' * 5.2.N W =.4.4.f.f.f.f.f.p.f.f.f.f.f.f.f.f.7.;.-._ ..Y.e.c * * * * .   , A m D m m m m V D ` ` ` ^ *.-.-.-.-.^ m m ' ` < . . * , 8 m _ ' ' _ ] 0.0.0.=.[ =.' ' ' ` ` =.=._ _ [ ' ` _ _ ;.;.` N D D D D ' ....' ' =.1.=.` ` ' =.=.=.[ =.;.>.-.9.;XOX2.` =.;.[ [ ^ c < * * * < 8 8 8 r A A r A A A A ` =.` c , < m D ( ' 2.w.w.;.2.3.E.L.9 O # 0 ^ [ =.M s g &   gXgXgXgXgXgXgXgXgXgXgXgXgXgXgXgXgXgXgXgXgXgXgXgXgXgXgXgXgXgXgXgXgXgXgXgXgXgXgXgXgXgXgXgXgXgXgXgXgXgXgXgXgXgXgXgXgXgXgXgXgXgXgXgXgXgXgXgXgXgXgXgXgXgXgXgXgXgXgXgXgXgXgXgXgXgXgXgXgXgXgXgXgXgXgXgXgXgXgXgXgXgXgXgXgXgXgXgXgXgXgXgXgXgXgXgXgXgXgXgXgXgXgXgXgXgXgXgXgXgXgXgXgXgXgXgXgXgXgXgXgXgXgXgXgXgXgXgXgXgXgXgXgXgXgXgXgXgXgXgXgXgXgXgXgXgXgXgXgXgXgXgXgXgXgXgXgXgXgXgXgXgXgXgXgXgXgXgXgXgXgXgXgXgXgXgXgXgXgXgXgXgXgXgXgXgXgXgXgXgXgXgXgXgXgXgXgXgXgXgXgXgXgXgXgXgXgXgXgXgXgXgXgXgXgXgXgXgXgXgXgXgXgXgXgXgXgXg s ;.<.<.~ 8 , % { T.5.-.;.w.w.4.=.V z < < % * 8 0 0 r A 0 0 c ^ ^ -.[ [ V 8 * * , , r 2.2.' _ ' 2.t.-X,Xe.4.w.w.w.4.2.;.;.2.2.2.=.=.=.=.' ' ' ..' =.1.=.=.=.;.;.=.=.=.;.1.' D D ' 2.;.;.;.;.;.;.;.;.;.4.4.r.R.OXT.o.;.-.;.-.V z z < o . o , 0 ^ ` ` ` -.-.-.[ ^ -.` ^ m m M c c 8 8 , o # . . 8 ~ A 0 > x R.3.' 2.w.f.z.z.z.f.p.h.z.z.k.z.k.f.f.g.5.2.' N x N ",
"=.* 5.2.W ' 1.5.w.f.f.f.f.<.<.p.f.f.f.f.f.f.f.w.<.-.D ' Y.0.c * # * * . . , , % * * * * * * * * * * * , , , , , * * * < = % o % , 0 V _ _ ( ' ] 2.I.OX.X9.-.;.=.=.=.-.-.-.;.-.;.;.=.-.-.=.<.<.-._ D ' ' ' 2.2.2.=.=.2.4.<.-.-.;.4.4.4.-.<.<.<.<.e.;X3XR.2.;.;.;.-._ [ V 8 * * * * * 7 8 8 7 7 8 8 8 8 8 8 < * 8 V ' ' _ ' w.w.w.4.2.0.E.T.9 O # 8 ^ =.;.M s d &   gXgXgXgXgXgXgXgXgXgXgXgXgXgXgXgXgXgXgXgXgXgXgXgXgXgXgXgXgXgXgXgXgXgXgXgXgXgXgXgXgXgXgXgXgXgXgXgXgXgXgXgXgXgXgXgXgXgXgXgXgXgXgXgXgXgXgXgXgXgXgXgXgXgXgXgXgXgXgXgXgXgXgXgXgXgXgXgXgXgXgXgXgXgXgXgXgXgXgXgXgXgXgXgXgXgXgXgXgXgXgXgXgXgXgXgXgXgXgXgXgXgXgXgXgXgXgXgXgXgXgXgXgXgXgXgXgXgXgXgXgXgXgXgXgXgXgXgXgXgXgXgXgXgXgXgXgXgXgXgXgXgXgXgXgXgXgXgXgXgXgXgXgXgXgXgXgXgXgXgXgXgXgXgXgXgXgXgXgXgXgXgXgXgXgXgXgXgXgXgXgXgXgXgXgXgXgXgXgXgXgXgXgXgXgXgXgXgXgXgXgXgXgXgXgXgXgXgXgXgXgXgXgXgXgXgXgXgXgXgXgXgXgXgXgXgXgXg z ;.<.<.A 8 , * ..E.w.<.<.p.f.g.4.-.V c c < % * * * , * , * : , , 8 > < < < < < > m =.2.2.' ' 2.t.-X-X-Xg.w.f.g.w.w.4.<.<.;.;.;.;.;.;.;.=.=.=.2.2.2.;.;.;.<.<.4.<.;.;.<.2.=.=.=.;.4.<.<.-.<.<.<.<.<.4.4.f.r.R.#X.XS.2.;.;.-.` V M c < % o % * , , * * , , , , , , , , * # % % o o o . o * . . 8 ~ A 0 > N R.3.' 2.w.f.k.f.k.p.p.h.k.k.d.k.z.z.h.g.5.2.' ( B N ",
"=.* 5.2.' ' 2.5.5.w.f.f.w.<.7.f.f.f.f.p.p.f.f.f.;.-._ ..R.e.c * # * * o * 0 , o o o o o o . . . . . . . . o o o o o * , * o % < c _ ' ' ' W ] o.0.S..XI.9.;.;.=.=.-.-.-.-.-.<.<.-.<.-.-.;.<.<.=.` _ ' =.;.2.4.<.;.<.4.w.<.-.-.<.<.<.<.<.<.<.p.7.e.-X+XoXR.t.w.;.-._ =.=.V * o * * % * 7 7 3 , 7 7 7 , , * * = c ' ' ' ' 2.e.g.w.w.9.R.1XR.7 O o 7 ~ =.;.M y d &   gXgXgXgXgXgXgXgXgXgXgXgXgXgXgXgXgXgXgXgXgXgXgXgXgXgXgXgXgXgXgXgXgXgXgXgXgXgXgXgXgXgXgXgXgXgXgXgXgXgXgXgXgXgXgXgXgXgXgXgXgXgXgXgXgXgXgXgXgXgXgXgXgXgXgXgXgXgXgXgXgXgXgXgXgXgXgXgXgXgXgXgXgXgXgXgXgXgXgXgXgXgXgXgXgXgXgXgXgXgXgXgXgXgXgXgXgXgXgXgXgXgXgXgXgXgXgXgXgXgXgXgXgXgXgXgXgXgXgXgXgXgXgXgXgXgXgXgXgXgXgXgXgXgXgXgXgXgXgXgXgXgXgXgXgXgXgXgXgXgXgXgXgXgXgXgXgXgXgXgXgXgXgXgXgXgXgXgXgXgXgXgXgXgXgXgXgXgXgXgXgXgXgXgXgXgXgXgXgXgXgXgXgXgXgXgXgXgXgXgXgXgXgXgXgXgXgXgXgXgXgXgXgXgXgXgXgXgXgXgXgXgXgXgXgXgXgXd s -.<.-.r , # * ..E.4.<.w.f.h.f.w.-.[ ` c 0 * % % o o % * * * * * * * * * * * < V ..o.2.2.2.9.Y.R.R.R.e.g.f.f.f.w.4.4.<.<.;.=.<.<.<.<.<.;.;.;.4.4.4.4.<.<.7.p.p.<.<.<.<.;.;.;.;.;.<.<.<.<.<.<.<.4.<.<.w.f.w.q..X.X.Xt.e.;.<.;.-.~ z c < % % * * * * * * * * * * * * # # o o o o o o . , 0 * . 8 V c 0 > N R.3._ =.4.f.f.k.k.f.f.k.k.k.k.f.f.h.g.w.2.6...' N ' ",
"1.* 5.2.W ..4.2.2.<.7.w.w.w.f.f.f.z.f.p.p.p.p.<.-.[ _ o./.Y.c * # * , # 0 ^ , o o o o o .   . o o . . . . . . . . . o o . # 8 ~ _ _ ..o.o.o.0.I.U.A.U.0.4.w.;.;.;.;.=.;.<.<.<.<.<.<.<.<.<.<.<.;.' _ ' =.<.4.<.<.4.w.p.f.f.<.<.<.<.<.<.i.<.<.p.f.r.t..X.XXX-Xj.w.<.=.=.' ' ` c 8 , , , 7 7 7 , 7 7 7 7 8 0 c V D ' ....2.w.g.w.w.w.e.R.4XY.9 O # 7 ^ 2.4.D s d & . gXgXgXgXgXgXgXgXgXgXgXgXgXgXgXgXgXgXgXgXgXgXgXgXgXgXgXgXgXgXgXgXgXgXgXgXgXgXgXgXgXgXgXgXgXgXgXgXgXgXgXgXgXgXgXgXgXgXgXgXgXgXgXgXgXgXgXgXgXgXgXgXgXgXgXgXgXgXgXgXgXgXgXgXgXgXgXgXgXgXgXgXgXgXgXgXgXgXgXgXgXgXgXgXgXgXgXgXgXgXgXgXgXgXgXgXgXgXgXgXgXgXgXgXgXgXgXgXgXgXgXgXgXgXgXgXgXgXgXgXgXgXgXgXgXgXgXgXgXgXgXgXgXgXgXgXgXgXgXgXgXgXgXgXgXgXgXgXgXgXgXgXgXgXgXgXgXgXgXgXgXgXgXgXgXgXgXgXgXgXgXgXgXgXgXgXgXgXgXgXgXgXgXgXgXgXgXgXgXgXgXgXgXgXgXgXgXgXgXgXgXgXgXgXgXgXgXgXgXgXgXgXgXgXgXgXgXgXgXgXgXgXgXgXgXgXgXd z <.p.<.~ 8 # , O.E.<.<.f.f.z.f.4.;.2.2.[ -.A 8 , * , * * * , , , , , , < 8 c ` o...o.e.e.e.t.XXoXXXt.w.g.f.f.f.f.4.4.4.w.4.=.<.w.f.f.4.4.=.2.w.w.4.4.<.<.f.f.p.f.w.w.<.-.-.;.4.<.<.<.w.<.<.<.w.f.4.<.w.h.f.e.I..X.X-Xt.w.w.w.<.=.N _ V < % % * * * * * * * # # % * # o o o o # # o o 8 A % . 8 V 0 0 > N R.3.' ' ;.w.h.z.z.z.k.z.k.k.k.f.f.g.w.2.2.2.....D W ",
"-.* 2.2.' ......2.w.p.p.f.f.f.k.k.d.f.f.f.<.<.-.=._ _ ..^.0.8 * % * * o * 8 % % % o # * # o * * * * * * 9 8 , : , 9 , * < c _ ` _ ' 2.2.2.2.2.0.+X.X+.2.5.<.;.;.' =.=.;.4.8.[ -.<.<.<.4.<.;.=.-.-.-.;.-.-.<.f.w.<.f.f.f.p.<.<.4.4.<.<.4.p.p.f.f.w.9.[..XXXj.g.g.w.-.;.=.1.......o.o.3.3.2.2.2.2.3.2.2.o.o.2.2.......o.3.5.5.2.w.5.3.O.L.0.9 O o 9 [ 4.w._ s x & . gXgXgXgXgXgXgXgXgXgXgXgXgXgXgXgXgXgXgXgXgXgXgXgXgXgXgXgXgXgXgXgXgXgXgXgXgXgXgXgXgXgXgXgXgXgXgXgXgXgXgXgXgXgXgXgXgXgXgXgXgXgXgXgXgXgXgXgXgXgXgXgXgXgXgXgXgXgXgXgXgXgXgXgXgXgXgXgXgXgXgXgXgXgXgXgXgXgXgXgXgXgXgXgXgXgXgXgXgXgXgXgXgXgXgXgXgXgXgXgXgXgXgXgXgXgXgXgXgXgXgXgXgXgXgXgXgXgXgXgXgXgXgXgXgXgXgXgXgXgXgXgXgXgXgXgXgXgXgXgXgXgXgXgXgXgXgXgXgXgXgXgXgXgXgXgXgXgXgXgXgXgXgXgXgXgXgXgXgXgXgXgXgXgXgXgXgXgXgXgXgXgXgXgXgXgXgXgXgXgXgXgXgXgXgXgXgXgXgXgXgXgXgXgXgXgXgXgXgXgXgXgXgXgXgXgXgXgXgXgXgXgXgXgXgXgXgXd z 4.f.<.A , o % ..0.2.w.f.f.w.2...' =.=.o.' ....2.2.2.2.2.2.2.2.2.2.2.2.2.2.......' 2.r.g.w.e.R.oX.XI.0.f.k.k.f.f.p.<.w.w.4.=.<.f.f.p.y.<.4.4.4.w.w.4.<.<.7.f.f.f.f.<.<.;.<.7.f.7.<.;.<.<.4.w.<.;.<.w.w.f.w.9.q.XXoXg.8.8.8.<.<.<.[ D N V 0 , * * % % * * * * * * * , , * o o o o o . . o . . 8 ~ c 8 = x Y.o.N ' 4.f.a.k.z.z.k.z.z.z.z.f.f.w.5.2.2.....' B D ",
"*.* 2.2.D ' ....2.f.f.f.f.a.a.f.k.k.f.f.f.f.w.<.=._ ' ..^.0.8 * % * * o % 0 8 c V D ' ` ` ` ` [ ' =.' ' =.2.2.2.=.=.' ' _ N N N ' =.2.2.w.2.2.2.I.XXt.2.<.<.w.=.=.=.=.-.;.;.=.<.p.p.f.w.<.;.-.-.;.<.w.4.<.4.w.w.w.f.f.f.f.f.w.<.<.<.<.i.f.f.p.<.w.t.#XoXt.w.w.f.w.<.;.=.2.2...W { ..o.2...' ..o.2.2.....' ....' ..o.2.2.2.2.2.w.w.3.O.H.0.9 o # 0 -.;.4.N s d & . gXgXgXgXgXgXgXgXgXgXgXgXgXgXgXgXgXgXgXgXgXgXgXgXgXgXgXgXgXgXgXgXgXgXgXgXgXgXgXgXgXgXgXgXgXgXgXgXgXgXgXgXgXgXgXgXgXgXgXgXgXgXgXgXgXgXgXgXgXgXgXgXgXgXgXgXgXgXgXgXgXgXgXgXgXgXgXgXgXgXgXgXgXgXgXgXgXgXgXgXgXgXgXgXgXgXgXgXgXgXgXgXgXgXgXgXgXgXgXgXgXgXgXgXgXgXgXgXgXgXgXgXgXgXgXgXgXgXgXgXgXgXgXgXgXgXgXgXgXgXgXgXgXgXgXgXgXgXgXgXgXgXgXgXgXgXgXgXgXgXgXgXgXgXgXgXgXgXgXgXgXgXgXgXgXgXgXgXgXgXgXgXgXgXgXgXgXgXgXgXgXgXgXgXgXgXgXgXgXgXgXgXgXgXgXgXgXgXgXgXgXgXgXgXgXgXgXgXgXgXgXgXgXgXgXgXgXgXgXgXgXgXgXgXgXgXg d z 4.<.-.A 8 * % ..0.2.w.f.7.4.2.2.2.4.4.' _ ' ..1...o.2.2.2.' [ [ ' o.o.' ' ' 2.1.2.w.f.f.f.w.e.R.%X2X;Xh.z.f.g.g.f.f.f.w.4.4.<.f.f.f.f.4.4.;.2.4.4.w.7.<.7.p.p.p.f.f.w.4.w.f.f.f.p.<.<.<.<.;.-.<.f.f.f.w.8.r.;XXXI.w.<.<.<.<.;.-._ N N ' ' =.2.1.' ' ' 1.2.2...' ' =.=.[ _ V c 0 8 , # .   . 8 ~ c 8 = z T.o.W 2.w.g.h.k.z.k.k.z.z.z.z.f.f.r.e.e.2.2...' N ..",
"^ * 2.2.D ' D ..2.f.p.p.p.a.a.a.f.k.f.f.f.f.f.<.=.D N ..^.0.8 * * * * o * A 0 8 s s z z z z z z z z z m ` _ N B N m N N N B N W ' =.=.;.4.2.2.2.5.t.w.4.4.;.8.;.;.-.-.*.-.-.;.<.p.p.4.4.<.-.-.-.<.w.f.f.w.7.w.f.f.f.f.f.<.w.w.<.<.<.f.y.7.f.f.w.e.-XR.t.w.7.f.f.f.<.w.4.;.=._ _ ' o.2.2.o.' ' ........' ' 1.2.w.w.4.2.2.4.4.w.g.r.2.O.L.0.9 O # 0 [ -.;.M y d & . gXgXgXgXgXgXgXgXgXgXgXgXgXgXgXgXgXgXgXgXgXgXgXgXgXgXgXgXgXgXgXgXgXgXgXgXgXgXgXgXgXgXgXgXgXgXgXgXgXgXgXgXgXgXgXgXgXgXgXgXgXgXgXgXgXgXgXgXgXgXgXgXgXgXgXgXgXgXgXgXgXgXgXgXgXgXgXgXgXgXgXgXgXgXgXgXgXgXgXgXgXgXgXgXgXgXgXgXgXgXgXgXgXgXgXgXgXgXgXgXgXgXgXgXgXgXgXgXgXgXgXgXgXgXgXgXgXgXgXgXgXgXgXgXgXgXgXgXgXgXgXgXgXgXgXgXgXgXgXgXgXgXgXgXgXgXgXgXgXgXgXgXgXgXgXgXgXgXgXgXgXgXgXgXgXgXgXgXgXgXgXgXgXgXgXgXgXgXgXgXgXgXgXgXgXgXgXgXgXgXgXgXgXgXgXgXgXgXgXgXgXgXgXgXgXgXgXgXgXgXgXgXgXgXgXgXgXgXgXgXgXgXgXgXgXgXg d s 2.<.<.A , # o ' 0.2.<.7.w.4.4.4.w.w.w.=.=.2.2.' _ ' <.w.4.-.~ ~ =.[ ' _ =.-.;.;.4.f.f.z.h.g.w.e.XX2X;Xg.f.f.g.g.f.g.f.w.<.w.p.p.f.f.f.4.4.4.4.4.w.f.f.p.p.f.p.p.f.f.g.f.f.f.f.f.f.p.<.<.<.<.<.w.7.7.w.<.7.j.>Xj.9.<.<.<.<.<.<.-.` D v v N ' D x z s f N ' ' D x x D ' ' D D m c 0 8 , o   . 8 V A 0 > z L.o.D ..2.w.h.k.z.z.z.z.z.z.h.f.7.f.g.e.2.2...' N ' ",
"^ * 2.3.D ' ' ..2.w.f.w.p.p.a.a.a.f.f.f.f.f.w.;.=.N N ..^.0.8 * * * # o # 0 < % = s s d x z z s s z x D [ ' ' _ _ [ _ _ _ ' ' ' [ -.4.4.4.;.2.w.4.4.<.<.4.<.;.4.4.;.;.;.-.;.<.p.p.p.<.<.<.<.<.<.<.w.w.7.7.7.7.f.f.f.f.f.4.4.<.7.w.f.f.f.<.<.w.g.t.t.w.w.7.p.p.f.f.f.w.4.<.;.;.;.;.4.w.w.w.4.4.2.2.2.2.;.4.4.f.f.f.f.w.w.w.w.g.h.g.3.O.T.0.9 O # 0 [ =.4.N s d & . gXgXgXgXgXgXgXgXgXgXgXgXgXgXgXgXgXgXgXgXgXgXgXgXgXgXgXgXgXgXgXgXgXgXgXgXgXgXgXgXgXgXgXgXgXgXgXgXgXgXgXgXgXgXgXgXgXgXgXgXgXgXgXgXgXgXgXgXgXgXgXgXgXgXgXgXgXgXgXgXgXgXgXgXgXgXgXgXgXgXgXgXgXgXgXgXgXgXgXgXgXgXgXgXgXgXgXgXgXgXgXgXgXgXgXgXgXgXgXgXgXgXgXgXgXgXgXgXgXgXgXgXgXgXgXgXgXgXgXgXgXgXgXgXgXgXgXgXgXgXgXgXgXgXgXgXgXgXgXgXgXgXgXgXgXgXgXgXgXgXgXgXgXgXgXgXgXgXgXgXgXgXgXgXgXgXgXgXgXgXgXgXgXgXgXgXgXgXgXgXgXgXgXgXgXgXgXgXgXgXgXgXgXgXgXgXgXgXgXgXgXgXgXgXgXgXgXgXgXgXgXgXgXgXgXgXgXgXgXgXgXgXgXgXgXgXi i s 2.w.<.A , # % 2.t.4.w.f.w.w.w.f.f.f.f.<.<.4.4.=.-.2.f.g.f.<.;.-.;.;.;.-.<.<.w.<.p.f.z.z.z.z.f.g.r.t.t.g.k.k.f.w.f.g.h.f.p.f.p.p.f.f.w.<.;.w.w.4.f.f.f.a.f.f.f.f.f.f.f.f.f.f.f.f.p.p.7.<.<.4.w.f.f.f.w.7.f.f.h.w.7.f.f.<.<.<.<.<.=.D D ' ' _ x z x x z _ ' ' ' D N ' ' D D M s < < 8 , o . . 8 V V 0 > z T...D ' 2.<.w.f.z.z.z.z.z.h.f.f.w.f.g.e.2.....' N ..",
"` * 2.2.' ' ....2.w.w.w.w.p.k.a.p.f.f.f.f.w.4.2.' N D ../.0.0 * * , * o # 0 , = s s d B B D N N N N ' ` -.;.2.=.` ;.4.2.2.=.=.=.;.;.4.4.4.2.2.w.2.2.;.;.;.<.4.;.4.<.w.w.-.-.<.p.a.p.<.<.7.f.w.4.<.<.<.<.<.p.f.w.g.f.f.f.w.w.f.f.f.f.f.k.7.<.<.w.w.w.7.p.p.p.p.p.f.f.p.<.<.f.g.f.7.p.f.k.f.f.f.w.w.w.7.p.f.f.f.h.f.f.f.f.g.w.g.h.r.2.O.T.0.9 o # 0 [ ;.w.N s F = . gXgXgXgXgXgXgXgXgXgXgXgXgXgXgXgXgXgXgXgXgXgXgXgXgXgXgXgXgXgXgXgXgXgXgXgXgXgXgXgXgXgXgXgXgXgXgXgXgXgXgXgXgXgXgXgXgXgXgXgXgXgXgXgXgXgXgXgXgXgXgXgXgXgXgXgXgXgXgXgXgXgXgXgXgXgXgXgXgXgXgXgXgXgXgXgXgXgXgXgXgXgXgXgXgXgXgXgXgXgXgXgXgXgXgXgXgXgXgXgXgXgXgXgXgXgXgXgXgXgXgXgXgXgXgXgXgXgXgXgXgXgXgXgXgXgXgXgXgXgXgXgXgXgXgXgXgXgXgXgXgXgXgXgXgXgXgXgXgXgXgXgXgXgXgXgXgXgXgXgXgXgXgXgXgXgXgXgXgXgXgXgXgXgXgXgXgXgXgXgXgXgXgXgXgXgXgXgXgXgXgXgXgXgXgXgXgXgXgXgXgXgXgXgXgXgXgXgXgXgXgXgXgXgXgXgXgXgXgXgXgXgXgXgXgXgXi i x 5.w.<.A 7 # % 2.e.2.w.w.w.w.f.f.k.f.p.p.7.w.w.<.<.f.p.f.f.f.w.4.4.w.w.<.f.f.f.f.f.k.z.k.k.f.f.h.h.f.f.h.k.s.k.f.p.f.f.f.f.k.f.f.w.w.w.<.4.f.f.7.p.f.k.k.f.f.f.f.f.p.<.p.a.f.f.p.p.p.p.<.-.<.<.<.w.f.7.<.<.7.7.<.f.p.f.<.<.<.<.<.;.-.[ 2.2.[ ~ _ ' =.=.=.2.;.=.[ ` ` ` V c z s > > 8 , . . . 8 V V 0 > x T.o.W ' 2.4.w.f.z.z.z.z.f.f.g.f.f.g.e.5.6.....' N ' ",
"*.> 2.3.' ....o.2.2.;.;.<.f.f.f.p.f.f.f.f.<.;.1...D D ..^.0.0 * * , # o # 9 8 < s s s x B N N N _ D D ` ;.<.=.` -.;.<.4.2.-.-.=.2.4.=.` =.2.2.2.=.=.=.=.=.;.<.;.;.;.;.;.-.=.<.p.p.<.-.-.<.p.w.w.<.;.<.7.p.f.f.w.w.f.f.f.w.f.f.f.f.f.f.a.p.7.<.<.p.w.<.7.p.p.p.p.f.p.7.p.p.f.f.f.f.f.k.k.z.k.k.f.w.p.a.k.k.k.h.k.k.k.z.z.h.g.w.w.4.o.O.T.0.9 o * 0 -.;.4.D d F s . gXgXgXgXgXgXgXgXgXgXgXgXgXgXgXgXgXgXgXgXgXgXgXgXgXgXgXgXgXgXgXgXgXgXgXgXgXgXgXgXgXgXgXgXgXgXgXgXgXgXgXgXgXgXgXgXgXgXgXgXgXgXgXgXgXgXgXgXgXgXgXgXgXgXgXgXgXgXgXgXgXgXgXgXgXgXgXgXgXgXgXgXgXgXgXgXgXgXgXgXgXgXgXgXgXgXgXgXgXgXgXgXgXgXgXgXgXgXgXgXgXgXgXgXgXgXgXgXgXgXgXgXgXgXgXgXgXgXgXgXgXgXgXgXgXgXgXgXgXgXgXgXgXgXgXgXgXgXgXgXgXgXgXgXgXgXgXgXgXgXgXgXgXgXgXgXgXgXgXgXgXgXgXgXgXgXgXgXgXgXgXgXgXgXgXgXgXgXgXgXgXgXgXgXgXgXgXgXgXgXgXgXgXgXgXgXgXgXgXgXgXgXgXgXgXgXgXgXgXgXgXgXgXgXgXgXgXgXgXgXgXgXgXgXgXgXG j d 5.f.<.A , o % o.t.2.2.w.w.f.f.k.a.p.p.a.f.f.f.7.p.f.a.f.f.f.f.f.f.f.f.<.p.p.f.f.k.k.z.k.f.f.k.k.a.f.k.k.d.s.k.f.p.7.f.f.f.a.f.7.<.w.w.w.f.f.p.p.a.f.k.k.f.f.p.f.f.p.<.p.a.f.f.7.7.p.p.<.<.<.<.<.<.7.<.<.<.<.<.<.f.p.p.f.7.<.<.<.8.-.;.4.<.;.-.=.-.-.;.;.;.-.-.=.-.-.^ V c c s > : 8 , . . . < V A 0 > B Y...N =.4.w.r.f.z.z.z.k.f.f.g.f.f.f.w.2...{ D D N ' ",
"*.> 5.3.' ....O.3.2.2.;.<.f.f.f.a.p.f.f.w.;.' ' ..v D ..^.0.0 * * * # o # 9 8 8 z s s x x N _ ' ' ' D ' ;.2.' _ =.<.2.2.2.;.=.=.4.4.=.' 2.9.2.;.=.;.4.;.=.;.<.4.4.;.;.;.' 2.f.p.p.7.;.;.<.<.<.<.;.;.<.w.f.f.f.4.<.g.f.f.f.f.f.k.k.f.f.a.a.p.f.p.y.p.7.<.<.p.p.f.f.f.f.p.p.f.f.f.f.f.z.k.z.z.z.f.f.k.z.9Xz.z.z.f.z.z.z.x.z.f.5.4.2.o.O.T.t.9 o * 0 -.2.4.B d F s .   gXgXgXgXgXgXgXgXgXgXgXgXgXgXgXgXgXgXgXgXgXgXgXgXgXgXgXgXgXgXgXgXgXgXgXgXgXgXgXgXgXgXgXgXgXgXgXgXgXgXgXgXgXgXgXgXgXgXgXgXgXgXgXgXgXgXgXgXgXgXgXgXgXgXgXgXgXgXgXgXgXgXgXgXgXgXgXgXgXgXgXgXgXgXgXgXgXgXgXgXgXgXgXgXgXgXgXgXgXgXgXgXgXgXgXgXgXgXgXgXgXgXgXgXgXgXgXgXgXgXgXgXgXgXgXgXgXgXgXgXgXgXgXgXgXgXgXgXgXgXgXgXgXgXgXgXgXgXgXgXgXgXgXgXgXgXgXgXgXgXgXgXgXgXgXgXgXgXgXgXgXgXgXgXgXgXgXgXgXgXgXgXgXgXgXgXgXgXgXgXgXgXgXgXgXgXgXgXgXgXgXgXgXgXgXgXgXgXgXgXgXgXgXgXgXgXgXgXgXgXgXgXgXgXgXgXgXgXgXgXgXgXgXgXgXX.} B e.f.,.r , o % 2./.e.9.;.<.w.k.k.a.p.f.k.f.f.f.a.a.a.k.f.f.f.k.k.k.f.p.p.k.f.f.f.k.z.z.z.h.f.f.h.h.k.k.k.h.h.k.k.f.f.f.f.f.a.f.w.<.w.f.f.f.k.k.a.a.f.k.k.f.p.p.a.f.f.w.f.f.f.f.f.p.p.p.p.<.w.f.f.p.7.<.<.<.<.w.7.f.f.p.f.f.<.<.<.<.4.4.w.<.<.4.2.=.[ ;.4.4.<.;.;.=.[ _ m m M z 1 < 0 , . o . < V A 0 > N Y..._ 2.w.w.g.f.z.z.z.f.w.w.f.f.f.f.w.2...F F D N ..",
"` < e.2.D ' ..2.3.w.f.7.f.w.f.f.f.<.<.f.f.<.<.=.D v N ' ~.e.8 # # , # o # 9 8 z z s s s N ' [ -.;.=.' D ` ' ' =.;.2.2.' -.;.;.2.2.2.w.r.r.r.w.2.=.<.<.<.;.;.;.4.<.<.2.2.=.;.<.w.7.<.<.<.<.<.<.<.;.=.;.7.f.f.f.w.4.w.f.f.f.f.g.h.g.<.7.f.a.f.f.f.p.p.<.<.<.<.p.f.f.f.f.f.f.z.z.f.f.f.k.z.z.z.z.f.z.z.z.9Xz.z.z.k.k.z.z.f.f.f.w.<.2...O.T.e.9 o * 0 =.2.2.N u G s     gXgXgXgXgXgXgXgXgXgXgXgXgXgXgXgXgXgXgXgXgXgXgXgXgXgXgXgXgXgXgXgXgXgXgXgXgXgXgXgXgXgXgXgXgXgXgXgXgXgXgXgXgXgXgXgXgXgXgXgXgXgXgXgXgXgXgXgXgXgXgXgXgXgXgXgXgXgXgXgXgXgXgXgXgXgXgXgXgXgXgXgXgXgXgXgXgXgXgXgXgXgXgXgXgXgXgXgXgXgXgXgXgXgXgXgXgXgXgXgXgXgXgXgXgXgXgXgXgXgXgXgXgXgXgXgXgXgXgXgXgXgXgXgXgXgXgXgXgXgXgXgXgXgXgXgXgXgXgXgXgXgXgXgXgXgXgXgXgXgXgXgXgXgXgXgXgXgXgXgXgXgXgXgXgXgXgXgXgXgXgXgXgXgXgXgXgXgXgXgXgXgXgXgXgXgXgXgXgXgXgXgXgXgXgXgXgXgXgXgXgXgXgXgXgXgXgXgXgXgXgXgXgXgXgXgXgXgXgXgXgXgXgXgXgXn.} g 5.<.*.r 7 # o 2.-Xg.w.4.<.p.f.s.a.a.k.s.k.k.f.f.f.f.k.k.f.a.h.f.f.f.f.f.h.z.z.k.z.z.z.z.k.k.k.k.k.k.k.k.k.k.k.k.k.f.f.f.f.k.h.w.<.4.f.f.k.k.k.k.s.s.s.k.p.p.p.f.f.f.f.a.s.k.p.p.a.f.p.p.<.f.g.f.p.f.p.p.y.<.p.p.f.p.f.f.f.7.4.w.4.4.;.4.4.7.<.4.;.[ -.4.w.w.4.=.=.-.` ~ z z z < < 0 , o o . < A 0 8 = N 0...' 2.4.<.w.g.z.z.x.f.<.f.f.f.f.f.w.2.o...D D N ..",
"` < e.2.( ' ..2.e.w.f.f.f.f.p.f.f.f.f.f.f.f.w.;.' N N ' ~.e.8 # # 7 # o # 8 8 1 s s s z ' 2.;.;.;.;.;.=.=.=.2.;.<.=.' =.;.<.4.;.2.w.4.w.w.w.w.w.w.f.w.w.<.<.<.w.w.w.;.' -.-.<.<.<.<.<.7.p.p.p.7.;.] ;.7.f.f.g.h.h.f.f.f.f.f.w.w.f.<.f.f.p.p.p.p.a.p.<.<.<.p.f.k.k.z.f.k.z.z.f.f.f.h.z.z.9X9Xx.z.z.z.9X9Xz.z.z.z.k.f.p.p.p.f.f.f.5.3.3.T.0.7 o % 8 -.2.2.( u G s     gXgXgXgXgXgXgXgXgXgXgXgXgXgXgXgXgXgXgXgXgXgXgXgXgXgXgXgXgXgXgXgXgXgXgXgXgXgXgXgXgXgXgXgXgXgXgXgXgXgXgXgXgXgXgXgXgXgXgXgXgXgXgXgXgXgXgXgXgXgXgXgXgXgXgXgXgXgXgXgXgXgXgXgXgXgXgXgXgXgXgXgXgXgXgXgXgXgXgXgXgXgXgXgXgXgXgXgXgXgXgXgXgXgXgXgXgXgXgXgXgXgXgXgXgXgXgXgXgXgXgXgXgXgXgXgXgXgXgXgXgXgXgXgXgXgXgXgXgXgXgXgXgXgXgXgXgXgXgXgXgXgXgXgXgXgXgXgXgXgXgXgXgXgXgXgXgXgXgXgXgXgXgXgXgXgXgXgXgXgXgXgXgXgXgXgXgXgXgXgXgXgXgXgXgXgXgXgXgXgXgXgXgXgXgXgXgXgXgXgXgXgXgXgXgXgXgXgXgXgXgXgXgXgXgXgXgXgXgXgXgXgXgXgXgXgXY g 5.<./ 9 7 # o 2.,X^.g.w.y.f.f.k.k.k.z.k.k.k.a.p.7.p.p.f.k.k.f.f.f.z.h.f.p.f.f.k.k.z.z.z.k.k.k.k.k.z.z.k.k.k.k.s.k.f.f.f.h.k.f.w.w.f.f.f.k.z.k.k.k.k.d.k.f.p.p.f.f.f.f.f.f.f.f.f.f.p.f.p.<.7.f.f.p.k.f.p.p.f.f.f.f.f.f.f.f.<.<.w.;.-.-.;.4.f.f.4.-.m [ w.w.;.-.[ -.-.-.` N N z < < A , o o o , A A 0 < D e...' =.;.-.4.w.f.h.z.h.f.f.f.f.f.f.f.w.2.o.' D N ..",
"-., w.2._ ' ..2.w.w.f.f.f.7.<.7.g.g.f.f.f.f.w.2.' N N ' t.e.0 * # 7 # # # 9 8 1 z s d ' ' 2.;.;.;.;.2.2.=.] =.2.4.=.=.;.<.<.<.<.4.4.=.' 2.4.w.w.f.f.p.f.f.w.w.r.f.w.<.;.;.<.<.<.<.<.<.p.p.f.f.f.w.2.=.7.f.f.w.g.h.f.f.f.f.f.w.<.<.w.f.p.p.p.p.a.f.f.p.<.p.f.k.k.k.h.f.f.f.f.f.f.g.h.x.0X0X0Xz.f.f.k.z.z.z.z.z.h.h.f.p.f.z.z.f.f.4.2.3.T.0., o * 8 A -.4.' d } s     gXgXgXgXgXgXgXgXgXgXgXgXgXgXgXgXgXgXgXgXgXgXgXgXgXgXgXgXgXgXgXgXgXgXgXgXgXgXgXgXgXgXgXgXgXgXgXgXgXgXgXgXgXgXgXgXgXgXgXgXgXgXgXgXgXgXgXgXgXgXgXgXgXgXgXgXgXgXgXgXgXgXgXgXgXgXgXgXgXgXgXgXgXgXgXgXgXgXgXgXgXgXgXgXgXgXgXgXgXgXgXgXgXgXgXgXgXgXgXgXgXgXgXgXgXgXgXgXgXgXgXgXgXgXgXgXgXgXgXgXgXgXgXgXgXgXgXgXgXgXgXgXgXgXgXgXgXgXgXgXgXgXgXgXgXgXgXgXgXgXgXgXgXgXgXgXgXgXgXgXgXgXgXgXgXgXgXgXgXgXgXgXgXgXgXgXgXgXgXgXgXgXgXgXgXgXgXgXgXgXgXgXgXgXgXgXgXgXgXgXgXgXgXgXgXgXgXgXgXgXgXgXgXgXgXgXgXgXgXgXgXgXgXgXgXn.j f w.7.-.r 9 # o 2.^.t.w.f.f.f.k.k.z.z.z.k.k.f.a.p.<.<.p.f.k.z.k.k.z.f.f.p.p.f.k.k.k.z.z.9Xz.z.z.z.z.z.z.a.p.a.f.s.k.f.p.p.f.h.f.f.h.z.z.k.k.z.z.k.k.z.z.k.h.h.k.k.k.k.k.f.<.<.g.f.w.<.f.f.7.<.<.f.f.f.p.f.f.f.f.f.f.f.f.f.f.<.<.w.8.<.;.;.<.7.p.<.=.' ' w.<.;.-.-.-.=.-.` N N z s 1 A , o o . , ~ A 0 > ' 0...' ' ;.<.w.w.w.w.f.h.k.f.f.f.f.w.4.w.e.2...D D 2.",
"-., 5.2._ ' ..2.5.w.g.f.f.<.-.<.w.f.f.f.f.p.<.;.' N D ' Y.w.8 # # 7 * # # 9 8 z x d g ' ' ' -.-.-.;.;.=.[ ` -.2.2.2.2.4.w.w.7.8.<.;.....' =.7.p.p.p.f.f.g.4.4.2.w.w.w.;.;.7.<.<.;.<.<.f.p.p.7.7.w.=.=.<.f.f.w.f.f.f.f.z.f.h.f.f.<.<.f.p.p.p.a.f.k.k.f.f.f.f.k.k.z.f.f.f.f.h.z.z.h.l.x.x.z.z.k.p.a.k.k.z.z.z.z.l.l.z.z.z.z.z.f.f.<...X.Y.3.* o * , r -.<.' g } s     gXgXgXgXgXgXgXgXgXgXgXgXgXgXgXgXgXgXgXgXgXgXgXgXgXgXgXgXgXgXgXgXgXgXgXgXgXgXgXgXgXgXgXgXgXgXgXgXgXgXgXgXgXgXgXgXgXgXgXgXgXgXgXgXgXgXgXgXgXgXgXgXgXgXgXgXgXgXgXgXgXgXgXgXgXgXgXgXgXgXgXgXgXgXgXgXgXgXgXgXgXgXgXgXgXgXgXgXgXgXgXgXgXgXgXgXgXgXgXgXgXgXgXgXgXgXgXgXgXgXgXgXgXgXgXgXgXgXgXgXgXgXgXgXgXgXgXgXgXgXgXgXgXgXgXgXgXgXgXgXgXgXgXgXgXgXgXgXgXgXgXgXgXgXgXgXgXgXgXgXgXgXgXgXgXgXgXgXgXgXgXgXgXgXgXgXgXgXgXgXgXgXgXgXgXgXgXgXgXgXgXgXgXgXgXgXgXgXgXgXgXgXgXgXgXgXgXgXgXgXgXgXgXgXgXgXgXgXgXgXgXgXgXgXgX} j f w.7.-./ 9 # % ..3.' ;.f.k.k.k.k.k.f.f.k.k.f.f.p.p.p.f.f.k.z.z.z.k.p.f.h.z.z.z.z.k.z.z.9X9Xz.z.z.z.z.f.p.p.a.k.k.k.f.p.f.k.z.z.z.z.z.z.k.k.f.f.k.k.k.k.k.k.k.k.f.f.h.a.p.<.<.f.f.7.7.f.f.7.<.7.p.p.p.f.f.7.7.w.f.f.f.f.f.g.w.w.7.w.w.w.w.<.<.<.<.;.' ' ;.<.;.;.<.<.<.=.` m z z < < 0 * o o . , ~ ^ 0 > ..0.o.' ' w.w.g.g.r.w.7.f.z.k.f.f.w.<.4.2.2.2...N N 2.",
"-., 5.2._ ' ..2.4.w.g.f.f.f.<.<.<.f.f.k.f.7.;.=.' D D ' 0.5.8 # # 7 * * * 9 0 z x d g B ( [ -.;.<.<.=.=.=.=.=.2.2.;.;.<.w.r.w.7.<.2.2.2.2.2.w.7.w.f.f.w.w.2.2.2.<.<.4.4.<.<.w.<.<.<.4.f.p.<.<.<.<.=.=.w.f.w.f.g.z.f.g.g.g.f.h.l.f.w.f.p.f.f.f.a.a.a.f.f.f.f.k.k.k.f.z.z.z.z.l.z.h.l.z.z.k.z.z.z.z.z.z.z.z.z.z.g.f.f.z.z.k.k.f.f.<...6.0.2.* . * 8 *.<.f.2.g X.d     gXgXgXgXgXgXgXgXgXgXgXgXgXgXgXgXgXgXgXgXgXgXgXgXgXgXgXgXgXgXgXgXgXgXgXgXgXgXgXgXgXgXgXgXgXgXgXgXgXgXgXgXgXgXgXgXgXgXgXgXgXgXgXgXgXgXgXgXgXgXgXgXgXgXgXgXgXgXgXgXgXgXgXgXgXgXgXgXgXgXgXgXgXgXgXgXgXgXgXgXgXgXgXgXgXgXgXgXgXgXgXgXgXgXgXgXgXgXgXgXgXgXgXgXgXgXgXgXgXgXgXgXgXgXgXgXgXgXgXgXgXgXgXgXgXgXgXgXgXgXgXgXgXgXgXgXgXgXgXgXgXgXgXgXgXgXgXgXgXgXgXgXgXgXgXgXgXgXgXgXgXgXgXgXgXgXgXgXgXgXgXgXgXgXgXgXgXgXgXgXgXgXgXgXgXgXgXgXgXgXgXgXgXgXgXgXgXgXgXgXgXgXgXgXgXgXgXgXgXgXgXgXgXgXgXgXgXgXgXgXgXgXgXgXgX} j z w.<.*.r 9 # % ' 3.' <.f.f.k.k.a.p.p.f.k.k.k.a.a.f.f.f.f.f.k.z.z.k.z.x.z.z.z.z.z.k.z.z.9X9Xz.z.z.k.k.f.a.f.k.z.k.k.f.f.f.z.x.z.z.z.z.k.k.k.a.f.f.h.f.a.a.a.k.k.a.a.f.a.f.f.p.p.f.f.p.f.w.<.7.f.f.f.f.w.w.<.<.7.f.f.f.g.g.w.w.w.f.7.w.f.f.f.p.p.f.4.=.[ ;.<.;.;.;.<.<.<.-.` N x s < 0 * o # . < ^ ^ 0 < ..0.o._ [ <.7.f.g.g.w.w.f.f.k.f.f.7.4.w.5.2.2.' N N 2.",
"*.* 5.2._ ' 1.2.w.w.w.7.f.f.f.w.<.p.f.f.f.<.;.=.' D D N 2.2.8 # # , * * * 9 8 z x s g f N ' ;.<.<.<.;.;.2.4.4.2.;.=.=.=.;.<.w.w.<.=.2.2.2.4.w.w.w.w.7.7.4.4.w.4.4.f.w.4.;.<.<.<.<.;.<.<.<.<.<.4.w.w.w.w.f.g.f.f.f.f.f.w.w.w.g.f.f.f.f.f.f.k.f.p.p.p.p.p.f.f.f.k.f.k.z.z.z.z.z.k.k.k.z.z.k.z.z.z.z.z.z.z.z.z.z.f.p.f.z.k.f.k.p.p.4.2.3.0.4.* . # 9 -.f.k.4.x X.d     gXgXgXgXgXgXgXgXgXgXgXgXgXgXgXgXgXgXgXgXgXgXgXgXgXgXgXgXgXgXgXgXgXgXgXgXgXgXgXgXgXgXgXgXgXgXgXgXgXgXgXgXgXgXgXgXgXgXgXgXgXgXgXgXgXgXgXgXgXgXgXgXgXgXgXgXgXgXgXgXgXgXgXgXgXgXgXgXgXgXgXgXgXgXgXgXgXgXgXgXgXgXgXgXgXgXgXgXgXgXgXgXgXgXgXgXgXgXgXgXgXgXgXgXgXgXgXgXgXgXgXgXgXgXgXgXgXgXgXgXgXgXgXgXgXgXgXgXgXgXgXgXgXgXgXgXgXgXgXgXgXgXgXgXgXgXgXgXgXgXgXgXgXgXgXgXgXgXgXgXgXgXgXgXgXgXgXgXgXgXgXgXgXgXgXgXgXgXgXgXgXgXgXgXgXgXgXgXgXgXgXgXgXgXgXgXgXgXgXgXgXgXgXgXgXgXgXgXgXgXgXgXgXgXgXgXgXgXgXgXgXgXgXgXgXX.G v w.<.-.r 9 # % =.e.2.<.f.f.f.f.a.p.f.f.f.k.f.a.a.f.f.f.f.k.k.h.f.k.z.z.z.z.z.k.k.z.z.z.z.z.z.z.k.k.k.k.k.k.k.k.k.k.k.f.p.f.h.f.f.k.k.k.f.f.p.p.a.k.f.f.a.s.k.k.k.f.f.f.f.f.f.f.f.g.f.w.<.<.7.f.f.f.f.<.<.w.f.f.f.f.f.f.4.;.4.f.f.7.7.f.f.f.p.p.p.w.4.;.<.<.<.-.=.-.<.<.-.[ ' x s < 0 * * # . , V A 0 > ' 3..._ -.8.7.f.f.f.g.g.f.f.f.a.p.<.w.e.3.2...' _ D 2.",
"` * 5.2._ =.2.2.w.4.w.7.f.f.f.f.p.p.f.f.<.;.2.=.' ' ' ( 2.2.8 # # , * * , 9 8 1 z d B x ( =.<.<.<.<.<.<.<.4.w.w.;.2.2.2.=.;.w.w.<.=.;.<.;.<.w.w.7.7.<.7.p.w.w.w.f.a.p.7.<.<.<.<.<.;.;.<.4.4.4.<.w.w.w.w.f.f.f.f.z.h.r.2.2.w.w.g.f.f.f.f.f.f.f.p.p.p.p.p.f.k.f.f.z.k.k.z.z.z.z.z.k.z.z.z.z.k.z.z.z.z.z.z.z.z.z.z.f.f.f.f.p.p.7.7.4.2.2.e.4.* . # e ,.f.k.4.z } s     gXgXgXgXgXgXgXgXgXgXgXgXgXgXgXgXgXgXgXgXgXgXgXgXgXgXgXgXgXgXgXgXgXgXgXgXgXgXgXgXgXgXgXgXgXgXgXgXgXgXgXgXgXgXgXgXgXgXgXgXgXgXgXgXgXgXgXgXgXgXgXgXgXgXgXgXgXgXgXgXgXgXgXgXgXgXgXgXgXgXgXgXgXgXgXgXgXgXgXgXgXgXgXgXgXgXgXgXgXgXgXgXgXgXgXgXgXgXgXgXgXgXgXgXgXgXgXgXgXgXgXgXgXgXgXgXgXgXgXgXgXgXgXgXgXgXgXgXgXgXgXgXgXgXgXgXgXgXgXgXgXgXgXgXgXgXgXgXgXgXgXgXgXgXgXgXgXgXgXgXgXgXgXgXgXgXgXgXgXgXgXgXgXgXgXgXgXgXgXgXgXgXgXgXgXgXgXgXgXgXgXgXgXgXgXgXgXgXgXgXgXgXgXgXgXgXgXgXgXgXgXgXgXgXgXgXgXgXgXgXgXgXgXgXgXX.F z w.<.-.A 9 # # ;.j.w.4.f.f.f.f.f.k.k.k.a.f.f.f.k.f.a.a.a.a.k.k.k.k.k.z.z.z.z.k.k.z.z.z.z.z.z.z.k.k.k.f.f.f.k.k.k.k.z.z.f.f.h.h.h.k.f.f.p.f.f.f.h.k.k.k.k.f.k.k.f.f.f.f.f.f.f.g.g.w.4.4.<.w.w.f.f.p.<.<.7.f.f.f.f.f.f.f.4.<.w.g.f.f.f.f.p.p.p.p.p.p.w.4.p.p.7.<.<.<.<.<.;.[ _ x s < c , * # . : c 0 9 < ' 3..._ ;.7.p.f.f.h.h.h.f.f.f.s.p.<.4.2.2.....' ' _ 2.",
"` * 5.2.' 2.2.2.2.4.w.f.f.f.f.p.p.p.f.f.p.<.<.;.=.1...' e.5.8 * * , * * , 9 < 1 z d x x ( ' ;.<.7.7.7.7.<.7.p.7.8.<.4.4.4.<.<.4.<.<.<.<.-.-.;.4.<.p.p.p.p.p.p.f.f.f.<.<.7.p.p.p.7.4.<.<.<.2.2.2.-.;.w.f.f.g.z.z.z.g.w.;.4.g.g.w.g.g.f.f.f.a.a.p.p.p.f.p.f.f.p.f.z.k.k.z.z.z.z.z.z.z.z.z.z.k.k.k.z.z.k.k.k.z.z.z.z.f.f.f.f.f.7.<.;.2.2.e.4.* . * e ,.f.s.;.s { s     gXgXgXgXgXgXgXgXgXgXgXgXgXgXgXgXgXgXgXgXgXgXgXgXgXgXgXgXgXgXgXgXgXgXgXgXgXgXgXgXgXgXgXgXgXgXgXgXgXgXgXgXgXgXgXgXgXgXgXgXgXgXgXgXgXgXgXgXgXgXgXgXgXgXgXgXgXgXgXgXgXgXgXgXgXgXgXgXgXgXgXgXgXgXgXgXgXgXgXgXgXgXgXgXgXgXgXgXgXgXgXgXgXgXgXgXgXgXgXgXgXgXgXgXgXgXgXgXgXgXgXgXgXgXgXgXgXgXgXgXgXgXgXgXgXgXgXgXgXgXgXgXgXgXgXgXgXgXgXgXgXgXgXgXgXgXgXgXgXgXgXgXgXgXgXgXgXgXgXgXgXgXgXgXgXgXgXgXgXgXgXgXgXgXgXgXgXgXgXgXgXgXgXgXgXgXgXgXgXgXgXgXgXgXgXgXgXgXgXgXgXgXgXgXgXgXgXgXgXgXgXgXgXgXgXgXgXgXgXgXgXgXgXgXgX} j z 4.<.-.r 7 # # ;.j.w.4.w.f.f.k.k.k.k.k.f.k.f.f.z.k.f.d.a.d.d.d.k.d.z.z.z.k.z.z.z.z.z.z.z.z.k.z.k.z.z.f.f.f.k.k.f.k.z.z.z.f.f.l.l.h.f.p.p.f.a.a.k.k.z.k.k.k.k.k.k.f.f.7.<.f.g.g.w.=.=.2.4.w.f.p.f.f.<.p.f.f.h.k.z.f.f.f.f.f.f.f.f.f.f.p.p.p.p.7.p.p.p.p.a.a.p.<.<.y.7.7.;.` D x s < V * * #   , A 0 9 < ..3..._ ;.w.f.f.k.k.k.z.f.f.a.s.p.w.2.2.......D D D 2.",
"' * 5.5.=.1.=.2.2.w.f.f.f.f.f.a.f.f.f.f.f.f.w.4.2.2.....0.5.8 * * , * # , 9 8 z s s z B N _ [ ;.<.<.8.w.7.w.f.<.;.<.<.w.w.8.<.<.w.w.f.f.<.-.-.<.<.p.p.p.p.p.p.7.7.<.;.;.w.f.p.7.7.w.<.<.<.4.2...' 4.g.f.w.f.f.h.h.f.w.4.w.f.g.w.4.w.f.f.f.f.f.k.k.p.f.f.f.f.p.f.f.f.f.s.k.k.f.f.z.k.f.f.f.k.k.k.z.z.z.z.z.z.f.f.f.f.f.f.f.f.<.;.1.2.2.e.4.* . * e -.p.p.=.s F s     gXgXgXgXgXgXgXgXgXgXgXgXgXgXgXgXgXgXgXgXgXgXgXgXgXgXgXgXgXgXgXgXgXgXgXgXgXgXgXgXgXgXgXgXgXgXgXgXgXgXgXgXgXgXgXgXgXgXgXgXgXgXgXgXgXgXgXgXgXgXgXgXgXgXgXgXgXgXgXgXgXgXgXgXgXgXgXgXgXgXgXgXgXgXgXgXgXgXgXgXgXgXgXgXgXgXgXgXgXgXgXgXgXgXgXgXgXgXgXgXgXgXgXgXgXgXgXgXgXgXgXgXgXgXgXgXgXgXgXgXgXgXgXgXgXgXgXgXgXgXgXgXgXgXgXgXgXgXgXgXgXgXgXgXgXgXgXgXgXgXgXgXgXgXgXgXgXgXgXgXgXgXgXgXgXgXgXgXgXgXgXgXgXgXgXgXgXgXgXgXgXgXgXgXgXgXgXgXgXgXgXgXgXgXgXgXgXgXgXgXgXgXgXgXgXgXgXgXgXgXgXgXgXgXgXgXgXgXgXgXgXgXgXgXgX} j f 4.<.*.e , # o =.g.5.4.4.4.f.f.k.k.k.k.f.k.k.f.k.f.a.a.d.d.d.d.d.d.k.k.z.f.f.z.z.z.z.k.z.k.k.z.k.f.f.f.f.f.k.k.f.k.k.z.z.g.w.g.f.f.f.f.f.h.k.z.z.z.z.z.k.k.k.k.f.f.f.7.7.f.f.g.w.;.;.w.w.w.w.f.f.f.f.f.f.k.k.f.f.g.f.k.k.f.a.f.g.w.<.<.7.7.<.<.<.p.p.a.p.p.7.7.p.7.<.-.=._ N z s 1 V * * o   , ~ A 8 < ..3.3.' =.w.f.f.z.z.z.k.f.f.a.s.f.w.2.2.1.....N N N 2.",
"` * w.5.' ' ' ..2.w.f.f.f.w.f.a.f.f.f.f.f.f.f.f.4.2.' ..Y.e.8 * , 7 , # # 9 0 z s s z z N =.=.;.;.4.4.w.2.2.2.2.=.<.<.w.w.<.<.4.8.8.7.7.7.7.8.<.<.p.p.p.p.p.<.<.<.<.;.=.<.w.7.7.8.<.<.<.4.w.2.' 2.w.f.f.f.f.f.f.f.f.f.f.f.k.f.w.;.;.g.f.f.f.f.f.p.p.p.p.f.a.p.p.w.w.7.a.k.a.p.p.f.f.f.f.p.p.k.z.k.k.f.h.h.f.f.f.f.f.p.p.p.p.8.;.=...2.e.4.* . * e *.<.p.=.s { s     gXgXgXgXgXgXgXgXgXgXgXgXgXgXgXgXgXgXgXgXgXgXgXgXgXgXgXgXgXgXgXgXgXgXgXgXgXgXgXgXgXgXgXgXgXgXgXgXgXgXgXgXgXgXgXgXgXgXgXgXgXgXgXgXgXgXgXgXgXgXgXgXgXgXgXgXgXgXgXgXgXgXgXgXgXgXgXgXgXgXgXgXgXgXgXgXgXgXgXgXgXgXgXgXgXgXgXgXgXgXgXgXgXgXgXgXgXgXgXgXgXgXgXgXgXgXgXgXgXgXgXgXgXgXgXgXgXgXgXgXgXgXgXgXgXgXgXgXgXgXgXgXgXgXgXgXgXgXgXgXgXgXgXgXgXgXgXgXgXgXgXgXgXgXgXgXgXgXgXgXgXgXgXgXgXgXgXgXgXgXgXgXgXgXgXgXgXgXgXgXgXgXgXgXgXgXgXgXgXgXgXgXgXgXgXgXgXgXgXgXgXgXgXgXgXgXgXgXgXgXgXgXgXgXgXgXgXgXgXgXgXgXgXgXgX} j s ;.<.*.e , # o =.e.2.2.2.2.4.f.f.k.k.s.a.f.f.f.p.p.p.p.s.k.d.d.s.s.f.p.f.f.f.k.z.z.f.a.k.z.z.z.k.p.p.f.f.f.k.z.z.z.z.f.f.g.f.f.f.h.f.f.f.k.z.k.k.k.f.f.k.k.k.k.k.z.f.f.f.h.f.f.f.w.w.g.w.;.4.g.f.f.k.f.f.f.h.f.f.w.g.h.h.h.f.f.w.4.;.;.;.w.4.;.-.<.p.p.p.<.<.<.<.w.;.[ _ ' D z s z V * * o . , ~ A 8 > ..3.3...' 2.w.f.l.z.k.z.f.f.a.f.w.4.5.w.2...W N N D 2.",
"` * w.5.' ' ' ' 2.w.g.f.<.;.p.p.f.f.f.<.p.f.k.f.4.2.' ..Y.e.8 , , 8 , # * 0 c z s s f M ' 2.w.;.<.4.w.4.' ( ' ' 2.<.<.<.<.<.<.w.w.;.;.-.<.7.w.7.-.<.p.p.p.<.<.<.<.4.4.=.=.2.w.4.4.4.;.;.;.4.2.' 2.g.f.f.f.f.f.f.f.f.f.f.k.k.f.w.=.;.g.f.f.f.p.p.7.<.y.p.f.f.f.w.w.<.w.f.k.k.f.p.p.f.f.f.<.7.f.h.f.7.<.7.f.w.f.f.f.f.f.f.f.7.w.;.` ' o.e.4.* . * 8 A -.y.=.s { s     gXgXgXgXgXgXgXgXgXgXgXgXgXgXgXgXgXgXgXgXgXgXgXgXgXgXgXgXgXgXgXgXgXgXgXgXgXgXgXgXgXgXgXgXgXgXgXgXgXgXgXgXgXgXgXgXgXgXgXgXgXgXgXgXgXgXgXgXgXgXgXgXgXgXgXgXgXgXgXgXgXgXgXgXgXgXgXgXgXgXgXgXgXgXgXgXgXgXgXgXgXgXgXgXgXgXgXgXgXgXgXgXgXgXgXgXgXgXgXgXgXgXgXgXgXgXgXgXgXgXgXgXgXgXgXgXgXgXgXgXgXgXgXgXgXgXgXgXgXgXgXgXgXgXgXgXgXgXgXgXgXgXgXgXgXgXgXgXgXgXgXgXgXgXgXgXgXgXgXgXgXgXgXgXgXgXgXgXgXgXgXgXgXgXgXgXgXgXgXgXgXgXgXgXgXgXgXgXgXgXgXgXgXgXgXgXgXgXgXgXgXgXgXgXgXgXgXgXgXgXgXgXgXgXgXgXgXgXgXgXgXgXgXgXgXG g f ;.<.-.r 7 # o ' 0.2.o.....1.4.f.z.k.k.a.a.k.f.<.<.7.p.s.s.s.k.s.k.p.<.g.g.f.z.z.z.f.p.k.z.z.z.k.p.<.7.g.h.z.h.f.f.f.k.z.l.j.z.l.z.f.a.f.k.z.z.k.f.p.a.f.k.k.k.k.k.k.h.f.z.f.f.f.f.f.f.w.;.2.w.f.f.a.f.h.h.f.f.w.4.f.f.f.f.f.w.w.<.<.;.<.4.4.<.-.<.7.p.<.<.<.<.7.w.4.=._ N x z s 8 V * # o . < ~ A 8 < { 3.O.{ ' 2.4.g.f.f.z.h.g.f.p.f.4.2.w.w.5.1.' N D D 2.",
"` , w.5.' ....1.5.r.f.f.w.w.7.f.g.f.<.<.f.z.k.f.<.2.' ..Y.e.8 , , 8 , o * 0 c 1 s s z =.=.;.<.w.8.<.7.w.2.2.2.2.<.<.w.w.<.;.<.4.w.4.<.<.<.<.<.<.;.-.<.p.p.<.<.<.<.w.5.2.2.2.4.4.4.<.;.;.-.;.4.2.4.f.p.7.f.f.f.f.f.f.f.f.f.k.k.f.4.w.w.f.f.f.p.p.f.f.f.f.f.k.f.g.g.;.w.f.k.k.k.f.f.f.f.f.7.7.w.g.g.w.4.<.w.<.<.w.w.f.f.f.w.w.=.[ _ ' o.e.4., . * r *.-.<.' s F s   gXgXgXgXgXgXgXgXgXgXgXgXgXgXgXgXgXgXgXgXgXgXgXgXgXgXgXgXgXgXgXgXgXgXgXgXgXgXgXgXgXgXgXgXgXgXgXgXgXgXgXgXgXgXgXgXgXgXgXgXgXgXgXgXgXgXgXgXgXgXgXgXgXgXgXgXgXgXgXgXgXgXgXgXgXgXgXgXgXgXgXgXgXgXgXgXgXgXgXgXgXgXgXgXgXgXgXgXgXgXgXgXgXgXgXgXgXgXgXgXgXgXgXgXgXgXgXgXgXgXgXgXgXgXgXgXgXgXgXgXgXgXgXgXgXgXgXgXgXgXgXgXgXgXgXgXgXgXgXgXgXgXgXgXgXgXgXgXgXgXgXgXgXgXgXgXgXgXgXgXgXgXgXgXgXgXgXgXgXgXgXgXgXgXgXgXgXgXgXgXgXgXgXgXgXgXgXgXgXgXgXgXgXgXgXgXgXgXgXgXgXgXgXgXgXgXgXgXgXgXgXgXgXgXgXgXgXgXgXgXgXgXgXgXgXgX} g f 4.<.<.A 9 o o ' 0.3.........2.f.f.f.f.f.f.f.f.f.7.p.a.a.a.a.s.k.k.f.7.h.f.w.z.z.h.f.f.z.z.z.9Xz.z.f.w.4.w.g.f.f.f.k.z.x.h.g.f.z.z.k.k.k.z.k.k.z.f.f.f.k.k.k.k.k.f.f.k.f.f.a.p.f.f.a.f.f.w.2.2.w.f.p.f.f.h.f.f.w.<.f.f.k.k.f.f.g.f.f.f.<.<.<.<.<.8.7.7.<.<.<.p.p.<.-.;.' N z s < < c % # o . < D A 8 < { O.O.F ..2.4.w.f.f.z.f.w.w.f.<.;.;.w.g.f.2.' D D N 2.",
"D * w.2.' ..2.2.w.g.h.h.g.g.f.7.f.f.<.<.f.z.z.f.<.2.' ..Y.5.8 , , 9 , o * 8 0 1 s s z ` =.;.w.8.8.<.7.f.w.w.w.4.<.w.r.w.2.=.;.<.<.<.<.<.<.<.<.-.;.-.<.<.<.<.<.<.<.<.w.w.2.' -.<.4.7.<.<.;.<.w.w.w.7.<.<.7.f.f.f.f.p.f.f.f.k.k.f.r.w.w.g.f.f.p.p.f.k.f.f.a.f.f.f.h.;.;.p.k.k.s.k.k.a.a.f.p.f.w.w.w.w.w.g.w.<.<.w.7.f.7.<.=.2.o.o.....2.e.2., o * r *.<.<.` s F s   gXgXgXgXgXgXgXgXgXgXgXgXgXgXgXgXgXgXgXgXgXgXgXgXgXgXgXgXgXgXgXgXgXgXgXgXgXgXgXgXgXgXgXgXgXgXgXgXgXgXgXgXgXgXgXgXgXgXgXgXgXgXgXgXgXgXgXgXgXgXgXgXgXgXgXgXgXgXgXgXgXgXgXgXgXgXgXgXgXgXgXgXgXgXgXgXgXgXgXgXgXgXgXgXgXgXgXgXgXgXgXgXgXgXgXgXgXgXgXgXgXgXgXgXgXgXgXgXgXgXgXgXgXgXgXgXgXgXgXgXgXgXgXgXgXgXgXgXgXgXgXgXgXgXgXgXgXgXgXgXgXgXgXgXgXgXgXgXgXgXgXgXgXgXgXgXgXgXgXgXgXgXgXgXgXgXgXgXgXgXgXgXgXgXgXgXgXgXgXgXgXgXgXgXgXgXgXgXgXgXgXgXgXgXgXgXgXgXgXgXgXgXgXgXgXgXgXgXgXgXgXgXgXgXgXgXgXgXgXgXgXgXgXgXgXgX} g s 1.<.*.0 , o o ' e.3.......2.2.w.w.w.w.f.f.f.f.f.a.f.f.a.p.p.a.k.k.f.f.f.<.<.f.z.f.4.f.z.z.z.z.z.z.z.<.*.*.<.f.f.f.z.z.f.<.-.f.z.z.z.z.z.z.k.k.k.k.k.k.k.h.h.k.k.f.f.k.f.f.a.f.k.f.a.f.f.g.w.4.w.f.a.f.f.k.h.f.f.w.f.f.z.z.z.f.f.f.k.f.p.y.p.f.f.f.f.p.7.<.<.<.<.<.<.4.2.' z s < < c % * o . < _ V 0 < { O.X.F ..2.w.w.f.z.h.w.;.2.w.4.2.<.f.f.f.4.1.' D D 2.",
"D * w.5.' 2.2.2.e.g.h.z.f.f.g.f.w.w.<.<.f.f.f.w.2.2.' ..Y.2.8 , , 9 9 o o , 0 1 s s s z ' 2.2.;.;.4.w.w.7.7.w.w.4.4.2.2.2.=.;.<.;.<.<.7.p.p.<.-.;.-.-.<.<.<.<.<.<.7.8.w.2.=.-.<.f.f.p.f.w.7.f.w.w.p.7.4.w.p.f.f.f.p.a.f.f.a.s.f.g.w.w.g.w.f.f.a.f.k.k.f.a.a.f.f.f.w.7.a.k.d.d.d.d.a.a.a.f.f.w.<.;.<.4.w.g.f.7.<.f.f.<.-._ W ..o.....2.e.2.* o , c *.<.<._ u B s   gXgXgXgXgXgXgXgXgXgXgXgXgXgXgXgXgXgXgXgXgXgXgXgXgXgXgXgXgXgXgXgXgXgXgXgXgXgXgXgXgXgXgXgXgXgXgXgXgXgXgXgXgXgXgXgXgXgXgXgXgXgXgXgXgXgXgXgXgXgXgXgXgXgXgXgXgXgXgXgXgXgXgXgXgXgXgXgXgXgXgXgXgXgXgXgXgXgXgXgXgXgXgXgXgXgXgXgXgXgXgXgXgXgXgXgXgXgXgXgXgXgXgXgXgXgXgXgXgXgXgXgXgXgXgXgXgXgXgXgXgXgXgXgXgXgXgXgXgXgXgXgXgXgXgXgXgXgXgXgXgXgXgXgXgXgXgXgXgXgXgXgXgXgXgXgXgXgXgXgXgXgXgXgXgXgXgXgXgXgXgXgXgXgXgXgXgXgXgXgXgXgXgXgXgXgXgXgXgXgXgXgXgXgXgXgXgXgXgXgXgXgXgXgXgXgXgXgXgXgXgXgXgXgXgXgXgXgXgXgXgXgXgXgXgX< } g s ' -.A 8 * o . [ t.2.......2.5.4.4.w.w.f.f.f.p.p.a.f.f.a.p.p.a.k.k.k.f.f.<.w.f.f.w.<.<.h.z.k.k.k.s.k.f.<.-.<.7.p.f.h.z.h.g.4.z.z.z.z.k.z.z.z.k.z.k.k.k.k.k.k.a.a.f.k.k.f.f.p.f.z.f.f.f.f.f.f.f.f.f.f.f.h.k.k.f.f.f.f.f.f.f.g.w.w.f.f.f.f.<.<.7.f.p.p.p.p.<.<.<.<.<.2.2.2.' x s < < V * * o . < ` ~ 0 1 ..O.O.F ..2.w.g.l.z.z.g.2.' 4.w.4.<.f.f.f.4.1.' ' D 2.",
"' * w.e.1.2.2.w.e.g.h.f.f.f.f.f.7.w.w.w.w.w.w.5.2.' N ' 0.2.8 * , 9 , o o , 0 < s s s d D ..' =.;.4.w.w.7.w.w.w.w.;.=._ ' ] 2.<.<.<.7.p.p.p.7.<.<.;.;.;.<.7.7.<.<.<.<.w.w.4.4.w.w.w.w.f.f.7.w.w.f.f.f.w.w.f.f.w.f.f.f.f.p.p.a.f.f.f.f.w.w.f.f.f.k.s.s.f.a.k.k.f.a.f.k.k.k.k.d.s.a.s.a.s.a.p.w.w.4.<.<.w.f.f.f.<.f.f.4.=._ W ......D ..5.2.% o , 0 ^ ;.;.D s B <   gXgXgXgXgXgXgXgXgXgXgXgXgXgXgXgXgXgXgXgXgXgXgXgXgXgXgXgXgXgXgXgXgXgXgXgXgXgXgXgXgXgXgXgXgXgXgXgXgXgXgXgXgXgXgXgXgXgXgXgXgXgXgXgXgXgXgXgXgXgXgXgXgXgXgXgXgXgXgXgXgXgXgXgXgXgXgXgXgXgXgXgXgXgXgXgXgXgXgXgXgXgXgXgXgXgXgXgXgXgXgXgXgXgXgXgXgXgXgXgXgXgXgXgXgXgXgXgXgXgXgXgXgXgXgXgXgXgXgXgXgXgXgXgXgXgXgXgXgXgXgXgXgXgXgXgXgXgXgXgXgXgXgXgXgXgXgXgXgXgXgXgXgXgXgXgXgXgXgXgXgXgXgXgXgXgXgXgXgXgXgXgXgXgXgXgXgXgXgXgXgXgXgXgXgXgXgXgXgXgXgXgXgXgXgXgXgXgXgXgXgXgXgXgXgXgXgXgXgXgXgXgXgXgXgXgXgXgXgXgXgXgXgXgXgX< j d s D ^ c < % o . ` e.2.' ' ..2.2.2.4.4.4.<.w.w.<.p.p.a.a.a.p.a.s.k.k.k.k.f.f.f.z.z.f.<.7.f.z.k.k.k.k.k.k.f.f.f.f.f.f.z.x.l.l.h.z.z.k.k.k.k.z.k.k.k.k.k.k.k.k.a.a.f.k.k.k.z.f.7.p.h.f.a.f.f.k.k.k.f.f.h.k.k.k.z.f.f.f.w.7.w.w.w.;.;.f.f.f.f.<.<.7.y.y.p.p.p.7.<.<.8.<.=._ D B z s < < m * # . . < ` ^ 0 1 ..O.O.{ ..2.w.h.x.z.z.h.2.=.;.w.4.<.p.f.f.2...' W D 2.",
"=.: r.w.=.2.5.w.w.g.g.w.7.f.f.f.p.f.f.w.5.4.2.1.' N x ' 3.5.0 * , 8 , # * 8 c < s z x d x D ' =.;.w.w.w.w.<.7.w.w.4.2.' ' o.2.;.<.;.<.7.7.<.7.p.p.4.2.' =.<.p.<.w.7.<.<.<.f.4.4.' ] 4.w.f.w.w.f.f.f.f.w.w.w.<.-.;.w.f.p.7.p.a.a.f.f.f.g.f.w.f.f.a.d.s.s.f.f.f.a.a.s.k.k.k.z.z.s.a.a.a.a.a.p.p.f.f.f.f.f.f.f.f.f.f.w.4.;.;.=.' =.D N ..5.;.% . * 8 c ^ ` z s x &   gXgXgXgXgXgXgXgXgXgXgXgXgXgXgXgXgXgXgXgXgXgXgXgXgXgXgXgXgXgXgXgXgXgXgXgXgXgXgXgXgXgXgXgXgXgXgXgXgXgXgXgXgXgXgXgXgXgXgXgXgXgXgXgXgXgXgXgXgXgXgXgXgXgXgXgXgXgXgXgXgXgXgXgXgXgXgXgXgXgXgXgXgXgXgXgXgXgXgXgXgXgXgXgXgXgXgXgXgXgXgXgXgXgXgXgXgXgXgXgXgXgXgXgXgXgXgXgXgXgXgXgXgXgXgXgXgXgXgXgXgXgXgXgXgXgXgXgXgXgXgXgXgXgXgXgXgXgXgXgXgXgXgXgXgXgXgXgXgXgXgXgXgXgXgXgXgXgXgXgXgXgXgXgXgXgXgXgXgXgXgXgXgXgXgXgXgXgXgXgXgXgXgXgXgXgXgXgXgXgXgXgXgXgXgXgXgXgXgXgXgXgXgXgXgXgXgXgXgXgXgXgXgXgXgXgXgXgXgXgXgXgXgXgXgX& j i u z V 0 < * o . _ t.3..._ ..2.1.' 4.4.4.w.f.f.f.f.f.a.p.p.p.a.k.k.k.k.k.z.k.k.k.k.k.k.k.k.k.k.k.k.k.f.f.f.f.f.f.k.f.z.z.f.z.z.z.z.z.k.k.k.f.k.k.k.k.h.k.k.k.f.f.z.k.k.k.z.f.<.7.f.h.a.a.k.k.k.k.k.k.k.k.k.k.h.f.w.7.f.7.8.w.4.;.;.w.f.w.<.7.p.p.<.<.<.<.<.7.p.7.4.;.1...' N z s < 1 m * # . . < ` ` 0 8 ..O.X.F ..2.g.z.x.z.f.f.f.w.w.8.w.p.p.<.;.' ' D F D ..",
"=.* e.e...2.2.3.w.r.f.f.f.f.w.w.f.f.g.g.f.4.1...D x x ' e.5.0 * * 9 * # * 8 c < s x B B D W ' 2.4.4.w.4.<.<.w.w.4.4.4.2.' ..2.;.;.=.-.;.<.<.<.<.7.w.2.' _ -.w.<.f.w.w.4.w.f.f.4.=.=.w.f.f.f.7.<.p.f.w.w.w.<.-.^ [ ;.<.<.7.p.a.a.f.f.p.f.f.f.p.f.f.k.s.k.f.f.f.a.a.k.k.s.s.d.k.k.k.k.f.a.p.p.f.f.f.k.f.p.p.f.f.f.w.<.<.w.w.<.2.2.[ ' ..2.;.% . * 8 0 V ` z u g &   gXgXgXgXgXgXgXgXgXgXgXgXgXgXgXgXgXgXgXgXgXgXgXgXgXgXgXgXgXgXgXgXgXgXgXgXgXgXgXgXgXgXgXgXgXgXgXgXgXgXgXgXgXgXgXgXgXgXgXgXgXgXgXgXgXgXgXgXgXgXgXgXgXgXgXgXgXgXgXgXgXgXgXgXgXgXgXgXgXgXgXgXgXgXgXgXgXgXgXgXgXgXgXgXgXgXgXgXgXgXgXgXgXgXgXgXgXgXgXgXgXgXgXgXgXgXgXgXgXgXgXgXgXgXgXgXgXgXgXgXgXgXgXgXgXgXgXgXgXgXgXgXgXgXgXgXgXgXgXgXgXgXgXgXgXgXgXgXgXgXgXgXgXgXgXgXgXgXgXgXgXgXgXgXgXgXgXgXgXgXgXgXgXgXgXgXgXgXgXgXgXgXgXgXgXgXgXgXgXgXgXgXgXgXgXgXgXgXgXgXgXgXgXgXgXgXgXgXgXgXgXgXgXgXgXgXgXgXgXgXgXgXgXgXgX& d i u s z 8 < * o . ' ~.2.2.' ' ' _ _ ;.<.w.f.f.f.f.f.f.k.a.p.y.p.s.k.k.k.k.z.k.k.k.k.k.k.k.k.z.z.k.f.p.<.y.f.k.k.k.f.f.w.<.<.w.z.z.z.z.k.k.f.f.k.k.k.f.h.f.f.k.h.k.z.z.f.k.h.p.7.f.h.h.k.k.k.k.k.z.z.f.f.f.k.z.f.p.f.f.p.p.7.<.<.4.w.f.f.<.<.7.f.p.7.<.;.-.=.2.w.4.;.2.2.....N z z < 1 c * * o . 8 ' [ c z ..O.O.F ..2.w.h.h.g.w.f.g.f.f.w.w.f.p.<.=.' ' D B B ..",
"=.* e.2.' ..o...2.g.f.f.f.w.=.;.w.g.g.f.f.f.2.1.D x x ' e.5.0 * * , * o * 8 c < s s d x ......] -.;.;.;.<.w.w.;.=.;.w.4.=.=.;.;.;.;.;.4.4.;.;.-.<.w.9.=.=.;.w.w.4.2.2.5.f.f.f.g.r.r.g.f.p.f.p.<.7.f.w.;.;.<.;.;.<.w.7.7.p.p.p.a.f.p.<.p.z.f.f.<.p.f.k.k.f.f.p.p.a.k.k.a.s.s.k.k.k.k.f.p.p.p.p.a.a.h.f.p.<.7.f.f.w.<.<.w.w.;.2.4.2.' ..2.2.% . % , 0 V _ g u g &   gXgXgXgXgXgXgXgXgXgXgXgXgXgXgXgXgXgXgXgXgXgXgXgXgXgXgXgXgXgXgXgXgXgXgXgXgXgXgXgXgXgXgXgXgXgXgXgXgXgXgXgXgXgXgXgXgXgXgXgXgXgXgXgXgXgXgXgXgXgXgXgXgXgXgXgXgXgXgXgXgXgXgXgXgXgXgXgXgXgXgXgXgXgXgXgXgXgXgXgXgXgXgXgXgXgXgXgXgXgXgXgXgXgXgXgXgXgXgXgXgXgXgXgXgXgXgXgXgXgXgXgXgXgXgXgXgXgXgXgXgXgXgXgXgXgXgXgXgXgXgXgXgXgXgXgXgXgXgXgXgXgXgXgXgXgXgXgXgXgXgXgXgXgXgXgXgXgXgXgXgXgXgXgXgXgXgXgXgXgXgXgXgXgXgXgXgXgXgXgXgXgXgXgXgXgXgXgXgXgXgXgXgXgXgXgXgXgXgXgXgXgXgXgXgXgXgXgXgXgXgXgXgXgXgXgXgXgXgXgXgXgXgXgXgX& g u t s z 8 , # # . =.g.2.w.2.2.-.[ ;.<.8.g.f.f.<.<.f.f.k.f.p.p.p.a.k.k.k.k.z.z.k.k.k.k.k.f.f.f.f.p.p.7.<.p.f.k.k.d.f.f.7.w.f.f.z.z.z.z.k.k.k.f.k.k.k.k.k.k.f.k.k.f.k.f.f.f.z.k.f.k.k.k.k.z.k.z.k.z.h.f.f.h.f.f.p.f.f.z.f.f.p.<.7.f.f.f.f.<.<.p.p.p.p.7.<.;.=.=.2.=.' ..2.....' N z < 1 0 % # o . < [ ` 0 z ..3.3.{ ..2.r.h.w.4.<.w.g.f.p.7.7.f.f.4.2.o...D F D ..",
"=.* e.2.' ....o.2.w.f.l.h.4.[ =.w.f.f.f.f.f.w.2.' m z _ e.e.c * * , * % * 8 c 1 s s s s D ....' =.;.;.-.<.w.7.-.*.<.p.f.8.<.<.<.<.<.<.w.w.<.-.-.7.w.w.w.f.f.f.w.=._ ' 2.f.f.f.g.w.w.f.f.f.f.f.7.7.4.<.-.*.-.<.<.f.p.p.p.p.f.a.a.f.p.<.p.k.h.f.7.<.f.k.f.f.p.p.a.a.k.k.p.a.s.s.k.f.f.f.f.p.p.p.p.a.a.p.<.<.<.f.w.w.<.<.4.w.<.;.;.;.=...2.=.# . o : 8 V _ z s g =   gXgXgXgXgXgXgXgXgXgXgXgXgXgXgXgXgXgXgXgXgXgXgXgXgXgXgXgXgXgXgXgXgXgXgXgXgXgXgXgXgXgXgXgXgXgXgXgXgXgXgXgXgXgXgXgXgXgXgXgXgXgXgXgXgXgXgXgXgXgXgXgXgXgXgXgXgXgXgXgXgXgXgXgXgXgXgXgXgXgXgXgXgXgXgXgXgXgXgXgXgXgXgXgXgXgXgXgXgXgXgXgXgXgXgXgXgXgXgXgXgXgXgXgXgXgXgXgXgXgXgXgXgXgXgXgXgXgXgXgXgXgXgXgXgXgXgXgXgXgXgXgXgXgXgXgXgXgXgXgXgXgXgXgXgXgXgXgXgXgXgXgXgXgXgXgXgXgXgXgXgXgXgXgXgXgXgXgXgXgXgXgXgXgXgXgXgXgXgXgXgXgXgXgXgXgXgXgXgXgXgXgXgXgXgXgXgXgXgXgXgXgXgXgXgXgXgXgXgXgXgXgXgXgXgXgXgXgXgXgXgXgXgXgX. & d u t s c 0 7 * o o =.g.5.e.=.=.-.;.<.w.<.f.f.p.<.<.p.f.f.f.f.f.a.f.k.k.k.k.z.k.k.k.k.k.k.k.f.p.p.p.f.f.f.f.k.k.s.d.d.k.k.z.z.z.z.k.k.k.f.f.k.z.f.k.k.z.z.z.z.z.k.k.k.f.f.f.f.k.k.z.k.d.k.z.k.z.k.k.f.f.h.f.f.7.p.f.k.f.f.k.f.p.p.a.f.f.f.p.p.p.a.a.a.p.p.<.<.4.4.2.' ' ......D x z < > 0 # # o . < ` ` 0 z 3.3.3.{ ..2.w.e.4.2.4.f.g.f.p.7.7.p.<.4.2.2.o.....D o.",
"` * w.2.' ..o.2.3.4.w.g.g.w.<.4.f.f.p.p.p.7.7.<.-.V z _ e.w.0 % # * % o * 8 z < < s s N ..' ' 2.5.w.4.4.4.w.<.-.;.7.p.7.7.w.7.7.p.<.<.<.<.<.<.p.a.f.f.p.p.p.p.<.;.' ] 2.w.f.f.w.<.<.g.f.f.f.f.f.f.g.f.<.-.<.<.<.<.,.,.<.<.p.p.a.p.p.f.k.f.f.f.f.p.f.f.f.a.a.f.f.k.k.k.a.a.s.f.f.f.p.y.p.p.p.p.a.f.f.7.<.<.7.w.<.w.w.w.w.;.;.2.;.4.2.2.0.' o   o * < z z s u g &   gXgXgXgXgXgXgXgXgXgXgXgXgXgXgXgXgXgXgXgXgXgXgXgXgXgXgXgXgXgXgXgXgXgXgXgXgXgXgXgXgXgXgXgXgXgXgXgXgXgXgXgXgXgXgXgXgXgXgXgXgXgXgXgXgXgXgXgXgXgXgXgXgXgXgXgXgXgXgXgXgXgXgXgXgXgXgXgXgXgXgXgXgXgXgXgXgXgXgXgXgXgXgXgXgXgXgXgXgXgXgXgXgXgXgXgXgXgXgXgXgXgXgXgXgXgXgXgXgXgXgXgXgXgXgXgXgXgXgXgXgXgXgXgXgXgXgXgXgXgXgXgXgXgXgXgXgXgXgXgXgXgXgXgXgXgXgXgXgXgXgXgXgXgXgXgXgXgXgXgXgXgXgXgXgXgXgXgXgXgXgXgXgXgXgXgXgXgXgXgXgXgXgXgXgXgXgXgXgXgXgXgXgXgXgXgXgXgXgXgXgXgXgXgXgXgXgXgXgXgXgXgXgXgXgXgXgXgXgXgXgXgXgXgX. & u u s 8 0 8 % o . . =.g.e.2.1.2.5.4.4.f.f.f.7.f.f.f.f.f.f.f.f.k.h.f.k.k.k.k.z.k.k.k.k.k.k.k.k.a.a.f.f.h.z.k.k.k.s.d.s.d.k.k.a.s.s.k.k.k.k.k.k.z.z.h.f.f.f.f.z.z.z.z.z.k.f.f.f.f.z.z.k.k.k.k.z.z.k.f.f.f.h.f.f.f.f.f.p.p.p.a.f.a.p.p.p.p.f.f.f.p.p.p.a.a.p.p.7.<.<.<.=.=.' ` m z z z < < 8 # # o . < ~ ~ 0 z 3.H.O.{ ..2.2.5.w.w.g.g.f.f.p.f.p.7.<.<.2.1.....{ ' 2.",
"D * 5.2.' ..2.2.w.w.4.<.w.h.g.f.a.k.f.p.p.7.<.<.=._ z D e.2.8 o o * # o % 1 z < < z N D ` V D =.<.<.4.<.<.<.<.<.7.7.<.<.<.<.<.<.<.-.;.;.<.<.f.f.f.p.p.p.<.<.<.<.4.;.;.<.7.f.f.w.<.<.f.w.7.w.w.w.f.f.w.w.<.<.<.<.<.-.<.<.<.<.p.a.p.p.f.k.f.p.f.f.k.k.a.f.p.p.f.f.k.k.k.k.a.f.f.f.f.p.p.f.f.p.a.a.f.f.7.<.8.w.<.<.w.r.e.w.2.2.] ;.;.[ ..3.' o   o * < f < & i T p . gXgXgXgXgXgXgXgXgXgXgXgXgXgXgXgXgXgXgXgXgXgXgXgXgXgXgXgXgXgXgXgXgXgXgXgXgXgXgXgXgXgXgXgXgXgXgXgXgXgXgXgXgXgXgXgXgXgXgXgXgXgXgXgXgXgXgXgXgXgXgXgXgXgXgXgXgXgXgXgXgXgXgXgXgXgXgXgXgXgXgXgXgXgXgXgXgXgXgXgXgXgXgXgXgXgXgXgXgXgXgXgXgXgXgXgXgXgXgXgXgXgXgXgXgXgXgXgXgXgXgXgXgXgXgXgXgXgXgXgXgXgXgXgXgXgXgXgXgXgXgXgXgXgXgXgXgXgXgXgXgXgXgXgXgXgXgXgXgXgXgXgXgXgXgXgXgXgXgXgXgXgXgXgXgXgXgXgXgXgXgXgXgXgXgXgXgXgXgXgXgXgXgXgXgXgXgXgXgXgXgXgXgXgXgXgXgXgXgXgXgXgXgXgXgXgXgXgXgXgXgXgXgXgXgXgXgXgXgXgXgXgXgXgX. & h i & 8 7 % : s % . -.e.e.2.2.0.e.0.2.w.w.f.7.f.f.f.f.f.f.f.p.f.f.f.k.a.s.k.k.k.k.k.k.k.f.k.k.f.k.k.k.a.a.a.p.k.k.k.d.k.k.f.f.k.k.h.k.z.k.k.k.z.z.z.h.f.p.p.f.h.z.z.z.z.k.k.k.k.k.k.k.k.k.k.k.k.k.k.k.f.f.f.f.f.f.p.p.7.p.p.p.p.p.<.<.p.a.a.p.p.p.p.p.p.<.<.<.<.-.-.<.4.<.=.` N M z = > 8 * * o . , V V 8 1 3.L.O.{ ..2.4.w.f.z.z.f.p.p.p.f.f.7.<.4.<.=.' ' ' D ..",
"' > w.2.' 2.2.w.w.w.w.w.g.h.k.a.p.k.f.f.f.w.<.4.2.D z D 5.5.8 o o , * o % 8 c < < c ` _ [ [ -.;.<.<.<.<.<.<.<.<.7.<.<.<.-.<.<.<.<.<.;.;.<.<.w.f.f.w.p.p.f.w.4.<.<.;.;.<.w.w.f.w.w.<.4.4.w.w.w.<.<.<.<.<.<.<.=.=.-.<.;.<.<.<.p.p.p.p.f.a.k.f.f.k.k.k.f.f.p.f.f.f.p.k.k.k.k.k.f.f.f.p.p.p.f.a.a.p.p.f.<.<.w.w.<.7.<.w.e.R.~././.-X^.2...3...o   % : > 1 > & } 7XY . gXgXgXgXgXgXgXgXgXgXgXgXgXgXgXgXgXgXgXgXgXgXgXgXgXgXgXgXgXgXgXgXgXgXgXgXgXgXgXgXgXgXgXgXgXgXgXgXgXgXgXgXgXgXgXgXgXgXgXgXgXgXgXgXgXgXgXgXgXgXgXgXgXgXgXgXgXgXgXgXgXgXgXgXgXgXgXgXgXgXgXgXgXgXgXgXgXgXgXgXgXgXgXgXgXgXgXgXgXgXgXgXgXgXgXgXgXgXgXgXgXgXgXgXgXgXgXgXgXgXgXgXgXgXgXgXgXgXgXgXgXgXgXgXgXgXgXgXgXgXgXgXgXgXgXgXgXgXgXgXgXgXgXgXgXgXgXgXgXgXgXgXgXgXgXgXgXgXgXgXgXgXgXgXgXgXgXgXgXgXgXgXgXgXgXgXgXgXgXgXgXgXgXgXgXgXgXgXgXgXgXgXgXgXgXgXgXgXgXgXgXgXgXgXgXgXgXgXgXgXgXgXgXgXgXgXgXgXgXgXgXgXgXgX. d b.h & < * : | O.< . =.t.e.2.e.I.oXoXXXt.w.f.f.f.f.f.f.f.f.f.f.f.a.f.f.a.a.k.k.k.k.k.k.k.k.z.z.k.k.k.k.d.s.a.a.f.k.k.f.f.f.f.z.z.z.h.k.k.z.k.k.k.f.z.z.z.h.z.z.z.z.z.k.z.z.z.z.z.k.k.k.f.f.f.f.f.f.k.k.f.f.h.f.p.p.f.p.p.f.p.f.f.p.7.p.p.p.p.p.p.p.p.y.<.<.p.p.<.<.<.<.<.<.<.;._ M z < < 0 * * o . < _ ^ 8 8 3.0.O...2.4.w.h.z.z.z.f.f.f.p.p.p.p.p.w.4.;.' N v v ' ",
"` < w.2.' 2.w.w.f.a.k.k.f.f.a.a.a.f.k.f.f.f.w.;.` z x D 0.e.0 o o * # o # 8 8 < < 8 A ` -.;.-.<.<.<.<.<.<.<.<.<.<.<.<.<.<.<.<.<.<.<.<.-.-.<.<.<.w.f.p.p.7.w.w.<.;.;.;.<.;.2.;.4.<.<.4.2...=.4.w.<.<.<.<.<.<.>.=.<.<.<.=.=.<.y.y.p.p.p.f.f.f.f.f.f.f.a.k.f.p.p.p.f.p.f.f.p.p.p.k.f.k.f.p.p.p.p.7.8.8.w.<.w.8.w.8.w.Y..X;XE.oX/.;Xt.2...3.' . . z j s < & > c. Xc.  gXgXgXgXgXgXgXgXgXgXgXgXgXgXgXgXgXgXgXgXgXgXgXgXgXgXgXgXgXgXgXgXgXgXgXgXgXgXgXgXgXgXgXgXgXgXgXgXgXgXgXgXgXgXgXgXgXgXgXgXgXgXgXgXgXgXgXgXgXgXgXgXgXgXgXgXgXgXgXgXgXgXgXgXgXgXgXgXgXgXgXgXgXgXgXgXgXgXgXgXgXgXgXgXgXgXgXgXgXgXgXgXgXgXgXgXgXgXgXgXgXgXgXgXgXgXgXgXgXgXgXgXgXgXgXgXgXgXgXgXgXgXgXgXgXgXgXgXgXgXgXgXgXgXgXgXgXgXgXgXgXgXgXgXgXgXgXgXgXgXgXgXgXgXgXgXgXgXgXgXgXgXgXgXgXgXgXgXgXgXgXgXgXgXgXgXgXgXgXgXgXgXgXgXgXgXgXgXgXgXgXgXgXgXgXgXgXgXgXgXgXgXgXgXgXgXgXgXgXgXgXgXgXgXgXgXgXgXgXgXgXgXgX  . U F.I & * % a F.V.= # =.Y.9.o.0.L.@.oX&X3XR.f.f.f.f.a.f.w.e.t.t.r.f.p.a.p.p.p.a.a.k.k.k.k.k.k.k.p.p.f.k.k.k.k.k.s.k.k.a.f.f.f.f.z.f.k.k.k.f.f.f.f.f.h.h.f.f.k.z.z.z.k.f.f.k.z.z.k.k.h.f.w.<.<.a.f.f.p.p.a.f.w.7.7.p.p.7.7.<.f.f.p.p.p.7.p.p.7.<.<.p.p.p.y.<.p.p.<.<.<.-.;.-.<.<.^ c 0 < < 8 o o O . 8 ` ` 0 < 2.3.3.D =.<.f.z.z.k.f.f.f.f.p.p.p.f.a.p.7.<.-.V M M ' ",
"` < w.2...2.2.w.f.k.s.k.f.k.a.a.f.f.z.z.k.f.4.-.` z z D Y.0.z % o * o . # 8 z < < < z V -.-.<.<.<.<.2.2.;.;.<.<.<.<.<.<.<.<.<.<.<.<.<.;.;.;.<.<.<.w.f.f.w.<.<.2.=.=.;.<.<.-.-.<.w.f.4.=.m ` ;.w.f.f.p.<.<.<.<.<.<.<.,.<.<.<.<.p.f.w.g.f.k.k.f.f.a.a.f.k.f.f.p.f.f.f.f.p.<.p.f.z.z.f.p.p.p.p.f.g.^.t.t.9.e.t.t.t.Y.oXI.e.w.t.e.t.e.0.O.3.W   % O.b.u : > > c. Xc.  gXgXgXgXgXgXgXgXgXgXgXgXgXgXgXgXgXgXgXgXgXgXgXgXgXgXgXgXgXgXgXgXgXgXgXgXgXgXgXgXgXgXgXgXgXgXgXgXgXgXgXgXgXgXgXgXgXgXgXgXgXgXgXgXgXgXgXgXgXgXgXgXgXgXgXgXgXgXgXgXgXgXgXgXgXgXgXgXgXgXgXgXgXgXgXgXgXgXgXgXgXgXgXgXgXgXgXgXgXgXgXgXgXgXgXgXgXgXgXgXgXgXgXgXgXgXgXgXgXgXgXgXgXgXgXgXgXgXgXgXgXgXgXgXgXgXgXgXgXgXgXgXgXgXgXgXgXgXgXgXgXgXgXgXgXgXgXgXgXgXgXgXgXgXgXgXgXgXgXgXgXgXgXgXgXgXgXgXgXgXgXgXgXgXgXgXgXgXgXgXgXgXgXgXgXgXgXgXgXgXgXgXgXgXgXgXgXgXgXgXgXgXgXgXgXgXgXgXgXgXgXgXgXgXgXgXgXgXgXgXgXgXgX. . Y F.j $ % % U F.V.> . =.Y.0.2.R.0.2.0.E.3X2XXXh.g.w.7.w.e.-X2XXXe.w.f.f.f.a.a.a.a.a.k.k.k.s.a.p.p.p.p.a.s.k.k.k.k.k.k.f.f.f.f.f.f.f.f.z.f.p.f.f.f.p.f.f.f.f.f.f.f.f.f.f.f.z.f.k.f.f.p.p.7.<.7.p.f.f.p.p.p.f.;.<.<.p.f.7.7.<.p.p.p.p.p.p.p.<.<.<.p.p.p.p.<.<.p.p.<.<.<.<.;.w.<.=.A z 8 < , 8 . o . . 8 ` ` 0 < o.3.3.W =.<.f.z.z.z.z.f.f.p.p.p.p.f.f.f.7.<.-.D D v ' ",
"' < w.2.' 2.2.4.w.a.s.k.f.f.f.f.f.f.k.z.z.f.<.-.*.M z D Y.t.M % o # # o o 8 c < = < z m -.-.<.w.7.<.=.' ` -.<.4.<.<.<.<.<.<.<.<.<.=.-.-.;.4.w.w.<.<.w.f.w.<.;...' ' 2.f.w.;.<.f.f.f.w.<.=.=.4.4.<.<.<.<.<.-.<.7.p.,.,.,.<.p.p.f.7.;.w.f.k.k.f.a.a.s.k.k.k.f.f.f.f.f.f.w.w.f.g.f.f.f.p.f.f.<.<.t.XXR.Y.9.q.q.R.I.oX#XL.e.g.x.j.].>Xt.o.O.W . % O.b.a > * & I |.c.  gXgXgXgXgXgXgXgXgXgXgXgXgXgXgXgXgXgXgXgXgXgXgXgXgXgXgXgXgXgXgXgXgXgXgXgXgXgXgXgXgXgXgXgXgXgXgXgXgXgXgXgXgXgXgXgXgXgXgXgXgXgXgXgXgXgXgXgXgXgXgXgXgXgXgXgXgXgXgXgXgXgXgXgXgXgXgXgXgXgXgXgXgXgXgXgXgXgXgXgXgXgXgXgXgXgXgXgXgXgXgXgXgXgXgXgXgXgXgXgXgXgXgXgXgXgXgXgXgXgXgXgXgXgXgXgXgXgXgXgXgXgXgXgXgXgXgXgXgXgXgXgXgXgXgXgXgXgXgXgXgXgXgXgXgXgXgXgXgXgXgXgXgXgXgXgXgXgXgXgXgXgXgXgXgXgXgXgXgXgXgXgXgXgXgXgXgXgXgXgXgXgXgXgXgXgXgXgXgXgXgXgXgXgXgXgXgXgXgXgXgXgXgXgXgXgXgXgXgXgXgXgXgXgXgXgXgXgXgXgXgXgXgX. $ Y G.h & * = Y F.b.> o =.Y.0.0.1X.X9.w.3.Y.I.t.h.g.h.h.g.^.<XoXY.e.w.f.f.p.f.f.f.f.f.k.k.s.a.p.p.a.a.a.p.p.a.k.k.k.k.f.f.<.<.w.f.f.k.a.k.f.p.p.f.w.<.7.f.z.z.g.r.w.g.h.h.f.k.f.f.f.p.p.p.p.w.f.p.7.<.7.7.p.f.<.<.7.p.f.<.<.<.<.7.p.p.p.p.p.<.<.<.p.p.p.<.<.<.p.p.<.<.<.<.;.;.<.*.~ M 8 < < 8 o # o . 8 ` ` 0 > ..3.3.' =.7.f.z.z.z.z.f.p.<.p.f.p.p.f.f.f.<.=._ N N ' ",
"` < w.2.' ' =.;.4.f.k.k.f.f.f.k.f.f.f.z.z.f.f.4.;.V M N Y.t.m * o # , # o , 0 > * 1 c m -.;.<.7.<.<.=.' [ =.;.<.<.<.<.<.<.<.<.<.<.=.[ -.<.w.f.w.<.<.w.w.4.4.;.' D ' 2.4.4.w.f.f.p.7.w.f.f.4.4.<.-.<.<.<.<.-.<.<.<.,.,.y.p.p.p.f.<.*.;.f.k.k.f.f.k.k.f.k.k.k.k.f.f.w.;.;.w.g.w.4.;.w.f.f.7.<.<.;.2.2.2.2.9.9.e.I.+XA.@.e.h.j.].iXpX^.O.O.B . * O.b.a > * & I _.c.. gXgXgXgXgXgXgXgXgXgXgXgXgXgXgXgXgXgXgXgXgXgXgXgXgXgXgXgXgXgXgXgXgXgXgXgXgXgXgXgXgXgXgXgXgXgXgXgXgXgXgXgXgXgXgXgXgXgXgXgXgXgXgXgXgXgXgXgXgXgXgXgXgXgXgXgXgXgXgXgXgXgXgXgXgXgXgXgXgXgXgXgXgXgXgXgXgXgXgXgXgXgXgXgXgXgXgXgXgXgXgXgXgXgXgXgXgXgXgXgXgXgXgXgXgXgXgXgXgXgXgXgXgXgXgXgXgXgXgXgXgXgXgXgXgXgXgXgXgXgXgXgXgXgXgXgXgXgXgXgXgXgXgXgXgXgXgXgXgXgXgXgXgXgXgXgXgXgXgXgXgXgXgXgXgXgXgXgXgXgXgXgXgXgXgXgXgXgXgXgXgXgXgXgXgXgXgXgXgXgXgXgXgXgXgXgXgXgXgXgXgXgXgXgXgXgXgXgXgXgXgXgXgXgXgXgXgXgXgXgXgXgXgX. $ j c.i $ % = T F.b.> # =.Y.0.@.P.A.q.R.0.0.=.<.7.w.w.w.f.g.R.t.e.w.f.p.p.p.w.7.7.p.f.f.a.a.a.a.a.s.s.a.p.p.p.a.k.k.k.a.<.;.;.w.h.z.k.k.k.k.f.f.f.f.7.p.f.k.z.g.w.=.w.h.f.f.k.f.f.f.f.f.f.f.f.w.<.<.<.<.7.f.f.w.f.f.p.p.<.<.-.<.<.<.<.<.<.7.<.<.7.f.p.p.<.<.<.7.7.<.<.<.<.-.^ *.-.` m z < < 8 % , o . 8 ` ` 0 > ..L.3.W =.w.h.z.z.z.h.f.p.7.p.f.7.<.w.f.w.4.2._ v z ' ",
"' < 9.2._ ' ] 2.4.f.k.f.7.p.f.k.k.f.f.z.k.k.f.f.4.D M N Y.e.c * o * 9 * . * 8 : * 1 M V -.;.<.7.<.<.4.2.4.2.<.-.-.<.<.<.<.<.<.<.<.2.;.;.<.<.w.w.<.<.7.4.4.4.;.' N W ..=.-.<.f.p.7.<.<.w.f.f.w.<.-.<.<.<.<.>.<.<.<.,.,.<.y.p.p.f.7.<.g.z.z.z.k.k.k.k.f.k.k.k.k.f.k.4.-.=.w.e.=.~ -.8.f.<.<.<.<.<.4.<.<.;.<.4.w.q.U.B...;.[ ;.h.>X>Xt.o.o.g . * } T g < < & h F.Y   gXgXgXgXgXgXgXgXgXgXgXgXgXgXgXgXgXgXgXgXgXgXgXgXgXgXgXgXgXgXgXgXgXgXgXgXgXgXgXgXgXgXgXgXgXgXgXgXgXgXgXgXgXgXgXgXgXgXgXgXgXgXgXgXgXgXgXgXgXgXgXgXgXgXgXgXgXgXgXgXgXgXgXgXgXgXgXgXgXgXgXgXgXgXgXgXgXgXgXgXgXgXgXgXgXgXgXgXgXgXgXgXgXgXgXgXgXgXgXgXgXgXgXgXgXgXgXgXgXgXgXgXgXgXgXgXgXgXgXgXgXgXgXgXgXgXgXgXgXgXgXgXgXgXgXgXgXgXgXgXgXgXgXgXgXgXgXgXgXgXgXgXgXgXgXgXgXgXgXgXgXgXgXgXgXgXgXgXgXgXgXgXgXgXgXgXgXgXgXgXgXgXgXgXgXgXgXgXgXgXgXgXgXgXgXgXgXgXgXgXgXgXgXgXgXgXgXgXgXgXgXgXgXgXgXgXgXgXgXgXgXgXgX. . i I i $ % s U c.U % # [ 0.0.' o.O.@.0.+.+.[ ,.-.-.-.<.<.4.w.g.w.p.p.p.7.7.<.<.<.<.f.f.p.a.a.a.f.s.s.s.a.p.p.a.k.k.k.f.7.7.w.h.h.k.k.k.d.k.z.k.k.k.f.h.k.f.f.f.<.^ ;.g.f.f.f.a.f.f.f.f.f.f.<.7.w.<.<.7.f.f.f.f.f.p.p.7.<.<.=.;.4.;.-.-.<.<.<.<.w.7.p.<.<.<.<.7.7.7.<.<.<.-./ *.=.^ m z < < 8 * , . . 8 ` ^ 0 < o.L.3.' ;.f.h.z.z.z.h.f.f.f.f.p.7.<.<.w.w.5.2._ v x 2.",
"' > 2.] ( ' ' 2.4.f.f.w.<.7.f.f.f.f.f.f.z.k.z.f.<.Z M ' t.e.z * o * , # . # 8 < * 1 c ~ ;.;.<.<.<.8.w.f.w.w.4.<.-.<.<.<.<.<.<.<.<.w.w.4.4.<.<.w.w.7.7.w.4.<.;.' N D ..-.-.2.p.p.<.-.-.<.f.f.f.<.<.<.<.<.<.<.<.<.<.<.<.<.<.p.a.a.k.k.z.z.z.k.k.k.k.k.k.k.d.k.k.k.k.g.w.w.f.g.w.-.<.w.w.<.<.<.<.<.<.<.-.-.<.;.w.q.A. .( ~ 0 ' o.t.-X9.{ | B - * {  .{ 1 < & u c.h   gXgXgXgXgXgXgXgXgXgXgXgXgXgXgXgXgXgXgXgXgXgXgXgXgXgXgXgXgXgXgXgXgXgXgXgXgXgXgXgXgXgXgXgXgXgXgXgXgXgXgXgXgXgXgXgXgXgXgXgXgXgXgXgXgXgXgXgXgXgXgXgXgXgXgXgXgXgXgXgXgXgXgXgXgXgXgXgXgXgXgXgXgXgXgXgXgXgXgXgXgXgXgXgXgXgXgXgXgXgXgXgXgXgXgXgXgXgXgXgXgXgXgXgXgXgXgXgXgXgXgXgXgXgXgXgXgXgXgXgXgXgXgXgXgXgXgXgXgXgXgXgXgXgXgXgXgXgXgXgXgXgXgXgXgXgXgXgXgXgXgXgXgXgXgXgXgXgXgXgXgXgXgXgXgXgXgXgXgXgXgXgXgXgXgXgXgXgXgXgXgXgXgXgXgXgXgXgXgXgXgXgXgXgXgXgXgXgXgXgXgXgXgXgXgXgXgXgXgXgXgXgXgXgXgXgXgXgXgXgXgXgXgX. . & h u & < z g a d > , ' O.9.9.L.0.o.| | +...[ <.;.<.<.<.4.w.<.7.p.f.f.7.<.<.<.<.p.f.f.f.p.p.p.f.k.p.a.a.a.p.k.k.k.z.k.z.h.h.f.f.k.z.k.d.k.z.z.z.k.k.k.f.p.p.f.f.-.<.f.k.s.f.f.a.p.a.f.f.<.<.7.f.w.<.p.p.p.p.p.p.p.p.p.7.7.;.<.<.8.<.<.<.<.<.<.<.<.<.<.<.7.7.p.p.p.p.7.<.;.-.-.-.[ V z < 1 1 % 7 o . 8 ` ^ 0 1 3.T.3...2.f.h.z.z.z.z.h.h.f.p.p.f.f.w.w.w.5.6.' D D 2.",
"1.> 2.] ( ' 2.2.4.f.f.w.4.w.f.f.k.z.k.k.z.z.z.f.;.V D ' t.5.z * % * , o . # 8 < : < c ` -.;.<.<.<.w.f.f.f.f.g.f.w.<.<.w.w.<.<.w.7.<.<.<.w.w.w.4.w.w.<.<.<.<.<.5.' ' 2.2.=.2.y.p.w.w.w.<.y.y.p.7.<.7.<.y.p.p.p.<.<.<.<.<.<.p.a.p.s.z.k.k.f.f.k.k.k.s.z.k.s.s.s.k.k.a.f.f.f.f.h.f.f.w.w.p.f.7.7.7.<.-.-.-.;.;.;.@.S.b.N A _ 1...2.9.0.o. .B $ < O.U.L.M > = t I u   gXgXgXgXgXgXgXgXgXgXgXgXgXgXgXgXgXgXgXgXgXgXgXgXgXgXgXgXgXgXgXgXgXgXgXgXgXgXgXgXgXgXgXgXgXgXgXgXgXgXgXgXgXgXgXgXgXgXgXgXgXgXgXgXgXgXgXgXgXgXgXgXgXgXgXgXgXgXgXgXgXgXgXgXgXgXgXgXgXgXgXgXgXgXgXgXgXgXgXgXgXgXgXgXgXgXgXgXgXgXgXgXgXgXgXgXgXgXgXgXgXgXgXgXgXgXgXgXgXgXgXgXgXgXgXgXgXgXgXgXgXgXgXgXgXgXgXgXgXgXgXgXgXgXgXgXgXgXgXgXgXgXgXgXgXgXgXgXgXgXgXgXgXgXgXgXgXgXgXgXgXgXgXgXgXgXgXgXgXgXgXgXgXgXgXgXgXgXgXgXgXgXgXgXgXgXgXgXgXgXgXgXgXgXgXgXgXgXgXgXgXgXgXgXgXgXgXgXgXgXgXgXgXgXgXgXgXgXgXgXgXgXgX  . & h d & < ( f u s > * =.0.e.9.Y.XX] ' L.E.0.[ <.;.<.7.<.<.w.9.w.w.7.4.4.<.f.g.f.f.p.p.a.a.f.p.p.p.p.p.p.k.s.k.k.z.z.z.k.k.z.z.z.k.d.z.z.z.z.9X9Xd.k.a.p.p.p.f.z.f.g.f.k.s.a.f.a.d.d.k.f.<.;.;.<.<.<.<.<.p.p.p.a.p.p.p.f.f.<.<.7.p.f.f.f.p.7.<.<.<.<.7.7.p.p.p.p.p.p.7.<.<.w.7.<.*._ z < s 1 o 9 o . 8 ` ^ 0 1 3.T.L...4.h.h.z.k.z.z.h.h.f.p.<.f.f.f.w.4.2.6.....' 2.",
"..1 2...( ' _ ' 2.2.w.w.p.p.a.a.k.k.z.z.z.g.4.;.=.D D ' 0.5.c * # , , o . % 8 < * 8 c ~ [ ;.=.;.8.7.7.f.f.f.f.f.f.w.4.;.-.<.7.<.<.<.4.w.w.<.w.w.<.<.4.2.1.' ' ;.;.;.<.<.<.<.k.p.p.a.p.p.f.7.<.<.<.<.p.p.<.<.<.<.<.,.<.<.<.<.p.a.k.k.z.k.k.p.p.f.k.s.k.k.f.f.f.f.s.f.f.f.f.f.p.f.p.p.f.f.w.7.<.<.-.-.*.*.*.*.[ [ o.+.{ f M ~ ' ] 2.o.| { B # * X.!.C.B < & t g t . gXgXgXgXgXgXgXgXgXgXgXgXgXgXgXgXgXgXgXgXgXgXgXgXgXgXgXgXgXgXgXgXgXgXgXgXgXgXgXgXgXgXgXgXgXgXgXgXgXgXgXgXgXgXgXgXgXgXgXgXgXgXgXgXgXgXgXgXgXgXgXgXgXgXgXgXgXgXgXgXgXgXgXgXgXgXgXgXgXgXgXgXgXgXgXgXgXgXgXgXgXgXgXgXgXgXgXgXgXgXgXgXgXgXgXgXgXgXgXgXgXgXgXgXgXgXgXgXgXgXgXgXgXgXgXgXgXgXgXgXgXgXgXgXgXgXgXgXgXgXgXgXgXgXgXgXgXgXgXgXgXgXgXgXgXgXgXgXgXgXgXgXgXgXgXgXgXgXgXgXgXgXgXgXgXgXgXgXgXgXgXgXgXgXgXgXgXgXgXgXgXgXgXgXgXgXgXgXgXgXgXgXgXgXgXgXgXgXgXgXgXgXgXgXgXgXgXgXgXgXgXgXgXgXgXgXgXgXgXgXgXgXgX. . & d u : M z s > < * % [ 9.q.o.0.I.o. .D.@Xo.&.<.<.<.<.<.<.;.<.4.4.;.;.;.;.5.f.f.p.a.a.p.k.f.y.<.p.f.p.p.s.f.f.k.z.k.k.z.z.z.k.k.z.z.z.k.k.s.k.z.z.p.f.f.f.p.p.a.f.f.f.f.f.a.f.f.f.f.a.a.p.<.<.<.7.y.p.p.p.p.p.f.p.<.p.p.7.;.<.7.f.p.p.p.p.p.p.p.p.p.p.p.p.p.p.p.p.p.<.<.<.p.p.<.-.m z < 1 < o , # . 8 _ ^ c s 3.T.O.B ..2.w.g.h.z.k.k.f.f.p.p.p.f.w.5.2.........' 2.",
"..1 5.' N ( _ ' ' =.4.g.f.f.f.f.z.k.k.z.f.4.4.;.' D D ..0.0.c * # , , o o * 8 1 = z D _ _ ^ ^ -.<.w.w.7.7.f.f.f.f.<.=.;.<.<.<.<.<.4.4.w.w.w.w.w.4.;.;.=._ D ' 4.4.4.w.w.w.<.f.f.k.f.p.p.p.f.7.<.<.<.y.y.<.,.<.7.<.<.<.<.<.<.<.a.f.k.z.z.z.f.f.f.k.z.k.s.k.k.f.f.f.f.f.g.f.f.f.f.<.<.7.4.<.<.;.-.-.;.-.*./ / / ~ _ ..o...' _ E 2.e.0.| { W # > X.P.m.W 8 & & d & . gXgXgXgXgXgXgXgXgXgXgXgXgXgXgXgXgXgXgXgXgXgXgXgXgXgXgXgXgXgXgXgXgXgXgXgXgXgXgXgXgXgXgXgXgXgXgXgXgXgXgXgXgXgXgXgXgXgXgXgXgXgXgXgXgXgXgXgXgXgXgXgXgXgXgXgXgXgXgXgXgXgXgXgXgXgXgXgXgXgXgXgXgXgXgXgXgXgXgXgXgXgXgXgXgXgXgXgXgXgXgXgXgXgXgXgXgXgXgXgXgXgXgXgXgXgXgXgXgXgXgXgXgXgXgXgXgXgXgXgXgXgXgXgXgXgXgXgXgXgXgXgXgXgXgXgXgXgXgXgXgXgXgXgXgXgXgXgXgXgXgXgXgXgXgXgXgXgXgXgXgXgXgXgXgXgXgXgXgXgXgXgXgXgXgXgXgXgXgXgXgXgXgXgXgXgXgXgXgXgXgXgXgXgXgXgXgXgXgXgXgXgXgXgXgXgXgXgXgXgXgXgXgXgXgXgXgXgXgXgXgXgXgX. . & d u : M 1 < s f < * ' 9.0.o.e.Y.C.D.7X{.{ -.<.<.<.<.w.w.<.;.;.2.4.;.;.4.4.4.<.p.p.a.f.p.p.p.p.p.a.s.f.w.<.4.f.z.k.k.z.z.z.z.z.z.z.z.z.z.s.a.f.f.p.p.f.f.f.p.a.f.p.p.f.f.a.p.p.p.p.a.f.p.p.p.7.p.p.p.p.p.p.p.p.p.p.p.p.7.-.<.<.p.p.p.f.7.p.p.p.p.p.7.<.p.p.p.7.<.<.<.-.<.p.<.-.` m z < 8 < o , # . 8 V ~ c s 3.L.O.{ ' ' <.g.h.z.z.z.f.f.f.f.f.f.g.w.2.........' 2.",
"..1 w.' m ( _ ' ' =.4.g.f.f.w.w.f.f.f.f.f.<.;.;.=.D N ..0.e.z * # * , o o * 8 1 = z m D _ [ -.-.;.w.f.w.<.w.f.f.7.<.<.<.<.<.<.<.<.;.=.2.w.4.4.w.4.<.4.2.' ' 2.w.4.<.<.<.<.w.f.f.f.a.p.p.p.p.p.<.<.y.y.<.,.,.<.7.7.<.<.<.<.,.<.a.f.f.k.k.z.z.f.f.k.z.k.f.s.k.f.f.4.;.4.r.w.w.f.g.f.4.<.4.4.<.;.;.;.;.;.-.*.^ ~ / ~ E _ ' o.0.e.t.e.o.{ { { o % W { o.' 8 * & u & . gXgXgXgXgXgXgXgXgXgXgXgXgXgXgXgXgXgXgXgXgXgXgXgXgXgXgXgXgXgXgXgXgXgXgXgXgXgXgXgXgXgXgXgXgXgXgXgXgXgXgXgXgXgXgXgXgXgXgXgXgXgXgXgXgXgXgXgXgXgXgXgXgXgXgXgXgXgXgXgXgXgXgXgXgXgXgXgXgXgXgXgXgXgXgXgXgXgXgXgXgXgXgXgXgXgXgXgXgXgXgXgXgXgXgXgXgXgXgXgXgXgXgXgXgXgXgXgXgXgXgXgXgXgXgXgXgXgXgXgXgXgXgXgXgXgXgXgXgXgXgXgXgXgXgXgXgXgXgXgXgXgXgXgXgXgXgXgXgXgXgXgXgXgXgXgXgXgXgXgXgXgXgXgXgXgXgXgXgXgXgXgXgXgXgXgXgXgXgXgXgXgXgXgXgXgXgXgXgXgXgXgXgXgXgXgXgXgXgXgXgXgXgXgXgXgXgXgXgXgXgXgXgXgXgXgXgXgXgXgXgXgXgX. . & d u s m < & < z < % [ e.9.o.0.U.D.}.}.B._ >.<.<.<.<.<.w.<.=.;.5.w.4.;.4.;.;.<.w.f.f.f.f.f.w.<.p.a.a.7.' _ =.w.z.k.k.k.z.z.z.z.z.z.z.z.z.k.f.f.a.7.7.7.w.f.p.a.a.p.p.p.f.a.a.p.p.a.k.a.p.p.p.p.p.p.p.p.p.f.f.<.<.p.f.f.p.7.7.f.p.<.<.7.<.<.4.w.7.<.<.<.p.p.<.<.;.;.;.-.-.<.-.~ m z z 1 8 , o , # . < V ~ c f L.T.3.{ ' =.4.g.h.z.z.z.g.g.z.k.f.f.g.w.2.' ' D ' N ..",
"..1 5.=.D _ _ =.2.2.w.g.g.f.4.=.<.g.f.f.f.w.<.;.=.D D ' 0.3.z % # # * o o * 8 8 > 8 m V ` ;.<.;.;.8.w.w.w.<.<.7.7.f.f.f.7.<.<.<.<.-.` =.2.=.;.4.f.f.w.4.4.4.w.<.<.<.<.<.<.<.4.<.<.p.p.p.p.p.y.y.p.p.p.<.<.<.<.7.p.p.p.p.<.<.<.f.f.a.f.k.k.k.f.f.f.k.k.f.p.a.f.w.-.[ 4.w.w.<.w.w.f.f.w.w.4.<.;.;.;.;.<.8.;.-.*.*.;.^ ~ v W 0.t.e.;.W W o.{ % % z v ..' 8 > & t $   gXgXgXgXgXgXgXgXgXgXgXgXgXgXgXgXgXgXgXgXgXgXgXgXgXgXgXgXgXgXgXgXgXgXgXgXgXgXgXgXgXgXgXgXgXgXgXgXgXgXgXgXgXgXgXgXgXgXgXgXgXgXgXgXgXgXgXgXgXgXgXgXgXgXgXgXgXgXgXgXgXgXgXgXgXgXgXgXgXgXgXgXgXgXgXgXgXgXgXgXgXgXgXgXgXgXgXgXgXgXgXgXgXgXgXgXgXgXgXgXgXgXgXgXgXgXgXgXgXgXgXgXgXgXgXgXgXgXgXgXgXgXgXgXgXgXgXgXgXgXgXgXgXgXgXgXgXgXgXgXgXgXgXgXgXgXgXgXgXgXgXgXgXgXgXgXgXgXgXgXgXgXgXgXgXgXgXgXgXgXgXgXgXgXgXgXgXgXgXgXgXgXgXgXgXgXgXgXgXgXgXgXgXgXgXgXgXgXgXgXgXgXgXgXgXgXgXgXgXgXgXgXgXgXgXgXgXgXgXgXgXgXgX. . & i i g ' 1 * > 1 > % ~ e.9.2.0.[.{.D.Z._ =.>.<.<.w.<.<.<.w.4.2.5.w.e.w.;.=.-.<.w.w.f.f.4.;.-.=.<.f.f.4.=.' 4.f.z.k.k.k.k.z.z.z.z.z.z.z.z.z.z.k.f.7.7.7.7.7.p.a.f.f.f.f.f.a.a.p.f.f.k.p.p.p.p.p.p.7.7.7.p.f.<.<.<.p.f.f.f.p.p.f.w.<.<.7.<.<.<.<.<.<.<.<.p.7.<.-.-.-.=.' =.<.*.c M z z 1 8 , o , # . 8 ~ ^ 0 f L.E.3.W ..2.w.f.z.z.z.f.g.g.z.z.k.h.f.f.4.=.' D D N ..",
"1.< 5.=._ ' [ =.2.4.w.w.f.f.w.;.<.f.h.f.f.f.w.;.=.D N ' 0.3.8 o o # * o o * 8 z < z V ~ [ ;.8.<.<.w.w.w.w.<.;.<.p.a.p.p.7.7.7.<.<.;.-.=.=.=.;.w.f.f.7.<.4.4.7.<.<.<.<.7.<.<.4.<.<.7.p.p.p.p.<.<.p.p.7.<.<.<.<.p.p.p.p.p.p.p.p.f.f.p.f.f.f.f.f.f.p.f.f.f.f.f.f.4.=.2.w.g.w.<.<.w.f.f.p.w.w.<.;.;.;.<.w.w.4.;.;.-.=.-.^ m v B ' ' _ _ ..o.' # # 8 8 A D z < & t $ . gXgXgXgXgXgXgXgXgXgXgXgXgXgXgXgXgXgXgXgXgXgXgXgXgXgXgXgXgXgXgXgXgXgXgXgXgXgXgXgXgXgXgXgXgXgXgXgXgXgXgXgXgXgXgXgXgXgXgXgXgXgXgXgXgXgXgXgXgXgXgXgXgXgXgXgXgXgXgXgXgXgXgXgXgXgXgXgXgXgXgXgXgXgXgXgXgXgXgXgXgXgXgXgXgXgXgXgXgXgXgXgXgXgXgXgXgXgXgXgXgXgXgXgXgXgXgXgXgXgXgXgXgXgXgXgXgXgXgXgXgXgXgXgXgXgXgXgXgXgXgXgXgXgXgXgXgXgXgXgXgXgXgXgXgXgXgXgXgXgXgXgXgXgXgXgXgXgXgXgXgXgXgXgXgXgXgXgXgXgXgXgXgXgXgXgXgXgXgXgXgXgXgXgXgXgXgXgXgXgXgXgXgXgXgXgXgXgXgXgXgXgXgXgXgXgXgXgXgXgXgXgXgXgXgXgXgXgXgXgXgXgX. . . & u i B ..c < > * % o A e.9.2.2.o. .O...*.<.;.<.<.4.w.w.w.4.4.4.4.w.w.w.4.;.;.<.<.<.<.y.<.;.-.;.4.w.r.r.w.w.g.k.d.d.z.k.k.k.z.z.z.z.z.z.z.z.z.k.a.p.f.7.7.7.f.f.f.f.f.f.f.a.a.p.p.p.p.p.p.p.p.p.p.7.<.<.7.p.<.<.<.p.f.p.p.p.p.<.<.<.<.8.<.-.<.<.<.<.<.<.7.<.<.-.-.-.[ [ =.;.=._ _ N z 1 8 , o , # . < V ~ 0 1 3.T.3.' ' 2.w.f.z.z.z.f.w.w.h.z.z.z.f.f.w.2.=.' _ D 2.",
"=.< w.;.` ' [ =.;.<.4.w.w.w.w.4.<.g.h.f.p.f.f.<.;.~ m D 0.0.8 o o # * o o % 8 z < z V ` =.<.<.<.8.w.w.w.4.;.;.<.p.p.p.<.<.7.7.<.<.<.;.;.2.2.<.w.w.<.-.=.4.4.w.w.<.<.<.<.7.p.4.-.<.7.p.p.p.7.<.<.<.7.<.<.<.<.y.y.<.<.<.<.<.p.p.p.f.p.f.f.f.f.f.f.f.f.k.f.g.w.w.w.g.w.g.g.f.f.f.f.f.f.f.w.<.;.;.;.<.4.4.2.2.2.;.=.-.-.-.' ' N ' ' -.' o.2.... . # * < z x s t t $ . gXgXgXgXgXgXgXgXgXgXgXgXgXgXgXgXgXgXgXgXgXgXgXgXgXgXgXgXgXgXgXgXgXgXgXgXgXgXgXgXgXgXgXgXgXgXgXgXgXgXgXgXgXgXgXgXgXgXgXgXgXgXgXgXgXgXgXgXgXgXgXgXgXgXgXgXgXgXgXgXgXgXgXgXgXgXgXgXgXgXgXgXgXgXgXgXgXgXgXgXgXgXgXgXgXgXgXgXgXgXgXgXgXgXgXgXgXgXgXgXgXgXgXgXgXgXgXgXgXgXgXgXgXgXgXgXgXgXgXgXgXgXgXgXgXgXgXgXgXgXgXgXgXgXgXgXgXgXgXgXgXgXgXgXgXgXgXgXgXgXgXgXgXgXgXgXgXgXgXgXgXgXgXgXgXgXgXgXgXgXgXgXgXgXgXgXgXgXgXgXgXgXgXgXgXgXgXgXgXgXgXgXgXgXgXgXgXgXgXgXgXgXgXgXgXgXgXgXgXgXgXgXgXgXgXgXgXgXgXgXgXgX. . . & u i d ..m 0 < * % o A e.w.9.2.=.=.1.;.;.;.=.<.<.4.w.r.w.4.<.w.f.4.<.4.w.4.4.w.w.7.y.f.w.4.w.f.f.w.r.g.g.g.f.k.d.d.z.k.k.k.k.k.z.z.z.z.z.f.f.f.p.f.f.p.f.f.f.f.f.f.a.f.a.a.p.p.p.p.p.p.p.7.p.p.p.<.<.<.<.7.<.<.7.p.7.<.<.7.<.<.;.;.;.<.<.<.<.7.p.<.<.7.7.<.<.-.;.;.-.[ ;.;.=.-.' D z < 8 , o , # . < V ~ 8 < 3.Y.3.' ' 2.w.f.f.z.l.g.4.<.f.z.z.z.f.f.f.4.;.=.` _ 2.",
"D < w.2.[ =.=.;.;.<.4.w.w.w.4.<.-.<.f.f.7.f.f.4.<.` V _ 0.0.8 # o * * o o * c M < < c M ' ;.<.7.w.w.w.4.;.;.4.w.f.f.4.<.<.<.<.<.<.<.-.;.4.w.f.p.;.-.[ ' 1.2.w.7.7.7.7.7.7.p.;.<.<.7.p.p.<.<.<.<.<.7.p.f.p.p.p.p.<.<.y.y.<.p.p.p.p.p.f.f.f.f.f.f.f.f.k.f.4.=.2.g.f.f.f.p.h.k.k.k.z.f.f.<.-.=.;.<.f.4.;.1.2.2.;.' 1.2.1.1.2.2...;.;.2.o.2.o.. . . # < N { s t u & . gXgXgXgXgXgXgXgXgXgXgXgXgXgXgXgXgXgXgXgXgXgXgXgXgXgXgXgXgXgXgXgXgXgXgXgXgXgXgXgXgXgXgXgXgXgXgXgXgXgXgXgXgXgXgXgXgXgXgXgXgXgXgXgXgXgXgXgXgXgXgXgXgXgXgXgXgXgXgXgXgXgXgXgXgXgXgXgXgXgXgXgXgXgXgXgXgXgXgXgXgXgXgXgXgXgXgXgXgXgXgXgXgXgXgXgXgXgXgXgXgXgXgXgXgXgXgXgXgXgXgXgXgXgXgXgXgXgXgXgXgXgXgXgXgXgXgXgXgXgXgXgXgXgXgXgXgXgXgXgXgXgXgXgXgXgXgXgXgXgXgXgXgXgXgXgXgXgXgXgXgXgXgXgXgXgXgXgXgXgXgXgXgXgXgXgXgXgXgXgXgXgXgXgXgXgXgXgXgXgXgXgXgXgXgXgXgXgXgXgXgXgXgXgXgXgXgXgXgXgXgXgXgXgXgXgXgXgXgXgXgXgXo . . & i i d F ~ A 8 * % o ^ j.9.w.w.=.-.=.2.2.<.<.;.4.w.w.w.w.4.p.f.f.w.4.2.2.w.w.w.f.f.f.f.f.f.f.f.f.f.w.g.g.g.f.k.z.k.z.z.k.k.k.k.z.z.h.z.f.p.<.7.f.p.f.f.f.f.k.k.p.p.p.p.f.a.a.p.p.p.p.p.p.p.p.p.p.<.<.<.<.p.p.f.f.<.<.<.<.<.<.=.-.;.<.<.w.<.<.7.p.p.p.7.<.-.-.-.<.<.<.;.-.;.;.;.=.V z < 8 , o , # . < V ^ 0 < 3.T.3.' ..4.f.k.k.z.l.g.w.w.f.k.k.k.z.f.g.w.4.=.` _ 2.",
"D 8 w.;._ [ [ -.<.4.5.5.4.4.;.-.<.<.<.<.p.y.y.f.<.^ V _ 0.e.8 o # # # o o * 0 A < < z s ( [ <.w.w.w.<.8.-.-.f.p.y.p.<.<.<.<.-.;.;.-.^ -.4.f.f.y.<.;.-.-.` ' ..w.w.p.f.w.;.-.<.<.<.<.7.<.<.<.7.<.<.<.w.f.p.p.<.<.<.<.<.<.7.7.p.p.p.p.f.f.f.f.f.f.k.s.f.f.w.<.<.f.f.f.f.f.f.f.f.f.f.w.<.<.<.-.[ 2.w.2.2.4.;.;.;.=.=.=.1.6.....D =.-.] o.3._   O o % 1 { } F u u & gXgXgXgXgXgXgXgXgXgXgXgXgXgXgXgXgXgXgXgXgXgXgXgXgXgXgXgXgXgXgXgXgXgXgXgXgXgXgXgXgXgXgXgXgXgXgXgXgXgXgXgXgXgXgXgXgXgXgXgXgXgXgXgXgXgXgXgXgXgXgXgXgXgXgXgXgXgXgXgXgXgXgXgXgXgXgXgXgXgXgXgXgXgXgXgXgXgXgXgXgXgXgXgXgXgXgXgXgXgXgXgXgXgXgXgXgXgXgXgXgXgXgXgXgXgXgXgXgXgXgXgXgXgXgXgXgXgXgXgXgXgXgXgXgXgXgXgXgXgXgXgXgXgXgXgXgXgXgXgXgXgXgXgXgXgXgXgXgXgXgXgXgXgXgXgXgXgXgXgXgXgXgXgXgXgXgXgXgXgXgXgXgXgXgXgXgXgXgXgXgXgXgXgXgXgXgXgXgXgXgXgXgXgXgXgXgXgXgXgXgXgXgXgXgXgXgXgXgXgXgXgXgXgXgXgXgXgXgXgXgXgXgXo . . & u t x ' ` c , * o % Z ^.e.2.;.[ _ =.;.-.;.;.;.4.2.2...' 2.f.f.f.f.f.w.;.o.o.' =.4.f.f.f.f.f.k.f.f.f.w.w.w.w.g.f.k.s.s.k.k.z.k.k.z.z.f.f.w.w.f.f.f.p.p.p.f.f.f.p.p.p.p.f.f.f.<.<.p.p.p.p.p.p.y.p.p.<.<.p.f.f.p.p.<.<.<.<.<.<.;.-.-.<.<.<.<.4.4.4.<.<.<.-.-.-.-.-.<.<.<.-.-.;.-.^ V 8 < 8 < % , # . 8 ^ / 8 8 0.^.2.' [ 2.5.w.w.r.f.h.f.p.f.f.f.k.f.f.g.w.2.` V V 2.",
"D 8 w.;._ ` =.;.4.5.2.2.2.2.<.w.f.w.w.f.p.p.y.<.;.~ _ ' e.0.8 % # # # o o * c V < < z N ' ' 4.g.w.<.<.w.w.w.w.f.f.p.7.7.7.<.<.;.<.;.;.;.4.w.f.f.w.w.w.<.=._ N _ ;.<.<.-.-.<.<.<.<.<.<.<.7.p.7.7.7.7.7.7.<.<.<.<.<.<.<.<.<.<.y.p.f.f.f.w.f.f.z.f.f.f.f.f.f.g.g.g.f.f.w.7.w.f.f.f.7.<.<.<.<.;.=.2.2.;.4.w.<.<.4.=.=.=.2.2...D ' =.=.' o.3.' O O # % < { X.F u t & gXgXgXgXgXgXgXgXgXgXgXgXgXgXgXgXgXgXgXgXgXgXgXgXgXgXgXgXgXgXgXgXgXgXgXgXgXgXgXgXgXgXgXgXgXgXgXgXgXgXgXgXgXgXgXgXgXgXgXgXgXgXgXgXgXgXgXgXgXgXgXgXgXgXgXgXgXgXgXgXgXgXgXgXgXgXgXgXgXgXgXgXgXgXgXgXgXgXgXgXgXgXgXgXgXgXgXgXgXgXgXgXgXgXgXgXgXgXgXgXgXgXgXgXgXgXgXgXgXgXgXgXgXgXgXgXgXgXgXgXgXgXgXgXgXgXgXgXgXgXgXgXgXgXgXgXgXgXgXgXgXgXgXgXgXgXgXgXgXgXgXgXgXgXgXgXgXgXgXgXgXgXgXgXgXgXgXgXgXgXgXgXgXgXgXgXgXgXgXgXgXgXgXgXgXgXgXgXgXgXgXgXgXgXgXgXgXgXgXgXgXgXgXgXgXgXgXgXgXgXgXgXgXgXgXgXgXgXgXgXgXgXgXo o . & i i B 2.=.~ 8 * o o V ~.9.2.;.[ ' ..2.=.=.2.4.5.2.' =.2.;.w.f.f.p.f.f.4.2.2.2.2.w.f.f.f.f.f.k.k.k.f.f.2.;.;.<.f.k.s.a.k.k.k.k.z.z.f.f.7.w.w.w.f.f.f.f.p.p.f.f.f.f.f.p.p.p.<.<.p.a.a.p.p.p.7.p.7.7.7.p.p.f.7.p.f.f.p.7.7.<.w.w.4.4.8.7.w.w.<.;.;.-.<.<.<.-.<.<.<.<.;.-.<.w.w.;.-.V z < 8 < o 7 # . 8 ~ ^ 8 1 0./.2.' ' 2.2.2.;.4.f.f.f.f.f.f.f.p.p.f.w.2.` V m m 2.",
"V < w.=.m _ =.` 2.o.' ....2.4.f.g.w.<.f.f.p.<.=.[ ~ _ ' 0.e.8 % # # * # . * c V < < z D ' ' 2.2.4.4.5.w.4.;.4.w.w.7.<.7.w.<.<.<.<.w.8.7.w.7.p.p.f.f.7.<.;.` N N =.<.<.-.-.<.<.<.w.w.<.<.w.7.7.<.<.7.7.7.<.<.7.p.p.p.y.y.<.<.p.f.g.4.;.=.<.f.z.f.f.f.f.f.f.f.g.f.f.f.7.7.f.f.f.<.<.<.<.<.4.<.;.;.;.;.4.<.<.<.<.4.;.=.2.2.' z _ =.;.2.o.3.'   o * * s { O.{ u t & gXgXgXgXgXgXgXgXgXgXgXgXgXgXgXgXgXgXgXgXgXgXgXgXgXgXgXgXgXgXgXgXgXgXgXgXgXgXgXgXgXgXgXgXgXgXgXgXgXgXgXgXgXgXgXgXgXgXgXgXgXgXgXgXgXgXgXgXgXgXgXgXgXgXgXgXgXgXgXgXgXgXgXgXgXgXgXgXgXgXgXgXgXgXgXgXgXgXgXgXgXgXgXgXgXgXgXgXgXgXgXgXgXgXgXgXgXgXgXgXgXgXgXgXgXgXgXgXgXgXgXgXgXgXgXgXgXgXgXgXgXgXgXgXgXgXgXgXgXgXgXgXgXgXgXgXgXgXgXgXgXgXgXgXgXgXgXgXgXgXgXgXgXgXgXgXgXgXgXgXgXgXgXgXgXgXgXgXgXgXgXgXgXgXgXgXgXgXgXgXgXgXgXgXgXgXgXgXgXgXgXgXgXgXgXgXgXgXgXgXgXgXgXgXgXgXgXgXgXgXgXgXgXgXgXgXgXgXgXgXgXgX. . o $ & h i D 2.;./ 8 * o # A ~.9.2.2.=.' ' 2.=.' ..2.2.2.=.2.4.<.<.f.f.f.f.f.g.4.9.w.w.f.f.p.f.f.f.k.k.k.k.f.w.<.<.p.f.k.k.f.p.p.f.k.k.k.f.f.w.w.4.2.;.w.f.f.p.p.p.7.p.f.f.a.p.p.<.p.f.f.a.a.p.p.7.<.<.<.w.g.f.f.<.<.<.<.7.p.p.<.<.w.w.4.<.<.<.;.;.=.;.<.<.<.<.-.;.;.;.;.-.-.;.4.4.;.` m z 1 1 < % 7 * . 8 ` ^ 8 1 3./.3.' ..2.=.=.<.w.f.f.f.f.7.<.<.f.f.w.2.=._ D m m 2.",
"V , w.=.m _ -.=.2...' ..2.5.w.f.f.<.<.<.f.f.<.*.~ m D ' 0.5.8 % # , , * . o 8 c = = s s D ' 1...=.2.4.4.4.;.-.;.4.<.<.f.f.<.<.<.<.<.7.7.<.<.p.f.f.f.7.<.<.' N ' ;.<.<.<.<.-.<.<.<.<.;.;.<.7.<.<.<.7.7.7.<.<.p.p.p.a.p.p.p.p.f.f.w.;.=...2.f.f.f.g.f.f.f.f.f.f.w.<.w.w.f.f.f.w.<.<.<.<.<.f.w.<.;.=.4.4.2.;.-.<.<.-.-.=.1.' N ' 1.2.2.o.3.'   o * < z ..O.X.u i gXgXgXgXgXgXgXgXgXgXgXgXgXgXgXgXgXgXgXgXgXgXgXgXgXgXgXgXgXgXgXgXgXgXgXgXgXgXgXgXgXgXgXgXgXgXgXgXgXgXgXgXgXgXgXgXgXgXgXgXgXgXgXgXgXgXgXgXgXgXgXgXgXgXgXgXgXgXgXgXgXgXgXgXgXgXgXgXgXgXgXgXgXgXgXgXgXgXgXgXgXgXgXgXgXgXgXgXgXgXgXgXgXgXgXgXgXgXgXgXgXgXgXgXgXgXgXgXgXgXgXgXgXgXgXgXgXgXgXgXgXgXgXgXgXgXgXgXgXgXgXgXgXgXgXgXgXgXgXgXgXgXgXgXgXgXgXgXgXgXgXgXgXgXgXgXgXgXgXgXgXgXgXgXgXgXgXgXgXgXgXgXgXgXgXgXgXgXgXgXgXgXgXgXgXgXgXgXgXgXgXgXgXgXgXgXgXgXgXgXgXgXgXgXgXgXgXgXgXgXgXgXgXgXgXgXgXgXgXgXgXgXgXo . . $ u Y g W w.;.^ 0 * o # A ~.2.2.2.=.' ..2.=.` ' ..2.2.2.4.<.<.<.w.f.f.f.f.f.<.w.g.g.f.f.p.f.f.k.k.k.f.a.h.f.f.f.f.k.k.f.f.p.y.f.f.f.f.f.f.g.g.w.4.;.f.f.7.p.p.p.p.p.p.a.k.k.f.f.f.p.p.p.7.7.p.f.7.<.<.4.w.w.<.<.<.4.w.f.p.7.<.<.<.4.<.<.;.-.=.;.;.;.<.<.<.<.-.-.` ' =.=.=.=.=.-.` V M z s z < % 7 * . 8 ` ^ 8 < 3.R.2.' 2.2.2.4.g.f.f.f.f.f.7.<.<.f.f.5.2...' ' D m 1.",
"D * 4.=.V _ ` ;.;.=.2.w.4.4.f.f.f.<.<.<.f.f.<.-.` V D ' 0.5.8 # # 7 7 * . o 8 c = s s B ....2.2.1.2.2.4.w.4.-.=.2.4.<.w.w.<.-.-.<.<.<.7.<.<.7.w.4.w.<.<.<.=.N ' ;.<.<.-.;.<.4.;.;.<.<.<.<.7.7.<.7.7.<.<.<.<.<.<.<.p.p.a.a.a.7.<.4.w.w.w.w.w.w.w.w.w.f.f.f.f.f.f.f.w.f.f.f.f.w.4.<.<.<.<.<.w.<.-.' 2.2.=.;.<.<.-.-.=.=.2...' ..2.2.O.O.0.]   o * < m 2.Y.Y.d i gXgXgXgXgXgXgXgXgXgXgXgXgXgXgXgXgXgXgXgXgXgXgXgXgXgXgXgXgXgXgXgXgXgXgXgXgXgXgXgXgXgXgXgXgXgXgXgXgXgXgXgXgXgXgXgXgXgXgXgXgXgXgXgXgXgXgXgXgXgXgXgXgXgXgXgXgXgXgXgXgXgXgXgXgXgXgXgXgXgXgXgXgXgXgXgXgXgXgXgXgXgXgXgXgXgXgXgXgXgXgXgXgXgXgXgXgXgXgXgXgXgXgXgXgXgXgXgXgXgXgXgXgXgXgXgXgXgXgXgXgXgXgXgXgXgXgXgXgXgXgXgXgXgXgXgXgXgXgXgXgXgXgXgXgXgXgXgXgXgXgXgXgXgXgXgXgXgXgXgXgXgXgXgXgXgXgXgXgXgXgXgXgXgXgXgXgXgXgXgXgXgXgXgXgXgXgXgXgXgXgXgXgXgXgXgXgXgXgXgXgXgXgXgXgXgXgXgXgXgXgXgXgXgXgXgXgXgXgXgXgXgXgXo . . $ g b.j ' e.<.*.0 , o o c ~.2...=.=.' ..2.<.;.;.' ' =.2.4.<.f.<.w.f.f.f.f.f.<.7.g.g.w.7.f.f.p.f.f.f.f.k.a.f.f.f.f.k.k.f.p.<.<.f.f.f.f.f.f.f.f.f.w.w.f.w.7.7.7.7.p.f.f.f.k.k.a.p.p.p.p.7.<.<.7.f.f.8.;.;.4.w.w.2.<.4.4.<.p.p.7.<.<.7.w.4.<.;.4.w.w.<.;.-.-.;.;.=.` [ 2.2.=.;.;.;.` m z z < s < % 7 * . 8 [ ` 8 < 3.Y.2.' 2.5.w.f.f.f.f.f.f.g.f.<.4.g.g.w.2.....D N M 2.",
"M * 4.=._ _ -.-.=.=.2.w.w.7.f.f.f.f.<.<.4.f.<.-.-.D _ ' e.e.0 % # 7 , * . o 8 c = s z ......o.2.2.5.4.w.f.f.w.<.;.4.<.w.<.<.-.<.<.<.<.<.7.7.w.<.=.;.<.<.<.=._ ' ;.<.-.-.-.;.2.;.;.<.<.<.<.7.<.<.7.<.-.*.-.<.<.<.<.<.p.p.a.f.f.<.4.w.f.r.w.2.2.2.w.w.<.4.f.f.a.f.f.f.f.f.f.f.4.4.<.<.<.<.<.<.;.[ ` ' ' ' ;.4.7.<.<.;.2.2.o...........O.0.=.  . * 0 ] ^.,X-Xg h } gXgXgXgXgXgXgXgXgXgXgXgXgXgXgXgXgXgXgXgXgXgXgXgXgXgXgXgXgXgXgXgXgXgXgXgXgXgXgXgXgXgXgXgXgXgXgXgXgXgXgXgXgXgXgXgXgXgXgXgXgXgXgXgXgXgXgXgXgXgXgXgXgXgXgXgXgXgXgXgXgXgXgXgXgXgXgXgXgXgXgXgXgXgXgXgXgXgXgXgXgXgXgXgXgXgXgXgXgXgXgXgXgXgXgXgXgXgXgXgXgXgXgXgXgXgXgXgXgXgXgXgXgXgXgXgXgXgXgXgXgXgXgXgXgXgXgXgXgXgXgXgXgXgXgXgXgXgXgXgXgXgXgXgXgXgXgXgXgXgXgXgXgXgXgXgXgXgXgXgXgXgXgXgXgXgXgXgXgXgXgXgXgXgXgXgXgXgXgXgXgXgXgXgXgXgXgXgXgXgXgXgXgXgXgXgXgXgXgXgXgXgXgXgXgXgXgXgXgXgXgXgXgXgXgXgXgXgXgXgXgXgXo . o $ { Z.P W g.w.-.r , # o c Y.3...' ' ' ' 2.w.<.8.2.2.2.2.4.<.f.w.w.w.f.f.f.f.f.f.f.w.<.<.<.<.y.f.f.p.f.f.f.f.f.f.f.f.f.f.7.<.7.w.<.<.f.f.f.f.f.f.w.w.g.f.w.w.p.f.p.w.f.f.f.a.p.p.p.p.p.7.<.<.7.p.p.8.<.;.w.g.g.2.;.;.-.<.7.f.f.<.<.7.w.<.;.<.w.f.w.7.<.-.*.-.;.;.=.' 2.2.;.4.w.4.-.V M s < 1 < % 7 # . 0 ' [ 8 1 3.5.2.' 2.4.f.z.k.k.f.7.f.g.f.w.w.w.w.e.5.3...H v v 2.",
"M * w.2._ _ -.;.2.=.' 2.w.w.p.p.f.f.f.<.4.7.<.-.=.` ' ' t.e.0 % # 7 , # . o 8 M < s x D ....o.2.4.w.w.f.f.f.f.<.<.w.w.<.<.<.<.<.<.<.<.<.7.w.<.;.' =.<.<.;.=.' ' ;.<.<.=.' =.=.;.;.<.<.<.p.7.<.<.<.<.;.-.;.p.p.<.<.<.7.p.p.p.7.<.7.f.f.h.w.2...2.w.f.4.4.f.a.f.f.f.w.<.p.f.f.<.;.-.-.<.f.<.<.4.;.=.=.2.2.4.<.y.<.<.=.' ' ..' { ......O.Y.]   o * 0 ;.>X<X;Xa l } gXgXgXgXgXgXgXgXgXgXgXgXgXgXgXgXgXgXgXgXgXgXgXgXgXgXgXgXgXgXgXgXgXgXgXgXgXgXgXgXgXgXgXgXgXgXgXgXgXgXgXgXgXgXgXgXgXgXgXgXgXgXgXgXgXgXgXgXgXgXgXgXgXgXgXgXgXgXgXgXgXgXgXgXgXgXgXgXgXgXgXgXgXgXgXgXgXgXgXgXgXgXgXgXgXgXgXgXgXgXgXgXgXgXgXgXgXgXgXgXgXgXgXgXgXgXgXgXgXgXgXgXgXgXgXgXgXgXgXgXgXgXgXgXgXgXgXgXgXgXgXgXgXgXgXgXgXgXgXgXgXgXgXgXgXgXgXgXgXgXgXgXgXgXgXgXgXgXgXgXgXgXgXgXgXgXgXgXgXgXgXgXgXgXgXgXgXgXgXgXgXgXgXgXgXgXgXgXgXgXgXgXgXgXgXgXgXgXgXgXgXgXgXgXgXgXgXgXgXgXgXgXgXgXgXgXgXgXgXgXgXgXo . o & } A.U W h.f.-.A 8 * o z Y.3.....' { B ' w.7.w.9.2.' =.4.<.<.<.<.<.<.f.f.f.f.g.f.w.<.-.;.7.f.f.w.4.f.k.k.f.f.k.f.f.f.7.<.7.f.w.;.=.w.g.f.f.f.f.<.<.4.<.<.w.f.f.f.<.7.f.f.p.7.p.p.p.f.w.w.w.f.p.p.f.w.w.w.w.4.2.4.4.<.<.w.f.f.f.p.f.<.;.;.f.p.p.a.p.<.-.;.;.;.4.2.=.;.4.w.8.<.-.^ V M s < 1 < o 7 # . 0 ' -.0 1 2.5.2.' 2.w.f.k.k.k.k.f.f.w.f.w.f.f.4.5.2.3...H x x 2.",
"M = 4.;.V _ =.;.<.4.<.8.w.w.<.<.f.f.k.f.f.<.<.;.=._ ' ' e.e.c o # * , * . o 8 c < < s s x W o.2.<.<.7.f.w.w.w.<.<.p.p.<.<.<.<.p.p.<.<.y.7.<.;.;.;.;.;.;.=.' ' ` ;.7.p.<.-.;.<.<.<.<.7.p.p.<.-.-.<.<.<.<.<.p.p.<.<.p.p.p.p.p.p.<.p.f.z.s.f.w.4.<.f.k.f.<.<.f.z.h.f.7.<.<.f.f.<.-.<.<.f.p.7.7.<.;.;.<.4.4.4.7.7.<.=.' ' _ ' =.;.......O.e.[   o * 9 ;.^.,XR.g h Y gXgXgXgXgXgXgXgXgXgXgXgXgXgXgXgXgXgXgXgXgXgXgXgXgXgXgXgXgXgXgXgXgXgXgXgXgXgXgXgXgXgXgXgXgXgXgXgXgXgXgXgXgXgXgXgXgXgXgXgXgXgXgXgXgXgXgXgXgXgXgXgXgXgXgXgXgXgXgXgXgXgXgXgXgXgXgXgXgXgXgXgXgXgXgXgXgXgXgXgXgXgXgXgXgXgXgXgXgXgXgXgXgXgXgXgXgXgXgXgXgXgXgXgXgXgXgXgXgXgXgXgXgXgXgXgXgXgXgXgXgXgXgXgXgXgXgXgXgXgXgXgXgXgXgXgXgXgXgXgXgXgXgXgXgXgXgXgXgXgXgXgXgXgXgXgXgXgXgXgXgXgXgXgXgXgXgXgXgXgXgXgXgXgXgXgXgXgXgXgXgXgXgXgXgXgXgXgXgXgXgXgXgXgXgXgXgXgXgXgXgXgXgXgXgXgXgXgXgXgXgXgXgXgXgXgXgXgXgXgXgXgX. o o % { Z.U ( j.f.<.A 8 * o 1 Y.3.' ' ' W D ..2.4.w.;.' ' ' =.-.<.<.<.<.<.7.f.g.w.w.w.w.4.<.;.<.f.f.g.f.f.k.k.f.f.f.f.f.f.<.y.y.w.w.w.f.f.w.f.f.f.f.w.<.-.-.<.7.f.f.p.<.-.<.p.p.p.p.p.a.f.f.p.7.p.f.f.p.7.w.w.<.-.<.w.f.f.f.f.w.f.f.w.w.<.<.;.<.p.f.f.p.<.<.-.;.4.2.1.=.=.=.4.2.-._ _ m z z < > < o , # . 0 -.-.8 1 2.0.2.' ' <.f.a.k.z.z.k.f.p.7.w.g.g.<.=.....D v z x 2.",
"M < w.4._ _ ' ;.<.f.g.w.w.f.w.<.p.f.f.f.f.<.-.-.[ D _ ' Y.t.c o # # , * . o 8 c < < s f x ....2.4.f.f.f.<.<.4.w.<.<.p.f.f.w.p.p.p.<.y.y.<.<.2.2.4.<.=.-.=.=.2.-.;.<.<.<.<.<.<.<.w.<.<.<.<.<.<.<.<.7.p.7.<.<.7.<.<.p.p.p.p.a.a.a.a.k.k.k.k.h.g.f.f.s.f.<.w.w.w.7.f.w.<.w.f.f.w.<.7.f.f.p.p.7.w.;.;.;.;.<.<.8.<.;.[ ' ' ' ;.<.;.2...{ O.e.~   o # 0 =.j.-XR.g h T gXgXgXgXgXgXgXgXgXgXgXgXgXgXgXgXgXgXgXgXgXgXgXgXgXgXgXgXgXgXgXgXgXgXgXgXgXgXgXgXgXgXgXgXgXgXgXgXgXgXgXgXgXgXgXgXgXgXgXgXgXgXgXgXgXgXgXgXgXgXgXgXgXgXgXgXgXgXgXgXgXgXgXgXgXgXgXgXgXgXgXgXgXgXgXgXgXgXgXgXgXgXgXgXgXgXgXgXgXgXgXgXgXgXgXgXgXgXgXgXgXgXgXgXgXgXgXgXgXgXgXgXgXgXgXgXgXgXgXgXgXgXgXgXgXgXgXgXgXgXgXgXgXgXgXgXgXgXgXgXgXgXgXgXgXgXgXgXgXgXgXgXgXgXgXgXgXgXgXgXgXgXgXgXgXgXgXgXgXgXgXgXgXgXgXgXgXgXgXgXgXgXgXgXgXgXgXgXgXgXgXgXgXgXgXgXgXgXgXgXgXgXgXgXgXgXgXgXgXgXgXgXgXgXgXgXgXgXgXgXgXgX. . o % { V.U W j.f.<.A , # o 8 R.0.2.2.' ' ' ..2.w.p.;.' ' ' =.<.4.w.w.<.7.7.w.f.4.;.;.4.4.4.;.<.f.g.f.w.f.f.f.f.a.a.a.f.p.p.y.<.<.<.f.f.f.f.f.f.f.f.f.<.<.;.<.w.f.p.f.w.<.w.f.p.a.a.a.p.p.p.p.<.<.w.f.f.f.f.f.w.<.<.f.f.f.f.<.;.<.7.w.w.7.7.7.7.p.f.f.f.<.<.-.;.4.;.` D ` ` =.;.` _ _ N z s < 1 8 * , # . 0 -.-.0 1 3.t.2._ [ ;.f.f.k.k.k.k.z.g.w.w.g.w.<.;.2.' D v M x 3.",
"z = 5.4._ _ _ ;.w.f.f.g.f.f.<.<.<.f.f.f.<.;.-.` ' N N ' Y.~.c o # # * * . % 8 M < s s m ' ....' 2.w.f.<.<.-.<.w.p.p.f.f.4.;.;.<.p.<.p.p.<.;.=.2.2.=.-.=.4.4.4.;.;.;.;.;.<.<.<.7.w.<.-.-.<.<.7.7.p.p.p.p.<.<.<.<.<.<.p.p.p.f.p.p.f.f.f.k.f.f.r.f.f.a.p.f.p.<.<.<.4.4.w.f.f.f.w.w.7.f.f.w.w.w.2.2.2.;.;.;.;.-.-.;.' ' ' [ -.<.;.2...{ o.e.c   # * 8 ;.t.-XR.g h T gXgXgXgXgXgXgXgXgXgXgXgXgXgXgXgXgXgXgXgXgXgXgXgXgXgXgXgXgXgXgXgXgXgXgXgXgXgXgXgXgXgXgXgXgXgXgXgXgXgXgXgXgXgXgXgXgXgXgXgXgXgXgXgXgXgXgXgXgXgXgXgXgXgXgXgXgXgXgXgXgXgXgXgXgXgXgXgXgXgXgXgXgXgXgXgXgXgXgXgXgXgXgXgXgXgXgXgXgXgXgXgXgXgXgXgXgXgXgXgXgXgXgXgXgXgXgXgXgXgXgXgXgXgXgXgXgXgXgXgXgXgXgXgXgXgXgXgXgXgXgXgXgXgXgXgXgXgXgXgXgXgXgXgXgXgXgXgXgXgXgXgXgXgXgXgXgXgXgXgXgXgXgXgXgXgXgXgXgXgXgXgXgXgXgXgXgXgXgXgXgXgXgXgXgXgXgXgXgXgXgXgXgXgXgXgXgXgXgXgXgXgXgXgXgXgXgXgXgXgXgXgXgXgXgXgXgXgXgXgXgXgX. o . % { V.U W h.g.<.0 , # o 8 ^.Y.2.4.;.=.=.;.w.f.p.<.2.' ' ;.w.w.w.w.w.w.w.w.4.4.<.4.4.i.i.<.<.f.w.4.4.w.f.f.f.f.a.a.p.p.p.p.<.-.-.<.f.p.7.<.<.f.f.f.f.f.7.w.w.<.<.w.f.f.f.7.f.f.p.p.p.7.p.w.<.;.<.w.f.f.f.f.g.g.f.f.f.a.p.7.;.7.f.f.f.p.f.f.p.p.7.7.7.<.;.;.4.4.;.=.=.-.-.;.;.-.` D N z s < z 0 * , # o c =.-.0 1 3.t.2._ _ =.w.f.f.f.f.f.h.g.5.4.w.w.8.w.w.2.' M z z 2.",
"z * 4.;.m N N =.4.f.f.f.w.i.f.w.<.f.f.w.<.;.=.` ' N x ' ~.^.c o # # * * . % 8 c > < z _ ' ' D N _ 2.4.<.<.-.<.f.f.f.w.<.-.-.-.<.<.<.p.p.<.;._ _ ] =.=.<.4.<.;.<.<.;.=.=.;.;.<.<.<.<.-.-.-.<.<.7.7.p.p.p.<.<.<.<.-.-.-.<.<.<.<.<.p.a.f.f.7.;.<.w.f.p.p.p.p.w.4.4.5.4.4.4.4.<.;.<.<.<.<.;.<.;.' ' 2.9.8.8.<.-.=.2.2.2.=.-.-.<.-.=._ D o.0.c   o * 8 *.t.-X-Xg h T gXgXgXgXgXgXgXgXgXgXgXgXgXgXgXgXgXgXgXgXgXgXgXgXgXgXgXgXgXgXgXgXgXgXgXgXgXgXgXgXgXgXgXgXgXgXgXgXgXgXgXgXgXgXgXgXgXgXgXgXgXgXgXgXgXgXgXgXgXgXgXgXgXgXgXgXgXgXgXgXgXgXgXgXgXgXgXgXgXgXgXgXgXgXgXgXgXgXgXgXgXgXgXgXgXgXgXgXgXgXgXgXgXgXgXgXgXgXgXgXgXgXgXgXgXgXgXgXgXgXgXgXgXgXgXgXgXgXgXgXgXgXgXgXgXgXgXgXgXgXgXgXgXgXgXgXgXgXgXgXgXgXgXgXgXgXgXgXgXgXgXgXgXgXgXgXgXgXgXgXgXgXgXgXgXgXgXgXgXgXgXgXgXgXgXgXgXgXgXgXgXgXgXgXgXgXgXgXgXgXgXgXgXgXgXgXgXgXgXgXgXgXgXgXgXgXgXgXgXgXgXgXgXgXgXgXgXgXgXgXgXgX% o . $ K b.j ( h.g.-.8 * # o 8 t.3.=.=.=.-.` [ <.f.p.7.w.2.=.;.;.=.=.2.<.4.4.<.<.f.w.w.f.p.p.p.<.<.w.4.w.w.f.f.f.f.a.a.s.p.p.p.<.-.-.-.<.7.<.<.<.p.f.f.f.w.<.w.8.<.-.<.<.<.<.<.7.p.p.p.p.p.f.w.<.-.-.<.7.p.p.f.f.f.f.f.f.f.f.f.7.f.f.f.p.p.a.f.k.a.p.7.<.<.-.;.<.<.;.<.<.;.-.<.<.;.[ _ m z z < < < o , # o 0 =.-.0 1 3.e.2.N _ =.<.f.f.f.w.w.w.5.2.;.w.7.7.w.w.2.' M z z ..",
"z * 4.=.v N N ' 2.f.f.w.w.f.f.w.;.<.w.4.4.4.=.' ..D N ..^.^.c * # o , * o % 8 c > < z ` ' .._ ( ' 2.w.w.w.<.<.f.f.w.<.<.<.<.;.;.<.<.<.<.<.-.-.=.2.2.;.;.;.-.<.<.<.4.2.=.;.;.<.<.<.<.<.-.-.-.-.-.<.<.<.<.7.<.<.<.-.*.-.<.<.<.<.<.p.a.f.p.<.;.;.8.f.p.7.7.f.w.4.;.2.4.4.<.<.;.-.-.<.4.2.;.;.=.' _ [ ;.<.8.;.-.;.' ' =.=.;.;.<.;.-.V W o.0.c   o * 8 *.r.j.XX{ h Y gXgXgXgXgXgXgXgXgXgXgXgXgXgXgXgXgXgXgXgXgXgXgXgXgXgXgXgXgXgXgXgXgXgXgXgXgXgXgXgXgXgXgXgXgXgXgXgXgXgXgXgXgXgXgXgXgXgXgXgXgXgXgXgXgXgXgXgXgXgXgXgXgXgXgXgXgXgXgXgXgXgXgXgXgXgXgXgXgXgXgXgXgXgXgXgXgXgXgXgXgXgXgXgXgXgXgXgXgXgXgXgXgXgXgXgXgXgXgXgXgXgXgXgXgXgXgXgXgXgXgXgXgXgXgXgXgXgXgXgXgXgXgXgXgXgXgXgXgXgXgXgXgXgXgXgXgXgXgXgXgXgXgXgXgXgXgXgXgXgXgXgXgXgXgXgXgXgXgXgXgXgXgXgXgXgXgXgXgXgXgXgXgXgXgXgXgXgXgXgXgXgXgXgXgXgXgXgXgXgXgXgXgXgXgXgXgXgXgXgXgXgXgXgXgXgXgXgXgXgXgXgXgXgXgXgXgXgXgXgXgXgX$ o . $ g B.j E h.f.*., * o o 8 5.1.V Z ` ' ` ` =.<.<.8.4.;.=.;.;.[ V [ ;.4.<.<.<.p.7.7.p.a.p.p.p.f.w.w.w.w.w.w.f.f.f.k.a.a.p.p.<.<.<.7.f.f.f.f.p.p.f.f.<.-.<.7.<.<.<.<.7.<.<.w.w.7.p.p.p.p.f.w.<.-.<.w.p.p.p.p.7.<.p.p.a.a.f.f.h.f.a.p.p.p.p.f.k.f.p.p.<.<.<.-.<.4.<.-.;.<.-.-.;.;.;.` V M z < > > o , * . 0 =.-.8 1 3.e.2._ _ ' =.<.w.f.w.4.2.2.=.4.w.w.w.4.2.=._ N M z 2.",
"z * ;.` z D W ' 2.w.w.<.<.4.4.;.;.4.w.w.w.w.4.2...D D ' ^.~.0 o o . , * o % 8 c > < z _ ' ' ' ' 2.4.7.f.f.8.<.<.<.<.<.<.w.w.w.<.<.<.<.;.<.;.<.4.<.<.<.<.-.-.<.<.<.4.;.;.-.-.,.<.<.<.<.<.<.<.-.<.<.<.;.-.<.<.<.-.-.<.<.7.7.p.p.p.p.p.a.p.w.w.4.w.4.<.<.4.w.4.;.-.;.4.<.<.4.;.;.<.;.;.;.;.;.=.=.[ -.;.;.-.;.;.;._ D _ ' =.=.;.=.` _ ' 2.e.A   o * 8 [ w.j.t.W h gXgXgXgXgXgXgXgXgXgXgXgXgXgXgXgXgXgXgXgXgXgXgXgXgXgXgXgXgXgXgXgXgXgXgXgXgXgXgXgXgXgXgXgXgXgXgXgXgXgXgXgXgXgXgXgXgXgXgXgXgXgXgXgXgXgXgXgXgXgXgXgXgXgXgXgXgXgXgXgXgXgXgXgXgXgXgXgXgXgXgXgXgXgXgXgXgXgXgXgXgXgXgXgXgXgXgXgXgXgXgXgXgXgXgXgXgXgXgXgXgXgXgXgXgXgXgXgXgXgXgXgXgXgXgXgXgXgXgXgXgXgXgXgXgXgXgXgXgXgXgXgXgXgXgXgXgXgXgXgXgXgXgXgXgXgXgXgXgXgXgXgXgXgXgXgXgXgXgXgXgXgXgXgXgXgXgXgXgXgXgXgXgXgXgXgXgXgXgXgXgXgXgXgXgXgXgXgXgXgXgXgXgXgXgXgXgXgXgXgXgXgXgXgXgXgXgXgXgXgXgXgXgXgXgXgXgXgXgXgXgXgXgX. o . % g B.j v h.w.^ , * o o 8 2.' Z A Z ' ' ' =.;.;.-.;.;.;.<.<.=.~ =.;.<.<.<.<.7.7.8.7.p.p.p.p.f.f.f.f.w.4.<.7.p.p.p.p.p.p.y.y.<.<.7.f.a.p.f.p.p.f.f.<.-.<.7.7.7.7.p.p.<.<.w.w.7.p.f.f.7.7.7.7.w.f.f.p.p.p.7.<.<.p.f.f.p.p.f.k.f.f.p.p.<.7.p.p.7.w.w.<.<.<.<.<.<.;.-.<.<.<.<.<.w.4.-.~ m z < > > o , * . 0 [ ^ 8 1 3.g.2._ ( ' [ ;.w.g.w.4.2.2.2.4.<.w.w.4.2.' ' N M z ..",
"z * 2.' B W { ..2.4.7.8.<.;.=.' =.w.w.<.w.f.w.2.' N D ' Y.e.8 o # # 8 * . o 8 c > < z [ ' ' ' 2.4.<.<.w.w.8.<.<.<.<.<.w.7.y.y.p.7.<.;.;.<.<.<.<.<.<.<.<.-.-.<.<.<.<.<.<.;.-.<.<.7.7.<.y.p.7.<.<.<.<.<.<.-.-.<.<.<.7.p.p.7.7.7.p.p.p.p.p.f.f.f.w.4.<.;.;.;.<.<.<.w.<.<.<.;.;.;.2.;.-.` =.;.;.=.-.;.;.=.-.-.-.-.' _ _ ' ' ' ' _ ' ' ' 2.e.c . . # 8 / 4.r.9.g h gXgXgXgXgXgXgXgXgXgXgXgXgXgXgXgXgXgXgXgXgXgXgXgXgXgXgXgXgXgXgXgXgXgXgXgXgXgXgXgXgXgXgXgXgXgXgXgXgXgXgXgXgXgXgXgXgXgXgXgXgXgXgXgXgXgXgXgXgXgXgXgXgXgXgXgXgXgXgXgXgXgXgXgXgXgXgXgXgXgXgXgXgXgXgXgXgXgXgXgXgXgXgXgXgXgXgXgXgXgXgXgXgXgXgXgXgXgXgXgXgXgXgXgXgXgXgXgXgXgXgXgXgXgXgXgXgXgXgXgXgXgXgXgXgXgXgXgXgXgXgXgXgXgXgXgXgXgXgXgXgXgXgXgXgXgXgXgXgXgXgXgXgXgXgXgXgXgXgXgXgXgXgXgXgXgXgXgXgXgXgXgXgXgXgXgXgXgXgXgXgXgXgXgXgXgXgXgXgXgXgXgXgXgXgXgXgXgXgXgXgXgXgXgXgXgXgXgXgXgXgXgXgXgXgXgXgXgXgXgXgXgXgX. . . o f b.g v w.<.^ 8 * # o 8 2.o.=.` Z *.=.;.;.;.<.;.;.;.<.<.<.2.;.<.<.<.<.<.<.f.<.;.<.w.f.4.<.<.<.f.f.f.f.f.p.p.a.p.p.p.p.p.p.y.7.p.a.a.f.p.p.p.p.f.f.4.<.7.7.p.p.f.p.<.<.<.8.7.p.f.f.<.<.p.p.f.f.f.p.p.p.7.<.<.p.p.p.p.p.p.f.k.a.p.p.7.7.7.w.w.w.r.w.w.<.7.w.<.-.<.<.<.<.<.<.<.-.^ ~ V M s < < % , # . 8 ^ A , 1 0.j.e.( N ' ' 4.w.g.r.2.;.2.w.4.4.w.w.2.2.....D D N ..",
"M * 2.' B { ....2.<.7.w.w.4.2.2.4.4.;.4.5.4.2.' _ N N ' ~.g.8 o o # 8 , . o 8 c > < M ' ' ' 2.4.w.<.<.<.7.<.<.<.<.<.<.w.f.p.<.<.<.<.<.<.<.<.<.<.y.p.<.<.-.-.<.<.<.<.<.<.<.<.p.p.7.<.<.<.y.p.p.<.,.<.p.7.<.<.<.<.7.p.p.<.<.<.<.<.7.f.f.p.p.f.f.f.f.<.2.=.=.;.<.f.f.7.<.-.' ' =.-.-.-.` -.;.;.;.-.<.;.=.' [ -.-.' -.-.=.=.' _ _ ' ' ' 2.e.c   o # 9 / ;.w.2.f j gXgXgXgXgXgXgXgXgXgXgXgXgXgXgXgXgXgXgXgXgXgXgXgXgXgXgXgXgXgXgXgXgXgXgXgXgXgXgXgXgXgXgXgXgXgXgXgXgXgXgXgXgXgXgXgXgXgXgXgXgXgXgXgXgXgXgXgXgXgXgXgXgXgXgXgXgXgXgXgXgXgXgXgXgXgXgXgXgXgXgXgXgXgXgXgXgXgXgXgXgXgXgXgXgXgXgXgXgXgXgXgXgXgXgXgXgXgXgXgXgXgXgXgXgXgXgXgXgXgXgXgXgXgXgXgXgXgXgXgXgXgXgXgXgXgXgXgXgXgXgXgXgXgXgXgXgXgXgXgXgXgXgXgXgXgXgXgXgXgXgXgXgXgXgXgXgXgXgXgXgXgXgXgXgXgXgXgXgXgXgXgXgXgXgXgXgXgXgXgXgXgXgXgXgXgXgXgXgXgXgXgXgXgXgXgXgXgXgXgXgXgXgXgXgXgXgXgXgXgXgXgXgXgXgXgXgXgXgXgXgXgXgX. . . o s U i v <.<.*.8 * # o 8 2.2.=.-.-.*.-.;.;.<.<.;.;.<.<.<.<.<.2.<.<.<.<.<.4.4.<.<.<.<.4.<.-.<.7.f.f.f.f.f.f.f.f.f.a.p.p.p.p.p.p.p.a.a.p.p.7.p.f.p.7.f.7.7.7.7.7.p.p.7.<.<.<.7.f.f.7.p.p.p.f.p.p.p.f.f.p.7.<.<.p.p.p.p.p.p.p.p.p.p.p.7.<.r.-XE.E.XXR.r.7.7.7.<.<.<.<.<.<.<.-.*.[ / A A M z z 8 * 7 # . 8 ^ A , 1 Y./.0.N m ' 2.w.w.w.4.2.2.4.w.4.4.4.5.2.2.....D N B 6.",
"D < 2...B F W ..2.;.<.7.w.w.4.4.w.4.;.2.2.=.=._ D N N ' ^.g.8 o o o , , o % 8 c < < M D ' ` ;.w.w.w.4.4.<.<.<.<.<.<.<.<.p.p.<.<.<.y.<.<.<.<.<.<.<.p.p.<.;.;.<.<.<.<.<.<.<.<.<.<.<.<.<.<.y.y.y.,.,.<.y.p.<.;.-.-.p.p.p.<.<.<.<.<.<.f.f.p.p.p.f.f.f.<.1.=.;.<.<.<.<.<.<.=.' ' ' -.-.;.;.;.-.-.=.=.<.;.' W ' ' -.=.;.4.4.2...' ` ' ' =.2.w.0   . * 7 / -.<.2.s gXgXgXgXgXgXgXgXgXgXgXgXgXgXgXgXgXgXgXgXgXgXgXgXgXgXgXgXgXgXgXgXgXgXgXgXgXgXgXgXgXgXgXgXgXgXgXgXgXgXgXgXgXgXgXgXgXgXgXgXgXgXgXgXgXgXgXgXgXgXgXgXgXgXgXgXgXgXgXgXgXgXgXgXgXgXgXgXgXgXgXgXgXgXgXgXgXgXgXgXgXgXgXgXgXgXgXgXgXgXgXgXgXgXgXgXgXgXgXgXgXgXgXgXgXgXgXgXgXgXgXgXgXgXgXgXgXgXgXgXgXgXgXgXgXgXgXgXgXgXgXgXgXgXgXgXgXgXgXgXgXgXgXgXgXgXgXgXgXgXgXgXgXgXgXgXgXgXgXgXgXgXgXgXgXgXgXgXgXgXgXgXgXgXgXgXgXgXgXgXgXgXgXgXgXgXgXgXgXgXgXgXgXgXgXgXgXgXgXgXgXgXgXgXgXgXgXgXgXgXgXgXgXgXgXgXgXgXgXgXgXgXgXgX% o . . < j u m <.<.-.8 # # o c e.5.;.;.=.' ' =.;.<.<.=.;.<.<.<.<.<.;.;.;.-.<.<.<.<.<.<.<.<.7.<.<.<.w.f.f.p.p.a.a.w.<.y.p.p.p.p.p.p.p.p.p.f.p.p.f.<.w.7.<.p.p.7.<.<.<.<.p.p.w.7.<.<.f.f.f.p.p.p.p.p.p.p.f.f.7.p.f.f.p.p.f.f.7.<.w.w.w.f.p.7.;.r.1X3X&X3X;Xe.7.7.<.-.<.<.<.<.<.-.-.*.*.[ ^ A z z z 8 o , o . 8 ~ A 8 < 0.Y.3.x B ' 2.2.w.w.4.2.2.w.f.f.2.=.2.2.2...' D N x ..",
"D < 4.2.D B D W ..2.<.w.w.<.;.2.w.4.2.;.=.=.=.' _ N N ' ^.g.8 o o o , , o % 8 c < < z z N ` ;.w.f.f.f.w.<.4.w.w.f.f.<.<.<.<.<.<.<.<.<.<.<.<.<.<.7.p.p.<.<.<.<.<.<.2.;.<.<.<.<.<.;.=.;.4.<.<.<.,.<.<.<.<.<.-.-.<.<.p.p.y.<.<.<.;.<.f.f.f.w.7.w.w.4.<.=.;.<.<.<.<.<.<.<.2...' =.;.<.4.4.;.-.[ ` =.2.2.' N D ' ` [ =.2.' ' ' ' -.=.=.2.5.5.0   . % 7 / -.<.;.s g gXgXgXgXgXgXgXgXgXgXgXgXgXgXgXgXgXgXgXgXgXgXgXgXgXgXgXgXgXgXgXgXgXgXgXgXgXgXgXgXgXgXgXgXgXgXgXgXgXgXgXgXgXgXgXgXgXgXgXgXgXgXgXgXgXgXgXgXgXgXgXgXgXgXgXgXgXgXgXgXgXgXgXgXgXgXgXgXgXgXgXgXgXgXgXgXgXgXgXgXgXgXgXgXgXgXgXgXgXgXgXgXgXgXgXgXgXgXgXgXgXgXgXgXgXgXgXgXgXgXgXgXgXgXgXgXgXgXgXgXgXgXgXgXgXgXgXgXgXgXgXgXgXgXgXgXgXgXgXgXgXgXgXgXgXgXgXgXgXgXgXgXgXgXgXgXgXgXgXgXgXgXgXgXgXgXgXgXgXgXgXgXgXgXgXgXgXgXgXgXgXgXgXgXgXgXgXgXgXgXgXgXgXgXgXgXgXgXgXgXgXgXgXgXgXgXgXgXgXgXgXgXgXgXgXgXgXgXgXgXgXgXgX% % . . s j d ` w.w.-.0 * o % z 5.5.1.=.' ' D ' 2.2.;.=.=.;.<.4.4.;.;.-.<.<.<.<.<.4.w.w.f.f.<.<.<.<.w.7.<.<.f.f.p.<.<.<.y.7.p.p.p.p.p.p.p.p.p.f.7.<.<.<.<.p.p.f.<.-.<.<.<.7.f.f.w.7.f.f.w.<.p.f.f.p.p.p.f.7.<.7.g.f.f.f.f.f.<.<.g.;XR.e.w.w.;.4.Y.oX#XoXR.w.7.w.t.t.e.2.<.<.,.,.<.-.-.*.^ A z < < < o , o . < ~ A 8 > 3.0.O.B B ' ..2.4.4.4.2.2.w.g.f.;.` 1.2.1...' N x x ..",
"N < 4.2.D B N N ' 2.4.w.4.-.-.;.4.4.4.4.4.2.2.=.' N x ' ^.g.8 % o o , , o o 8 c > = s z ` =.;.w.w.w.7.w.w.Y.t.e.g.f.<.-.<.<.<.;.<.<.<.<.<.-.-.-.<.y.<.<.-.-.-.;.=.=.=.;.<.<.<.;.=.=.=.;.;.<.<.<.<.<.<.<.<.<.w.<.<.<.<.<.<.;.[ [ ;.<.f.w.<.<.4.4.4.;.-.<.w.w.<.<.<.;.;.=._ _ =.<.;.;.;.-.-.=.' ' ' ..B g x D ' 1.1.' W ' 1.2.=.=.o.2.2.2.8   . * 7 A -.-.;.s s gXgXgXgXgXgXgXgXgXgXgXgXgXgXgXgXgXgXgXgXgXgXgXgXgXgXgXgXgXgXgXgXgXgXgXgXgXgXgXgXgXgXgXgXgXgXgXgXgXgXgXgXgXgXgXgXgXgXgXgXgXgXgXgXgXgXgXgXgXgXgXgXgXgXgXgXgXgXgXgXgXgXgXgXgXgXgXgXgXgXgXgXgXgXgXgXgXgXgXgXgXgXgXgXgXgXgXgXgXgXgXgXgXgXgXgXgXgXgXgXgXgXgXgXgXgXgXgXgXgXgXgXgXgXgXgXgXgXgXgXgXgXgXgXgXgXgXgXgXgXgXgXgXgXgXgXgXgXgXgXgXgXgXgXgXgXgXgXgXgXgXgXgXgXgXgXgXgXgXgXgXgXgXgXgXgXgXgXgXgXgXgXgXgXgXgXgXgXgXgXgXgXgXgXgXgXgXgXgXgXgXgXgXgXgXgXgXgXgXgXgXgXgXgXgXgXgXgXgXgX% gXgXgXgXgXgXgXgXgXgXgXgX$ $ o % s F d ` 4.-.^ < * % o z 2.2.` _ D _ N N ' 2.;.[ ` =.4.4.;.;.<.<.<.<.<.<.<.2.;.;.4.4.<.w.<.<.<.<.-.;.4.f.f.7.<.<.y.<.<.y.p.p.p.p.p.p.f.<.<.<.<.p.p.p.f.f.<.-.<.<.<.<.<.4.<.<.w.4.;.;.<.f.f.p.f.w.<.<.;.<.w.f.w.<.w.w.4.4.e.3XoXY.e.w.-.-.9.Y.R.L.e.w.7.t.,X4XoX0.2.;.,.,.<.<.<.-.^ A z < < < o , o . < V A 8 > 3.Y.O.D W ' 2.2.;.;.4.4.;.w.w.4.;.;.4.2.....D N M z ..",
"N , 2.=.D D ' ....2.2.4.4.4.;.<.4.w.w.4.4.4.;.=.' N N ' ^.g.8 % o o 8 , o % 8 0 > < z N 1.2.<.w.7.<.;.9.t.XXR.0.2.<.<.<.<.<.<.-.=.;.<.4.;.-.-.-.-.<.<.<.*.*.-.=.[ _ =.<.<.<.;.;.=.=.=.=.;.=.;.;.;.<.<.<.<.<.<.<.<.<.<.<.-.` N ' 2.2.w.<.;.;.4.4.4.;.f.w.w.w.4.<.;.;.=.' _ ' =.;.;.=.-.-.=.1.' N D { { B D ' ' =.' N D W ' 1.1.' ....1.2.8   o * 7 / =.<.=.< s = gXgXgXgXgXgXgXgXgXgXgXgXgXgXgXgXgXgXgXgXgXgXgXgXgXgXgXgXgXgXgXgXgXgXgXgXgXgXgXgXgXgXgXgXgXgXgXgXgXgXgXgXgXgXgXgXgXgXgXgXgXgXgXgXgXgXgXgXgXgXgXgXgXgXgXgXgXgXgXgXgXgXgXgXgXgXgXgXgXgXgXgXgXgXgXgXgXgXgXgXgXgXgXgXgXgXgXgXgXgXgXgXgXgXgXgXgXgXgXgXgXgXgXgXgXgXgXgXgXgXgXgXgXgXgXgXgXgXgXgXgXgXgXgXgXgXgXgXgXgXgXgXgXgXgXgXgXgXgXgXgXgXgXgXgXgXgXgXgXgXgXgXgXgXgXgXgXgXgXgXgXgXgXgXgXgXgXgXgXgXgXgXgXgXgXgXgXgXgXgXgXgXgXgXgXgXgXgXgXgXgXgXgXgXgXgXgXgXgXgXgXgXgXgXgXgXgXgXgXgXgXgXgXgXgXgXgXgXgXgXgXgX$ % % % < F x ` <./ 8 * * * o z 2.2._ D _ ` =.=.-.-.;.' [ =.2.=.[ [ <.<.<.<.<.<.<.;.[ -.4.4.<.<.<.<.<.<.<.<.<.7.f.f.4.f.f.<.<.y.y.p.f.f.y.p.f.<.<.<.f.f.f.p.p.<.-.-.<.<.f.<.<.;.;.;.-.;.-.<.7.f.f.f.f.w.<.<.8.4.<.<.<.w.w.w.4.2.e.T.0.e.w.8.w.9.w.2.....2.;.<.9.q.I.I.L.9.8.<.,.<.<.<.-.*.^ z < < 8 o , o . 8 ~ A 8 < 0.T.3.( =.2.w.g.g.f.f.w.;.4.4.4.4.4.4.2.1...D D m M ..",
"N < 2.2.W ....' =.2.4.4.4.w.4.4.4.w.f.4.<.4.4.=.' B B ' (.g.8 % o o 8 8 o o 8 0 > < z D =.2.<.<.<.;.-.;.9.0.0.2.2.<.<.<.<.<.=.-.-.-.=.;.-.-.-.-.-.<.<.<.-.-.-.;.[ _ ' ;.<.<.*.-.-.;.=.=.=.-.=.-.-.-.*.*.-.<.<.<.<.<.<.<.-.[ ` 2.2.' 2.<.;.4.4.4.4.w.f.4.<.<.;.;.;.-.=.2.' ' =.=.[ -.-.-.=.' N z B W ....' ' ' ..' ' ........1.' D ..2.2.A . o * 7 / =.<.-.1 s = gXgXgXgXgXgXgXgXgXgXgXgXgXgXgXgXgXgXgXgXgXgXgXgXgXgXgXgXgXgXgXgXgXgXgXgXgXgXgXgXgXgXgXgXgXgXgXgXgXgXgXgXgXgXgXgXgXgXgXgXgXgXgXgXgXgXgXgXgXgXgXgXgXgXgXgXgXgXgXgXgXgXgXgXgXgXgXgXgXgXgXgXgXgXgXgXgXgXgXgXgXgXgXgXgXgXgXgXgXgXgXgXgXgXgXgXgXgXgXgXgXgXgXgXgXgXgXgXgXgXgXgXgXgXgXgXgXgXgXgXgXgXgXgXgXgXgXgXgXgXgXgXgXgXgXgXgXgXgXgXgXgXgXgXgXgXgXgXgXgXgXgXgXgXgXgXgXgXgXgXgXgXgXgXgXgXgXgXgXgXgXgXgXgXgXgXgXgXgXgXgXgXgXgXgXgXgXgXgXgXgXgXgXgXgXgXgXgXgXgXgXgXgXgXgXgXgXgXgXgXgXgXgXgXgXgXgXgXgXgXgXgX& % o . < B z ^ <./ 0 8 7 * o 0 e.2.' _ V -.2.4.=.-.;.2.' ' ' ` ` -.<.<.<.<.<.<.<.;.;.;.4.<.-.-.<.<.<.w.f.w.4.<.<.<.4.f.f.<.-.<.<.p.f.7.<.<.<.<.<.<.7.p.p.p.<.-.-.-.;.<.4.<.-.4.;.;.;.<.<.f.f.f.f.f.w.<.8.w.g.w.<.<.<.w.w.w.4.2.0.0.0.2.w.;.9.2.[ m z m _ [ ;.;.2.o.0.I.R.t.w.-.-.<.<.-.*.^ M z z 8 # , o . 8 ^ A 8 1 0.R.3.` ;.4.w.w.f.f.z.g.w.4.4.4.w.w.4.4.1.D D D N z ' ",
"N < 4.2.......1.2.2.;.<.w.w.4.4.<.w.w.<.4.w.4.=.( x B ' ^.e.8 * o o 7 , o o 8 0 > < z D ' ;.<.<.<.;.;.;.;.2.;.<.<.<.<.<.<.-.-.-.=.' _ ` ;.;.<.-.-.<.<.<.-.-.>.-.[ _ ` =.-.-.-.` -.-.=.=.' [ ` ` ` ^ [ [ -.-.<.<.-.-.-.<.-.-.<.w.=.m ' <.<.4.4.4.w.f.w.4.;.=.;.;.=.-.;.2.1.2.1._ _ ` -.-.-.` N N ( ' ' ' ' ' ' _ _ -.=.=.' ' 1.' ' ..2.w./ . o * 7 / =.<.<.z s > gXgXgXgXgXgXgXgXgXgXgXgXgXgXgXgXgXgXgXgXgXgXgXgXgXgXgXgXgXgXgXgXgXgXgXgXgXgXgXgXgXgXgXgXgXgXgXgXgXgXgXgXgXgXgXgXgXgXgXgXgXgXgXgXgXgXgXgXgXgXgXgXgXgXgXgXgXgXgXgXgXgXgXgXgXgXgXgXgXgXgXgXgXgXgXgXgXgXgXgXgXgXgXgXgXgXgXgXgXgXgXgXgXgXgXgXgXgXgXgXgXgXgXgXgXgXgXgXgXgXgXgXgXgXgXgXgXgXgXgXgXgXgXgXgXgXgXgXgXgXgXgXgXgXgXgXgXgXgXgXgXgXgXgXgXgXgXgXgXgXgXgXgXgXgXgXgXgXgXgXgXgXgXgXgXgXgXgXgXgXgXgXgXgXgXgXgXgXgXgXgXgXgXgXgXgXgXgXgXgXgXgXgXgXgXgXgXgXgXgXgXgXgXgXgXgXgXgXgXgXgXgXgXgXgXgXgXgXgXgXgXgX& % o . < B z ^ <.-.*.r r , o 0 e.e.=.' D =.2.;.=.=.=.=.' ' ' ' =.=.-.-.<.<.<.<.<.4.4.4.<.-.;.-.;.<.<.p.f.7.<.<.<.;.<.p.p.<.<.<.<.p.p.<.<.<.<.<.<.<.-.<.<.p.<.<.-.-.-.<.<.;.;.;.;.;.4.w.w.f.f.p.f.f.7.<.7.w.f.w.w.w.4.w.w.w.4.2.0.t.e.9.w.;.2.' * % * < < 1 c ;.w.9.9.0.R.T.e.;.-.-.-.*.^ ^ M z 8 < # 9 o . < ^ ~ 8 < 3.T.3.' ;.4.<.7.f.k.z.f.g.4.4.w.w.w.f.4.' D D D N z ..",
"D , 4.2.......2.2.2.;.<.w.w.w.4.<.<.<.<.<.4.<.[ N B B ..^.e.8 % % % , , o % 8 c < < z D ' ;.4.<.<.<.;.;.8.w.8.<.<.<.<.<.<.=.^ ` ' ' A ` <.4.<.-.=.=.<.<.<.-.<.-.*.[ ` *.*.*.=.' _ _ ' _ D V D ` [ [ [ ;.;.-.*.*.;.*.-.<.<.<.y.f.-.~ =.<.<.f.4.<.<.f.w.4.;.=.=.=.=.-.-.` ' ..1._ V ` -.-.^ ^ ` ' ' _ N N _ ' ' ' _ =.;.=.' ' 2...' ..2.w./ . o # 7 / =.<.<.z s * gXgXgXgXgXgXgXgXgXgXgXgXgXgXgXgXgXgXgXgXgXgXgXgXgXgXgXgXgXgXgXgXgXgXgXgXgXgXgXgXgXgXgXgXgXgXgXgXgXgXgXgXgXgXgXgXgXgXgXgXgXgXgXgXgXgXgXgXgXgXgXgXgXgXgXgXgXgXgXgXgXgXgXgXgXgXgXgXgXgXgXgXgXgXgXgXgXgXgXgXgXgXgXgXgXgXgXgXgXgXgXgXgXgXgXgXgXgXgXgXgXgXgXgXgXgXgXgXgXgXgXgXgXgXgXgXgXgXgXgXgXgXgXgXgXgXgXgXgXgXgXgXgXgXgXgXgXgXgXgXgXgXgXgXgXgXgXgXgXgXgXgXgXgXgXgXgXgXgXgXgXgXgXgXgXgXgXgXgXgXgXgXgXgXgXgXgXgXgXgXgXgXgXgXgXgXgXgXgXgXgXgXgXgXgXgXgXgXgXgXgXgXgXgXgXgXgXgXgXgXgXgXgXgXgXgXgXgXgXgXgXgX$ % o . > v z ^ <.<.*.r e , o 0 w.w.=.' D ' =.=.[ =.=.' ' ' ' =.=.=.-.-.-.-.<.<.<.7.w.w.<.-.-.;.;.;.<.7.<.<.<.<.<.<.;.<.p.f.w.<.<.p.p.<.<.<.<.7.4.<.-.<.7.p.<.<.<.<.<.<.<.;.;.;.;.;.4.w.7.7.7.7.7.<.<.<.<.<.<.<.4.w.<.<.4.4.2.2.e.0.0.2.;.=.2.N o % = < > > 0 -.w.w.9.o.0.P.0.;.[ *.*.*.*.^ z z < < * 9 # . < ~ ~ 8 > 3.Y.3.' =.4.4.w.f.k.z.f.g.w.4.4.8.f.f.4.' D ..D N x ..",
"V , 4.2.W { D ..2.2.;.4.w.<.4.<.<.<.f.<.<.<.;.` D D z ../.e.8 % % % # , o o 8 c < s z m ` 2.<.<.<.;.;.;.2.w.w.;.<.-.-.-.=.-.' D D D D =.<.<.-.-.*.*.=.;.;.;.-.[ ` ` ' _ D _ _ _ v x x x x z N =.=.=.=.=.;.;.-.[ ;.[ ^ =.<.<.<.4.;.[ 1.<.<.4.<.<.;.w.w.<.2.=.' ' ' _ ' ' D D ..D D ` [ [ ~ ~ =.=.-.` _ N D =.=.' _ ' 2.' ' ..2...' ..2.w.*.. o o * A -.-.=.8 < % gXgXgXgXgXgXgXgXgXgXgXgXgXgXgXgXgXgXgXgXgXgXgXgXgXgXgXgXgXgXgXgXgXgXgXgXgXgXgXgXgXgXgXgXgXgXgXgXgXgXgXgXgXgXgXgXgXgXgXgXgXgXgXgXgXgXgXgXgXgXgXgXgXgXgXgXgXgXgXgXgXgXgXgXgXgXgXgXgXgXgXgXgXgXgXgXgXgXgXgXgXgXgXgXgXgXgXgXgXgXgXgXgXgXgXgXgXgXgXgXgXgXgXgXgXgXgXgXgXgXgXgXgXgXgXgXgXgXgXgXgXgXgXgXgXgXgXgXgXgXgXgXgXgXgXgXgXgXgXgXgXgXgXgXgXgXgXgXgXgXgXgXgXgXgXgXgXgXgXgXgXgXgXgXgXgXgXgXgXgXgXgXgXgXgXgXgXgXgXgXgXgXgXgXgXgXgXgXgXgXgXgXgXgXgXgXgXgXgXgXgXgXgXgXgXgXgXgXgXgXgXgXgXgXgXgXgXgXgXgXgXgX% o o . > v z V <.,.*.r 8 * . 0 w.w.1.' D ' ' ' _ [ =.' ' ' ' =.=.=.<.<.;.=.=.;.<.<.<.-.;.;.<.<.;.-.;.<.4.<.<.<.<.4.;.;.<.f.f.f.p.<.<.<.w.<.<.<.4.;.-.;.<.4.<.<.<.4.;.[ =.=.2.2.=.=.;.<.<.<.<.<.<.<.4.<.;.=.=.2.4.<.<.<.;.=.2.3.Y.0.0.=.[ [ ] f o * * < < 1 c [ ;.;.;.2.0.U.0.[ [ -.-.[ ^ V z 1 < > % , o . < V ~ 8 > 3.L.3.' =.4.w.f.f.h.z.f.f.f.w.4.w.w.w.2.......D D v 2.",
"V , 5.2.D D D ' 1.2.2.<.<.w.w.4.<.f.f.f.4.<.;.' D B f ..~.w.8 % % o % , o o 8 0 < < z z D ` -.-.-.-.-.=.;.w.w.4.;.-.*.*.-.[ _ N N D ' =.=.-.-.-._ [ =.=.=.' ' ' ' ' ....D N M v x s x B D v D ..1.1.1.1.1.=.=.=.' ` ` *.=.;.2.2.] ' 2.<.;.;.;.;.;.;.4.2.2.1.' N N m _ ' D x x x m N D V V ^ =.-.-.-.` _ ' ;.;.' ' ' ' ' ' ..2...' ..2.w.^ . # # 7 A *.-.-.< < $ gXgXgXgXgXgXgXgXgXgXgXgXgXgXgXgXgXgXgXgXgXgXgXgXgXgXgXgXgXgXgXgXgXgXgXgXgXgXgXgXgXgXgXgXgXgXgXgXgXgXgXgXgXgXgXgXgXgXgXgXgXgXgXgXgXgXgXgXgXgXgXgXgXgXgXgXgXgXgXgXgXgXgXgXgXgXgXgXgXgXgXgXgXgXgXgXgXgXgXgXgXgXgXgXgXgXgXgXgXgXgXgXgXgXgXgXgXgXgXgXgXgXgXgXgXgXgXgXgXgXgXgXgXgXgXgXgXgXgXgXgXgXgXgXgXgXgXgXgXgXgXgXgXgXgXgXgXgXgXgXgXgXgXgXgXgXgXgXgXgXgXgXgXgXgXgXgXgXgXgXgXgXgXgXgXgXgXgXgXgXgXgXgXgXgXgXgXgXgXgXgXgXgXgXgXgXgXgXgXgXgXgXgXgXgXgXgXgXgXgXgXgXgXgXgXgXgXgXgXgXgXgXgXgXgXgXgXgXgXgXgXgX* % o o < N z A -.<.*.r 8 * . 8 w.w.1.' D ' ' _ _ _ ' ' ' ..1.' =.=.4.4.2.' ' =.2.=.[ -.;.w.f.w.4.;.;.;.4.w.4.<.<.;.2.2.=.;.w.g.4.;.;.<.4.<.;.=.=.=.;.2.w.2.;.;.;.=._ ( ( _ ' ..' ' ] =.2.2.4.2.;.2.2.2.=.' ' =.2.2.=.=.=.2.o.2.0.3.9.] [ [ =.z . * > < < 8 c [ =.;.=.o.0.E.0.=.-.=.-.` ^ A z 1 1 : o * . . , ~ ^ 8 > 3.T.H.' ' ;.4.f.h.z.f.f.f.f.f.w.7.4.2.3.O.....' D N 2.",
"V , 5.2.N D ' ' ' 2.2.w.w.w.w.<.<.w.f.4.<.<.;.' D D z ..~.5.8 # % o * < o o 8 z < s x x D ' ' _ ' ' -.-.;.4.w.<.<.-.*.*.*.*.` V m N ' =.-.-.-.^ [ [ [ ' ' ' ' ' ' ' ' ' D M z N z x B W W D W ' ' ' _ ' _ _ _ _ m ~ ` [ -.;.;.=.[ ` -.;.;.-.-.;.;.-.;.;.=.=.` D m m D ' N z z v M M m V ~ ^ *.-.-.[ ` ' ' ' ' W ( _ ' ' W W ' D D ..2.5.~ . # # 8 / *.-.*.< > $ gXgXgXgXgXgXgXgXgXgXgXgXgXgXgXgXgXgXgXgXgXgXgXgXgXgXgXgXgXgXgXgXgXgXgXgXgXgXgXgXgXgXgXgXgXgXgXgXgXgXgXgXgXgXgXgXgXgXgXgXgXgXgXgXgXgXgXgXgXgXgXgXgXgXgXgXgXgXgXgXgXgXgXgXgXgXgXgXgXgXgXgXgXgXgXgXgXgXgXgXgXgXgXgXgXgXgXgXgXgXgXgXgXgXgXgXgXgXgXgXgXgXgXgXgXgXgXgXgXgXgXgXgXgXgXgXgXgXgXgXgXgXgXgXgXgXgXgXgXgXgXgXgXgXgXgXgXgXgXgXgXgXgXgXgXgXgXgXgXgXgXgXgXgXgXgXgXgXgXgXgXgXgXgXgXgXgXgXgXgXgXgXgXgXgXgXgXgXgXgXgXgXgXgXgXgXgXgXgXgXgXgXgXgXgXgXgXgXgXgXgXgXgXgXgXgXgXgXgXgXgXgXgXgXgXgXgXgXgXgXgXgX* % % o < v s c -.<.-.r 7 # . 0 w.w.' N N ' ' ' ' N m _ _ ` ` ^ *.-.<.<.<.;.-.-.-.[ [ ;.;.<.7.w.w.<.-.<.<.w.w.<.<.;.2.4.;.<.w.4.<.=.-.<.<.-.-.-.-.-.;.<.4.4.;.;.;.;.=.] _ _ ' ' ' D ' ' ' =.2.=.=.=.=.-.[ _ [ [ =.=.=.=.=.=.' ' ' ..o...' _ ` z * < 1 s s M V -.;.;.;.2.2.0.o.[ [ *.[ ~ ~ c 8 8 8 , o # . . , ~ ^ 8 > 3.T.H.W _ ;.4.w.f.f.f.f.f.f.f.f.w.2.o.O.O.O...` m m 2.",
"m , 4.2.N ' ' ..' 2.w.w.w.4.2.;.<.<.w.<.4.<.;.' ' D x 2.^.w.8 % * * * , . % < 1 < s d d g B B B B { ' ..2.2.o.' ' ` ` ` ` _ ' ' D D { ........' ' D x x B F F ....H D B B B g g g g { { { { { { { { { { ....W B B ( ......6.......' ' 2.2.2.2.2.2.2.o.............{ B F { { { F { { { ..' ' ' ..................W ( _ ' ' D M M N ..2.5.V . # # 8 *.*.*.^ < = $ gXgXgXgXgXgXgXgXgXgXgXgXgXgXgXgXgXgXgXgXgXgXgXgXgXgXgXgXgXgXgXgXgXgXgXgXgXgXgXgXgXgXgXgXgXgXgXgXgXgXgXgXgXgXgXgXgXgXgXgXgXgXgXgXgXgXgXgXgXgXgXgXgXgXgXgXgXgXgXgXgXgXgXgXgXgXgXgXgXgXgXgXgXgXgXgXgXgXgXgXgXgXgXgXgXgXgXgXgXgXgXgXgXgXgXgXgXgXgXgXgXgXgXgXgXgXgXgXgXgXgXgXgXgXgXgXgXgXgXgXgXgXgXgXgXgXgXgXgXgXgXgXgXgXgXgXgXgXgXgXgXgXgXgXgXgXgXgXgXgXgXgXgXgXgXgXgXgXgXgXgXgXgXgXgXgXgXgXgXgXgXgXgXgXgXgXgXgXgXgXgXgXgXgXgXgXgXgXgXgXgXgXgXgXgXgXgXgXgXgXgXgXgXgXgXgXgXgXgXgXgXgXgXgXgXgXgXgXgXgXgXgX% % % o * z < c <.<.*.r 9 # . 0 w.9...N N ' ' ....D v m D ' D D ` ` =.2.2.=.' ' [ ^ [ =.2.2.2.0.2.2.=.=.2.2.2.2.o.' ..2.2.2.2.2.2.2.2.2.2.2.;.;.;.;.2.2.2.2.2.1.2.2.2.o.....X.X.........o.o.o.o.o.2.2.......o.2.2.2.6.....2.......{ X.O.O.....' c V V ' _ N D =.;.;.2.9.2.o..._ [ [ ^ E m M z z 8 * o , % . , ~ ^ 8 > 3.P.O.D _ =.;.w.w.f.g.g.f.f.f.z.g.2.o.O.O.3.2.' m m 2.",
"m * 4.2.' ' ' ' ' 2.w.4.;.;.;.;.;.<.<.<.4.;.-.` N D B 2.^.5.8 * , 8 , , * 8 V D D ..X.{ { F { X.X.X.} n.b.m.m.m.m.m.m.H.H.H.H.J.M.m.Z.Z.N.M.Z.M.M.b.v.v.M.M.M.b.b.v.} } } v.} } G } n.M.m.M.M.n.n.m.H.J.P.m.} G O.H.H.H.P.J.H.H.H.m.m.H.P.P.P.P.P.P.m.m.m.M.M.m.N.M.m.b.Z.W.W.W.W.W.P.Z.L.P.P.T.R.T.Y.T.T.T.T.3.o...' ....o.' ' D ' 1.2.m . # # 7 r *.*.^ > = . gXgXgXgXgXgXgXgXgXgXgXgXgXgXgXgXgXgXgXgXgXgXgXgXgXgXgXgXgXgXgXgXgXgXgXgXgXgXgXgXgXgXgXgXgXgXgXgXgXgXgXgXgXgXgXgXgXgXgXgXgXgXgXgXgXgXgXgXgXgXgXgXgXgXgXgXgXgXgXgXgXgXgXgXgXgXgXgXgXgXgXgXgXgXgXgXgXgXgXgXgXgXgXgXgXgXgXgXgXgXgXgXgXgXgXgXgXgXgXgXgXgXgXgXgXgXgXgXgXgXgXgXgXgXgXgXgXgXgXgXgXgXgXgXgXgXgXgXgXgXgXgXgXgXgXgXgXgXgXgXgXgXgXgXgXgXgXgXgXgXgXgXgXgXgXgXgXgXgXgXgXgXgXgXgXgXgXgXgXgXgXgXgXgXgXgXgXgXgXgXgXgXgXgXgXgXgXgXgXgXgXgXgXgXgXgXgXgXgXgXgXgXgXgXgXgXgXgXgXgXgXgXgXgXgXgXgXgXgXgXgXgX% % % o * z < V <.-.*.r 9 # . 0 w.e.0.3.2.2.2.2.2.....} O.m.n.O.O.X.O.O.O.O.O.O.O.O.O.O.m.P.Q.Q.U.E.T.Y.Y.T.E.P.L.L.L.P.E.E.U.P.P.P.P.P.P.Y.3.L.L.Y.Y.P.P.P.L.L.P.T.P.P.P.C.m.O.O.O.O.m.H.H.H.L.P.P.P.m.M.M.M.P.T.!.P.J.M.m.M.M.m.H.L.L.L.L.L.L.~.^.^./.^.3.3.o.O.X.C.U.U.P.m.....o.....X.....v z * % 8 * . , A ~ 8 > 3.P.O.D ' =.;.4.w.f.f.f.f.f.f.f.f.2.o...X.2.1.` c z 2.",
"m , 4.2.' ....' 2.2.2.;.=.;.;.<.<.<.<.<.;.-.-.' D N x ..Y.2.< * 8 c 0 8 o * c m N ............O.O...X.O.H.P.L.L.L.m.O.O.O.O.m.m.n.n.m.M.m.b.n.n.} } } v.n.b.b.J.M.n.} } n.n.n.n.} } n.M.J.H.H.m.m.m.H.J.H.X.G X.3.K.H.K.L.H.L.P.L.L.L.L.L.P.P.P.P.P.m.m.m.H.H.H.m.O.X.}  .m.L.J.H.m.O.X.X.O.H.K.K.3.3.3.H.H.H.3.2.....' ' 2.2.2.' ' ' 2.c   o o , r *.-.^ * % $ gXgXgXgXgXgXgXgXgXgXgXgXgXgXgXgXgXgXgXgXgXgXgXgXgXgXgXgXgXgXgXgXgXgXgXgXgXgXgXgXgXgXgXgXgXgXgXgXgXgXgXgXgXgXgXgXgXgXgXgXgXgXgXgXgXgXgXgXgXgXgXgXgXgXgXgXgXgXgXgXgXgXgXgXgXgXgXgXgXgXgXgXgXgXgXgXgXgXgXgXgXgXgXgXgXgXgXgXgXgXgXgXgXgXgXgXgXgXgXgXgXgXgXgXgXgXgXgXgXgXgXgXgXgXgXgXgXgXgXgXgXgXgXgXgXgXgXgXgXgXgXgXgXgXgXgXgXgXgXgXgXgXgXgXgXgXgXgXgXgXgXgXgXgXgXgXgXgXgXgXgXgXgXgXgXgXgXgXgXgXgXgXgXgXgXgXgXgXgXgXgXgXgXgXgXgXgXgXgXgXgXgXgXgXgXgXgXgXgXgXgXgXgXgXgXgXgXgXgXgXgXgXgXgXgXgXgXgXgXgXgXgX% % % o * z = c =.-.*.r 9 o . 0 w.e.0.Y.3.3.3.3.o.....X.m.H.m.m.m.n.m.m.H.H.3.3.3.3.O.O.L.T.E.E.P.T.T.T.Y.T.T.L.L.L.L.L.Y.Y.L.L.Y.Y.Y.P.T.Y.L.0.L.Y.P.P.P.O.O.H.L.L.P.L.L.m.| { { X.3.L.T.L.K.L.T.T.P.H.m.n.m.P.P.E.R.L.m.m.M.H.H.3.3.3.3.K.K.L.R./././.R.3.o.o.3.m.P.#XQ.Q.m.....6.....X.....x z < % 9 * . , c A 8 > 3.T.H.{ ' =.;.2.g.f.f.f.g.w.w.w.w.<.2.o.6...' V m z 2.",
"m , w.5.' ..=.2.2.=.=.2.w.w.4.4.w.f.<.<.;.-.;.2...' z ' 0...< * 8 r e 9   . , < > < s z m _ _ D N D _ ` ' ' ' ` D m m m ~ _ ' ' N M N ' ..' N v z z x N D N N D v s s s x x s s s u f g B W W B B B B B g f x N ' D ' _ V Z ` =.[ ` [ =.=.2.2.2.2.2.' ` ` ` ` ` ` ` ` _ _ ' ' ' =.=.[ ` ` *.=.1...........{ ..' ..1.' ~ _ ' ' _ D ' ..2.m   # # , r ^ ^ V % % $ gXgXgXgXgXgXgXgXgXgXgXgXgXgXgXgXgXgXgXgXgXgXgXgXgXgXgXgXgXgXgXgXgXgXgXgXgXgXgXgXgXgXgXgXgXgXgXgXgXgXgXgXgXgXgXgXgXgXgXgXgXgXgXgXgXgXgXgXgXgXgXgXgXgXgXgXgXgXgXgXgXgXgXgXgXgXgXgXgXgXgXgXgXgXgXgXgXgXgXgXgXgXgXgXgXgXgXgXgXgXgXgXgXgXgXgXgXgXgXgXgXgXgXgXgXgXgXgXgXgXgXgXgXgXgXgXgXgXgXgXgXgXgXgXgXgXgXgXgXgXgXgXgXgXgXgXgXgXgXgXgXgXgXgXgXgXgXgXgXgXgXgXgXgXgXgXgXgXgXgXgXgXgXgXgXgXgXgXgXgXgXgXgXgXgXgXgXgXgXgXgXgXgXgXgXgXgXgXgXgXgXgXgXgXgXgXgXgXgXgXgXgXgXgXgXgXgXgXgXgXgXgXgXgXgXgXgXgXgXgXgXgX% o o . * s & 8 ^ *./ r 9 # . 0 2.o.............' ' ' _ ' ......{ ..' ' 1.2.=.` _ ' ' ` =.2.2.;.=.;.;.;.-.;.-.-.-.-.;.;.-.-.-.-.=.=.2.2.=.-.` ~ ~ ` ' ...._ [ [ [ [ ' ' W D D ' ' ' ' ..o.' _ _ ' ' ' ' _ _ _ ' 2.2.2.=.' ......' ' ' ' ..2.......3.o.o...W B _ 2.o.o.O.O.X.' ~ ^ ~ E v z z s < 1 , # 9 # . , A A 8 1 3.P.O.W ' 2.4.w.f.g.f.g.g.w.w.w.w.w.4.2.2.2.' ` _ m 2.",
"V * w.5.' ' =....._ ' 2.5.;.<.4.<.p.7.<.<.<.<.<.-.[ m ..Y.2.8 * 8 e 9 ,   o < z < < s z M V V ~ ^ *.*.*.*.*.-.-.*.~ ^ -.-.` ` ` ^ A r c ~ ^ ` ` c 0 c V V m m m m m m c V D z s 1 f z m V ~ V V A A A c c z c A ~ ^ -.-.^ / ^ -.-.*.-.-.<.<.<.<.<.<.*.*.*.-.*.*.*.*.*.*.^ [ -.[ -.-.;.;.[ ^ ^ -.=.2.=.` ' ' ' -.;.4.2.` m N W z x ..' 2.c . o # , 0 r A c $ < o gXgXgXgXgXgXgXgXgXgXgXgXgXgXgXgXgXgXgXgXgXgXgXgXgXgXgXgXgXgXgXgXgXgXgXgXgXgXgXgXgXgXgXgXgXgXgXgXgXgXgXgXgXgXgXgXgXgXgXgXgXgXgXgXgXgXgXgXgXgXgXgXgXgXgXgXgXgXgXgXgXgXgXgXgXgXgXgXgXgXgXgXgXgXgXgXgXgXgXgXgXgXgXgXgXgXgXgXgXgXgXgXgXgXgXgXgXgXgXgXgXgXgXgXgXgXgXgXgXgXgXgXgXgXgXgXgXgXgXgXgXgXgXgXgXgXgXgXgXgXgXgXgXgXgXgXgXgXgXgXgXgXgXgXgXgXgXgXgXgXgXgXgXgXgXgXgXgXgXgXgXgXgXgXgXgXgXgXgXgXgXgXgXgXgXgXgXgXgXgXgXgXgXgXgXgXgXgXgXgXgXgXgXgXgXgXgXgXgXgXgXgXgXgXgXgXgXgXgXgXgXgXgXgXgXgXgXgXgXgXgXgX% o o . % s & = A A A r 7 # . 8 ;.[ N D ....' _ [ -.=._ ~ ~ ^ ^ _ ` ` ` =.-.-.*.*.-.<.<.<.<.-.-.*.-.<.<.-.-.-.-.-.-.<.7.<.-.-.;.<.<.<.-.-.*.-.-.*.*.-.-.;.*.*.*.-.-.-.-.;.[ [ -.*.^ ^ [ *.*./ / *.=.-.-.-./ A *.-.<.<.<.-.=.=.-.*.[ *.;.;.2.=.0 8 < < < 1 < 8 E 2.2.-.-.=.[ [ [ *./ ~ c 0 1 > > < , . , # O , ^ ^ 8 1 3.O.{ B ' 2.2.w.5.w.w.g.g.f.w.w.f.w.<.w.4.=.*.^ D N 2.",
"c * w.2.N _ ` ' ' ' ' 2.2.;.<.w.w.p.7.7.7.<.<.<.=.[ m ..t.5.8 * 8 r r 7   . < z > < s z z z V ` [ [ *.-.*.*.-.;.-.^ ^ -.-.` ^ ^ ^ A c ~ =.=.-.` V A ~ ^ V V m m V V V V ` =.N M m _ ` ` ^ ^ ^ ^ ^ ` [ ` ^ ~ V A ^ -.-.-.*.*.*.;.-.-.-.<.<.f.f.<.<.<.-.-.-.<.<.-.,.<.-.-.*.*.-.-.-.-.;.;.-.-.*.-.<.4.=.` -.=.=.;.4.5.2.' N N B x x D ' 2.8 O . o , 0 r A c $ < o gXgXgXgXgXgXgXgXgXgXgXgXgXgXgXgXgXgXgXgXgXgXgXgXgXgXgXgXgXgXgXgXgXgXgXgXgXgXgXgXgXgXgXgXgXgXgXgXgXgXgXgXgXgXgXgXgXgXgXgXgXgXgXgXgXgXgXgXgXgXgXgXgXgXgXgXgXgXgXgXgXgXgXgXgXgXgXgXgXgXgXgXgXgXgXgXgXgXgXgXgXgXgXgXgXgXgXgXgXgXgXgXgXgXgXgXgXgXgXgXgXgXgXgXgXgXgXgXgXgXgXgXgXgXgXgXgXgXgXgXgXgXgXgXgXgXgXgXgXgXgXgXgXgXgXgXgXgXgXgXgXgXgXgXgXgXgXgXgXgXgXgXgXgXgXgXgXgXgXgXgXgXgXgXgXgXgXgXgXgXgXgXgXgXgXgXgXgXgXgXgXgXgXgXgXgXgXgXgXgXgXgXgXgXgXgXgXgXgXgXgXgXgXgXgXgXgXgXgXgXgXgXgXgXgXgXgXgXgXgXgXgXgXo o . * z = * 0 A r r , o . 0 ;.] _ D H ..N _ =.;.;.=.[ [ -.-.[ ` ` -.;.<.-.-.-.<.<.<.<.<.<.<.-.<.<.<.<.<.<.<.-.-.<.w.<.<.<.<.<.<.<.<.<.<.<.<.<.-.;.<.;.-.-.-.;.;.-.;.;.;.-.;.-.;.-.-.-.-.-.-.<.<.<.<.<.-.-.-.<.<.<.<.<.<.-.-.-.;.-.-.;.2.=.0 * * * * * , 8 _ 9.5.-.;.=.[ [ -.*.[ ^ V c z < < < , o 8 # O < ` ` 8 1 3.O...' ..2.2.2.4.4.w.f.f.g.r.g.h.g.w.w.4.;.-.-.` N 2.",
"c * 5.2.m D ` ` ' ' 2.2.;.;.<.w.7.<.<.f.f.7.<.-.-.[ m ' t.w.0 , 9 r A 9   . , 8 > = s s s z m ` [ [ -.=.=.*.-.-.-.*.-.-.[ ^ ^ ^ ^ ^ ^ ;.2.2.' [ [ ` -.=.` ~ _ ` _ D ~ ` ` *.D D ` =.-.*.*.*.*.*.*.*.-.*.^ ^ ^ *.*.-.-.-.-.-.-.<.;.-.-.<.f.f.<.<.<.<.<.<.<.<.<.<.<.<.<.-.=.-.-.<.-.;.;.=.-.;.-.-.;.;.-.*.;.<.4.;.;.=.' D B x x x z x ' 2.8 . . . * 8 0 A c % < o   gXgXgXgXgXgXgXgXgXgXgXgXgXgXgXgXgXgXgXgXgXgXgXgXgXgXgXgXgXgXgXgXgXgXgXgXgXgXgXgXgXgXgXgXgXgXgXgXgXgXgXgXgXgXgXgXgXgXgXgXgXgXgXgXgXgXgXgXgXgXgXgXgXgXgXgXgXgXgXgXgXgXgXgXgXgXgXgXgXgXgXgXgXgXgXgXgXgXgXgXgXgXgXgXgXgXgXgXgXgXgXgXgXgXgXgXgXgXgXgXgXgXgXgXgXgXgXgXgXgXgXgXgXgXgXgXgXgXgXgXgXgXgXgXgXgXgXgXgXgXgXgXgXgXgXgXgXgXgXgXgXgXgXgXgXgXgXgXgXgXgXgXgXgXgXgXgXgXgXgXgXgXgXgXgXgXgXgXgXgXgXgXgXgXgXgXgXgXgXgXgXgXgXgXgXgXgXgXgXgXgXgXgXgXgXgXgXgXgXgXgXgXgXgXgXgXgXgXgXgXgXgXgXgXgXgXgXgXgXgXgXgXo o . * M > * 0 r r e , o . 8 2.=.( D D ..N _ =.;.;.=.[ =.;.=.[ ` A ^ -.-.<.<.<.<.<.<.<.<.<.<.<.<.<.<.<.<.<.4.<.<.<.<.<.<.<.<.7.p.p.<.<.<.7.7.<.<.<.<.<.<.<.<.<.<.-.<.<.-.<.<.<.<.<.;.;.;.;.<.<.<.<.<.<.<.<.<.<.w.w.<.w.<.<.<.<.;.<.<.;.2.2.0 # # # % * , 0 ] 9.2.-.*.;.-.-.-.*.*.[ ~ V z < < < , o 8 # O , ` -.8 1 3.3.3...' 2.2.w.w.f.f.f.f.g.w.w.g.h.w.w.w.w.w.=.D N 2.",
"M * 4.2.m _ -.=.=.;.4.4.;.<.7.f.p.<.<.p.f.p.<.<.-.-.V ' t.w.0 * 9 r A 7   . , 8 = & s s x z m ` [ -.=.=.=.*.*.-.*.-.;.;.-.^ ^ [ -.-.;.;.2.=.[ =.;.;.;.;.-.^ ` ` ` ` [ -.-.-.D V ` -.-.*.-.*.-.=.*.*.*.*.*.-.-.*.*.-.<.-.-.;.<.4.;.-.-.w.f.w.<.<.<.w.<.<.<.7.7.<.<.7.<.<.-.<.<.<.<.;.;.-.;.;.;.<.;.;.-.-.<.<.<.-.-.` D N N D D x s x ' ' * O O . * 8 A ^ 0 % 1 o   gXgXgXgXgXgXgXgXgXgXgXgXgXgXgXgXgXgXgXgXgXgXgXgXgXgXgXgXgXgXgXgXgXgXgXgXgXgXgXgXgXgXgXgXgXgXgXgXgXgXgXgXgXgXgXgXgXgXgXgXgXgXgXgXgXgXgXgXgXgXgXgXgXgXgXgXgXgXgXgXgXgXgXgXgXgXgXgXgXgXgXgXgXgXgXgXgXgXgXgXgXgXgXgXgXgXgXgXgXgXgXgXgXgXgXgXgXgXgXgXgXgXgXgXgXgXgXgXgXgXgXgXgXgXgXgXgXgXgXgXgXgXgXgXgXgXgXgXgXgXgXgXgXgXgXgXgXgXgXgXgXgXgXgXgXgXgXgXgXgXgXgXgXgXgXgXgXgXgXgXgXgXgXgXgXgXgXgXgXgXgXgXgXgXgXgXgXgXgXgXgXgXgXgXgXgXgXgXgXgXgXgXgXgXgXgXgXgXgXgXgXgXgXgXgXgXgXgXgXgXgXgXgXgXgXgXgXgXgXgXgXgX. o . * V < * 0 0 9 9 9 # . 8 2.=.N x F ..D _ =.=.-.V ~ -.;.;.-.[ A A ^ ;.-.<.<.<.<.<.<.<.<.w.<.<.<.<.<.<.w.w.w.w.<.<.<.<.<.<.7.p.7.7.7.p.f.f.<.<.7.w.w.f.w.7.f.<.<.4.<.<.<.f.f.w.<.;.=.;.<.7.<.<.<.<.<.<.7.<.7.f.f.f.f.f.<.<.<.7.p.<.=.2.2._ 7 7 9 8 0 c ^ 2.9.;.*.*.*.-.-.-.-.-.[ ~ m z < > < , . * o O < [ -.0 1 3.0.0.o.' ;.w.g.h.h.f.f.f.g.<.<.w.g.<.7.w.w.w.=.N x 2.",
"M * 4.2.D ` -.-.-.w.w.4.<.w.p.p.p.7.<.<.p.p.<.<.-.-.V 1.t.5.8 * 7 e A ,   . * < = & s B D N D ` ^ -.*.=.-.-.*.-.-.-.;.<.;.-.^ -.-.-.;.;.` ~ [ =.;.;.4.<.=.-.-.=.=.;.=.-.-.=.` ^ ^ -.*.*.*.*.-.=.*.*.*.*.*.-.;.-.-.;.<.-.-.<.w.w.<.;.<.f.f.<.<.<.f.<.<.<.7.p.7.<.<.<.<.<.<.w.w.<.;.-.*.;.;.<.<.4.<.-.-.<.4.<.<.-.-.' ' ' ..' ..v s x ' D * O   . , 8 8 0 , % 8 .   gXgXgXgXgXgXgXgXgXgXgXgXgXgXgXgXgXgXgXgXgXgXgXgXgXgXgXgXgXgXgXgXgXgXgXgXgXgXgXgXgXgXgXgXgXgXgXgXgXgXgXgXgXgXgXgXgXgXgXgXgXgXgXgXgXgXgXgXgXgXgXgXgXgXgXgXgXgXgXgXgXgXgXgXgXgXgXgXgXgXgXgXgXgXgXgXgXgXgXgXgXgXgXgXgXgXgXgXgXgXgXgXgXgXgXgXgXgXgXgXgXgXgXgXgXgXgXgXgXgXgXgXgXgXgXgXgXgXgXgXgXgXgXgXgXgXgXgXgXgXgXgXgXgXgXgXgXgXgXgXgXgXgXgXgXgXgXgXgXgXgXgXgXgXgXgXgXgXgXgXgXgXgXgXgXgXgXgXgXgXgXgXgXgXgXgXgXgXgXgXgXgXgXgXgXgXgXgXgXgXgXgXgXgXgXgXgXgXgXgXgXgXgXgXgXgXgXgXgXgXgXgXgXgXgXgXgXgXgXgXgXgX  . . * V < * 8 , , 9 , # . 8 =.' x x { ....' ' ` ^ ~ ^ -.;.;.;.=.-.^ ^ *.-.<.<.<.<.<.<.<.7.f.f.f.f.f.w.<.<.4.<.4.4.4.<.<.<.<.7.7.7.7.7.7.f.p.7.p.f.f.f.f.f.f.f.w.<.w.w.<.7.f.f.w.<.-.-.;.<.7.<.<.7.7.w.f.f.f.p.p.f.f.f.f.p.<.7.f.h.<.=.o.2.2.;.;.2.2.2.=.[ 2.9.;.-.-.-.-.[ -.-.=.-.~ c z s > < , . # o O < [ =.0 1 3.3.0.2.=.w.f.z.z.h.f.f.k.f.w.<.w.f.<.<.w.w.4.[ z z 2.",
"M * 4.2.D ` ;.<.<.w.w.<.w.f.p.p.p.w.<.<.<.p.p.<.-.-.V ' t.2.8 * 7 e / ,   . * = & & s z x N m ~ / / *.-.-.*.*.*.;.-.-.;.-.-.-.-.-.;.;.-.V ^ [ -.;.;.<.<.-.-.-.;.;.;.=.-.-.-.-.^ ^ -.-.*./ *.=.-.*.*.-.*.*.-.;.;.<.<.-.-.-.<.4.4.<.<.4.<.<.<.<.<.p.<.7.7.7.p.7.<.<.<.<.-.<.w.w.<.-.*.*.-.<.<.<.<.;.-.;.<.<.<.<.-.=.' ' ' ' ' W x s z ' V * #   . # * * , * * c .     gXgXgXgXgXgXgXgXgXgXgXgXgXgXgXgXgXgXgXgXgXgXgXgXgXgXgXgXgXgXgXgXgXgXgXgXgXgXgXgXgXgXgXgXgXgXgXgXgXgXgXgXgXgXgXgXgXgXgXgXgXgXgXgXgXgXgXgXgXgXgXgXgXgXgXgXgXgXgXgXgXgXgXgXgXgXgXgXgXgXgXgXgXgXgXgXgXgXgXgXgXgXgXgXgXgXgXgXgXgXgXgXgXgXgXgXgXgXgXgXgXgXgXgXgXgXgXgXgXgXgXgXgXgXgXgXgXgXgXgXgXgXgXgXgXgXgXgXgXgXgXgXgXgXgXgXgXgXgXgXgXgXgXgXgXgXgXgXgXgXgXgXgXgXgXgXgXgXgXgXgXgXgXgXgXgXgXgXgXgXgXgXgXgXgXgXgXgXgXgXgXgXgXgXgXgXgXgXgXgXgXgXgXgXgXgXgXgXgXgXgXgXgXgXgXgXgXgXgXgXgXgXgXgXgXgXgXgXgXgXgXgX    * c > % * * , 8 * . . < =.( z B { ..' ' _ ` [ -.-.-.;.;.=.=.2.;.-.-.-.<.<.<.<.<.<.<.<.p.p.f.f.f.g.<.-.-.=.' =.;.<.<.<.<.<.<.<.p.p.<.<.<.p.p.p.p.p.f.f.f.f.f.<.f.f.w.w.f.f.<.;.;.-.;.<.<.<.<.7.7.f.f.f.f.p.7.7.f.f.f.7.7.7.z.z.f.2.2.3.e.e.j.e.e.w.;.-.;.2.<.<.<.8.;.[ [ -.=.-.V z z s < < < o * o   , [ -.8 1 3.3.0.2.;.g.f.k.z.k.k.k.k.f.p.<.w.f.7.f.w.w.4.[ N z 2.",
"M * 5.2.D [ ;.4.i.f.4.;.w.g.f.p.f.g.7.<.p.f.p.<.-.-.V ' t.2.< * 7 r / ,   . * = & = s < s z V ^ ^ ^ =.<.<.-.*.*.=.-.*.*.-.-.-.-.;.w.4.;.-.=.;.[ -.;.<.<.<.;.-.;.-.^ [ ;.;.;.=.^ ^ ;.<.;.-.-.<.<.-.-.<.-.-.-.=.-.=.;.;.-.-.<.<.<.<.<.w.f.<.<.<.<.f.f.7.7.f.7.7.<.<.<.-.-.<.4.4.;.-.;.<.-.<.<.<.<.;.-.<.<.;.<.4.4.2.' _ N N N d z z z ' _ < #     o # * , * * m o       gXgXgXgXgXgXgXgXgXgXgXgXgXgXgXgXgXgXgXgXgXgXgXgXgXgXgXgXgXgXgXgXgXgXgXgXgXgXgXgXgXgXgXgXgXgXgXgXgXgXgXgXgXgXgXgXgXgXgXgXgXgXgXgXgXgXgXgXgXgXgXgXgXgXgXgXgXgXgXgXgXgXgXgXgXgXgXgXgXgXgXgXgXgXgXgXgXgXgXgXgXgXgXgXgXgXgXgXgXgXgXgXgXgXgXgXgXgXgXgXgXgXgXgXgXgXgXgXgXgXgXgXgXgXgXgXgXgXgXgXgXgXgXgXgXgXgXgXgXgXgXgXgXgXgXgXgXgXgXgXgXgXgXgXgXgXgXgXgXgXgXgXgXgXgXgXgXgXgXgXgXgXgXgXgXgXgXgXgXgXgXgXgXgXgXgXgXgXgXgXgXgXgXgXgXgXgXgXgXgXgXgXgXgXgXgXgXgXgXgXgXgXgXgXgXgXgXgXgXgXgXgXgXgXgXgXgXgXgXgXgX    * c = . o * 8 r 8 .   , =._ z x { ..W ( _ [ 2.-.-.-.<.4.2.;.;.;.;.;.<.<.-.<.7.p.7.<.<.p.f.f.f.f.<.;.;.=.' ' ' ' ;.<.<.<.<.<.<.7.<.<.<.y.p.f.f.p.p.p.f.f.f.p.7.w.f.w.7.7.w.<.;.;.<.<.<.7.<.<.<.7.w.f.p.f.f.p.7.f.f.7.7.7.7.z.x.z.r.2.2.w.w.e.5.2.=.-.-.;.;.w.f.f.g.4.[ ^ ` ` V z z z s < < < % 7 # O , [ -.0 1 3.K.K...2.g.f.k.k.z.z.k.k.k.f.w.w.f.h.h.f.f.5.=.D N 2.",
"A * 5.2.D ` ;.<.w.w.<.-.-.4.p.f.f.f.a.p.p.p.p.<.*.Z m =.e.;.8 * 7 r r *   . * = % & s s z c A ^ *.*.*.-.=./ ^ -.[ ~ m ~ *.*.^ *.;.<.<.=.-.-.-.-.-.-.-.;.-.-.-.Z V V ` ` ` -.V ` =.;.;.=.-.*.*.=.=.-.;.-.*.` _ D _ _ _ ^ ` =.=.-.;.<.<.;.<.<.<.<.<.;.-.<.<.<.<.,.-.-.-.*.*.;.=.=.=.;.2.' =.;.-.;.*.-.;.;.;.=.=.;.=.` D x x z z z < z ' ` 1 *     . * 8 8 * * 0 .           gXgXgXgXgXgXgXgXgXgXgXgXgXgXgXgXgXgXgXgXgXgXgXgXgXgXgXgXgXgXgXgXgXgXgXgXgXgXgXgXgXgXgXgXgXgXgXgXgXgXgXgXgXgXgXgXgXgXgXgXgXgXgXgXgXgXgXgXgXgXgXgXgXgXgXgXgXgXgXgXgXgXgXgXgXgXgXgXgXgXgXgXgXgXgXgXgXgXgXgXgXgXgXgXgXgXgXgXgXgXgXgXgXgXgXgXgXgXgXgXgXgXgXgXgXgXgXgXgXgXgXgXgXgXgXgXgXgXgXgXgXgXgXgXgXgXgXgXgXgXgXgXgXgXgXgXgXgXgXgXgXgXgXgXgXgXgXgXgXgXgXgXgXgXgXgXgXgXgXgXgXgXgXgXgXgXgXgXgXgXgXgXgXgXgXgXgXgXgXgXgXgXgXgXgXgXgXgXgXgXgXgXgXgXgXgXgXgXgXgXgXgXgXgXgXgXgXgXgXgXgXgXgXgXgXgXgXgXgX    * m * . # # 7 r 7 O   , =.' z s B { F B _ [ / -.-.;.;.-.-.=.-.[ -.-.;.-.*.-.<.7.7.7.<.<.;.-.-.-.=.;.;.=.' ..W N ' =.;.=.-.;.<.<.<.<.-.<.<.p.<.<.-.<.<.w.<.<.;.-.<.<.<.<.-.` [ [ [ ;.<.<.<.<.-.-.<.7.f.f.7.<.<.<.<.<.<.<.-.<.<.w.g.w.=.=.;.;.-.-.-.;.;.-.-.<.<.<.<.-.*.^ V m M z z s s = = , o , #   : _ ` 1 s 3.3...' 2.w.f.z.k.k.z.z.f.w.p.f.f.f.f.f.g.w.2.' M z 2.",
"A * 4.2._ _ -.<.<.g.w.<.<.<.<.7.4.4.p.p.f.f.<.-.^ V m =.e.2.0 * , 8 r #   . : > & & s s z c A / / r r A ^ Z V ^ D m z c ^ [ ^ ^ *.=.-.-.;.;.=.-.-.-.-.-.*.-.-.` V m _ ` ~ V V _ [ -.-.^ / *.*.*.*.-.-.*.^ ^ [ ' _ D V V V _ ` [ =.;.-.-.-.<.<.-.-.-.[ -.<.<.-.-.-.*.*.*.-.=.[ _ [ =.' _ ' =.-.-.` -.2.2.=.` _ ^ ` _ D v z f z z < z ` m < #   . o , 9 0 * , 0 .         . , c gXgXgXgXgXgXgXgXgXgXgXgXgXgXgXgXgXgXgXgXgXgXgXgXgXgXgXgXgXgXgXgXgXgXgXgXgXgXgXgXgXgXgXgXgXgXgXgXgXgXgXgXgXgXgXgXgXgXgXgXgXgXgXgXgXgXgXgXgXgXgXgXgXgXgXgXgXgXgXgXgXgXgXgXgXgXgXgXgXgXgXgXgXgXgXgXgX. gXgXgXgXgXgXgXgXgXI gXgXgXgXgXgXgXgX$ gXgXgXgXgXgXgXgXgXgXgXgXgXgXgXgXgXgXgXgXgXgXgXgXgXgXgXgXgXgXgXgXgXgXgXgXgXgXgXgXgXgXgXgXgXgXgXgXgXgXgXgXgXgXgXgXgXgXgXgXgXgXgXgXgXgXgXgXgXgXgXgXgXgXgXgXgXgXgXgXgXgXgXgXgXgXgXgXgXgXgXgXgXgXgXgXgXgXgXgXgXgXgXgXgXgXgXgXgXgXgXgXgXgXgXgXgXgXgXgXO . , V = . . o , 9 7 . . * =.' B s x B D D ' ` [ _ [ =.=.[ ~ _ ^ [ -.=.-.-.*.*.<.<.<.<.-.-.-.;.-.=.-.-.-.-.=...D B _ =.-.V A *.;.<.=.*.*.-.<.<.<.-.^ -.<.4.;.-.-.*.^ [ -.=.' D D _ _ -.-.<.-.;.*.*.-.<.w.<.-.-.*.*.-.-.<.-.-.*.*.;.4.2.=.' =.-.[ ^ ` -.-.-.-.[ -.-.-.[ ^ ~ _ D N M z z = & * , o * o   , [ ' 8 z 3.3..._ =.w.f.h.k.z.z.g.w.<.7.f.f.f.f.w.w.2.=.D M z 2.",
"V * 4.2._ ~ ^ -.<.w.w.<.<.f.w.<.4.4.<.7.f.<.;.` m M D 2.g.2.0 * * 8 r *   o , > & = < < s z c A A c 0 r A c M z z x g z m V A A ~ / ^ [ -.[ ^ ~ ^ ^ ^ ^ ^ -.=.` c z m V V V m V V V V Z / / / A A ^ -.^ A ~ ` ' D N D D m m m _ _ ` D V ^ *.*.^ ` =.^ ^ *.*.*.*.*.^ *.[ -.=.' m ~ ` _ N ' ' ` ` _ ' ' ..' N m ~ _ D v z x x s z 1 m _ 8 * #   . o , 8 8 , * 7 . . . . . # , < * * o     gXgXgXgXgXgXgXgXgXgXgXgXgXgXgXgXgXgXgXgXgXgXgXgXgXgXgXgXgXgXgXgXgXgXgXgXgXgXgXgXgXgXgXgXgXgXgXgXgXgXgXgXgXgXgXgXgXgXgXgXgXgXgXgXgXgXgXgXgXgXgXgXgXgXgXgXgXgXgXgXgXgXgXgXgXgXO           . . . $ & i l h l h h h j k I I Y Y U & . . % & gXgXgXgXgXgXgXgXgXgXgXgXgXgXgXgXgXgXgXgXgX    gXgXgXgXgXgXgXgXgXgXgXgXgXgXgXgXgXgXgXgXgXgXgXgXgXgXgXgXgXgXgXgXgXgXgXgXgXgXgXgXgXgXgXgXgXgXgXgXgXgXgXgXgXgXgXgXgXgXgXgXgXgXgXgXgXgXgXgXgXgXgXgXgXgXgXgXgXgXgXgXgXgXgXgXgXgXgXgXgXgXgXgXgX    , ` 8 o . . * 8 7 . . % =.' D N z z B D N m V D ` ' ` m m ' _ ` ` ^ ^ ^ -./ -.-.-.-.*.-.-.*.*.*.-.;.-.` ` _ N x ( ' ` M c V -.=.^ A *.*.-.*.*.*.^ / -.-.[ ` ` ` V V D _ N x x M m ` -.=.*.^ ^ ^ ^ -.<.*.^ *.^ ^ ^ -.-.*.*./ / [ -.[ ` _ [ [ V c V ~ [ _ D m V ` ` _ _ _ D N z s 8 < > % * , . * #   , ' =.z z K.L.3.' -.4.f.f.f.z.z.f.2.2.4.w.w.w.4.4.2.2...D M z 2.",
"V , 4.2.m V ` =.<.w.w.7.w.f.4.;.2.5.<.8.<.-.[ _ N N N 2.~.5.0 * * 7 9 #   o < = % % & < s 8 z c V V A c c z z s d d d d z z z c c A A ^ ~ V c c c V ~ ~ ~ ^ -.m z z z z m V m M z 8 c A Z A A c c A Z V A m m M z z z M V c z N N v M m M V V M V ' ` A 0 r / ^ Z ~ ~ V ~ _ N z m ~ V m N N D ' D D N v x N N V _ D z s s z z z m ' V * * #   o * 8 8 0 9 * o           . o . . .         . . . . . . . . . . . . . . . . . . .   . . . . . . . . gXgXgXgXgXgXgXgXgXgXgXgXgXgXgXgXgXgXgXgXgXgXgXgXgXgXgXgXgXgXgXgXgXgXgXgXgXgXgXgXgXgXgXgXgXgXgXgXgXgXgXgXgX. o . . . . o o % % o o % * * < < s s s f f g g g g d u s & % % $ $ % % % % % gXgXgXgXgXgXgXgXgXgXgXgXgXgX% % % % % % % % gXgXgXgXgXgXgXgXgXgXgXgXgXgXgXgXgXgXgXgXgXgXgXgXgXgXgXgXgXgXgXgXgX& % % % % o o o % o o % % % % % o o o o o . . . . o o o gXgXgXgXgXgXgXgXgXgXgXgXgXgXgXgXgXgXgXgXgXgXgXgXgXgXgXgX  . , V 8 o . o # , , . . * 2._ D ..m z z x z z z m D ' _ M z N ` _ V c V ` [ ^ *.^ ^ [ ^ ^ ^ ^ ^ ^ -.=.*.V c M z z B N m z z m _ ` V A ^ ^ ^ ^ ^ Z V A A m m D _ _ V V M M z z s z M m V Z Z V ~ ~ V ^ *.^ V ^ ^ V V ` ` V ^ A V V V V m z V V M z z M _ N z M M D D N M M M z s < < < > * * , . * #   , [ =.c z Y.T.Y.2.=.4.7.f.f.f.f.w.2.2.5.r.r.w.4.2.2.....D m z 2.",
"c * 4.=.m _ -.;.;.4.4.<.<.<.;.' 2.w.w.w.<.-.=.2.' N N ..t.5.8 % * 8 9 #   o , = % = = s < < 8 8 z c c 0 z z s s s s s s s < 1 z z 0 c m m M z 8 z z z M M c z 1 1 < < < s z z s 1 < 1 8 c 0 0 c c c M M c c z s s s s s z z s s z z z z s z z z z z M z 0 0 c c c c c z z z s s 1 z z s s s z x B x s s s s z z m M s < s z z N ' ` , . # o   o * , , , * o . # % * * * < < < < 8 8 < < < < 1 1 1 1 1 < > > < 1 1 1 8 < < 1 0 0 < < < 1 1 z z z 0 8 8 gXgXgXgXgXgXgXgXgXgXgXgXgXgXgXgXgXgXgXgXgXgXgXgXgXgXgXgXgXgXgXgXgXgXgXgXgXgXgXgXgXgXgXgXgXgXgXgXgXB B B x x g B W W W ....W W W ' ' ....o.o.o.o.o.3.O.0.0.o.' W W B B g g W W B B W W W gXgXgXgXg g g B W W W B g g B W W W W B x g g f g gXgXgXgXgXgXgXgXgXgXgXgXgXgXgXgXgXgXgXgXgXgXgXgXf g v v f g v v N m m m m _ _ E M z m ~ ~ m m m m c 0 z M E E m m m ( _ _ m s gXgXgXgXgXgXgXgXgXgXgXgXgXgXgXgXgXgXgXgX* * % % < * .   o o * * # . o ` ' ' ..' M s s s z x z z m m z s s z z z z z m c ~ ~ 0 0 c c c c c c V V Z V c z z s s s s 1 s z z z z c c V V V A c c 8 8 c M M M M M c c 8 z z 1 < z z z z z c c c c c c c c c c c c c V M c V 0 c z z z z < < 1 z 1 < z M z z z z z z s s z z z z s < < < , , , o * o O , ^ -.c z L.T.Y.2.=.<.7.f.f.w.f.w.9.2.5.w.w.4.w.e.2...' D N m 2.",
"c * 4.;.m _ =.2.2.2.;.;.<.<.;.' =.2.w.w.<.<.4.2.' N z ' e.2.< % * 8 9 #   . * < = 8 z z z 8 8 8 1 8 1 1 1 1 < < < s s s s s z z z z z M M N M z z z N N N x z s z z f s s z z z z z z z z z c m m M M m m M v x x z z z v v x z x v v x x v N D D N z M V V V m M M M z z z z z z M N z z z x D W D v x z s s z z z < < s z x N ~ ,     O     . . . . o o % * 8 8 0 z c m m z z ~ _ V _ _ _ ( m m m M z z v N ( N ' ' ( m ( _ _ ' _ _ _ _ ' ..' ' _ ( N gXgXgXgXgXgXgXgXgXgXgXgXgXgX{ ....{ ..{ W W { { { j j j j j } { { { { { { ..{ { { { { { gXgXgX| | O.O.| } } X. .O.O.L.L.m. .} X.X.X. .3.3.0.0.3.3.3.0.0.o.9.o.| | | }  .} } } | | { { | | | | | ..........o...{ { { } X.X.X.} } | { { { X.{ { { ....' ' ..o...{ W { { { { { { { { F g B g s z D ....{ { { { ....o.3.0.3.o...o.3.o.o.o.O.o.W W ' ' ' ' ....' ' ..o...' N v N m m z gXgXgXgXgXgXgXgXgXgXgXgX1 z 8 < : * % o . . o o o # #     * c _ ..2.' M z z x z z z v N N x x z z z M m m m V V c c ~ ~ V m V D ` ` ` ` _ _ _ _ D M z z z z z z z M V D _ ` D V M z z M D D D m V c M z c M z z z M z z z c M M M V M c V V M c M V m M M M M c c M M M z s z M M M N N N x v z z z z z z z x z z 8 < < < < , o * o   * c ~ 0 z 0.L.3...' <.w.w.w.<.4.w.2.2.4.4.2.;.w.g.e.2.' D m z ..",
"A , 4.2._ ` *.' =.=.;.;.<.w.;.] =.;.w.8.<.4.w.4.' N M ' e.2.8 % # * 9 o   . * * * < < < < s 8 < < 1 s z M z z M M N N N N ' ....' ' ' ' ' ......' ..........' H ....{ D ' ' ' W D W D ' ' ' ' ..................F D D ....2.............{ ..........' ' ' ' =.' ' D ........D ' ........................' N M M v N m N N N ..N 0 o   O O O o # o # * , < 1 : 1 1 z z z z z m ( _ ' ' _ ' ' ~ M c A m z M _ ' ' _ ' ....' o.o.o...2.2.2.o.o.2.o.o...' ' W D B B z z z z N D D D D { { ..D F { { g g { X.W g f g F } } } } { { { { { { F { ..O.O.X.X.} } } { { } } O. . .m.C.L.L.L.O.o.o.2.2.o.O.0.0.0.O.o.X.O.H.3.3...F j } } j g j X.X.o.X.X.o...o.o...o.O.O.O.O.O.X.{ { { X.X.} { } |  .| { O.L.3.O.o...{ { X.O.3.3.O.o.{ { { { { { } } } } } j g { o.o.o. .{ W B W o.2.3.3.2.o.o.o...........W ' ' ......o.2.2.' ( W ' ' ' ' ( ' o.N s B ..o.' f ( _ _ ' ' ' z 1 z z z 0 < > , , * * * o . O   .   o < V ..2...D ....' ' ' ' ......D ' ........' 2.1.1.=.2.2.2.2.1.2.5.5.4.2.2.2.2.2.2.2.1.1.1.1.1.....1.1.2.1.2.2.2.2.1.' ' 1.1.6.2.2.2.......' ....' 1.2.2...1.1.' =.1.=.=.=.1.1.1.' ' 1.1.1.1.D ' D D ' ' ' ' D D D ' ' ' D N N N m M M z z z z s s < 8 8 < < * * . * .   * 8 0 8 s 3.3...D ' 4.w.w.w.<.4.w.2.2.4.w.2.;.w.w.4.;.` D N z ..",
"V , 4.2.N ( ` ' ' ;.<.f.w.4.;.=.-.=.2.;.4.<.-.[ ' D N _ e.2.8 % o * , O   o * * < < < < < 1 8 1 1 1 z z m m D _ ' _ _ _ ' ' ' ' ' ' ' ' ' ' =.' _ D ' ' ......D D D D ' ' ' ' D N N D ' ' D ' 1...' ..1.1.' ' ' ' ' ' ' ' ' ' ' ' ......' ' ' ..' ' _ ' ' ' 1.1.1.......' ' ' ' ' ' ......' ......' D N N N m z z z v v N N m 8 #       . * % % : > : < > s 1 v ( ' _ m ( ' ' _ ( ' o.o.o.' _ _ _ ' ' ' ( _ ' ' N ' 2.2.2.2.2.o.2.2.2.2.2.' _ ' ' ..2...( v ( _ ( v v ' ..( N ....{ { F F { { { B g g } g g g g g { { { { g g { { { { { { ....{ X.X.{ { { { G } } } m.m.O.O.L.L.0.3.o.O.3.0.0.3.0.0.L.L.m.O.L.L.O.0.{ g f g g i u g } X.{ | { W ....{ { O.O.O.O.O.o.o.X.| { { { { { } } } U } O.L.L.3.O.X.O.o.{ O.0.X.O.O.X.{ { o.{ { { } j U Y U j { X.0.L.O. .{ o.O.3.9.0.0.3.O.......O.o...W ......o.3.2.2.o.' W W _ o.o.o.' ' ' ' m z ' 2.o.' ( m ' ' o.2...z N ' ' ( v f M M z z 8 < * % * % o . . . . < V 2.2.o...' ' ..........' N ' ..6.1.1.2.=.=.=.1.2.2.2.2.2.4.4.5.5.4.2.2.2.2.2.' 1.2.2.2.1.1.1.2.2.1.2.2.2.' ' ' ' ..1.2.2.2.2.2.2.2.2.2.2.2.2.2.2.2.2.2.2.2.2.1.1.1.2.2.1.' =.1.1.2.1.' m D _ ' D D D V D _ ( D D ` D N N N N N M z z z s s s s s < > * o . * O   * 8 0 < < 3.H...v _ 2.w.h.f.7.w.w.w.2.<.w.w.4.<.4.4.<.=.` M z ..",
"V , 4.2.( _ ' 2.2.w.f.f.7.<.<.;.;.;.<.<.<.<.-.^ _ D ' ' e.5.8 o % * , o     o o o o % % % % % $ % o . o o o o o o o % o % % * * * * * % % o o % o o o o o o * % o o % % % % % o o o % % % o o * * * * * * * * * * * * * * * * % % % % % % % * * % * % % * * % % % % % % % % % * * * * * * * * * * * * : > * * * * % * * * * % o o # # * : > 1 f z z 1 1 z v N ..W ' ' ' _ ' ' o.o.' ' o.2.2.o.o.2.2.2.2.o...o.' W ..3.3.3.2.o...' 2.2.2...' ' ' ' 2.2...' W ' o.2.......o.....o...g g B { { { o...g g j j a j j F } } { } } { { { { { { { o.o.o.O.O.O.O.X.O.O.} } }  .O.} } O.L.C.L.L.Y.L.0. .o.0.L.L.O.O.X.O.+.O.+.| W { g g j { { } X.X.o.X.X.O.X.{ { X.X.X.X.X.X.X.O.O.| | m.L.X.} } } } }  .L.0.3.O.O.3.3.O.o.O.L.L.C.X.{ } X.X.X.} U } } } } } { { X.X.{ { { X.3.O.O.o.o.3.O.o.o.O.3.O.....o.o.....o.' ' ' ' o.2.2.3.3.o.o.o.2.o...2.3.3.2.2.....o.o.o.o...' ..o.2.2...' N v z z 1 1 1 1 8 8 , % o . . . * : < > > < : * = = = % $ % % % % * * * o % * * * * * * * * * * , * * , , , , * * * * * * , , , < , < < 8 8 7 , * * * * * % % % % * * * * * * * * * * * * * * * * * , * * * * * * * * o * * * % % % % o % % % * * * * * < < = * * * % % * * * * * % % % o . *     * 8 8 < < 3.3...N ' 2.w.f.f.f.w.r.w.4.w.w.w.w.w.w.w.4.;.=._ v ..",
"V , <.2.( ' ' 2.w.w.f.p.<.<.<.<.<.;.<.<.<.7.<.^ D N ' ' 0.2.8 o o , , o                                               .                                                                                                                   O                                                     . . . . o . . . . . . o o o % % , 8 < < 1 s f f f B B z _ ' ' o.......o.o.' ..3.2.' ( o.2.2.2.2.2.3.3.2.2.O.O.o.o.{ X.O.O.o.....' ..3.3...W ..' ..2.2...........o...F F { ....{ g g g { { B { O.O.{ g j j U j j j U Y } } j j g a j a U o.o.o...{ { o.X.{ { O.} F g { { X.X.O.O.m.m. . .L.L.O.o.0.0.o.{ O.C.o.o.O.O.o.{ ..| | X.X.X.O.O.O. . .O.X.{ { { } } } } X.X.X.X. .O. .m. .{  .|  . .X.X.O.O.O.O.O.O.O.O.X.O.m.O.{ } } } { X.| a l } } U U { { { { { } { j F { X.X...o.O.X.X.X.O.O...{ ..o.o.o.o...' ' 2.3.2.2.2.2.o...o.2.2.] o.o.o.........o.o.o.o.o.o.o.o.o.o.o...W ..' ( ( ( N v z v m z < , , * # o . . . . . . . . . . . . o o . . . . .     O     O O . . . . . . .         . .                       . . . . . . . .                                                                                               O     .                                 %     * 8 8 , > 3.L...N _ =.;.<.7.f.w.w.4.w.w.7.7.w.f.7.7.<.;.=._ N ..",
"V * ;.=.N ' ' ;.4.f.f.7.<.<.<.<.<.<.<.<.7.w.<.-.` N D D 3.2.< o o * , o                             . . .     . . o o o o . . . . o o o o o o o o . . O         . o . . . . . . . . . . . . . o . . o o . o o o o o o o o o o o o # # o # # # o o o o . . . o o o .   . o o o o o o o o # # # * * * * , : : * , , : * * * , < c m m m N W g B B { o...{ o.o...o.o.O.O.0.@.o.o.2.2.] ' o.2.2.0.0.3.3.2.o.o.O.O.o.O.X.X.o.o.o...o...W ..o...' o.2.2.2.2.o.....o.o.....{ F { ..{ B g B { { { { { ..{ { j } j Y j j U Y Y Y j l h a a h j { O.O.o...{ { ..{ B g F } { B { X.O.O.O.X.O.X.{ { { O.O...3.O.{ { O.m.O.0.0.0. .{ ..X.o.| { X.| } } { { U { F j { } { } } { } O.O.} }  .} } } m. .O. .X.X.X.o.o.o.X.....{ { } } U U } } } } X.} j j U  .} } X.O.O.O. .} } { B { ..O...o.O...F g { ......o.O.3.0.3.o.2.2.3.0.3.2.o.' ' ' ' ' ' o.o.o.{ B B W { ..W ..o.o.O.o.o.3.3.3.o...o.3.o.o.o...' ' W ( z s 8 8 8 0 8 < < , , , , * * * * * * * * * * * % % # # # # # # # * * * * * * % o o # o o . . . . . . . . o # o o * * % o o o o o o o o o . . . . . . . . . . o o o o o # # # o o o o o o o o o o o . . o . . . . . . . . o . o o o o o o o . . . . . . .               o .   * 8 8 * = 3.L...M _ ] 2.w.w.f.w.;.;.w.w.7.7.f.p.7.<.;.;.=.' N ..",
"m * ;.1.N ' ' ;.4.f.f.7.<.<.<.<.w.<.;.<.w.7.<.-.[ V N N 3.2.< . o * , .     . . o o . . . . o o . . . . . o o % * < < < < , , , < < < , * : < > = = < < * * > > < < < < < > * * = = = * * % > 1 1 < < < , , < < < , < < : > < < < < < 8 8 8 8 8 8 < : , < 8 8 8 < , , < < 1 > : : < < < < < 8 0 z c m m f 1 1 1 z v z z z V V ~ _ ' W W W { { { ..o.o.o.o.2.o.....3.0.0.0.0.O.o.o.o.2.9.9.2.2.2.o.O.....o.O.O.o.o.O.....o.o.o.o.] ( ' ..' ] o.2.2.o.o.o.' ' ..' W ......{ { { { { { { ..{ { { { g g g g i l g l j j j j j j U U U j } | O.X...{ { { ......{ g { { ..o.O.O.X.{ } X.X.....o.3.3...O.O.X.} O.O.O.+.+.0.| K { { { o.o.X.| } R } { U } } } } { } } j j } } { } U Y }  .m. . . . .O.O.O.O.o...........} } } { } } { } { { j j g g U } { X.O.O.X.} { X.X.X.o.o.o.o.3.3...F B { ............2.3.3.3.2.2.2.0.0.2.2.2.2.o.o.o.o...B g g B W ..{ W ' o.o.O.o.o.O.O.o.o.o.o.O.3.3.o.o.o...{ W B B ( N N ( ( ( N m c c V c z 8 8 8 8 8 < < 0 z z z < < < < < < < 1 1 8 0 1 1 < < 8 c c 1 < < 8 < < < < 1 8 0 0 z c z 8 1 1 < < 1 1 1 1 < > : : > > > > > < < < < 1 < 1 1 1 1 1 < > > > > < > > > : * * : * % % % * * * * : : * * * < * * * % % % % % % % % % . . .     . .   * 8 9 * = 3.3...N ' 2.2.5.w.w.w.<.<.w.f.<.w.p.f.7.<.;.=.' _ N o.",
"c * 2.1.B D ' =.2.4.<.<.<.<.<.p.w.<.;.<.<.;.-.-.[ ~ N N 3.1.< . o o * .   . . o o % o o o o o $ % % % % % * * < 8 8 0 c 0 8 8 8 z M z z 1 1 s s s z N D x s s z N N N N v z < z z m z z s z N D N m z z z z z M M z 1 s f z z z z z z c c A ~ ~ c 1 s z m m m v z z s z v z f s f z z z z z z z m ' _ m v v v ( ' ..W N N _ ' N ' o.o...o.{ o.O.O.o...o.3.e.0.3.o.0.Y.Y.R.Y.0.o.o.2.0.0.0.o.' ( N W ' ..O.O.O.o.o.X...o.2.2.o...o.' ' W W W ' ' ' W W ' W W W W W ..o...{ { { { { O.O.X.{ } } { g g g g u i g g g g g g g j j U } } } { { { W { { { ..X.O...{ { ..o.O.X.{ F { { X.X.X.X.O.O.O...o. .| } O. .} X.X.o.{ W { U { | o.| | |  . .| } { X.X.X.X.} } j g g l g j j j } O.C. . .O.O.3.0.O.O.O.o.{ { ..X.{ { } | | X.{ { { { g { g a g a g j } { g g { X.O.X.O.o.o.0.O...O.3.3.O.o.o.3...( N o.3.3.2.2.0.e.3.3.3.0.0.9.2.2.2.o.{ F g B { o.o...W ' ....o.3.O.O.O.O.o.o.o.o.O.3.3.O.o.O.O.O.o.o.o...' ' ....' ( m m m m m m m N ' ' z z N ' _ m f z N N m m m m m N N m v z z m _ _ m z m _ _ N m M m m ~ ~ ~ ~ _ D m M z z M M M m m M z z z v z z z z z z z z v v z m m v z z f f z z s f f s > < s < < < s < > > 1 0 z 1 > > 1 1 > & % = = % % % * * * o o o . .       # , , * = 3.H.......o...1.4.w.w.w.f.f.f.<.<.<.f.7.;.' ' D N v o.",
"z * 4.1.x N ' 1.=.-.-.<.f.p.p.p.7.-.;.;.=.[ -.-.-.` _ M ..' < . . o o   . . . o o o o % * * % * 8 8 * * * , < 8 8 0 0 c c 0 0 c c z z z z z z z f B D N z f f N N N D ' _ z z m _ _ _ ( m ' ' ' _ m ~ _ _ m M _ ' D M M N N N m V _ ` V ^ *.-.-.V 8 m N m m z v m v z m D N B B x N D B z z v m [ 2.' m ' o...o...W B B _ ..' ' ..o.o.2.3.o.O.3.o.o.o.o.0.0.2.3.3.0.0.R.R.0.o.o.o.2.3.3.o.....' N x D ........o.2...W ' 2.2.2.o.2.o.{ F { D B x x B B B B B g B { { { { { { { { { X.X.} j } } { { { { { g g g g g g g g g g g g g } } } g g { { { { o.X.{ W W { { { { { B F F j } } } } } X.} ..o.o.| } } { { X.X.| { o.O.X.} { X.| |  .Y } } g { X. .X.| } } j j j } j j j j } X.3. .X.O.0.3.O.O.O.O.O...{ { { { { { X.O.O.O.X.{ { { { j g u i d U { j g j { O.X.o.o...O.X.{ {  .Y.T.I.0.o...' ( ( ' o.o.o.2.2.2.2.2.2.2.2.2.2.2.2.......{ { o.0.O...' ' ' o.3.O...{ o.3.O.....o.O.0.0.3.o...X.O.O.O.O.O.O...o.o.o...' _ ' ' ' ( ( W ....W ' ' ' ( m ( ' o.' m m _ _ ' ' ' ' ' _ _ _ _ [ _ ~ ` ` _ _ _ _ ~ ~ _ [ ^ ~ [ =.' D _ D D D _ ` ' _ m m ( _ m N N N N v M m m D _ ' ' _ m v v N ( N z N _ N s z N z s s s s 1 z c V m z z < 1 m M < = > > * * < < , * * % o o o       . * * * > 3.K...D D W ' ..;.4.w.f.f.f.f.<.;.<.w.w.=.' D N x z o.",
"V * 2...z m ( =.=.` ^ =.<.<.<.<.;.[ -.=.~ V ` ` _ ` N N ..' * . O       . . . . . o % % < * o * < < * * * < 8 8 0 A *.*.-.*.V z < < s z z z D D z 1 1 1 1 z M c m _ _ D D D _ _ ' _ _ _ ' ' ' N v _ ' 2.` c 0 _ 2.' D m D N m m ` -.=.-.-.-.[ ` m z N N m m m N D ( N m v z z f x B x z z N N _ ' 2.' ' 2.3.3.' W B x N ' o.( ' ..' W ....O.X.........o.' ' ..o.o.o.o.0.0.O.{ { o.........o.2.o.' z x ..{ B B W ' v v _ ' ' ..3...D B g g g s s s s d d d d d d g B g B { B B g } } g d d j F B g g B { W g f f g f f s s g g g g F { { g g W { { o.o...B B B W { { F F { F g g j j { { { } F B o.3.X.} } { { ..{ W { { O.X.{ { } O.X.{ { } { } } { ..{ { F F F { } { { B g F { { X.X.o.o.O.O...{ W ..X.{ g g { W g W { O.L.O.X.{ { { { { g u i g } } U j j { ....{ { { X.} g } X.X.H.L.3...W N ( W ( ( ....o.o.' ' ' 2.2.2.1.' ....o.2.3.O.O.O.0.O.o.o.2.2.3.3...B g W O.O.{ { O.0.L.0.o.' ( W { ....O.O.O.o.o.o...o.o...2.' ' ( ( N W W W ..' ' ( _ ' o..._ M z D ' 2..._ ' 2.2.' m m ` [ [ [ [ ~ _ ` ` ` [ =.;.^ ~ =.2.' m ' ' ' _ _ [ 2.2._ z M _ ' ( N N M c c m ' 2.3.2._ z m z s N ..' N _ ' ( f f N W B z x m m m V V m c c z M m M 1 = < s < * * 8 8 , * % o o .         o * % = O.3.W z x D D ..;.4.4.4.4.<.<.;.-.4.w.2.[ ( W x z z 2.",
"~ * 2.' z m m _ ` ' =.=.;.;.=.=.' ` ' 1.' ~ ` ` _ ` m N 2.=.*         . o o . . o % % : > * % % % % * < < < 8 8 8 0 A A A V c 1 = > < s s z z z = = > > 1 z M m m M z z M m N m v m m m m z z z z m _ _ m 1 1 m ' ' N m z f z z _ =.2.=.^ c c c z z s s s s s s s s < < s s f s z z s s z N _ ' 2.2.' ' ..{ D x B D W D N v N ' ....{ { { O.{ { ........W ' ..o.o.o.o.o.o.{ W W B B B { { ....' z s f N B g x N v g B D D z s B g d d g g g g u u t t u t t d g B g g B { B g g j j d i d d d s u u d g K f s s s f f s s s g g g j F g g g B { { { B B g B { { { B B F } { F F } j g g g g g g { ..{ } { } { { B W { o.X.{ { { } { U g a g U { { W B B B B { { { { { { { { { { | O. .X.{ { { { B B { ..} B B { { { { { O.O.{ { ....{ { g g g a g j j j j j { X.X.{ j F { { g { { { O.O.o...' W ' W ' W W W ' o.o...' 2.2.' W ' ' ..' ..X...{ W W ....{ ..o.3.3...{ { { { { j o.+.O.X.O.....' D W { ..O.O.O.O.o.{ W ..o.3.' m v B N N D W W W W W W ' ( _ ' _ N m N ..2.2.' ' ..' z s s c ~ ~ m m z z m V D _ ` ` c m _ ' ' N ' ' ' _ D _ _ _ m z z N ' ' m z 1 z z M ' 2.2...z < s s < f W ' D N v 1 z s s f z N ' _ M 1 1 0 c V _ N z < > > < s B z < = < , * o o . . .           . o & O.3.N s z B D ' 2.4.4.;.=.-.;.;.;.4.4.=.' ' N x z z 2.",
"^ * 2.=.0 z m N _ ' 1.' _ m m D D N D D D m V m c c 1 z .._ *         o % % % % % % % * % % * * % * * : < > > > < > < < > > = & & = > > < < < & = < 1 1 s z z < < > > < 1 1 z 1 1 s z f 1 > 1 z 8 8 8 8 1 > > 1 z z s s < s s s z V V 0 1 1 z z z s s s s s s s s s s s s x N N f > > 1 s f m N m N v B z s s v N D D N z f W { ........{ { F B W W W D N D ....o.O.3.O...{ { { g g g B B B B f s s 1 f g B W ' ' B B W B s s s d g B B B B g d d u u u u u s x B x x B x g g g g g d u u d u u u s s s f s s s s s f s u s g g g g g g g g g { { g B B B { { { W g g g F { { X.{ F g d d g g f g g g { { { { { W { { { { g g { { } { { { W { { { W B B W W { o.o.| { { { { { { { o.X.| { { { { { B B { F F { { ..{ W { ..B g F ....{ g g g B g g g g j F F { { { { g g g g g W B { ....' ' W D W W W W g g W ..o...{ o.' B B W W W W ......{ W W ' D N W ......{ { ....{ { { { O.o...O.o.o.......o.O.O.O.o.....W B B ( W ( N N N N D N B z f z x v z f f z v v v z z N N N m m s < > > 1 z v f s < < < s s 1 1 1 1 1 z 1 1 f M M M M M M z 1 1 1 1 f z z s < > < 1 s z z z z s < < < > < s z z f s < , , * * * > < > * % % % > < z z < = = = < s z z < = * % % % % % % % o o o o o o . % o.3.D s z x B W =.=.` ^ ^ ^ -.-.-.-.V _ ' ' N z z f ..",
"A * ;.` < 8 0 z M m _ D D m M M M m m N N m c c 0 8 < z o._ * .     . o o o o $ % % $ * o o % % o % o o % % % * * * > , * * * = * * * % % % % % % * * % % % % % % : > > > > * : : = % % % = < < < > > > > > > > < < < > < > > < < < > * * > 1 1 < < < < < < : & & > > > < < < < > * = 1 1 < 1 1 s z z m v f f f f s s s s s s f z v x x x x g x B B z z v v B ( ......W N z f s s s s f f s f f z s 1 < 1 s s 1 1 s s s 1 < s s s s s < < < < s s > > s < s s z z z z x z f s s s s f s s s s s s s < > > > < < s s s < < s f g g f f f f f f x d g x x B B g g f s s f f f B D g g g g x B D ' W W { ..X...{ ..{ W W W B B B ( ' o.o.....' ' ..' ' _ _ ( ( W ..' ( W ( W W W W W W W W W W { { { B B B B B B N ( ( B W W z f x x x f f g x x x B B B B B g g g B g g g d g { F B W W ( N N N B B B W W B B B B B W W W W N W W ( B ( ( W W B B ' B z z z z x x x B B ( W W B B N W ' ....' ( N ( W W W N m v m m v z 8 1 f 1 s 1 1 < < 1 1 1 8 z z z 1 > > > > < < > : : : : > > > 1 1 8 0 z z 1 1 > > > > > > * > < * % % % = * * > < < < > < < < > : : : : : > < > > > = < 1 1 < < < * : : > = > < * * * * * * * % * * , , * * % % * * * * % % % % % * * * * * * * % % % % o .     . % ' 3.D s s x B B D D V V ` ` ` ^ ^ V c V ' ' ' D z 1 ' ",
"A , ;.~ , , 8 8 8 0 0 8 8 8 < > > 1 < < < 1 < < < , * 1 _ c %     . . . . . . o o . . . . . . . . o o o o o o o o o o o o o o $ % % % % o o o o o % o o o % % o o o o o $ o o o o o o o % $ % % % % % % % % % % % * * % % % * * * % % % % % % % % % & % % % & & $ % % % % % % % * = < < < < < 1 1 1 1 z s < < : > < < < > > & & > < < < : < < < < < < < < < < < 1 1 < < < < : & : : : & % % % % & = > = > > = & = & & % % % & & & & & % % & & & & & & < : : > > < < < < > & & = % % = = : < < < : > & % % & < > = & = > < < s s s s s > < 1 s < u s < s s s s s s s s s s s s s s f z z z z z v z g B B B B g g B N N W B B z v v ( ( v f v v v v v v v v v v v v f f v v f z z f f f f f z f f s < < < s s s 1 < f s 1 s s 1 s s < s s f f f g g f z z f s s s f x x x f s B s s s s s f f f f f f f f f f f < < s s s s s f f s s f s s s < < 1 1 1 < < < s s f s 1 f f f s s f s 1 z z 1 1 1 1 1 1 < < > > > : > > < > > > > > : % & % % % * > > * > > * % % % * * % % % % % * * % * * % % % % * % % * * % % % % % % % o . $ % % % % * * * * % % % * * * * * * * * * : * * * * % * : * * * * * o o o o o o o o o % # o o o o o % % % % % % o o o % % % * * % * * % $ $ . . .       . * _ ..N s s z s s z z z z c c 0 0 0 0 0 0 c m M c 1 < ' ",
"A , =.~ < : , , , < < < < < , , < < < , , : * , , , : 8 z 0 > < 8 z 1 > > 1 1 1 1 < > : < < < > < < < < < > < < 1 1 < < < < < < < < < 1 1 1 1 1 < > > > 1 1 1 1 1 1 s f s 1 1 < < 1 z z 1 < < < s s s < < 1 1 1 1 1 1 < < < 1 s < < < < < < < < 1 1 1 s s s s f z z z z c c m M z z x x x D D B B B B W D B B B B B B B B B g B B N B B B B B B B B B B B B B B N ( N B N W W ( W W W B z z m v v z x x x g x x x f f f f f g x x x g z z z z f f s s z f f f z v v z f f f f f s s s s s z z v v f s s s f f s s s s s f f f f g g g g f g g f g g f g g B W W W W { ............{ { { { ....W W { { { { { { W W ..o.o.o.{ { | | W { { W W { { { { W W W W { { { { { W W B B B B B g g B B B v f f f g g g B W B B B g B B B B B B B B B B { { F F W W W W B B B W { { { { { B g B D { W D N ( W W W { { { W W W B x B D D D D W W W N W W W W W W W W ( N W W D B W W W W W W W ' ' ....W W W D W W W W W ' ( N ( ( ( N B B B B v B B B v v v N N N f z z z z s s s s s s f f z z z z z 8 1 1 8 1 1 1 z z 1 1 1 < < 1 s s 1 < 1 1 < 1 z z z s < < < 1 1 < < < 1 1 1 1 1 < < 1 1 < > < < > > < < < < < > > > > > > < < < , : : = < 1 1 1 1 1 < < 1 8 8 < 8 8 8 1 < < < < < < = > < , , * < z < > < < > : * * * * * , , : * * , * * * * * * , ' ",
"c * 2.2.=.=.;.=.' =.2.2.2.2.2.2.2.2.;.;.;.;.=.;.;.;.;.2.2.1.2.2.e.0.3.3.3.3.0.0.0.3.3.0.0.0.0.3.O.o.3.3.3.3.3.3.0.0.3.3.3.3.3.0.L.L.3.3.L.Y.Y.0.3.3.3.0.0.Y.Y.Y.3.3.3.0.L.3.0.0.L.Y.R.Y.Y.0.3.0.0.0.3.3.0.L.L.L.Y.Y.Y.T.Y.L.L.L.L.L.L.0.L.L.L.Y.Y.Y.T.T.Y.L.Y.T.T.T.T.R.R./.E.E.E.E.E.E.E.E.E.E.!.!.!.#X#X!.#X!.!.!.!.E.E.E.E.E.!.!.E.E.E.!.E.E.E.E.E.E.E.E.E.E.E.E./.E.E.E.E.E.E.E.E.T.Y.Y.R.E.R.T.T.T.Y.Y.Y.T.T.L.H.3.0.L.L.Y.E.E.P.Y.T.E.E.P.L.O.L.Y.R.T.T.T.P.Y.L.L.L.L.L.L.L.L.3.3.L.L.Y.Y.Y.Y.L.H.L.L.L.L.L.P.L.Y.Y.P.L.P.U.E.U.P.P.P.E.E.T.T.E.E.E.E.E.E.E.U.!.!.1X1X1X1X#X!.!.!.#X#X1X#X#X#X#X#X#X1X#X!.E.#X1X1X#X!.#X3X3X1X1X$X#X#X#X#X#X#X#X#X#X!.!.#X#X!.Q.!.!.!.U.E.E.E.T.E.E.E.E.E.E.T.T.E.E.E.E.E.oXE.E.E.#X#X#X#X!.!.!.E.E.Q.Q.Q.Q.!.!.E.E.E.E.T.P.P.E.E.E.E.E.T.T.E.E.E.!.!.E.E.E.!.!.!.!.#X#X1X1X/.E.E.!.!.E.E.E.1XE.E.E.E.E.E.#X!.!.E.E.E.E.E.E.E.E.!.!.!.!.!.1X1X5X5X1X).E.E.E.E.!.E.E.E.E.E.E.E.E.E.E.T.T.T.T.E.E.E.E.T.Y.T.E.E.E.T.T.T.T.T.T.T.T.Y.L.L.L.L.L.L.L.L.Y.Y.e.e.e.3.o.O.3.0.0.0.3.3.3.3.3.0.L.Y.Y.L.0.Y.T.T.Y.L.L.0.0.L.L.L.L.0.0.L.L.0.3.3.3.0.L.L.0.3.K.3.3.3.0.0.0.2.....o.o.o.2.3.3.3.3.o.o.o.3.3.3.3.O.O.o.O.L.Y.0.3.0.0.0.0.3.3.0.5.3.3.5.0.e.w.2.' _ _ ~ ^ ` ` ` ~ ~ ^ ` ^ ^ -.*.^ ~ ^ ^ / A A A A ^ ^ 5.",
"c < 2.e.e.e.e.5.5.3.3.2.3.e.5.5.w.g.g.e.w.e.e.e.e.e.e.e.w.2.2.2.3.3.0.3.2.3.0.0.0.3.3.0.0.e.0.3.2.o.3.3.3.3.3.3.0.0.0.0.0.Y.Y.Y.T.Y.0.0.L.Y.Y.Y.0.0.3.0.Y.R.^.R.Y.3.3.0.Y.Y.0.Y.Y.Y.R.R.Y.0.0.0.0.0.0.0.0.0.0.0.Y.R.R.R.R.R.T.Y.T.T.T.T.T.L.Y.T.R.R.R.R.T.T.T.T.R.E.E.E.E./././.E.E.E.E.E.E.E.E.!.!.E.#X!.E.!.E.E.!.!.E.E.E.R.E.E./.E.;XE.E.E.E.E.E.E.E.E.E.T.E.R.E.E.E.R.T.Y.L.Y.T.T.Y.Y.Y.R.R.R.T.R.E.R.T.E.E./.E.T.Y.T.T.R.E.E.E.E.T.R.E./.E.P.O.L.P.E.E.E.E.E.Y.L.L.Y.P.P.Y.Y.L.L.3.L.L.L.L.Y.L.H.H.C.L.L.L.P.Y.Y.P.P.P.P.P.E.1X!.!.!.E.E.E.E.T.E.E.T.T.E.E.E.P.E.E.!.E.E.E.E.!.E.E.E.E.E.E.E.E.E.E.!.!.E.E.E.E.E.#X#X!.1X1X1X1X1X#X#X#X#X!.!.#X#X#X#X!.!.#X$X#X!.!.!.!.E.E.!.1X1X!.E./.;XE.E.E.E.U.U.E.E.E.!.E.E.!.#X#X#X1X1X1X1X!.!.!.!.Q.!.!.!.!.!.E.E.T.L.Y.T.T.E.E.E.E.E.E.E.E.E.E.E.E.E.E.E.E.!.!.!.E././.E.E.E././.E.E././.E.E.E.E.E.E.E.E.E.E.E.E.E.E.E.E.E.E.E.E.E./.;X;X/./.E.E.E.T.E.E.E.E.E.E.E.E.E.E.E.E.T.Y.Y.T.T.E.E.E.E.T.T.E.E./.E.E.R.T.T.R.T.R.R.T.Y.T.T.Y.L.L.L.Y.R.^.R.R.T.3.3.L.R.R.Y.R.Y.Y.L.L.T.T.T.T.Y.Y.Y.R.E.T.Y.L.L.L.Y.T.R.R.T.Y.T.T.Y.L.Y.T.L.L.Y.Y.Y.Y.Y.0.0.Y.0.0.3.2.2.2.3.0.0.Y.0.0.3.2.2.3.0.L.L.0.3.O.O.3.Y.Y.0.3.e.t.e.0.0.3.3.e.e.3.e.e.t.e.w.2.2.2.4.4.w.5.w.w.5.w.w.w.w.w.w.w.w.w.4.4.w.w.w.w.w.5.e.",
"c < ' ' ' ' ' D _ N D W ' ' ` ^ -.;.;.-.` [ =.=.' ' =.=.=.' ' ' ' ' ' _ _ ` ' ' ' _ ~ [ [ [ [ [ m m D m m m v N ' ' ...._ ' ' ' ..' ' _ ' 1.' ' ' ' ` ` ' ' 1.....' ' ......' ' ' 2.2.1.' ' ' ' ......' ' ' ' ' ' 2.2.2.2.o...' ..3.......' ' ' 2.' ' ....2.2.o.o.3.2.2...2.2.o...o.o.3.o.3.3.3.O.o.o.3.3.2.3.2.2.2.2.3.2.2.2.2.2.2.3.3.3.3.3.3.3.3.3.o.o.2...o...o.2.2.2.o.o.o.3.3.3.....2.2.1.2.2.2.2.2.o.2.2.5.2.2.2.2.2.2.3.3.3.2.2.2.2.3.3.3.....O.O.O.o.......{ { ..o.O.O.................o.......{ ......................O.3.3.3.3.o...O.3.3.3.2.o.3.3.L.3.O.O.O.O.o.o.o.2.3.3.3.O.O.3.3.3.o.o.O.3.3.O.3.o.o.2.3.3.3.3.3.0.3.3.3.3.3.3.3.3.3.3.3.O.O.O.3.0.3.3.3.3.3.3.O.3.Y.L.3.O.3.0.L.L.3.O.o...o.3.3.O.o.O.O.O.O.3.3.0.0.0.3.3.O.3.O.X.O.O.3.3.O.2.3...X.O.o.3.o.2.o...3.3.3.o.2.3.3.3.3.3.3.H.m.H.3.2.2.2.2.2.3.2.2.2.2.2.3.3.3.o.o.3.3.3.2.3.3.3.3.3.3.o.o.o.3.3.3.3.3.5.2.2.2.2.2.2.2.o.3.2.3.3.2.2.2.2.2.2.o.o.2.1...2.3.2.2.....2...o.3.3.3.2.o.2.2.2.o.......2.o.........=.2.2.2.2.........' ' ' ........o.3.......' ..2.3.6.....' ' ....o.o.............O.3.......1.1...' ' ' ......' ( m M D ....' ' ' D m m D ' ....' ..' ' ' ' ..' D ' =.=.' ' ' ' ' ' _ ` ' 2.1.' [ [ ' =.=.=.=.=.=.=.=.;.-.-.-.;.<.;.2.2.2.2.2.2.2.2.2...",
"A * V m M z z M m z m m N m c c Z *.^ c c c c c z M c c V V m c c z M z c c c c c 0 0 c A A A c z z z z 1 1 s z z N ' D 8 0 z z m z z z c V m c A c 0 0 z z c z z z z M z z z c c V V m z z f f z x z z z z m V c m m m m m m z v ' D M M z z c V m c m N ' ' _ N _ ' ' N ( _ m m D _ ' ' ..' ' ' D ..3.2...' ' _ ' ' =.' ` ` =.=.' ' ' ' ..' ' ' ' ' D N _ m V m m m _ ' ( N D W ..' N m D V m m D ` ' ` ` =.` ` _ ` ' ' D V D =.` V V ` ` D D _ m D N N N M c z z z z z z D ' N z z M N m ( ( ' ' B v x N ' ' N z M N N _ _ _ ' ' ....' m m _ ' ' ....' ' o.3...' ' ' ..' [ [ ' 2...' ..o.o.' ' ' o...' ....2.' _ ' 2...' ..' ..' ..o.2.2.2.2.2.2.2...' ' ' o...' ' ' ' =.' ' ' ' ..' N N ......' _ N N _ ' ' _ _ ' ' ' ' ' _ ' =.=.' ' ' o...W ' ' ' ..' _ ' ' ....W ..' ..' ' ' ' D N D ' 2.2...' ..{ ....' ` ' ..' ' ' ' ' ..' ' ..2...D _ 1.' ' ' ' ..1.2...' ' _ _ ..6.' ' =.=.;.=.` _ ' ' ' D _ D ' ' ' ' _ ' ' _ ' ' ' _ N ( ' ..' D D ' D N D ' 1._ M m D _ _ _ _ ' ....' ' ' _ ~ *.^ ` D N v x z z m c m N x z N D z z m M M N N v v B z z z M m _ m z z z z z N ' N z M M V m V V V V m M z s s < < z v z z 8 0 z z z z z z z z z z m m m M c c V V c V m M M c z 0 c V D m m c V ~ V ~ c c V V ^ ^ / / ^ *.[ ^ ` ' _ D D ' ' ' N x ",
"A * A c c z z c z z z z z z c c A ^ A c c c c z z z c c m ~ A 8 8 8 c c 0 c c c A A A 0 A A / A 0 c V m z z c z c V ' V 8 8 0 0 c c 0 0 0 A A A A A 0 0 0 8 0 z c c z z z z c c A ^ V A 0 1 s s f z f z z c V ^ V c c c V V V m m ' B z M 8 0 c ` V c c m D m m M m ' 2.' ' _ c c V V ' ' ' D ' ' ' 1.0.5...' D V _ ' 1.=.[ ` 1.2.=.' ' ' 1.' ' ' ' ' ' _ ` V ~ V c c _ ' _ m v B D N m m m m c c m ` ` ` ` =.` Z _ ` _ ` D A V -.^ c A *.^ A A V z M M M D A c 0 c M M M z m ' m 8 8 0 m m m ( ' ' N v z M _ ' m z c ~ _ ` [ =.=.' 2.2.[ c c V ` =.1.1.' ' ......_ _ ' 2.2.=.=.[ =.=.' 2.o.2.[ [ ] 2.o.' =.2.e.=.[ 2.2.2...2.1.2.' 2.2.3.2.2.2.2.5.2.2.2.=.' 1.2.' =.=.;.4.4.;.-.` ....m z ' ...._ m m _ ' 2.2.[ ' ' ' ' _ _ [ ;.;.4.;.-.' 2.2._ ' 2.2.2.2.' D _ ..2...W ' ..' N ( ( _ D _ ' 2.2.' ' ' { ....' =.1.1.` ` ` ' 2.2.' _ ' 2...D _ 1.=.=.=.1.1.2.2...' ' ' _ 1.2.1.' =.;.2.;.` ` =.=.1.` _ _ =.2.' ' ' 2.' _ _ ' =.' V D ' ' ' D _ ' ' _ m [ =._ c c ^ ` _ _ ' ' ' ' ' ..' ` ^ [ ^ ` D z z D _ _ V c _ _ M z M M z M V V V V m M m ( v z 8 z m _ m 8 z z z 1 z V c 8 8 0 c c A V c c 0 8 8 z z < < z z z 8 8 0 c A c c c z z z z z M c c A c 0 c A A A c 8 8 c A 0 c c V m c z z c c m 0 0 m c A A A / *.-.^ m D ' N s s z v D D B "
};
