/* XPM */
static const char *door2[] = {
/* columns rows colors chars-per-pixel */
"600 448 219 2 ",
"   c #040302",
".  c #0A0603",
"X  c #070806",
"o  c #0D0906",
"O  c #070708",
"+  c #0B0708",
"@  c #060908",
"#  c #0D0C0A",
"$  c #100703",
"%  c #120C06",
"&  c #190E06",
"*  c #130E0A",
"=  c #190F0A",
"-  c #0E100E",
";  c #161007",
":  c #1C1106",
">  c #15110D",
",  c #1A130D",
"<  c #1E180F",
"1  c #0E0F10",
"2  c #110F10",
"3  c #190F10",
"4  c #0E1111",
"5  c #151411",
"6  c #1B1612",
"7  c #161816",
"8  c #1D1915",
"9  c #151719",
"0  c #191718",
"q  c #161919",
"w  c #1D1C1A",
"e  c #221505",
"r  c #2C1605",
"t  c #251905",
"y  c #2B1C05",
"u  c #22160D",
"i  c #29160C",
"p  c #24190E",
"a  c #2B1B0E",
"s  c #321C0E",
"d  c #391B0D",
"f  c #321906",
"g  c #221711",
"h  c #291610",
"j  c #241B14",
"k  c #2B1D14",
"l  c #231E19",
"z  c #2A1F19",
"x  c #321E13",
"c  c #391E12",
"v  c #321F18",
"b  c #2A0F06",
"n  c #1E211E",
"m  c #2D200E",
"M  c #2D2006",
"N  c #34220D",
"B  c #3B240D",
"V  c #3C2A0D",
"C  c #34270B",
"Z  c #262017",
"A  c #2D2116",
"S  c #25211C",
"D  c #29211A",
"F  c #2D221A",
"G  c #29221C",
"H  c #2A231D",
"J  c #29221E",
"K  c #2D221D",
"L  c #2B241E",
"P  c #29251E",
"I  c #2D251E",
"U  c #2C231B",
"Y  c #2E281E",
"T  c #27281E",
"R  c #332215",
"E  c #3A2515",
"W  c #352915",
"Q  c #3C2A15",
"!  c #32251B",
"~  c #39261A",
"^  c #34291E",
"/  c #3B2B1D",
"(  c #3D311D",
")  c #3A301A",
"_  c #1D1F20",
"`  c #211F21",
"'  c #1E2222",
"]  c #1F2728",
"[  c #252523",
"{  c #2A2621",
"}  c #2D2621",
"|  c #2C2621",
" . c #262825",
".. c #2D2A25",
"X. c #242728",
"o. c #292728",
"O. c #252A2A",
"+. c #2D2D2B",
"@. c #312721",
"#. c #342B23",
"$. c #3A2D23",
"%. c #322E2A",
"&. c #392F29",
"*. c #3A2720",
"=. c #2E302E",
"-. c #27302F",
";. c #363126",
":. c #3C3125",
">. c #3D3826",
",. c #33312D",
"<. c #3B332B",
"1. c #36382D",
"2. c #3D392D",
"3. c #2D2F30",
"4. c #312F30",
"5. c #2E3232",
"6. c #2F3836",
"7. c #2F3639",
"8. c #2F3839",
"9. c #273130",
"0. c #333533",
"q. c #3A3632",
"w. c #353836",
"e. c #3B3934",
"r. c #323639",
"t. c #393738",
"y. c #353A3B",
"u. c #3A3C3B",
"i. c #422B0E",
"p. c #45320E",
"a. c #422512",
"s. c #422B15",
"d. c #492E12",
"f. c #402719",
"g. c #422D1C",
"h. c #492E1C",
"j. c #443215",
"k. c #4B3314",
"l. c #43321D",
"z. c #4B341D",
"x. c #463A1D",
"c. c #4B3A1D",
"v. c #4D3917",
"b. c #533D15",
"n. c #5B3E15",
"m. c #523C1D",
"M. c #5A3C1C",
"N. c #56361B",
"B. c #623E18",
"V. c #412E22",
"C. c #412F28",
"Z. c #423324",
"A. c #4A3523",
"S. c #443925",
"D. c #4B3B24",
"F. c #42352B",
"G. c #48372A",
"H. c #433A2D",
"J. c #4B3B2C",
"K. c #523C24",
"L. c #513E2C",
"P. c #583E24",
"I. c #413731",
"U. c #423B33",
"Y. c #4B3D32",
"T. c #423E39",
"R. c #483F38",
"E. c #513F31",
"W. c #3E4036",
"Q. c #36403F",
"!. c #3D403E",
"~. c #3F412D",
"^. c #53421E",
"/. c #5D461B",
"(. c #634419",
"). c #4C4225",
"_. c #46412D",
"`. c #4C422C",
"'. c #4A462C",
"]. c #544324",
"[. c #5A4425",
"{. c #5E4925",
"}. c #53432D",
"|. c #58432D",
" X c #544A2D",
".X c #5B4B2B",
"XX c #534A26",
"oX c #5D512D",
"OX c #444134",
"+X c #4B4333",
"@X c #4E4934",
"#X c #43413C",
"$X c #4A433B",
"%X c #4C483C",
"&X c #47493C",
"*X c #534233",
"=X c #5B4534",
"-X c #534A32",
";X c #524A3A",
":X c #5B4839",
">X c #584539",
",X c #5C5132",
"<X c #55513E",
"1X c #634A25",
"2X c #664D28",
"3X c #695029",
"4X c #614634",
"5X c #373E41",
"6X c #393E41",
"7X c #374042",
"8X c #3C4244",
"9X c #3E4648",
"0X c #414445",
"qX c #4A4641",
"wX c #4B4944",
"eX c #404548",
"rX c #414849",
"tX c #56564A",
"yX c None",
/* pixels */
", P ..S S L L J J } } @.} J J } } } I P D D D z l D @...S I } } } } } } @.I D z F I F z z L L F z z F ! @.I L z j j l P { | T [ S S l J J D l l S P } P D J J l P } } J S S J { { { { { J J S S D J D l S P P J l j l z z z k k g k k l l S S D D D S S J J J l l j l F D l l z l j l l J S l j l D J J D D D S l l S S Z j l l D J l l z J D J l l z z l l ! ! F z J D J J J { S S l S S D l l D D l D D J P P D z L } ..{ { I } l l D D D A D D I D F z D F F D L I D D z D J J P I P S j z L } I D j l l D I z g l l j l D F A l z z L I J D D I P D D } ..P D D D D z z A z z J } @.} J l D ! ^ ! F F I S J J D D I F D D I P l l z J S D z l z l l z l S S S D D D D D D D D D z l D D l l z z J L L L L L L J J P P P P J S J J } } J S l l l D @.! z l l S S S S l j l S J J D D J J D S l D D z l l I I j j j l l l l l l l l S J l S S P l l l l l l z l l l S S D Z l l j j j j j l j j j l l S S D D D D D D D z z z z z z z F z z l l l l l j l J J l j j j j j l l j j j j j j j g j l z l j j j j k k z z l z L I l j l J S j l l z l j l S z z z k k g j z A z l l l D J L J J J P J J J J { J J z z D z D D D J S l l S J J L L J S S S P Y I D L F L J D I @.I F D D I } L A F F L } ....T T { ..P P P P } { S S S S J #.l L *.",
"= P %...} @.I } } } @.#.@.@.} I ....} I U F F F z A I I J I } ..} } } ..@.L F F U ! ! F z F F F z z F ! ! ! F F z z l D D P J J D D z z D F F z D I @.I D z l z F I I D D D I I ....} P D D D D A z z D D D D D l g g k z z g g k z z z l l S l z z D l l l J D l l z ! ! A z z j j g g L L D l l z J J D z z z l l z F F F z F F z z z L F D z g g z z z z R R ! F F D F D D J L D D D F ! R z A z z z z z L I L F D I ! I I I I z z z F F z z z F z F z z z z z F ! ! F A A F D L L ! A z D F F D z l z l z F z g p k k g z A A z z z D L L D D F F F F ! @.I F F F F z k z k z F ! ! I F F A ! ^ ~ ! F D D D D D I ^ ! F F I I L D z D D D z j g j l j z D z z A D z z D F F F D F z z F z z z F F F F L L L F z D @.#.I D D J F F U F D l l z D z ! ! A D l l l l J J l l l D D z D F D z l z A A A z A ^ ! z j l l j g l z z z z z z D D L U D D D D D z z z z z z D I D z l l j j j z z l j z A D D D I D z z L L F z z F z z z F F F A z z z z z l z F F z j k k g g z A z k j g k k k k g k z z j j g j k k z z z z ! L z g j D F z z z z z l D L z k k k k g j l z z z l z D D F D D D J J S z D J F D z z z k k z z A l z j z L L D z z D z D I ! ! F F D L L F F ! ! U D F I L z U F F I } ....| ......I P P P L D D D J D P @.j D *.",
"= } 2.q.q.<.:.;.%.%.%.%.%.%.%.%.%.%.%.#.^ ^ ^ ^ ! U @.#.@.@.@.#.%.#.#.#.#.@.@.! ^ #.#.#.! ! ! ! ! ! ! ^ ^ ! ! ! ! F z ! ! $.#.^ U F F z A ~ ~ R ! ! ^ ! ! ! F ! ^ ^ ^ ! ! ! ! ! @.#.#.^ ! U ! ! F A F ! ! ^ ! I F A D F ! ! F F F ! ! U F L J J F F I D l D } } I z z R ^ ! ! ! ! z z z ^ #.^ F F ! @.@.@.I ! ! F z F ^ #.^ ~ @.! F F ! @.%.#.! F ! #.$.! ! ~ ~ ~ ~ ! ! F F D I ^ ! ! ! ! ~ R R R R ! ! F F ! #.#.^ ! ! #.#.^ ! ^ ! z z ! ! ! ! z ! ! ^ z R ! ! ! ! ! *.#.! ! ! F ! ! ^ ! F ! ! ! F ! ! F z z ! ! k k k z z z ! ! ! F z D I ! ! U ! ! ! ! ^ #.^ ! ! R R x z v v ! ! ^ ^ ^ ^ ! ! R R R ~ ^ ! ! I U U ^ *.*.~ ! ! ! ! ! ! F ! ! ! F k k z z z A ! ! ^ ^ ! ! ! ! ! ^ ^ ~ R A F A F ! ! ^ ^ ! ! ! ! ^ ! ! #.:.#.! ! #.^ ^ ^ ^ ! F A A z F ^ ~ R F z z z A ! ! A z z F ! ! ! ! F F z A ! ! ! z A ~ ! A F F U A A A F ! ! R k z ! ! ! ! L U ! ! ! F F z z z z U ^ A z F z z z F ! ! A F ! ! ! ! ! #.! F ! #.#.! ! ! ! A z z ! ^ ! F A z F ! ! z A ! ! ! F F A z z U ! ! A z z x R R k k F F A z z F F R z z F R ! ~ ! ! z z ! ^ ! ! A z z z F ! ! A A z z z z z z z D F F ! ! ! F F ! ^ I L F F L F F F F k a x R R ~ R R z z ^ #.^ ! ! F ! ! #.*.#.^ ! ! ! ! ! ! ^ $.! F U @.@.I ^ ! ! @.%.%.%.%.%.%.%.%.%.%.#.#.#.#.#.%.#.%.%.8 D *.",
"* ..T.T.T.#XR.T.q.2.q.q.I.2.F.F.I.I.F.<.<.<.<.<.:.$.<.F.<.:.<.2.2.2.2.2.<.<.<.;.:.<.F.F.:.$.;.<.:.$.:.:.$.$.<.:.:.$.^ $.Z.H.F.:.#.#.#.^ ~ $.V./ *.~ ~ ~ *.$.$.:.$.$.$.$.$.$.$.$.$.<.<.<.:.$.$.$.$.^ *.:.Z.Z.$.%.#.#.#.%.;.$.*.#.#.$.$.$.#.%.%.%.&.$.@.I I @.%.%.%.#.^ *.$.#.$.$.$.#.@.@.:.:.$.#.#.%.:.:.;.$.%.$.*.^ ! $.<.$.$.$.$.#.@.%.:.:.:.:.%.$.<.<.:.$.:.:.:.;.%.#.@.@.} #.%.%.$.$.$.$.~ ~ $.$.;.$.#.#.;.<.<.$.~ $.Z.F.F.$.~ *.^ ! #.$.$.$.^ #.$.$.^ ! ^ #.#.#.#.<.<.$.^ ^ ^ #.$.;.^ #.*.#.#.*.$.$.*.^ ^ $.$.~ ~ ^ ^ ^ ^ $.:.;.^ ! ^ $.<.<.$.*.$.$.:.<.<.:.$.*.*.$.*.^ #.$.$.$.;.$.$.$.#.~ / ~ ~ *.:.:.;.$.#.#.$.:.$.$.$.^ #.#.*.*.#.#.$.:.*.! F ! ^ ! F #.<.F.<.<.$.#.^ *.$.$.$.~ ~ ! ! ^ $.$.$.$.$.$.$.$.$.$.$.$.Z.<.$.$.$.Z.Z.Z.$.$.$.^ ! A #.Z./ ~ #.! ! ! #.$.$.^ ! ! #.$.$.$.#.^ ^ ^ ~ $.*.~ ^ ~ ~ $.#.$.$.:.$.$.$.$.$.$.~ ! ! *.$.$.$.#.*.*.*.*.*.*.! ! ! ! #.$.^ I ! ^ #.#.#.@.#.#.#.%.$.$.$.$.$.%.#.#.$.;.$.*.*.~ ^ ! ~ ~ ;.#.@.! ! #.$.^ ! ^ #.$.$.$.#.$.#.#.%.:.%.@.! ^ ^ ~ $.^ ^ #.%.#.@.@.%.%.$.#.#.$.$.$.$.$.$.*.#.$.<.$.$.^ ! ! ! #.#.#.#.^ ~ ~ ^ ! ! ! ! ^ #.$.$.$.*.*.$.<.<.:.%.*.$.#.#.#.$.$.~ R R / / g.g.~ R ! $.<.:.$.#.%.$.$.<.<.<.$.$.*.#.#.$.;.<.F.$.^ #.;.<.:.;.%.%.:.<.<.<.q.q.<.<.:.<.2.F.F.F.F.F.F.F.F.;.8 D $.",
"* ..T.q.q.q.<.<.,.;.<.<.:.:.:.:.:.<.<.:.:.:.:.;.$.$.<.2.:.:.:.<.<.2.<.<.:.:.:.$.:.2.2.<.:.%.:.:.:.;.;.:.:.:.:.:.:.$.#.$.<.H.F.:.#.%.#.#.$.:.:.$.:.#.#.^ #.$.$.$.$.$.#.#.#.#.#.#.%.$.:.<.;.$.$.$.#.#.$.<.<.&.$.%.%.%.%.%.%.%.%.#.#.#.#.#.#.:.:.:.:.$.%.%.%.&.:.:.:.;.%.$.%.%.;.:.;.%.%.%.<.;.&.%.%.;.;.;.;.;.;.$.$.#.@.%.%.%.$.$.%.%.%.%.;.,.;.<.;.:.<.<.:.%.:.;.:.;.;.;.;.%.%.&.<.<.<.:.%.$.$.:.:.:.:.:.%.;.:.2.2.:.$.:.F.F.F.:.$.:.$.#.%.:.<.:.#.;.;.<.#.@.#.%.;.;.;.2.2.;.#.#.%.:.;.:.#.$.$.$.$.$.$.$.$.#.*.$.$.*.^ @.#.#.#.;.:.;.#.^ @.$.:.:.#.#.#.;.;.:.:.%.%.#.#.$.%.! @.%.&.&.&.&.%.@.@.^ ^ ^ ^ ^ $.$.%.#.@.^ #.$.$.*.^ ! ! ! ^ ^ ^ #.#.$.#.F F ! ! F D ! %.$.$.%.@.! ! ! ! ! ^ ! ! F F ! #.%.%.#.#.#.#.#.#.#.#.#.$.$.#.#.#.$.$.$.$.#.^ ^ U F #.:.*.^ @.! @.#.#.%.%.#.! ! #.$.#.#.#.#.#.$.$.$.$.#.! ^ $.$.#.$.$.$.$.$.$.$.$.$.#.! ! #.$.$.$.$.&.:.<.;.;.$.#.! ! #.%.#.^ @.@.%.%.%.%.%.%.:.:.:.:.:.<.<.:.:.:.:.<.2.<.$.$.$.$.*.$.$.<.;.%.%.%.;.;.#.#.#.%.;.;.;.;.:.:.;.:.<.;.%.#.#.%.$.$.%.#.&.&.&.%.&.&.&.%.%.%.&.:.:.;.:.:.;.%.:.<.:.&.#.#.#.@.#.#.#.#.#.#.#.#.^ ! @.! @.%.:.$.#.#.$.$.<.<.;.%.$.$.%.%.#.$.$.~ ~ ~ ~ / / ~ ~ ! ! #.$.#.@.@.%.%.%.%.%.#.@.#.#.@.@.#.%.%.$.#.! ^ #.$.%.#.@.@.%.;.;.;.;.&.&.%.%.%.%.$.$.$.$.$.$.$.<.:.6 D ;.",
"* %.U.#.J [ S S S S S [ S S l l S S P P J J D D D D J P S D J J { } I I I P I J I } } { P P { { P P J J P P { { { { P I I } I P S S D D J P J I I D D l D J J J D S l l l l z D S S S D D D D D z S D J J D D J J J J D J J J J J D D D D I } } I D D J L I I I I P P I I P } @.} J P P ..} } P I } ....} ....I ! I I I } } L I I } I P { } { ..} } ..} I P } } } } I P { { { { } } I I I @.I I } I I I P I ......! F I I I I F F I I D D I I P D I P P D S S S P I I } I J D J P { P P S J J J J L J D F D D F F D z l D D D D P D D z l J L D z z D D D J D S l D z J D l l l D J J J D D l z z D z l z l l l l l l z z z z l l l l l l l l z z l l l g l l l l l D l l j j j j j j j l j j l l l l l l l j j j j l l D D l l l z D F D l l l l j l J S z l l S S D J D D l l S z l l l l D D D D D z l l D D D S l S S S D z z A D l l l J D D J J P P I J D J l D J J D D D J D D D D D D I I I I } } } ..@.@.@.@.@.@.#.@.@.^ ^ @.#.#...@.@.@.@.} ^ ^ ! @.@...I I @.#.@.#.@...} I P P P P P J J P I I I { } I I I I I P J J L J J I L L @.I L L J I I L L I I I D D D D l l J I D l D D D I U D D F D J D D F F F A z z z A z z l l S l l j j l S S S l j j j l l l l l l l l l l l l g j j l l l S D l l l l S S J J J J J D D D $.:.6 D <.",
"% ;.U.} l l w w w w l l l w w w w l l l l l l l j j l l j j l l l l l l l l l l S S l l l l l l l l l l l l w w l S l S l l l l w j j l l w w l l l l j j l j w w 8 8 8 7 q 8 j w w l j j 8 8 8 8 j j j l l j j j j j j j j j j j j j j j j j j j j g j j j j j j j j l l j l l j g g g j j j j j j l j j j j g j j l j l l g l l l l j j l j z l l z z l l z l l l l j j l j j j j j j l z l j l l l l l z l l l S j l l j l l l l l l D z j l l D l l l l l l l l l l l l l l l l l S l l l l l l l l l l l l l l j l j j j j j j j j j j j j j j j l j j l j j j j l j l l 8 l l l l j j j l j l j 8 j j 8 8 j j j j j j l l j 8 8 w 8 8 j j j l j 8 j j l w 8 8 8 8 8 8 8 7 6 7 8 8 8 8 8 8 8 8 7 8 8 8 7 7 5 5 6 8 l 8 8 8 w l l l j w w j 8 w w w l j l l l l l l l S l l l j j j w j l j j j j l j l l j j l w 8 8 8 8 j j j j l w w w w l l l l l l l j j l l l j l j j j j j j j j j g l l l l l j l l l z D F z z z z D D D J D D D D z z z z z z z D S l l z z D z z z D D S S j l l l l l l l l l l z z z z l l g j j j j l l z l l l l l l l l l l l l l l l l j j l l j j j j j l l l l l l l l l l l l l l l j l l j j w 8 8 8 8 8 l l j 8 j j 8 8 8 w w l l 8 j j j j j j j p j j 8 j j j j j l l l l l l l l l l l S %.<.g J Z.",
"* &.R.@.l l l S S [ [ S S S S S S [ [ [ S l l l l l z l j l J J S J J J J l D J J P S { S l l S D S [ { S l S [ T T S S S D S S S l j S T S S S S S l l l l l l w l l w w l l l l [ l l j j 8 l l S S S S S S l l l j j l j j j j j j j j z l j j j g h g k g g g j g g j h h h g u u k k p u u g g h g h g u u u g g g g g h k g g l j j k z z z z z z l z D z z F z z z D z z z z z j j z z l z z z z z J L D D D D S S S D D z z J J J J z z z D D J J J D S D J J J J J J S J J S J S S l l S S S S S D l l l J J z l l l l l z z z z z z l z k k z z z z z l j j l z z l j z l z z z z z l D S l l l l l j j l l l l l z l l S S l l l l S D D S l D S S S S l l S l l l l l w l l l j j l l l l l l l 8 8 l l l 8 l l l l l l S l l l l l l S l l S S S S S S S S S S S S l l l l l l l l S S S S l l l l S S l l S S S S l S S S S S S S S S S S J J D D D D l l l z z k g k k k k g g k k k z z k g j j j z ! ! z z k k z F F F L S S l l z z z z z z z z l z z z z z z z F F D z l l z l j z z z z z k k z z z z z z k k k k j j j l l S j l J z l z z l z z z z z z z D D z l z z l z z z z D S l l z z z l l A D l l l S l j l l l l l S S j j l j j l S S S S S S S S S l l l l z z l l l l l S S S S l l [  .[ S l J z z $.<.g L F.",
"* &.U.@.S l l T  .+.o. . .o.o. . . .+.o.{ P { } I I I I L I @...{ } ..} } } } } } ......{ { { } { J ..%.{ {  . . .....} P I } | { T S { | { { [ ..{ { { { S S T [  .{ S S  .J l {  . .[ S l S S S {  . . . . .{ { { S S J J I J l z z z A F F z k k k z x ! z k k k k z z k k k g p p k i p p p u h h k k h p p k k k k k k z k k z z z z k F F z z x z z z z z z ! F z F F L } I L L D D J D J I L ! I I } I I P } } I } } } } } } } P I } J J J J { { { } { S S } } ..} } I P } { { { { { S S { { J J } { J J } ....} { } } J L @.@.I L I ! F z F L ! L L @.@.I D z D D D D L z z L } L L L J } } { { { { { S J } I D D F I S S { { { [ { ....P J { { I }  . . .{ { { { [ [ [  .[ S { P S S { [ S J J S { S S S { S S l J J J { { { S J { { { { { { { { { { { { { { { { T { J { { J S S S S S J P { { P J J J { { { S { ..| T J { ......| | { P L J J I I I I L L J J J L F F z z x x k g k k k k x F z k g g l z ! ! R z z z z F F U I J J J z z F A z z z z F D z A A z F F A F F F D z D F A A z z x v v v x x x x z F z z z z z F D z z P I S S P } J J D D F z z z F A F L I U F z F D F z z z D J D D D F D D P I I P D L } P S J { { { { | { { { | { S {  . . .{  . . . .[ { { I J @.} { P { { { [ { { } { [ o.+.+...{ } L F :.<.j I Z.",
"* &.U...S S S [ +.0.5.+.+.3.3.+.=.5.0.3.....%.%.%...#.#.#.@.%.%. ...%.%.%.%.%.....%.%.%.+.....%...{ ..,.....+.+.+.%.%.#...#.%.+.+.....+.+.+.+.o.,.+.+.o.+.o. . .+.4.+. . .+...{ +.%.+.+...{ {  .|  .%.+.+.%.+. .+...{ J } ..%.I D ! ! F ! ! ! ! z z x x R R R z k z z F z k k k k k k k i i k k p a k k k k i i k k k k k z x x x x ! F z z ! ! F z x ! z z z z F ! F z F F ! #.@...........} @.@.@.^ %.%.#.#...%.%.....%.%.%.%.+.%...} } } } L } } ..........{ { ..%.#.#...} ....} | ....%.{ { #...{ } %...{ { %.,.,.%.%.,.,.#.#.&.&.@.} #.#.! ! ! @.@.@.@.&.&.#.! I } @.@.#.%.I } #.&.&.#.#.....%.%...%.%.%.....&.%.} I @...{  .+.+.+.+.0.,.%...| ..+.....+.+.+.+.+.+.+.+.o.+.,. .o.+... . ...o.....................} P L I @.%...{ { ..%.......%.+...+.+.+. .+.+. .{ .. ...{ { ..} { { { | | { } ....} J J } ..+. .{ ..+.%.| } #.%.%.....#.%.%.! I I @.@.} I I I } } } } @.! z k x x x k k k k k x z z k j j z z ! R R k k z F I ! I } { { { J F ! ! z z z F ! F z ! ! A ! ! F ! ! F F F ! ! ! F A ~ R R ~ ! v x x ! ! ! F R z z F ! ! F D } @.P J { ..{ { P I ! F z F ! ! ! @.@.@.I L I I ! z k A @.@.} } I I I ....%.%.} } } #...} P } ..+.+.+.+.+.+.,.+. ...%.,.+.+.o. .+.+. ...%.#.} @.} ..+. .|  .+.+.+.+.+.+.5.0.0.,.| { J U :.<.j } <.",
"* %.U...S S S  .+.0.0.0.5.0.0.0.5.0.0.0.+...,.,.%...+.%.#...%.%.+.+.,.,.,.,.%.....%.,.,.+.+.+.%.+.....%...+.,.%.,.,.,.;.@.#.,.,.+.+.,.,.,.+.+.0.0.5.+.+.5.0.+.+.0.r.0.+.=.0.,.+.+.0.0.,.+.+.+.+...+.,.,.%.,.+.+.+.%...} #.#.%.I F ! ! ! ~ ! ! ~ R x ~ R R R x z z z F ! z k k z z z x x i i k k a a k k k k a k k x k k k k v v v R ! ! F ! ! ! ! v ! ! ! ! ! ! ! ! ! ! ! F @.%.......%.%.%.#.%.%.@.#.:.,.&.%.%.=.,.....&.,.%.%.+.,.%.....@.#.} } ......+.+.+.o.o.%.%...#...} ..%.#.+.%.%.%.....%.%.....,.%.....,.w.w.0.,.0.q.,.%.%.0.%...%.$.#.^ @.%.#.#.%.,.,.#.@.@.%.%.%.&.%.#.%.%.0.0.%.%.+.%.0.0.+.0.,.0.4.%.0.,.#.#.%.%.o.+.0.+.+.0.0.0.,.+.+.,.0.+.+.5.0.0.5.+.5.=.5.=.0.0.+.+.+.+.o.o.+.+.%.+.+.+.+.+.+...%.%...I I U } %.%... .+.,.+.+.%.,.%.+.,.%.+.+.=.,.+. .+.,.+.........{  .+.+.+.........} { } ..%.%.+...+.,.,...} ..%.......#.%.%.^ ^ @.&.%...P I @.....} } #.I A k k x x k k k k x x z z z z z A F ! R R x x ! ! ! @...} { } ..} L ! ! x x F ! ! A F ! ! A ! ! ! ! ! ! ! ! ! ^ ^ ! R ~ ~ R ~ R R x ! ! ^ ^ ! R z z F F ! F L @.#.} { ........} I ^ ^ ! ! ! ! @.#.@.} } @...#.@.z k A @.#.@...........+.%.%...{ } %.#.} J { ..%.+.+.+.+.,.0.+.+.+.=.,.=.+.+.+.+.+.+...,.&.} ..} ..%.+. .+.=.=.,.,.,.0.0.0.w.,.| { L D ;.<.8 { <.",
"* %.U.@.S S {  .5.w.w.w.w.r.r.0.0.0.r.0.=.+.0.,.+.+.+.%.%...,.,.,.,.,.,.0.,.%.+.+.%.,.,.+.+.%.%.%...%.%...%.,.%.+.,.1.,.#...%.,.+.+.0.0.0.0.0.0.r.0.5.5.0.0.0.0.r.r.r.0.0.r.w.0.0.0.0.0.0.0.0.0.+.+.0.0.,.,.0.5.0.,.%.%.%.%.%...} @.! ! #.! ! ^ ! F ~ ~ ~ ~ ! F ! F F ! z k k z z x x x i a x k k k k k k k k x x v x k k x x x v R R ! ! ^ #.^ ! ! ! ! ! ! ! ^ ^ ^ ! ! ^ ! @.%.......+.%.%.%.&.&.#.%.<.q.q.0.,.,.0.%.%.%.%.%.+.+.0.0.%.#.%.#.} } ..+.+.+.+.+.+.%.,.%...#...} ..%.%.+.%.%.%.%.%.0.%.+.%.,.,.%.+.,.w.w.w.0.e.e.0.0.0.w.0.%.&.%.#.^ %.;.,.%.,.,.,.%.%.%.,.&.#.#.&.&.%.,.0.0.0.+.0.0.w.w.0.w.w.r.0.0.0.0.%.%.,.,.+.=.0.5.5.0.0.0.0.0.0.0.0.0.0.0.0.0.0.5.5.5.5.0.0.0.0.0.0.+.+.+.0.0.0.,.+.+.,.,.+.+.%.%.+.....I P %.%.%...+.,.+.,.0.0.,.+.0.,.,.=.0.0.+.+.%.0.,.+. .....| +.+.+.%.+.+.+.......%.%.%.%.%.%.=.,.,.+.....+.+.%.%.%.%.#.@.@.%.;.,.%.....#.%.....} ..! ! ! R R R k k k x R x k z A A A F ! ^ ~ R ! ~ ! I ! ..} } { ....} ! ! R x x ! ! F A ! ! ! F ! ! ! ^ ! ! ! ! ! ~ ^ ^ R ~ R R ~ ~ R v R ! R ^ ! R ! F I I ! ! } @.#...........#.} ! ^ ^ ^ ^ @.! ! @.@.} ..%.+.%.#.F z ! @.............+.+.%.%.%.....%.%.} P { %.%.+.+.+.,.,.,.+.+.+.,.,.=.,.,.,.,.,.,.+.%.%.....{ ..,.=.+.=.0.=.,.0.0.0.0.r.0.,. .{ { D ;.<.6 ..<.",
"* %.R.#.S { { ..5.w.w.w.w.r.r.0.0.w.w.w.,.,.0.0.+.+.,.,.+.%.0.0.0.0.,.0.0.,.,.%.%.%.,.%.%.%.,.,.,.%.%.&.@.%.,.%.%.,.1.,...} +.,.3.0.0.0.0.0.0.0.r.r.0.0.0.0.0.0.r.r.r.r.r.r.w.r.0.0.0.0.w.r.r.w.0.0.w.0.0.0.0.0.0.,.,.%.,.%.%.+...#...%.%.........} ! ! @.@.! ! ! ! ! ! ! z z z z x R x a x x x x k k k k k x v R R x x ! ! R x v R R ! ! ^ #.#.! R R R ! ! ! ^ ^ ^ ^ #.#.@.} #.....+.%.,.,.%.,.,.%.:.q.0.q.q.,.,.0.,.%.&.%.%.+.4.0.,.%.%.%.#.#.....+.+.%.%.%.%.,.,.%.%.%.%.+.+.%.+...+.+.+.,.,.0.,.%.,.0.0.0.0.0.0.w.e.w.e.e.e.w.w.e.q.,.&.%.#.@.%.,.,.,.,.,.,.,.0.0.0.,.#.} #.;.,.,.0.w.0.,.w.w.w.w.0.w.w.e.w.w.w.0.0.0.0.0.=.0.0.0.0.0.0.0.0.w.w.0.0.0.0.0.0.5.5.0.0.5.0.0.+.=.0.0.0.=.3.0.0.0.0.0.+.,.0.0.,.%.,.0.0.0.%.....%.0.,.+.+.,.+.5.0.0.5.+.0.0.0.,.0.0.0.,.0.0.=.+. . .....+.+.+.%.+.+.+.+.%.%.%...+.,.,.,.,.,.,.=.+.+.+.+.+.%...@.@.%.&.%.,.,.,.%.%.%.,.%...^ ^ @.#.$./ / R R A R R x x x A A F F ! ^ ~ ~ ~ ! #.@.I } ..} } { ....} ! ! ^ ! ! ! ! F F ! ! ! ! ! ! ! ^ ! ! ! ! ! ! ^ ~ R R R R ~ ~ R R R R ! ! ! ! ! #.#.@.@.! @.......+.%...%.%.@.I ! ! ! #.%.I I } ....+.%.+.=.%.@.I @.%.......%.%.+.%.#.%.&.%.#...%.+.........%.%.+.,.,.,.,.,.,.,.,.,.=.=.0.,.0.0.0.+.+.+..... .+.,.=.+.=.0.0.,.0.0.r.0.0.0.,.....{ D ;.:.6 ..<.",
"* &.R.%.{ { { ..0.r.w.w.w.w.r.w.0.w.t.w.0.0.0.0.+.+.0.,.%.0.0.w.w.w.q.q.w.,.,.,.%.%.,.,.,.%.%.+.%.%.%.%.I ..%.%.,.,.,.;.%.%.%.0.0.0.0.0.0.w.0.0.0.0.0.0.0.0.0.r.r.y.8.r.u.y.w.r.r.r.r.w.w.y.r.r.0.0.0.0.0.0.0.0.0.,.%.%.0.0.0.,.=.+.,.%.%.%.+.+.%.+.#.#.#.#.^ ^ ~ ^ ^ ^ ! R x z x R ~ R x x R x x k k k z x x R R R R ! ! ^ ^ R x R ~ ^ ! ^ $.#.^ ! ^ ^ #.! #.#.^ ~ ~ $.&.#.} ......%.%.%.,.,.0.w.0.<.0.0.0.q.0.0.0.,.&.&.&.,.+.4.0.,.%.%.&.#.%.%.%... .} @.#.%.%.%.%.%.,.,.0.+.+.+...%.%.%.0.,.,.,.,.0.0.0.w.w.0.0.0.w.e.e.e.w.t.t.e.0.,.&.&.%.%.%.,.,.0.,.%.,.0.w.w.0.,.@.@.%.;.,.%.,.w.w.0.w.w.w.w.w.e.e.w.w.w.w.w.w.0.0.0.0.0.w.w.w.w.0.w.w.0.0.0.r.0.0.0.0.0.0.0.0.0.0.5.+.,.0.0.5.=.0.0.0.5.0.3.+.,.0.0.,.,.0.0.r.0.0.%.+.%.,.0.+.,.0.0.0.0.w.0.=.0.0.,.,.0.0.0.0.0.5.,.+.+.......+.+.+.0.0.0.%.+...%.,.%.%.,.,.,.0.,.=.5.5.0.0.0.,.+.+...#.%.,.,.,.,.,.,.%.,.%.....! ^ %.:.:.$./ R ~ ~ ~ R x R R ! ! ! ! #.*.^ R ~ #.%.%.} } @.#.%.} } ..@.@.^ ^ ^ ^ ^ ! L L I @.@.! ! ^ ^ ^ ! ! #.! F ! ^ ! R x R R R ! ~ R R R R ^ ! ! ! @.%.@.@.@.#.%.%.%.%.%.%.%.,.%.@.@.#.#.%.%...} #.%.+.,.%.+.+.,.%.#.%.,... ...%.%.+.@.I @.%.%.%.%.+.+.+.%.#.....%.,.,.=.,.,.,.,.,.,.,.,.0.0.0.0.w.0.%.+.+.+.+. .+.,.,.,.0.0.0.,.0.0.r.0.r.0.0.,...{ D :.:.< @.<.",
"* &.R.%.{ {  .%.0.w.w.w.w.y.y.w.w.w.t.w.r.0.w.0.=.=.0.0.,.0.0.w.w.w.w.e.w.0.0.0.%.%.,.q.,.%.....%.%.%.@.J ..%.%.,.,.,.,.,.,.,.,.,.,.,.0.0.w.0.5.0.0.5.0.r.w.0.w.r.r.0.r.y.y.r.r.r.r.r.r.r.r.r.r.0.0.0.0.0.0.0.r.w.0.0.0.0.0.0.w.w.0.0.,.0.0.0.0.0.0.0.,.%.&.#.@.^ #.#.#.! ! ! ! ! ~ ~ R R R R R R x x x x x x R ~ ~ R ! ^ ^ ~ R R ~ ^ ^ *.~ *.*.#.@.@.*.$.%.%.#.#.*.*.$.&.%.......%.%.,.,.,.,.0.w.w.0.1.1.0.0.0.w.q.,.%.%.&.,.,.,.,.%.%.%.&.#.%.%.%...{ ..#.%.%.%.,.,.,.,.0.0.,.%.%.%.%.%.+.+.+.,.,.,.+.0.0.w.w.0.,.0.q.0.0.0.e.e.e.w.0.,.,.<.,.&.%.,.0.q.,.,.,.0.w.w.0.,...%.&.,.0.0.0.w.w.0.w.w.w.w.w.t.t.w.w.w.w.w.r.w.0.w.w.w.r.w.w.w.0.r.r.0.0.0.0.w.0.0.5.0.0.0.8.r.0.0.0.0.,.5.5.0.0.0.5.5.0.0.0.0.0.0.0.0.0.0.r.r.0.0.+.=.+.0.0.0.0.0.w.r.r.0.0.0.0.+.+.,.0.0.0.0.5.,.,.%.%.%.+.+.+.+.+.,.,.%.....,.,.,.,.,.,.%.,.=.=.5.0.5.,.+.=.,.,.%.;.,.,.,.,.,.,.%.%.,.;.&.@.! ^ %.;.%.$.^ ! ^ $./ ~ R E W / ~ ~ ~ ~ ~ ^ ^ ! %.;.&.#.#.%.%.%.%.%.#.#.@.@.#.^ #.#.! ! ! @.@.@.@.@.@.^ ^ ^ ^ *.^ ! ! ! R ! R ^ ~ ^ ^ ^ ~ ~ ^ ^ #.! L } @.@.@.@.@.%.%.,.,.,.%.%.,.,.,.%.,.,.%.,.%.#...%.,.0.+.+.+.%.,.%.%.;.,.,.+.+.%.%.%.! ! ! #.%.%.%.%.+.%.,.#.} } ..+.+.=.5.=.,.,.,.,.,.0.0.0.0.0.w.0.,.+.+.,.+.+.+.0.0.0.0.r.0.,.0.6.0.0.w.w.0.,.+.{ P :.<.6 } $.",
"* &.R.#.[  ...0.w.w.w.w.y.y.u.u.w.w.u.w.w.w.w.0.0.0.0.w.0.w.w.w.w.0.w.e.w.0.0.0.,.,.,.,.%.%.%.%.%.%.%.#...%.,.%.+.%.%.,.,.0.,.+.,.,.,.%.0.w.0.5.0.0.r.r.r.0.0.0.0.0.0.0.r.r.r.r.y.y.r.r.r.r.r.0.0.w.r.r.r.r.r.r.w.0.w.0.0.w.w.w.w.0.5.0.0.0.0.0.0.0.0.0.0.,.&.#.@.$.:.;.#.^ ^ #.#.^ ^ ~ / / ~ ~ ~ ~ R R R ~ ~ / $.$.*.^ ^ ~ ~ ~ ~ ~ ~ *.$.~ #.$.&.#.#.$.$.$.$.%.%.%.%.&.;.,.,.%.%.%.,.,.,.,.1.0.w.w.w.1.1.0.w.w.0.0.,.,.,.,.,.0.,.,.,.,.,.,.%.%.%.%.%.+.%.%.%.%.%.,.,.,.,.0.,.%.%...%.%.%.+.+.+.,.,.,.%.,.0.0.0.,.,.1.q.0.0.0.e.e.w.0.0.0.0.q.0.,.,.0.w.e.w.0.w.w.w.w.0.0.,.,.,.0.0.0.0.w.w.0.w.w.w.t.t.t.w.w.w.w.w.w.w.w.w.w.w.w.w.w.w.w.r.w.w.r.r.0.0.0.0.5.5.5.5.5.8.8.5.0.0.0.0.5.0.0.0.0.5.5.w.w.0.0.0.w.r.0.0.0.r.r.0.0.0.=.5.0.0.0.0.0.0.0.0.0.0.0.+.+.+.,.,.0.0.5.+.,.,.,.%.%.+... .o.+.+.%.+...%.0.0.,.%.%.,.,.,.5.5.5.0.+.+.=.,.0.,.+.,.,.,.,.,.,.,.%.%.;.,.<.;.#.#.%.&.%.%.%.^ @.$./ ~ R / / g./ ~ ~ ~ ~ ^ #.#.%.,.,.%.%.,.,.,.,.,.,.&.#.#.#.$.%.#.@.@.#.%.%.%.#.#.#.#.^ ^ ^ ^ ^ ! ^ @.#.#.#.$.$.$.&.$.%.#.#.%.%.%.#.%.&.&.%.#.#.%.0.0.0.,.,.%.,.0.0.0.0.0.,.,.,.,.+.+.,.0.+.%.%.%.,.%.#.%.0.,.,.%.%.%.#.@.^ @.#.%.,.%.%.%.%.%.@.L I ..+.+.0.5.=.=.,.0.0.0.0.0.0.,.1.1.,.,.,.,.,.,.+.,.,.,.,.0.w.0.,.0.0.0.r.w.w.0.0.+...} $.:.6 P %.",
"* &.U...{  .%.0.y.u.w.u.u.T.#XW.W.W.W.W.e.e.u.u.t.w.w.w.w.e.e.e.e.e.e.e.e.0.0.0.0.,.%.+.%.,.,.&.%.%.%.#.#.%.%.......%.,.0.0.,.+.%.;.,.,.w.w.0.0.,.0.0.0.5.0.0.5.5.5.5.5.0.r.r.r.y.y.r.r.r.r.r.r.0.w.w.r.r.w.w.w.w.r.r.w.w.w.w.w.w.w.0.0.w.w.0.0.0.w.r.r.w.w.0.,.;.q.e.0.%.#.%.&.;.;.<.:.;.:.:.$.$.:.$.^ ^ #.Z.J.J.H.F.:./ ^ / / $.$.$.:.$.$.$.:.:.:.%.$.%.%.%.&.,.,.,.,.0.0.0.0.,.&.%.%.,.,.,.,.0.w.w.1.,.0.0.0.,.,.0.q.0.,.0.0.0.0.0.0.0.,.+.+.+.%.%.,.,.%.%.%.%.%.%.4.0.0.+.+.+.+.+.=.,.0.0.0.0.0.0.,.%.%.,.0.,.1.q.q.e.e.0.e.t.w.0.w.t.w.w.w.0.w.w.t.t.t.w.w.w.w.w.0.1.,.0.0.w.w.0.r.w.0.+.0.w.w.t.u.e.e.t.t.w.w.w.w.w.w.w.w.w.w.w.w.w.r.w.w.w.r.r.0.0.0.0.0.5.5.5.8.0.0.0.0.r.w.0.0.0.0.0.0.r.r.w.w.0.w.y.w.w.w.r.r.0.0.0.0.0.0.0.w.0.0.5.5.5.r.r.0.+.%.,.0.0.0.0.0.5.3.,.,.=.+...+.,.,.=.5.,.,.,.%.,.0.0.%...%.0.0.0.0.5.5.5.5.+.0.w.0.=.+.+.,.0.0.0.0.,.,.%.%.;.,.,.%.%.%.,.,.;.;.&.%.#.#.:./ $./ $.$.~ ~ / $.#.#.%.,.1.1.,.,.0.w.w.0.0.0.q.<.,.<.<.;.%.%.,.1.,.,.,.,.,.&.;.%.#.@.! @.;.;.;.1.,.,.,.1.0.0.0.,.,.%.+.,.0.,.,.0.0.,.,.=.0.w.0.0.0.,.%.,.0.0.0.0.0.0.0.0.0.0.%.,.0.0.,.,.,.,.%.@.@.0.,.,.,.%.%...@.#.#.%.,.,.%.#.#.%.%.} L } ..+.,.,.,.+.+.+.0.0.w.q.U.U.U.H.2.1.0.w.e.2.<.1.,.1.1.1.<.e.2.2.H.q.w.r.r.0.0.0.%...I $.$.< J &.",
"* &.U...{ +.,.0.y.u.u.W.+X-X X-X-X-X-X-X-X@X&X+XOXe.2.1.1.H.+X@X'.@X+X~.e.0.0.0.1.,...%.%.,.,.&.%.#.%.%.%.+...} } ..%.,.0.0.,.+.%.,.,.,.0.w.0.0.%.%.0.0.0.r.r.5.0.0.0.5.5.r.r.y.y.y.r.r.r.y.w.r.0.w.w.r.0.w.r.w.y.w.w.w.w.r.r.r.y.w.r.r.w.y.w.r.r.u.u.w.w.w.w.w.w.e.e.0.,.%.,.1.0.0.0.e.2.2.2.2.2.H.<.<.%.%.<.J.J.H.H.H.<.<.:.>.Z.Z.F.:.<.;.2.q.q.<.;.%.%.%.%.,.0.w.w.w.w.w.w.w.,.%.%.%.,.,.,.,.,.0.w.0.,.0.0.,.;.,.0.e.0.0.0.0.0.0.0.0.,.,.=.,.,.=.+.+.=.,.%.+.+.%.0.0.0.0.,.,.,.,.=.=.0.w.w.0.0.0.0.0...%.,.0.0.0.0.e.t.t.t.t.t.r.0.w.t.t.r.w.w.w.w.w.w.t.t.u.u.y.0.%.;.,.0.0.w.w.w.w.w.w.0.r.r.w.w.w.0.q.t.t.w.w.y.w.w.w.0.w.w.0.0.0.0.w.w.w.w.r.r.0.0.0.0.0.0.5.5.r.r.0.r.0.r.r.w.,.=.5.5.0.r.w.0.0.0.w.w.r.w.w.0.0.r.0.0.0.r.r.r.r.0.5.5.5.5.r.r.0.+.%.0.w.w.w.r.r.0.0.,.0.,.+...%.0.5.5.5.5.+.%.,.0.0.0.,.%.,.0.w.w.0.0.0.0.0.=.0.w.0.0.+.+.0.w.w.w.w.0.0.%.&.%.,.,.,.,.,.,.1.1.1.,.,.%.%.:.$.;.#.;.$./ / :.<.;.;.,.,.,.;.%.,.0.0.u.w.w.w.e.e.q.q.0.,.,.1.0.e.w.w.w.w.w.w.0.<.;.#...%.0.0.0.0.0.,.0.w.w.0.0.0.0.+.+.5.5.0.0.r.0.0.0.0.w.w.w.0.0.0.,.,.,.,.,.0.0.0.0.0.w.0.%.,.0.0.0.0.,.,.%.#.#.,.,.,.=.,.%.%.@.#.#.;.,.,.%...#.%.%.@.....+.+.,.,.,.+.+.+.=.1.2.+X X X X+XU.e.w.e.W.W.e.e.e.e.e.e.T.+X'.`.`.`.H.w.w.0.1.,.%...I $.$.< P <.",
"= #.2.} [ o.,.0.u.u.u.$X-X,XoX.X X@X+X+X&XOXU.U.e.e.1.1.<._.@X-X X-X-X_.e.w.0.0.,.;.%.%.%.,.%.#.%.&.;.&.%.%.....%.%.%.%.,.,.,.%.,.,.,.,.0.e.w.0.%.+.%.0.0.0.0.0.w.w.w.0.0.r.r.y.y.y.y.r.r.y.w.r.0.w.w.r.0.0.r.w.y.y.w.w.y.r.r.r.y.w.r.w.w.y.u.y.u.u.u.u.w.w.w.w.w.w.w.w.0.0.0.w.0.0.w.e.e.e.q.q.e.e.q.2.1.1.<.H.H.H.2.q.e.e.2.H.J.J.S.F.2.<.2.q.q.e.<.;.<.<.q.0.0.0.0.w.w.w.w.w.0.%.,.,.0.0.1.,.0.w.w.q.0.0.0.0.,.0.0.w.0.0.0.0.0.0.,.%.%.,.,.,.,.,.=.+.+.=.0.0.0.0.w.w.w.w.0.,.0.w.0.0.0.0.0.0.0.0.0.0.%.,.w.e.w.w.0.w.w.e.u.t.t.r.w.w.w.y.y.w.w.w.w.w.w.w.w.w.y.u.0.,.,.0.0.0.w.w.w.r.w.w.w.t.t.t.r.0.0.0.w.w.t.t.t.w.w.w.w.w.w.w.0.0.0.0.0.0.0.0.0.0.w.0.0.0.r.r.0.r.r.r.r.0.0.w.q.,.+.=.0.0.r.w.w.0.0.w.w.w.w.w.0.0.0.r.r.r.w.r.r.r.r.0.0.w.0.r.r.0.0.0.0.0.0.w.w.0.0.0.0.0.0.,.+.+.=.5.5.5.=.+.o.,.0.5.0.,.%.+.=.0.0.0.0.0.0.0.0.0.0.w.w.0.,.0.w.w.w.0.0.0.<.<.,.0.0.0.0.0.0.0.,.,.0.0.;.;.<.:.<.;.;.:.:.$.$.<.<.<.1.<.;.;.;.1.w.r.e.w.0.0.w.w.e.e.0.,.0.w.w.w.w.w.0.0.w.w.w.w.1.,.,.0.0.0.w.w.0.0.w.w.w.0.0.0.w.0.0.0.w.w.w.w.w.0.0.w.w.w.0.0.0.w.0.,.,.+.+.,.0.0.0.w.w.0.+.,.0.w.,.,.,.,.,.%.%.,.,.,.,.,.,.,.@.@.@.&.,.%...#.%.;.;.%.%.+.+.+.%.+.+.+.+.+.,.1.H.'.XX`.`.OXe.0.0.0.w.1.0.w.w.w.0.e.e.OX&X_.`.XX_.e.w.w.0.,.%...} $.$., P <.",
"= #.<.} { +.,.w.t.u.u.#X@X-X-X@X&Xe.y.y.r.0.w.w.w.0.0.0.w.T.T.OXOX$X@X@Xe.e.e.0.,.,.,.,.,.,.%.#.%.;.;.,.,.,.%.%.%.%.%.%.%.,.,.,.,.,.,.,.,.0.0.0.,.%.%.%.,.0.0.0.w.w.w.0.r.r.r.y.y.y.y.r.r.y.w.r.0.w.w.r.0.w.w.y.y.y.w.w.w.w.r.r.w.w.r.w.w.y.u.u.u.5Xu.u.u.u.u.w.w.r.w.u.w.w.w.w.0.w.w.e.e.W.q.e.OXe.q.q.2.1.e.H.H.2.U.U.OXW.e.H.J.J.H.H.2.<.<.<.<.<.q.e.q.q.e.w.0.0.,.0.w.w.t.w.0.,.0.0.q.e.w.w.w.w.w.w.0.0.0.w.1.,.q.0.0.0.0.0.0.,.%.%.%.%.;.,.,.0.,.,.+.,.0.0.w.w.w.w.r.0.,.,.0.w.w.0.0.0.0.0.0.0.0.0.,.q.e.w.w.w.w.w.w.w.t.t.w.r.w.w.w.u.y.w.w.w.u.w.w.w.w.w.t.t.w.w.e.e.w.0.w.w.w.r.w.w.e.e.t.t.u.t.0.0.0.0.e.e.w.0.w.w.w.w.w.w.w.0.0.0.w.w.0.0.0.0.w.0.0.0.r.r.r.r.r.w.r.r.r.w.0.0.0.0.w.0.w.y.y.w.0.0.w.w.w.w.w.0.0.w.w.w.y.w.r.r.r.w.w.w.r.r.w.r.0.w.w.0.0.0.0.0.0.0.0.0.0.0.,.+.=.=.=.0.0.+.+.+.5.5.0.,.,.,.,.,.0.,.5.0.0.0.,.0.w.w.t.e.w.0.w.0.0.0.,.%.<.q.q.0.0.q.q.q.0.,.,.,.0.1.;.;.<.<.q.<.<.<.<.%.#.%.:.<.1.;.;.<.<.<.e.w.e.w.0.0.0.w.e.e.1.1.e.e.w.w.w.w.r.r.w.w.w.w.0.w.w.w.0.0.w.w.0.w.w.t.w.w.w.w.e.w.0.w.w.r.w.w.0.w.r.w.w.w.w.w.w.w.w.w.0.,.+.,.0.0.,.0.w.0.%.,.0.0.,.,.,.,.,.%.%.,.%.%.,.0.0.,.&.@.@.#.+.+.%.%.%.;.;.&.&.+.+.+.+...+.+.+.+.,.w.e.OX_.H.1.1.0.0.5.5.=.=.+.+.+.+.5.5.0.r.u.e.H.+X$Xu.u.e.w.0.,.+.} ;.$., J <.",
"= @.<.}  .+.,.w.w.u.u.u.#X$X%X&X!.r.8.r.r.5.5.5.5.5.5.0.w.t.t.w.w.W.$X@Xe.e.w.w.0.0.1.0.w.0.,.%.%.,.<.,.,.,.,.%.+.%.&.%.%.:.,.,.,.0.,.,.,.,.1.0.q.0.,.%.,.0.0.w.0.w.0.0.r.y.y.y.y.y.y.y.w.u.w.0.0.w.w.r.0.w.w.y.y.y.w.w.y.w.w.r.w.w.r.w.u.u.y.u.u.5X5X7Xu.w.t.t.w.w.w.u.t.e.w.w.w.w.w.e.W.OXe.q.OXT.T.e.e.e.e.H.H.H.OXOXOXOXe.H.J.J.`.H.2.U.q.<.<.q.q.e.e.q.e.e.q.q.<.0.0.e.e.w.,.,.q.w.w.w.e.t.w.w.q.0.0.w.t.w.,.&.q.e.w.w.w.0.0.0.,.&.%.%.%.,.,.0.e.0.,.,.0.0.0.0.w.w.w.0.,.0.w.w.w.w.w.0.0.0.,.,.0.,.,.q.e.w.w.t.t.w.e.w.w.e.t.t.u.u.u.y.t.t.t.t.t.t.w.w.w.t.t.e.w.w.u.t.e.e.e.t.w.w.w.t.w.q.w.t.u.u.t.w.0.q.w.0.0.0.q.e.w.w.w.w.w.w.w.w.w.w.0.0.0.w.w.0.0.r.r.r.y.y.y.y.w.w.w.w.1.1.0.e.w.w.w.y.u.w.w.w.w.w.w.w.w.w.w.0.w.u.w.w.r.r.w.w.w.w.r.w.w.w.w.w.0.0.0.,.0.0.,.0.0.0.0.0.0.,.+.%.=.=.0.,.+.+.,.0.0.,.1.0.,.,.,.,.,.0.0.,.,.0.w.w.e.e.e.e.w.0.0.0.,.%.,.q.q.1.,.<.q.e.0.%.,.,.1.,.:.;.<.2.q.1.1.1.<.:.%.&.2.2.<.;.:.H.H.H.e.e.e.e.w.0.w.e.t.q.e.e.e.e.e.t.t.t.t.t.w.w.w.w.w.u.u.u.e.0.0.w.0.0.w.w.w.w.w.w.w.w.w.w.w.w.w.w.w.w.r.w.w.u.t.w.w.w.w.w.w.w.0.0.0.,.,.,.0.0.,.,.w.0.,.0.0.0.,.,.;.0.,.,.0.w.0.1.<.%.@.%.,.%.%.%.,.,.%.#.&.,.,.%...+.%.%.+.+.,.0.e.U.H.e.0.0.0.0.5.=.+.+.o.o.+.+.+.5.5.5.8.8.e.+X$X!.7Xu.w.0.+.+.} :.&., P :.",
"= @.:.{  .+.0.r.r.y.y.u.u.#X0X!.w.5.5.0.0.5.5.=.=.5.=.0.w.u.w.r.r.e.$X@Xe.e.w.w.w.q.0.w.w.w.0.,.,.;.<.,.,.%.%.+.+.%.,.%.#.&.,.0.0.0.<.,.,.,.1.q.e.0.,.%.%.,.0.w.w.w.0.0.r.y.y.y.y.y.y.w.w.y.w.r.0.w.w.w.w.w.u.y.w.w.w.w.y.y.w.0.w.w.r.w.u.u.y.y.u.8X5X7Xu.w.t.t.e.e.t.u.u.t.e.w.u.t.t.u.#XW.e.e.T.T.T.OXe.e.e.OXJ.`.+XOXOXe.OXH.H.`.'.+X2.T.e.e.e.e.e.e.T.T.e.e.e.e.2.<.0.e.e.1.&.,.w.t.w.t.t.t.t.w.,.,.0.w.w.w.+.%.q.t.t.t.e.w.w.0.1.;.,.,.;.1.0.w.w.0.0.0.0.0.0.0.e.w.w.0.,.0.w.w.w.w.w.0.0.0.1.1.,.,.;.0.e.t.u.u.t.e.e.q.q.q.e.t.u.u.u.y.w.t.u.t.u.t.w.0.w.t.w.e.w.w.y.t.t.e.t.t.t.t.t.e.0.<.0.t.u.u.u.e.q.q.q.0.0.w.e.e.w.w.w.w.w.w.w.w.w.w.0.0.0.0.q.0.w.w.y.y.u.y.u.u.w.0.w.w.0.0.w.e.w.t.u.u.u.u.u.w.w.w.w.w.u.u.w.0.w.w.w.w.w.w.w.w.w.q.w.w.w.w.w.w.w.w.0.0.w.0.=.0.w.w.0.0.0.0.,.,.,.0.0.0.=.,.,.0.0.,.,.,.,.,.,.,.0.0.0.,.,.0.0.w.w.e.e.e.w.0.0.0.,.,.q.q.0.,.,.<.2.e.0.%.;.q.q.,.;.;.<.2.q.;.,.1.<.<.<.2.2.2.<.<.2.J._.H.2.e.e.e.e.w.w.t.t.q.T.#Xe.w.t.u.u.u.u.t.w.w.w.t.u.u.u.u.t.w.0.w.w.w.0.0.w.w.u.w.w.w.w.w.w.w.w.w.w.w.w.w.y.u.u.w.r.w.w.w.w.w.w.0.1.%.%.,.0.,.,.1.w.0.0.0.0.0.,.%.,.0.0.0.w.w.w.w.<.;.%.%.,.,.,.%.;.;.@.#.;.,.,.,.+.%.,.0.0.,.,.1.q.U.OXw.r.r.0.0.5.+. ... . .X. .o.+.=.5.5.7.w.OXOXW.5Xu.w.0.+...} ;.:.5 J :.",
"* ..:.{  .+.5.0.0.y.y.w.e.u.u.u.w.0.0.0.0.5.+.+.+.%.,.0.w.w.w.y.w.u.%X@Xe.q.w.e.w.q.q.w.w.w.w.0.,.%.&.%.,.%.+.+...+.,.,.&.&.,.0.0.<.;.&.%.,.q.q.0.0.,.+.%.,.1.0.w.0.%.%.0.r.y.y.y.y.y.w.w.y.y.y.r.r.w.w.w.y.u.y.w.w.w.w.y.y.w.0.w.w.y.y.5X5Xy.u.u.8X7X5Xu.w.w.w.t.u.u.W.u.u.e.t.u.u.u.W.#Xe.e.u.T.T.W.OXe.e.e.OX}. X'.W.e.OX+XOX+X_.+XOXe.u.W.#XT.e.e.e.T.T.u.u.e.u.e.q.0.q.<.;.%.,.w.e.t.u.t.t.t.0.&.%.,.0.0.0.%.%.0.t.u.u.u.u.w.w.w.,.%.,.,.0.w.e.w.w.e.w.w.w.0.w.0.0.0.0.<.0.0.e.t.w.r.w.0.0.0.0.,.,.:.<.q.t.u.u.y.u.q.<.<.0.0.w.u.u.u.u.w.t.u.u.u.e.,.,.0.w.0.w.w.w.w.w.t.t.u.t.t.e.q.q.,.q.q.e.u.u.t.e.e.e.q.,.,.w.t.e.w.w.r.r.r.r.w.w.0.w.0.,.&.%.:.,.w.y.u.u.u.u.w.r.0.0.w.w.w.0.q.e.e.u.5Xu.u.u.u.w.0.1.t.u.u.u.w.,.,.w.w.w.w.w.w.w.w.0.w.w.y.w.w.w.w.w.w.0.w.w.0.0.w.w.0.0.0.0.,.,.,.0.0.5.5.0.0.0.w.0.0.0.0.0.=.0.0.0.5.5.0.0.0.w.w.w.w.w.0.0.,.,.,.,.e.e.0.0.0.<.2.q.0.,.,.0.0.,.,.<.;.e.e.,.,.0.0.1.e.e.q.2.2.q.H.H.`._.H.U.W.u.u.t.t.e.w.U.OX#Xe.w.u.u.u.u.u.t.0.w.t.u.t.t.u.u.t.w.w.w.w.w.0.0.w.r.u.w.w.w.w.y.w.w.w.w.w.w.w.y.y.y.w.w.w.w.w.w.w.r.0.1.,.%.%.0.0.1.,.,.w.0.w.0.0.,.#.#.:.w.0.0.0.w.e.t.q.,.%.%.%.%.+.%.;.%...#.,.0.,.,.=.,.,.0.,.,.,.0.0.e.OX0.0.0.0.5.5. .S J J S S S [  .+.5.5.0.e.OXW.u.y.w.0.+.+.} } $.:.6 J &.",
"* ..:.P [ O.+.5.r.y.r.r.u.u.u.w.w.=.[ [  .[ S S S S +.1.0.w.w.y.t.#X;X@Xe.q.q.q.q.q.q.w.w.w.w.w.q.%.%.%.,.+. . . ...&.,.,.,.<.;.&.%.#.#.@.:.q.<.,.,.,.,.&.&.,.0.,.%.#.%.0.0.r.r.y.5Xy.r.r.w.w.w.w.r.r.w.w.u.t.w.w.w.w.w.y.y.0.0.w.w.y.5X5Xy.y.y.u.u.5Xu.r.r.r.y.w.u.u.u.u.u.w.u.u.u.T.#XT.T.T.OXU.OXOXOXW.OXU.+X X.X`.S.OX+X+X+X+X`._.OXT.u.T.#X#XT.u.T.T.e.u.u.u.u.e.e.q.,.;.&.&.<.q.e.e.e.e.e.e.<.&.&.,.0.,.,.,.;.,.w.t.u.t.t.t.e.q.,.%.%.&.e.w.w.w.w.e.w.w.w.w.0.0.w.0.0.0.0.0.w.t.t.w.w.0.,.,.,.,.,.:.<.0.w.t.u.u.e.,.&.<.,.,.w.u.u.u.t.t.t.t.t.t.q.;.&.&.0.w.q.e.e.w.q.w.e.t.t.e.<.,.<.q.T.e.e.u.e.e.q.w.q.<.;.&.0.w.q.q.0.w.w.w.w.0.0.w.w.0.;.%.#.%.&.0.t.u.u.u.w.0.0.,.,.0.e.q.2.2.:.<.e.u.u.u.u.u.w.,.:.e.u.u.t.e.1.,.,.0.0.,.0.w.w.0.,.0.t.w.w.w.w.w.w.w.0.0.0.0.w.w.w.0.0.0.0.,.,.+.,.=.=.+.,.,.+.0.0.0.0.0.,.+.+.+.+.+.,.0.0.0.w.w.w.w.0.,.,.,.,.,.,.e.e.e.0.,.q.q.1.,.;.,.1.1.,.<.2.<.<.e.e.0.1.<.q.U.U.H.2.2.U.H.H.H.H.H.U.OXe.e.e.e.w.<.H.Y.U.q.e.e.u.u.u.u.t.w.w.u.t.u.w.w.w.e.e.e.t.w.w.w.w.w.w.t.w.w.w.w.w.w.w.w.0.0.0.0.w.r.w.w.r.0.w.w.w.w.0.0.;.%.&.,.0.0.1.,.,.0.,.<.<.<.%.I @.;.q.0.0.0.0.0.e.q.;.#.........;.<.:.%.%.,.0.,.,.,.,.,.,.,.,.,.0.,.q.OXe.w.0.0.0.=.S 6 , 6 > 5 5 5 5 n O.5.0.e.T.e.r.r.0.=.+. .{ I %.;.6 J $.",
"* @.<.I S [  .+.5.y.r.0.u.u.e.r.0. .> * = = = = * > P 1.,.w.w.w.w.e.+XH.2.q.q.q.q.q.q.0.0.0.q.q.q.:.%.:.:.#.@.#.%.%.$.&.<.<.<.;.$.*.*./ / :.2.<.<.:.:.:.%.%.;.;.;.#.#.:.<.q.e.e.e.u.u.e.e.e.0.e.e.e.e.e.q.q.q.e.t.e.e.e.e.e.e.e.e.e.e.u.u.t.u.u.e.u.u.e.e.e.e.e.e.q.T.e.e.e.e.e.T.R.OX+XOXOX$XOXH._._.'.`.-X@X'. X.X}.}.-X X}.}.}.`.`._.$XOXU.U.U.U.R.OXU.H.U.OX#XT.U.q.2.:.:.<.<.2.H.H.2.U.U.U.U.<.<.<.2.2.<.<.2.H.2.q.e.e.e.e.q.q.2.:.&.:.q.T.q.q.e.e.e.e.0.q.e.e.e.e.e.e.e.w.0.w.e.q.q.<.<.:.;.;.:.2.2.2.q.q.e.u.e.<.&.$.<.q.q.e.e.e.e.e.q.e.e.e.q.<.<.<.<.q.q.q.q.2.<.:.:.<.e.q.<.%.#.:.U.T.U.e.q.q.q.2.<.<.<.:.:.<.2.2.2.<.1.0.0.0.0.w.0.0.;.$.$.$.$.$.2.U.u.e.e.q.<.<.;.;.<.2.H.G.Z.$.$.2.0.w.e.u.e.q.<.<.H.U.q.q.q.q.2.:.<.2.:.%.;.<.q.e.e.e.e.e.e.q.0.w.0.,.,.,.,.q.e.w.0.0.0.1.;.%.%.;.%.%.%.;.%.%.;.,.,.,.;.%.#.#.%.%.,.,.2.<.<.<.2.q.2.<.<.:.:.:.:.2.<.U.U.2.<.<.2.<.2.F.<.<.2.H.H.H.H.H.U.OXU.2.H.H.H.H.H.S.D.J._._._.`.`.}.OX2.2.q.e.U.H.J.J.+XOXU.e.e.t.u.u.e.0.e.u.u.u.u.u.u.e.q.2.e.e.e.e.I.e.q.e.e.e.e.e.e.e.e.q.q.0.w.w.w.w.e.e.w.0.0.e.0.0.q.1.%.%.<.2.q.<.<.<.<.q.2.F.<.:.$.%.;.:.<.<.q.q.q.<.<.:.%.%.%.%.%.&.:.2.2.:.:.,.,.,.:.:.;.;.,.1.1.1.0.,.2.U.0.0.w.0.0.+.l % $ o . o % $ o 5 O.5.0.e.U.0.0.r.0.,.+...{ J @.%., J *.",
"= @.<.I S { ..0.0.r.w.0.e.e.e.w.0.S o . $ % % % o o S 1.,.0.w.w.w.q.+XS.<.<.q.q.q.q.q.<.q.2.2.F.H.F.Z.G.Z.$.$.$.:.Z.G.Z.<.<.F.F.Z.Z.Z.Z.F.F.H.H.J.H.H.<.&.;.<.H.H.H.F.F.F.2.2.2.2.U.U.U.U.U.2.2.U.U.U.H.H.H.H.H.U.U.H.2.U.U.U.H.<.2.U.H.H.U.U.H.J.Y.J.Y.H.H.H.H.H.J.J.U.U.U.OXOX$X+X+X+X+X+X+X+X+X`.`.}..X2X.X@X`. X-X-X-X-X{..X.X}. X-X-X;X+X_.J.`.`.+X}.J.J.+X+X@XU.U.U.H.H.J.J.J.Y.J.J.Y.U.H.J.H.J.J.J.H.H.H.U.U.U.H.2.T.R.U.H.H.F.F.F.U.T.#XU.q.U.T.U.q.q.q.q.U.U.q.q.q.e.e.e.q.q.2.:.<.:.$.$.:.F.U.U.U.U.U.q.q.e.F.Z.F.I.U.I.q.U.U.U.U.H.U.R.U.F.$.Z.G.Z.<.2.2.<.:.$.$.$.$.<.:.%.@.#.$.F.U.U.U.:.:.F.2.<.:.<.<.;.<.<.<.:.#.#.&.;.;.,.q.<.:.#.#.$.$.$.$.<.F.F.2.<.<.<.<.;.$.:.:.F.F.V./ / F.2.2.q.U.U.H.F.G.F.F.<.<.H.U.U.H.Z.Z.<.:.$.<.U.U.U.U.U.U.H.<.q.q.2.<.:.:.<.2.2.q.2.2.2.2.:.<.<.<.#.#.;.<.2.<.2.<.:.;.;.;.$.$.%.:.2.U.G.G.G.G.G.J.J.Y.U.H.H.H.U.Y.D.D.J.J.G.Z.Z.H.+X*XJ.J.J.}.L.K.K.}.`.+X+X`.`.}.`.D.).}. X}.}. X X}. X X$XH.H.U.U.U.U.J.J.Y.OXT.e.q.e.e.U.T.q.e.u.u.T.T.T.U.2.<.<.F.H.H.F.Z.F.<.U.q.q.q.q.q.q.<.<.<.q.q.e.q.q.e.q.<.<.<.:.<.<.2.:.$.$.:.F.2.<.2.F.H.F.2.F.F.<.2.U.2.<.<.2.U.U.U.2.2.Z.:.:.<.:.$.$.:.F.F.<.;.;.:.<.Z.:.$.:.<.<.<.0.0.,.2.H.;.,.0.=.+.+.w o % % * = % % $ 8 +.5.0.q.q.1.0.r.w.1.;.%...P @.@., J $.",
"* I <.! } +.,.q.w.e.e.<.2.2.e.w.,.w o = < j j 6 % o S ,.;.0.w.e.e.e.+XH.<.2.2.q.q.e.e.H.H.F.F.F.H.H.G.Z.V./ V.Z.G.G.G.Z.:.:.F.F.F.F.F.G.<.2.H.U.Y.U.U.q.q.2.q.U.U.H.2.<.<.2.:.:.<.2.H.U.U.H.;.$.F.H.H.F.H.J.H.H.U.H.<.<.H.H.U.H.<.<.H.J.J.Y.H.F.Z.Z.J.J.H.Z.:.:.F.J.Y.U.U.U.U.U.U.U.U.U.U.U.U.R.U.H.J.-X,X.XXXOXOX+X@X+X+X@X X X X-X-X-X-X;X@X_.`.`.`._.*XL.J.J.J.+XU.U.U.U.U.U.H.H.H.H.H.U.H.F.H.H.U.U.H.F.F.U.q.H.U.2.:.2.U.q.U.2.<.<.2.q.q.U.2.2.q.q.q.q.q.2.q.q.q.;.&.<.e.e.e.q.<.:.:.:.$.#.*.$.<.2.U.T.U.<.:.q.e.U.2.2.q.q.U.e.e.U.T.U.2.q.U.U.;.#.$.2.q.q.e.q.q.<.<.:.:.:.q.q.<.2.2.q.e.e.T.e.<.<.U.q.q.<.<.;.&.:.:.<.:.%.%.;.,.1.0.q.q.<.&.$.:.<.<.<.<.<.<.<.<.<.2.<.;.:.2.2.H.F.:.*.$.F.q.q.q.q.H.H.F.<.<.<.<.<.2.U.U.H.F.:.<.<.<.2.U.H.H.I.<.<.<.$.q.q.q.q.2.2.q.F.2.2.<.2.2.<.2.2.2.$.@.#.:.2.:.:.<.;.%.$.;.:.:.:.$.:.2.2.F.Z.Z.Z.G.G.J.H.H.F.Z.F.U.U.S.Z.Z.J.Z.$.Z.H.+X*XJ.J.J.}.|.[.K.}.`.J.J.`.-X-X}.`.`.-X-X}. X-X-X_.H.H.R.q.2.<.<.<.2.H.U.e.e.e.0.0.e.e.q.q.<.,.q.e.e.U.e.q.:.:.F.U.U.2.<.<.<.<.q.<.2.<.<.2.2.;.;.;.<.<.<.1.q.e.e.2.:.:.:.<.e.q.2.:.%.:.<.<.1.<.q.q.q.<.<.2.<.q.q.<.;.:.<.2.2.2.2.2.F.<.$.$.$.;.:.<.;.:.$.%.$.Z.H.F.:.$.:.:.:.;.,.,.<.H.+X2.q.0.,.+.+.8 . = 8 l l u & % 8 +.=.,.<.<.<.,.0.0.<.:.&.#.} @.@., J $.",
"= @.<.#.#.%.;.<.<.q.2.<.H.<.1.w.=.5 * j U ^ ^ D % o { <.<.1.0.e.e.<.H.:.<.2.q.q.e.U.U.H.<.2.F.H.H.U.H.<.*.$.:.<.:.2.2.:.$.$.:.2.q.q.<.<.<.e.e.q.<.e.w.w.w.w.w.t.w.w.e.q.q.e.w.0.0.e.e.e.e.q.;.,.e.q.e.<.q.T.e.u.e.e.q.q.e.e.e.q.e.e.e.T.T.T.e.<.:.2.e.e.e.1.,.,.e.#XT.u.u.u.u.u.e.e.e.e.e.u.u.u.e.e.e.$X$X+XU.e.u.u.e.e.T.T.$X$X$X&X$X#XOX#X#XR.U.R.$XR.+XY.U.<.2.T.T.q.<.<.q.e.e.q.q.q.e.u.q.,.q.q.e.e.<.<.q.e.t.e.e.q.,.0.q.e.e.<.<.<.q.q.q.e.e.e.e.e.u.u.e.e.e.e.0.0.0.e.u.t.t.e.0.0.q.e.0.0.0.e.e.w.t.u.e.0.0.e.t.e.0.w.t.u.u.!.u.u.u.t.w.e.T.e.1.,.0.e.t.u.u.u.t.t.t.e.t.u.!.!.!.8X8X8X7X!.u.u.t.u.!.u.!.u.t.t.t.t.u.e.e.w.0.e.u.u.u.u.u.u.t.e.u.u.e.q.<.<.e.e.u.!.!.u.e.u.!.#X#XT.e.e.e.e.u.e.e.e.e.e.e.e.e.e.e.e.t.e.e.e.q.q.q.e.e.t.t.e.e.w.,.;.<.;.w.e.e.e.e.q.e.q.q.1.1.0.0.0.0.,.,.%.%.,.0.0.%.,.,.%.%.&.;.,.,.%.,.0.0.0.1.<.<.:.:.2.q.q.<.,.,.<.e.e.U.2.F.2.<.:.<.q.e.U.T.e.q.U.*X].J.H.H.2.U.OX@X$XU.U.T.T.OX$X$X%X%X#Xe.e.u.u.t.w.w.w.t.u.u.u.u.t.e.e.e.e.e.w.0.w.w.t.u.u.u.w.w.e.e.u.u.e.q.w.e.w.e.e.e.w.0.e.e.e.e.e.e.e.e.w.t.u.u.e.w.w.e.t.u.t.e.w.w.w.w.e.t.t.t.t.u.w.;.q.w.w.w.0.,.,.0.w.w.0.0.0.<.2.<.&.;.<.q.<.<.,.<.&.&.<.H.H.2.<.q.q.1.,.,.,.2.+X-XH.q.0.,.+.+.7 . , ,.<.;.^ p $ 8  .+.%.;.>.<.,.,.1.;.:.&.#.@.%.@.< L :.",
"> @.F.$.#.%.;.<.<.q.H.H.H.>.1.0.+.> ; I H.H._.;.; o ..2.2.e.e.e.q.2.<.:.<.2.q.q.e.T.U.2.<.2.U.T.T.T.U.<.&.:.:.<.1.0.<.<.:.:.q.t.t.t.w.q.e.u.e.w.0.w.u.u.5X5Xu.5Xu.u.u.u.w.w.u.u.u.u.u.u.t.t.w.w.t.u.t.t.u.u.u.u.u.y.w.w.u.u.u.u.u.u.u.u.5X5X5Xy.t.u.7X5X5Xy.r.y.5X0X!.7X7X5X5X5Xu.Q.5Xu.5X5X7X7X!.7X!.!.w.u.t.t.w.w.t.u.u.u.0X0X0X0X8Xu.e.8XT.e.e.T.&X#X$X$XR.e.e.u.u.e.0.0.w.t.u.t.e.e.u.u.t.w.t.t.t.w.0.0.w.w.u.u.u.t.w.w.w.t.t.0.w.w.e.w.w.e.t.u.w.w.u.u.u.u.t.w.0.w.u.u.5Xu.u.u.w.t.u.u.y.w.t.u.5Xy.y.u.u.w.u.6X5X5Xu.5X5X7X7X7X8X8X8Xu.u.6X8X!.u.w.t.u.7X7X5X7X5X5Xu.y.u.u.7X7X7X7X7X9X9X8XQ.7X8X8X9X8X7X7X7X7X5X5X7Xu.u.u.u.u.7X7X7X8X8X8X8X8X8X8X8Xu.e.e.u.8X7X7X7X7X7X!.8X7X8X8X8X8X8X8X!.!.!.!.!.8X8X8X7X6X6X8X8X6Xu.u.u.t.t.t.u.5X5X!.u.w.r.w.w.w.w.w.w.w.w.r.r.e.w.w.w.w.w.w.0.0.0.0.w.w.r.w.0.0.,.%.%.,.0.0.0.0.0.w.r.w.0.w.0.0.0.q.e.w.w.0.0.w.u.u.u.u.e.e.q.e.e.u.w.t.u.u.w.e.OXY.H.2.e.e.e.e.T.e.e.e.t.t.u.u.e.T.#X#Xu.5Xu.u.u.u.u.u.u.u.5X8X5Xu.u.u.u.u.u.w.w.u.5X5X7X7X7X7Xu.u.u.5Xu.u.u.u.u.y.u.u.u.u.u.u.u.u.u.u.u.y.y.y.5X7X7Xu.u.u.u.u.u.y.y.y.w.y.y.u.u.y.r.y.u.w.w.e.u.u.u.w.w.w.w.u.u.u.w.w.q.e.q.1.0.w.w.w.w.0.q.<.<.<.2.q.q.q.e.w.0.0.0.1.2.+X}.F.<.,.%.+.+.q o 8 qX%X$XH.A $ 8 ..+.,.;.F.2.1.,.,.:.$.#.#.@.%.%., L $.",
"> @.H.$.#.,.1.e.e.e.H.H.H.<.0.5.=.> * ^ @X;X<X2.5 + ..2.q.e.e.e.e.U.U.U.U.2.q.e.e.u.e.<.e.e.u.u.u.e.e.e.w.,.,.q.e.w.w.e.w.w.e.w.u.u.e.e.e.u.w.r.w.w.y.y.u.5X5X7X7Xu.w.w.r.u.5X5X5Xu.5X5X5Xu.y.w.w.y.y.5X8Xu.w.u.5Xu.u.u.u.u.u.w.w.t.w.u.u.u.u.5X5X7X7X7X5Xu.u.u.5Xu.u.u.w.u.5X5Xu.u.u.u.y.u.u.u.!.!.!.!.t.t.u.t.t.t.u.u.u.u.#X#X#X#Xu.u.u.8XT.U.<.q.#X&X&XR.U.e.u.u.u.e.0.0.w.t.e.e.e.t.u.e.e.w.t.u.t.w.w.0.0.0.w.t.w.w.w.w.e.t.e.0.w.t.u.w.w.e.e.t.w.w.u.7X8Xu.r.r.w.u.u.u.u.u.t.t.w.w.5X5Xy.y.y.5X5Xy.r.r.w.u.5X7X7X7X7X5X5X5X7X8Xu.t.w.7X7X7X8X9X7X7X5X5X7X5X5X7X8X8X6Xw.0.u.7X7X7X7X9X9X9X7X7X7X7X8X9X9X8X8X8X8X7X8X7X8X8X!.7X8X8X9X9X9X8X8X8X8X8X8X8X8X5X5X7X9X9X9X8X7X7X8X8X8X7X8X9X9X9X9X9X9X9X8X8X9X9X7X8X8X8X7X8X7X7Xu.u.w.w.u.5X5X7X7Xu.u.y.w.w.w.6Xw.0.w.t.w.y.w.r.r.r.w.y.y.0.0.0.w.0.0.0.w.w.,.+.%.0.0.5.0.0.0.0.=.0.w.0.0.0.0.e.e.t.w.t.w.w.w.t.u.u.u.e.e.e.u.u.u.u.u.e.e.0.0.e.q.2.2.q.e.e.e.w.0.w.u.e.e.e.e.e.q.e.e.u.u.u.y.y.w.w.y.u.u.5Xu.u.u.u.u.u.u.u.y.u.u.5X5Xu.u.7Xu.5X5X5X5X5X7XQ.5X5X5X7X5X5X7X7X5X5Xu.y.y.u.y.y.w.t.t.t.w.w.w.w.w.y.w.y.y.r.y.y.y.r.r.w.y.u.w.u.5Xu.u.t.w.y.y.w.w.y.t.t.t.q.,.:.<.q.e.w.w.w.w.q.e.q.q.q.e.e.w.w.w.w.w.w.w.e.H.H.<.1.0.,.,.+.w o j wXtXtX;X! $ 6 ..=.w.q.H.H.2.q.q.<.,...} @.%.%., I <.",
"> ! H.$.#.,.0.e.u.u.e.2.<.2.w.r.=.> * P H.+X+X;.5 o T <.e.e.#XT.e.e.U.2.U.2.q.e.e.e.e.2.q.e.e.e.e.e.e.e.w.0.,.<.q.e.e.e.t.w.e.w.t.e.q.1.q.e.w.w.u.u.u.w.u.5X5X7X7Xu.w.0.r.u.5X5X5X5X5X5X5Xu.u.y.u.u.u.7X8Xu.u.5X8Xu.u.u.u.u.w.w.w.u.u.u.u.5Xu.5X5X7X7X7X5X5Xu.u.u.u.t.w.w.y.u.5X5X7Xu.u.w.w.w.e.w.e.u.u.u.t.t.t.t.u.u.u.u.u.q.<.q.u.e.e.T.u.U.H.H.U.U.H.H.F.2.q.e.u.t.e.w.w.w.t.w.q.q.e.e.q.0.0.e.t.w.w.w.w.w.w.w.w.0.0.w.t.t.t.0.,.0.t.u.w.0.w.t.t.w.w.u.7X7Xu.w.w.u.u.5X7Xu.w.0.w.u.u.u.5Xu.y.y.5X5X5Xr.r.y.5X7X7X7X7X7X5X5X5X7X8Xt.t.u.8X9X9X8X8X7X7X7X7X8X5X7X8X8X8X8Xw.w.!.7X7X9X9X9X9X9X7X7X7X9X9X9X9X9X8X8X8X8X8X8X8X8X8X7X8X9X9X9X9X9X8X9X9X9X9X8X9X8X8X9XrX9X9X9X9X9X8X8X8X8X9X9X8X0X0X0X9X8X9X9X9X9X9X8X8X8X8X7X7X7X8Xu.t.w.w.u.7X5X5X5X5Xu.u.u.u.5Xw.r.w.u.u.y.u.r.0.0.w.y.y.r.r.0.0.+.+.0.0.0.=.o.+.0.0.0.0.0.0.+.+.+.+.,.,.,.0.w.t.t.u.u.u.t.t.t.e.q.q.q.q.w.y.u.u.u.t.e.w.0.0.<.<.2.<.e.e.H.H.<.e.e.u.#Xe.e.q.q.q.q.w.w.u.u.y.u.y.u.y.y.u.u.u.u.u.u.u.u.!.7Xu.w.w.u.u.u.u.u.y.u.5Xu.5X5X5X7X7X5Xu.7Xu.5X5X5Xu.u.t.y.y.u.u.y.y.w.w.w.w.w.w.w.y.y.w.w.w.r.y.y.w.r.r.w.y.y.w.y.u.u.u.t.w.r.y.y.w.y.u.w.w.e.,.;.,.q.w.w.e.e.0.<.<.q.e.e.q.e.e.w.w.w.e.e.t.e.2.S.1.0.0.,.,.0.w o 6 e.wXtX%XI % 6  .=.0.e.H.H.2.q.e.e.1...} @.$.%., I <.",
"> I F.$.%.0.e.e.u.5Xu.2.1.1.w.r.=.5 * J 2.H.H.^ > o T 1.0.e.e.e.U.2.U.U.U.2.q.e.e.e.q.<.<.<.e.e.e.e.e.e.e.q.<.<.q.e.e.t.t.t.e.e.e.e.q.0.0.e.e.u.u.!.u.u.y.y.5X7X7Xu.w.w.w.7X7X5X5X5X5X5X5Xu.u.u.7X7X!.7X7Xu.u.8X7Xu.u.5X5X5Xu.y.u.u.7X7X5X5X5X5X5X8X7X7X5X5X5X7Xu.u.w.w.r.w.u.u.5Xu.u.u.w.w.w.w.,.1.u.t.w.t.w.w.t.u.u.u.u.u.q.<.q.u.u.u.T.T.2.H.T.R.H.F.F.<.2.2.q.e.t.t.w.w.t.t.q.<.<.q.e.e.e.w.e.t.t.w.y.u.u.w.w.0.w.w.u.u.t.w.q.,.0.e.e.0.w.w.u.u.u.u.7X7X7Xu.u.u.u.7X7X7X7Xy.w.u.u.5X7X7X5Xu.5X5X5X5Xu.5X5X7X7X7X7X7X7X7X7X8X8X7Xu.u.8X8X9X9X9X8X7X7X7X7X8X5X7X7X9X7X8X5Xu.8X9X9X9X9X9X9X9X9X9X9X9X9X9X9X9X9X8X8X8X9X9X9X8X8X8X8X9X9X9X0X0X9X9X9X9X9X9XeX9XeXeXrX9X9X9X9X9X8X8X9X9X9X8X9X0XrX0X9X9X9X9X9X9X9X8X8X8X8X8X8X8X8X8Xu.w.w.u.7X7X5X5X5X7X5X5X5X5Xy.r.y.u.u.5Xu.w.r.r.u.u.y.y.y.w.0.=.+.0.0.0.0.0.0.0.0.0.0.0.0.%.+.....,.%.,.0.w.u.u.u.u.u.u.u.e.e.2.q.e.0.w.w.w.u.u.t.e.w.w.e.<.<.2.<.e.e.J.D.H.U.OXOXOXe.e.2.q.e.e.w.w.u.u.y.y.y.y.y.y.u.u.u.u.u.u.u.u.u.u.u.u.u.u.u.t.u.u.w.u.u.u.u.u.5X5X7Xu.u.u.u.u.u.u.u.u.t.t.y.u.u.u.y.w.w.y.y.y.y.u.5Xy.w.r.w.w.y.w.r.0.w.u.y.y.u.w.u.u.t.e.e.w.u.u.u.u.u.w.w.t.w.0.,.,.0.0.q.1.,.;.1.q.e.e.<.0.0.w.w.e.e.w.t.e.2.2.1.w.0.0.0.0._ o , 0.W.&XOXI % 5  .+.5.w.H.H.H.e.e.e.0.+.....%.%., J :.",
"> I F.#.#.0.e.u.u.5Xu.e.e.e.u.y.=.5 * J 2.H.H.^ > # | 1.1.0.e.#XOXU.H.OXU.q.q.e.e.e.q.<.:.,.q.e.e.e.q.e.e.e.<.<.q.e.e.e.t.t.e.e.t.w.w.w.w.u.u.5X5X7X7X5Xu.u.5X7X7X8Xu.u.u.7X7X7X5X5X5X5X5X5X5X7X7X7X7X5X5X5X6X8X8X5X5X5X5X5X5Xu.5X5X5X5X5X5X5X5X5X8X7X7X5X5X5X5X5X6Xu.y.u.u.y.u.u.u.u.u.u.u.u.e.q.0.e.t.w.t.w.w.w.u.u.u.u.u.e.e.e.u.6Xu.W.e.e.T.u.#XU.Z.F.q.e.e.q.e.u.u.w.w.t.e.q.:.<.w.t.u.5Xu.u.u.u.u.u.5Xu.u.t.0.t.u.!.u.t.e.t.e.w.e.t.e.t.u.u.u.u.7X7X7X7X8X8X8X7X7X7X7X7X7X!.!.7X7X7X8X7X8X8X8X8X7X8X8X7X7X8X9X9X9X7X7X8X8X8X7Xu.8X0X9X7X9X9X8X7X7X7X7X8X5X5X7X8X7X7X7X8X8X9X9X9X9X9X9X9X9X9X9X9X9X9X9X9X9X8X8X8X8X9X9X8X8X8X8X9X9X9XeXeXeX0X0X0X9X9XeX9X9XeXrX9X9X9X9X9X9X9X8X8X8X8X8X0XrX0X0X0X9X0XeX0X9X8X8X8X8X8X8X8X8X8Xu.w.w.u.7X8X8X8X8X8X7X5X5X5Xu.y.u.u.5X5X6Xu.y.y.5X5Xu.5Xy.y.y.0.0.0.w.r.w.w.w.w.r.r.r.0.0.0.,.%.,.0.,.0.w.t.u.u.5X5X5Xu.u.e.q.q.T.u.u.u.u.u.u.w.e.e.e.w.e.q.F.2.q.q.2.J.K.J.OXOXW.e.e.e.T.T.e.e.u.u.u.u.y.y.y.y.y.u.t.t.u.u.u.w.t.t.u.u.t.e.e.u.u.u.t.w.w.u.u.u.u.7X5X5Xu.u.w.y.u.u.u.w.w.u.u.u.y.u.u.u.y.w.y.y.u.u.5X5X5Xy.r.r.w.y.y.r.0.r.y.u.w.u.u.t.t.e.<.,.q.t.u.u.u.u.u.w.w.u.u.w.0.,.,.0.<.<.;.,.0.q.e.q.<.,.0.w.w.e.e.w.t.e.e.U.0.r.w.0.0.0._ . , q.e.e.q.J * 5 X.O.5.,.H.+X_.e.w.w.0.+.+...%.%., J <.",
"> I F.#.#.0.w.u.5X5X!.&X&XW.u.u.=.- * S :.<.2.^ > # | 1.,.e.#X&X$XOXH._.U.2.q.e.e.q.<.<.<.<.q.e.e.q.2.q.e.e.q.<.q.e.t.t.t.t.t.t.w.y.u.u.u.5X5X5X5X5X7X5X5Xu.u.7X8X8X8X8X7X7X7X7X5X5X5X5X5X7X7X7X7X7X7X5X5X5X5X8X5X5X5X5X7X7X5X5X5X5Xu.5X7X5X5X5X5X7X7X7X5X5X5X5X5X6X6Xu.u.u.w.t.u.u.u.u.u.u.u.u.e.e.t.w.w.t.w.0.w.w.u.y.u.u.u.t.u.u.8X!.u.e.e.T.u.!.T.H.2.e.u.e.<.q.u.u.u.u.u.e.q.:.<.t.u.5X5X5X5Xu.t.u.u.5X6Xu.t.q.t.8X7Xu.u.t.u.u.e.t.u.u.u.8X5Xu.7X8X8X8X7X8X0X0X8X7X8X8X7X7Xu.u.7X7X7X8X8X8X8X8X8X7X7X7X7X7X7X7X9X8X8X7X8X8X8X7Xu.8XeX9X9X9X9X8X7X8X8X9X8X7X5X7X8X7X7X9X8X8X9X9X9X9X9X9X9X9X9X9X9X9X9X9X9X9X9X8X8X8X8X8X8X8X8X8X9X9X9X9XeXeX0X0X0X0XeXeX9XeX9X9X9X9XeXeX9X9X9X9X8X8X8X8X9X9X9X9X9X9X0X0X9X9X9X8X8X8X8X8X8X8X7Xu.u.u.u.u.7X8X8X8X8X7X7X5X5X5Xu.u.5X7X5X5X5X5X5X5Xu.u.5X5Xy.y.w.w.w.w.y.y.y.y.r.r.w.r.0.w.w.0.,.0.0.0.w.w.t.t.w.u.u.5X5Xu.u.q.e.u.u.u.u.y.u.t.e.e.e.u.u.e.U.F.<.q.e.q.J.}.J.e.e.e.e.e.u.T.T.u.u.u.u.u.u.u.y.y.y.u.u.w.t.u.u.u.w.w.t.t.u.u.q.<.e.u.u.t.u.u.u.u.u.u.u.5X5Xu.w.w.y.u.u.u.w.y.u.u.u.u.u.u.y.w.w.y.u.u.u.5X5X5Xy.w.r.w.y.y.r.0.w.y.u.y.y.u.t.t.w.&.%.,.w.u.u.u.5Xu.w.w.w.y.t.w.0.0.0.<.<.1.q.q.q.<.q.q.<.1.0.0.w.w.0.w.e.OX&Xe.w.t.w.0.5._ . > 0.e.e.q.l % 7 X.-.9.=.OX@X_.w.w.0.,.,.%...%.%., J :.",
"> I H.$.%.0.w.u.u.u.#X%X&XW.u.y.=.> * S %.;.;.U * # P ,.0.u.#X#X$X+X`.J.U.2.q.e.e.q.:.q.q.q.e.q.<.<.<.2.e.e.q.q.w.t.t.t.w.t.t.t.w.u.u.u.u.u.u.5X5X5X5X5X5X5Xu.5X6X8X8X8X7X7X7X7X7X8X5X5X5X5X8X8X7X8X7X8X5X5X5X5X5X5X7X7X7X7X5X5X5X5X5X5X5X5X5X5X5X8X7X7X5X5X5X5X5X5X5Xu.u.u.t.w.w.u.u.u.u.u.u.e.w.e.t.w.w.w.w.w.0.w.y.y.y.y.u.u.u.u.u.W.e.u.u.T.W.W.u.e.q.t.u.e.<.<.e.u.u.u.u.e.,.:.<.e.u.5X5X5Xu.u.q.e.u.5X5Xu.w.q.u.!.7X7Xu.e.u.5Xu.t.u.u.u.8X8Xu.u.8X8X7X5X8X8X8X8X8X8X8X9X7X!.Q.7X7X7X8X8X8X8X8X8X8X7X7X7X7X7X7X7X9X8X7X8X0X8X7X5X8X8X9X9X9X9X8X8X8X8X9X8X7X8X8X8X8X8X8X8X9X9X9X9X9X9X9X9X9X9X9X9X9X9X9X9X9X9X9X8X8X8X0X0X0X0XeX9X9X9X9XeXeX0X0X0X0XeXeXeXeX9X9X9X9XeXeX9X9X8X8X9X8X9X9X8X8X9X9X9X9X0XeX9X8X8X8X8X8X8X8X8X7X5Xu.y.y.u.7X8X8X8X7X7X7X7Xu.6X5X5X5X5X8X6X5X5X5X5X5Xu.u.u.y.w.u.u.w.r.w.w.y.y.r.0.0.r.w.0.0.0.0.0.w.w.w.r.w.w.0.0.w.u.5X5Xu.e.e.q.q.e.e.w.0.q.e.e.e.e.u.u.e.2.$.<.q.e.e.U.U.U.e.e.t.t.u.u.u.u.u.u.u.u.y.y.u.u.u.u.u.u.w.e.u.u.u.w.e.t.u.!.W.<.:.e.!.u.u.u.u.u.u.y.w.u.5X5Xu.u.u.u.u.u.u.u.u.u.u.u.u.u.u.u.w.w.y.u.u.y.y.y.u.5Xu.y.y.y.y.r.r.w.y.y.u.y.w.u.t.e.<.:.1.w.y.u.u.u.y.w.t.w.y.w.w.0.0.0.,.,.1.q.q.<.%.;.q.q.q.1.0.0.0.0.0.e.OX@XOXt.t.w.0.5.` + , %.0.e.<.l o 5 X.O.7.=.2.+XH.1.0.w.0.,.%.#.%.%., J <.",
"> I H.$.%.0.w.u.u.u.$X+XOXe.y.y.=.> > l ..#.#.Z * * T =.0.7Xu.e.2.+X-X`.H.<.<.e.q.<.;.0.w.e.e.e.q.:.;.<.e.e.e.e.t.t.t.w.w.w.w.t.t.u.t.u.w.w.y.5X5X5X5X5X5X5Xu.w.u.8X8X8X8X8X7X7X7X8X8X5X5X5X5X8X7X7X8X7X8X8X5X5X5X7X7X7X5X5X5X5X5X5X5X5X5X5X5X5X5X8X7X7X7X5X5X8X7X7X7X5Xu.u.u.w.w.u.u.y.y.w.w.w.w.t.t.t.t.t.e.e.w.w.w.y.w.y.t.u.e.e.u.e.e.#XT.T.#Xu.e.e.e.u.u.q.:.:.2.e.e.u.u.t.,.<.q.e.t.u.u.u.t.e.0.e.u.8X8Xu.w.w.u.6X7X7Xu.t.5X9Xu.w.u.u.5X8X8Xu.u.u.8Xu.u.7X7X7X8X8X8X7X8X9X7X7X7X7X8X8X8X8X7X8X8X8X7X7X8X8X7X7X7X9X8X7X8X8X8X7X8X8X9X9X9X9X9X9X8X8X8X9X8X8X8XeXeX8X8X8X8X0X9X9X9X9X9X9X9X9X9X9X9X9X9X9X9X9X9X9X8X8X8X8X0XeX0XeXeX9X9X0XeXeX0X0X0X0XeXeXeXeX9X9X9X9XeXeX9X9X8X8X9X8X0X0X8X5X8X8X9X9X0XeX9X8X8X8X8X8X8X8X8X7X7X5Xw.r.u.7X8X8X7X7X7X7Xu.u.6X7X6X5X5X6X5X5X5X5X5X5Xu.u.w.r.w.u.u.y.r.r.w.w.y.r.0.0.w.w.0.0.0.0.0.r.0.r.r.0.0.0.,.w.u.5X6Xu.t.e.q.q.q.q.0.,.<.q.q.w.e.t.e.q.$.*.<.U.e.e.e.e.e.t.w.t.u.u.w.u.u.u.u.5Xu.u.y.u.u.u.u.u.u.w.e.t.u.u.u.u.u.u.u.u.e.q.e.!.u.t.u.u.u.u.w.w.u.7X5Xu.u.u.5X5X5X5Xu.u.u.u.y.u.u.u.y.w.w.y.u.5X5Xy.y.u.5Xu.u.y.y.r.r.r.w.w.u.5Xu.r.r.r.w.e.e.q.0.u.y.y.y.w.t.t.u.y.r.0.w.w.0.,.,.<.q.q.<.%.#.,.q.q.,.%.%.0.0.0.1.S._.2.0.w.0.0.0.` + ; %.,.,.,.j o 5 X.O.7.0.2.S.>.1.0.w.0.,.%.%.;.:., L <.",
"> I H.$.%.w.w.t.5X7X$X-X+XW.Q.y.5.> % j I I ^ D * o [ ,.0.t.e.0.,.q.+X`.2.:.,.,.,.<.<.e.w.w.e.e.e.<.<.e.e.t.w.w.w.t.e.w.w.u.u.w.w.0.e.t.t.w.y.u.u.u.5X5X5X5X5Xw.!.8X8X7X8X7X9X9X8X8X8X8X8X5X8X8X8X8X8X8X8X7X7X5X5X5X5X5Xu.5X5X5X5Xu.y.u.5X7X5X5X5X8X7X7X7X5X5X8X7X7X5Xu.t.e.e.e.u.5X5Xy.w.t.e.e.e.u.t.q.1.q.e.w.e.e.q.t.u.y.y.w.e.q.e.e.e.T.U.U.e.u.u.e.q.e.e.:.$.<.2.e.e.e.e.e.q.0.0.q.<.q.t.w.w.0.w.t.u.u.u.u.u.u.u.u.7X7Xu.u.u.u.u.u.u.u.u.8X7Xu.u.u.8X7X8X8X8X8X8X8X8X8X9X7X7X7X8X8X8X8X8X8X8X8X8X8X7X7X7X8X7X7X8X8X8X8X8X8X8X8X9X9X9X9X8X8X9XeX9X8X9X9X8X8X8X8X8XeX8X8X8XeX9X9X9X9X9X9X9X9X9XeXeXeXeXeX9X9X9X9X9X9X8X8X9X9X0X0X9X9X9X0X0X0X0X0X0X0X0XeXeX9X0X0X9X9X0X0X9X9X9X0X9X9X9XeX0X0X0X8X9X0X9X0X0X8X8X8X8X8X8X8X7X7X5X5X5X5X5X8X7X7X7Xu.u.u.u.u.u.5X5X5X5X5X7X7X5X5X5Xy.u.u.y.r.w.y.u.y.r.r.y.y.w.r.0.0.0.0.5.5.0.0.0.0.w.r.r.r.w.t.q.w.e.u.t.e.e.e.e.t.t.t.w.w.q.<.1.q.w.e.q.q.q.<.q.e.q.0.w.t.u.e.0.e.e.e.w.e.e.u.u.5Xy.w.t.t.u.u.u.t.w.<.1.e.u.5Xu.u.!.u.u.!.8Xu.u.u.u.t.0.w.u.u.y.u.u.!.5X5X5X7X5X5X5Xy.y.w.t.w.y.y.y.y.y.w.y.5X5X5X5Xu.y.y.u.u.w.w.0.w.w.w.w.w.w.w.w.w.w.w.t.e.0.0.w.t.t.t.w.w.t.u.u.u.y.r.w.0.1.;.,.q.q.<.:.:.:.<.q.e.0.%.%.,.,.1.;.2.2.,.0.=.,.=.+.l o * |  .%...5 + 5  .=.5.0.2.H.q.e.w.0.0.,.%.%.;.;., D <.",
"> I H.$.%.0.0.w.r.u.$X-X@XW.Q.8.5.> o , l l D 8 o o  .,.0.w.e.0.,.<.H.J.<.:.,.;.%.:.q.q.q.e.e.e.0.q.e.t.u.w.w.t.t.t.w.w.y.u.u.y.w.w.t.u.y.y.u.u.u.u.5X5X5X5X7X7X8X9X9X8X8X8X9X9X9X8X8X8X8X8X8X8X8X8X8X8X8X7X7X7X5X5X5Xu.u.5X5X5X5Xu.u.5X7X7X5X5X8X8X7X6X6Xu.6X6X7X7X7Xu.u.t.t.t.u.5X5X5Xu.t.e.e.e.w.w.0.1.0.e.2.:.<.q.w.w.w.u.t.e.q.e.e.e.T.<.<.e.e.t.e.e.q.e.<.;.2.q.q.q.q.q.q.w.w.w.0.,.<.e.w.w.e.e.u.5Xu.u.u.7X5X7X5Xu.7Xu.u.w.t.u.u.u.u.u.7X7Xu.u.5X7X7X7X8X8X8X8X8X8X8X9X7X7X7X8X7X7X8X8X8X8X8X8X8X7X7X7X8X8X7X8X8X8X5X8X8X9X9X9X9X9X9X9X8X9X9X9X9X9X9X8X8X8X8X8X8X8X8X8X8X9X9X9X9X9X9X9X9X9X9X9XeXeX9X9X9X9X9X9X9X9X9X9X9X9X8X8X9XeXeX0X9X9X0X0X0X0XeX9X8X9X9X9X9X0X0X0X0X0X0XeXeXeX0X9X8X0X9X9X0X9X0X9X8X8X8X8X8X8X7X7X5X5X8X5X5X5X8X7X7X7X7X7Xu.u.u.y.5X5X5X5X5X7X7X5X5X5Xy.u.u.u.u.y.u.u.y.y.y.y.y.y.w.r.r.r.r.0.0.0.0.0.0.w.w.r.r.w.w.w.t.t.e.e.w.q.q.e.e.e.w.w.w.0.1.,.q.e.q.<.q.q.<.<.1.1.0.r.w.t.e.0.q.q.e.e.q.e.e.w.r.r.w.w.w.w.w.t.e.w.,.0.e.y.u.u.u.u.5Xu.u.u.!.u.u.u.t.w.w.u.u.u.u.u.7X5X5X5X5X5X5X5Xy.y.w.w.y.u.u.u.y.y.y.u.5X5Xy.5X5Xu.y.u.u.u.w.w.w.w.w.w.w.y.y.w.w.y.y.u.t.w.w.w.t.t.w.w.w.y.y.u.u.y.r.w.e.0.,.<.q.q.0.<.<.<.<.q.q.q.,.%.%.,.&.%.<.2.,.0.,.=.=.+.l . % w S S l * . 5 X.9.5.1._.'._.e.0.1.,.0.%.#.;.;., J 2.",
"> J F.$.%.,.0.0.r.u.$X;X;X#XQ.y.5.7 o o * = , * . *  .,.0.0.0.e.w.0.2.:.$.;.<.:.%.&.<.:.:.<.<.q.0.e.w.t.u.t.t.t.e.w.w.u.5X5X5Xu.y.w.u.u.u.u.5X5X5X5X5X5Xu.u.u.5X8X9X8X8X8X8X7X9X9X7X7X8X8X8X7X8X8X8X8X8X8X7X7X7X7X5Xu.u.u.5X5X5X5X5X5X5X7X7X7X7X7X7X7X6X5Xu.5X5X7X7X7X5Xu.u.u.u.u.u.5Xu.t.w.w.e.e.w.w.0.0.w.e.<.%.:.<.0.w.w.e.e.<.e.e.u.u.T.<.<.e.e.e.e.q.q.q.2.F.2.q.e.q.q.q.q.e.e.e.w.<.<.w.t.w.e.e.u.u.t.e.u.7X5X5X5Xu.u.u.u.w.w.u.5X5X5X5X5X5X5X5X7X8X7X7X7X7X7X7X8X8X8X7X7X7X7X7X7X7X7X8X8X8X8X8X8X8X8X7X7X7X5X5X8X8X5X5X8X8X8X9X9X9X9X9X9X8X9X9X7X7X7X7X8X9X8X8X8X8X8X8X8X9X9X8X8X9X9X9X9X9X9X9X9X9X8X9X9X9X9X9X9X9X9X9X7X7X8X8X8X8X9X9X9X9X9X9X9X8X8X8X8X9X9X9X9X0X0X0X9X0X0X0X8X8X8X8X5X8X9X9X9X9X0X9X8X8X8X8X8X7X5X5X5X5X5X5X5X5X8X8X8X5X5X7X7X!.!.u.u.u.7X7X7Xu.7X5X5X5X5X5X5X5X5X5Xu.y.y.y.y.5Xy.y.y.y.y.r.r.r.r.r.r.0.0.w.w.r.r.0.w.w.w.t.w.0.0.q.q.q.q.0.0.0.0.0.1.0.e.e.<.<.<.<.<.:.;.1.1.w.y.e.q.q.<.1.q.e.w.q.e.e.r.w.w.w.w.w.w.e.e.e.q.e.t.y.u.u.u.u.5X7Xu.u.5Xu.u.t.u.u.t.u.u.5Xu.u.7X5X5X5X5X5Xu.u.5X5Xy.y.y.y.u.u.y.w.w.u.5X5Xy.5X5X5Xy.y.u.5Xu.u.y.w.u.y.y.y.u.y.r.y.u.u.u.w.y.u.w.y.y.y.y.y.y.u.u.y.r.w.w.0.,.0.0.0.,.1.,.<.<.<.,.,.&.%.%.%.#.#.<.H.<.,.,.,.+.+.S o . * * > o .   7 o.5.0.>._.'._.e.0.,.,.0.%.#.%.%.6 J <.",
"* J F.$.%.+.+.0.w.e.OX+X+XW.u.r.0.S > * * % = * * 7 +.=.,.1.1.q.e.w.<.$.$.$.:.$.$.$.:.$.$.;.:.:.q.e.w.w.w.w.e.w.q.w.w.u.5X5Xy.y.y.t.y.y.y.y.u.5X5X5X5Xu.u.u.u.5X7X8X8X8X8X8X7X7X7X7X7X7X8X7X7X8X7X7X8X8X7X7X7X7X7X5Xu.u.5X5X5X5Xu.5X5X5X7X5X5X7X7X7X5X5X5X5X5X5X7X5Xu.5Xu.u.y.y.y.u.u.u.t.w.q.q.w.w.y.t.e.t.e.:.;.<.2.<.<.<.q.<.1.q.t.u.u.e.e.e.e.t.u.e.e.e.q.2.2.2.q.q.e.q.q.q.e.e.e.e.2.<.0.w.w.w.w.t.t.e.q.t.w.u.u.u.u.u.u.t.t.t.u.6X8X5X5X5X5X5X7X7X7X7X5X5X8X8X8X7X8X7X7X7X7X8X7X7X5X5X8X5X6X8X8X8X8X8X5X5Xu.u.u.6X8X6X5X6X8X8X8X8X7X7X7X7X8X8X8X7X8X8X8X8X8X8Xu.5X7X8X8X7X7X7X7X7X9X9X9X9X9X9X9X9X8X8X8X8X8X8X8X8X9X9X9X7X7X8X8X8X8X9X9X9X9X9X9X8X7X8X8X8X8X8X8X8X8X8X8X8X0X0X0X8Xu.u.u.u.u.8X9X9X9X0X9X8X8X8X8X8Xu.u.u.5X5X5X5X5X5X5X7X8X5Xu.u.8Xu.u.u.u.7X8X8Xu.u.7X5Xu.u.5X5X5X5X5X5Xu.y.y.y.y.y.y.y.y.y.r.r.r.r.r.r.r.0.0.0.w.w.w.0.0.0.0.w.w.0.0.q.q.<.q.q.q.q.,.,.,.0.e.e.q.<.:.&.$.#.#.:.<.q.e.e.q.<.q.<.0.e.e.e.e.e.t.w.w.w.w.w.w.w.e.e.e.e.t.w.y.u.u.5X5X5X7Xu.u.t.t.t.u.u.u.u.u.u.5Xu.u.5Xu.u.u.u.u.y.y.5X5Xy.w.y.u.y.w.r.w.y.u.u.u.5X5X5Xy.y.5X5Xu.u.y.y.y.w.y.y.y.w.r.y.u.u.y.y.y.5Xy.y.y.y.y.y.y.u.w.w.w.w.w.1.0.q.q.,.,.,.,.1.1.;.%.%.%.#.@.@.@.#.<.H.2.1.;.%.%.%.{ > = * o * o + + 8 +.,.1.>.H.H.2.0.0.,.,.,.%.@.%.%.6 J 2.",
"* D F.%...+.+.,.w.e.e.2.2.q.w.w.e.=...{ P J { { { +.q.,.,.1.;.<.,.,.;.%.*.#.$.*.~ #.%.$.~ ^ $.$.:.,.e.e.q.,.,.<.<.1.w.t.u.u.y.y.w.e.w.w.w.w.y.u.u.u.u.u.u.u.u.u.5X8X8X8X8X8X7X7X7X7X5X5X5X7X8X6X5X6X6X6X5X5X5X5X5X5Xu.u.u.u.u.!.u.5X5X5X7Xu.u.u.5X7X7X5X5Xu.u.u.5Xu.u.u.u.u.y.y.w.t.w.t.e.q.<.;.,.w.t.e.e.e.e.2.2.q.q.:.&.&.<.;.;.q.e.e.w.e.e.e.e.t.t.e.e.q.2.<.:.<.q.0.e.e.q.q.e.w.q.<.<.&.&.q.e.q.0.0.e.q.q.e.w.t.w.w.w.t.e.w.e.e.t.u.u.u.u.u.u.u.5Xu.u.u.u.u.u.8X8Xu.u.u.u.u.u.8X7X5X5Xu.u.u.u.6X8X8Xu.u.t.t.u.u.u.u.!.u.u.u.!.8X8X8X7X7X7X7X8X8X8X5X8X8X8X8X8X7Xu.u.!.!.u.!.8Xu.u.u.8X8X8X8X8X8X8X8X8X8X8Xu.u.u.!.8X8X9X9X8X8X8X8X8X8X8X8X8X8X8X8X8X!.u.u.u.u.u.u.8X0X0X0Xu.u.u.u.t.t.u.t.e.e.u.8X8X8X8X8X8X!.u.u.u.u.u.u.u.u.u.5Xu.u.u.5Xu.u.t.u.u.u.w.u.7X8X8Xu.u.w.u.u.u.u.u.u.u.u.u.u.u.y.w.w.r.r.r.r.r.0.0.0.w.w.w.0.0.0.0.0.0.0.0.,.,.,.,.0.w.q.,.<.q.:.:.<.2.<.;.%.,.0.t.e.q.<.<.&.$.@.^ $.:.:.<.<.<.2.q.q.0.0.e.1.<.q.e.w.0.w.w.t.w.0.e.e.e.w.0.w.w.u.u.5Xu.u.u.u.e.0.w.t.t.t.y.u.w.w.u.u.u.u.u.y.y.u.y.w.r.w.w.w.e.w.w.w.w.w.w.w.w.y.y.y.y.y.y.y.y.y.w.w.w.w.w.0.r.r.w.w.0.r.w.w.w.w.y.y.w.w.w.w.w.w.t.t.e.e.e.0.1.;.1.q.q.;.%.%.:.:.:.&.%.#.%.#.} U I ^ :.>.<.;.:.%.%.%.#.J P J l S l l 8 S ,.,.1.2.:.&.0.0.0.,.,.%.#.@.$.&.6 L I.",
"* J F.$...+.+.0.w.e.<.1.1.1.0.1.e.,.;.;.,.,.<.,.&.<.q.;.%.%.$.$.%.%.;.#.^ ! ! ~ ~ ^ #.$.~ ~ ~ ^ #.%.q.q.:.%.%.$.;.;.1.0.w.w.w.w.w.,.,.0.w.w.w.w.w.w.y.y.u.5X5Xu.u.5X8Xu.u.u.8Xu.u.u.u.u.u.u.u.u.u.u.u.u.u.u.u.u.u.u.u.u.t.u.u.u.u.u.u.u.u.u.w.w.u.u.5Xu.t.e.e.e.e.e.e.t.w.t.y.y.w.w.w.w.0.<.:.%.;.0.w.w.q.0.e.e.e.e.q.:.$.$.:.;.:.q.0.0.0.e.w.e.t.t.t.e.e.q.<.;.~ ;.q.e.e.e.0.q.e.q.,.:.$.*.#.<.w.q.<.0.q.:.&.q.q.0.0.0.,.,.0.0.0.0.0.0.w.w.w.t.t.u.u.u.u.t.w.0.e.u.e.e.e.e.w.e.u.u.u.u.w.t.u.t.t.t.u.u.e.w.w.e.t.t.t.e.e.t.t.u.u.t.t.u.u.u.u.u.u.u.u.t.u.6X6Xu.u.u.t.u.u.u.u.u.u.t.e.e.e.t.u.u.u.u.u.t.u.u.t.e.e.e.e.u.u.8X8Xu.u.u.u.u.u.!.!.u.u.u.!.u.u.e.q.q.e.e.e.u.T.!.u.e.e.q.0.q.e.e.e.0.0.t.u.8X8Xu.u.u.u.u.e.e.e.t.t.w.t.t.u.u.w.w.w.t.t.e.w.w.w.w.u.u.u.u.w.w.r.t.t.t.w.w.w.w.w.u.u.w.w.w.w.0.0.0.0.0.0.+.+.,.,.,.,.0.0.0.0.%.%.&.&.%.%.%.&.<.q.,.,.q.:.$.$.&.:.:.<.;.1.e.e.1.,.<.2.:.#.#.#.*.$.;.<.2.q.e.e.e.w.e.1.;.:.<.q.0.r.t.e.0.0.0.0.q.0.,.,.0.t.t.t.t.t.e.e.q.<.<.w.e.t.w.t.w.w.t.u.u.t.t.w.t.u.t.w.,.0.0.w.e.,.,.0.t.w.0.w.w.w.w.w.r.r.w.w.w.r.0.0.w.w.0.0.0.0.0.0.0.w.w.0.0.w.w.w.w.w.w.0.,.0.q.e.q.q.<.%.%.%.;.;.:.#.^ ^ ^ #.%.&.%.%.&.#.I A z ^ $.:.;.%.#.@.@...#.@.%.#.#.%.%...{ ..;.1.2.<.,.%.,.0.0.,.+.+...@.$.&.6 } I.",
"> P H.$...+.,.,.w.e.1.;.;.,.q.<.2.%.%.%.&.&.;.%...%.2.%.@.#.#.#.%.:.;.^ ! F R x R ~ $.$.~ ~ R ~ ^ #.&.&.%.#.$.$.#.%.;.1.0.0.0.0.,.;.&.0.e.w.w.0.w.w.w.w.y.5X5X8Xu.u.u.u.u.u.u.u.u.u.u.t.t.u.u.u.u.t.t.t.t.u.u.u.u.u.u.y.t.u.t.w.w.w.t.w.u.w.0.w.t.u.u.e.q.<.<.<.:.0.w.w.w.w.w.y.t.w.w.0.q.<.:.%.&.0.w.0.1.0.q.e.e.e.0.1.<.:.$.$.<.q.w.0.w.t.0.w.u.u.u.e.q.e.2.$.~ $.q.e.e.0.1.<.e.<.;.:.$.~ ^ <.q.q.<.,.<.@.@.<.q.,.1.0.,.,.,.,.0.0.,.,.%.,.,.w.t.t.t.w.t.t.0.,.q.q.q.q.1.0.0.0.w.w.w.r.0.w.w.w.w.w.e.e.w.0.e.T.u.e.w.e.w.0.w.t.t.w.0.w.u.u.w.w.t.t.e.0.w.t.u.u.t.w.w.w.e.e.w.w.w.e.q.,.,.0.t.e.t.w.0.0.0.e.q.<.<.2.q.0.t.u.u.u.t.e.w.0.0.u.u.w.w.t.u.u.e.,.&.%.;.;.<.u.u.u.e.q.1.,.%.,.e.u.e.0.q.t.u.8Xu.e.t.t.e.q.0.0.0.0.0.0.0.w.e.t.w.0.0.w.e.w.0.0.0.w.r.w.u.w.r.0.0.w.t.w.w.0.0.0.w.w.w.w.0.w.w.0.=.0.0.0.=.+.+.%.%.%.,.0.0.0.,...} @.#.#.%.#.#.&.,.,.,.q.F.$.@.#.$.:.<.:.<.e.w.;.,.q.q.q.;.%.$.$.#.%.:.q.q.e.w.e.w.t.<.$.%.&.q.0.r.t.e.q.0.,.0.e.0.,.,.0.w.t.t.e.e.q.<.2.<.<.0.e.t.w.t.e.0.e.t.t.e.w.e.t.w.w.0.,.,.<.q.<.%...,.w.w.0.0.0.0.0.0.0.0.r.w.w.w.0.0.0.w.,.,.,.0.0.,.,.0.0.0.,.0.w.w.w.w.0.,.%.%.:.q.<.<.%.@.#.$.;.:.;.^ R x x ~ %.$.&.&.%.@.U z z ! / :.;.%.#.#.#.#.#...@.@.%.......} @.%.;.<.<.,.,.=.=.0.,.+...} @.;.&.6 } I.",
"> J H.%...%.%.0.0.,.;.%.#.&.<.<.;.%.#.%.%.%.%.%.%.@.@.^ #.$.$.$.;.#.! ! F F R R ! ^ *.*.~ R R ! ! #.%.%.#.~ ^ ~ *.$.$.;.:.&.&.,.,.&.%.1.w.w.+.+.,.0.w.0.r.y.u.8Xu.w.0.q.<.<.0.e.u.u.u.u.w.e.e.q.;.;.<.e.e.q.0.0.u.!.u.r.0.e.<.<.<.<.q.q.q.,.;.;.0.e.U.:.$.$.$.*.~ $.$.%.,.w.w.w.t.w.0.0.q.q.1.1.1.,.,.,.,.q.q.e.q.<.<.<.2.:.$.$.;.q.w.t.r.0.w.e.e.q.<.U.#Xe.<.#.#.#.;.<.q.,.;.&.$.$.$./ ~ R R ~ $.<.&.#.@.! ! *.$.$.%.&.%.@.@.%.2.&.@.@.@.@.%.<.q.q.<.<.<.<.&.%.%.%.%.#.#.<.2.:.&.&.,.,.,.,.,.%.%.,.1.q.:.:.1.e.u.u.q.,.,.;.<.2.:.;.;.0.t.t.w.0.,.<.:.%.&.,.q.q.0.&.%.%.%.:.:.:.0.q.<.#.@.#.<.e.w.q.,.%.%.&.$.^ ^ $.:.<.0.q.q.,.;.:.:.<.2.q.2.:.&.&.:.<.,.;.$.$.#.#.%.q.q.q.<.<.;.&.#.%.<.e.e.0.0.w.w.t.t.0.,.0.q.;.......%.,.+.,.,.0.,.%.%.%.&.&.,.<.:.:.<.w.0.0.,.,.,.0.0.q.q.,.#.#.%.0.q.0.+.+.,.,.....%.%.%.%...#.#.@.} } #.&.&.%.P D D ! ! F ! ! ! ^ #.*.$.$.$.^ ^ *.:.<.<.<.<.;.#.#.$.2.2.:.%.#.#.#.$.:.2.2.:.;.:.<.2.:.$.#.$.:.<.q.q.q.,.%.,.q.e.q.&.%.%.,.q.e.q.<.$.*.$.:.$.%.1.e.e.e.e.q.<.q.q.<.&.<.e.e.<.%.~ ~ ^ #.#.#.^ @.,.e.0.;.;.<.%...#.,.0.w.q.,.#...&.:.%.@.@.%.;.<.,.0.q.&.&.,.0.w.q.,.%.@.! ~ ~ Z.Z.~ ~ ~ ~ ~ ~ $./ R R R R R ^ %.<.<.&.@.I F k A / $.*.@.@.#.%.%.#.....%.%.....#.%.%.%.%.;.;.&.%.+.+.+.......@.@.%.:., P 2.",
"* J U.%.} ..#.%.%.#.@.I I ! @.@.@.I } } I I } I L D z k z z z z z z z z #.#.^ ! ^ ^ ^ ! ! ^ ^ ! #.:.:.$.$.~ ~ ~ ~ ^ ^ #.#.#.#.%.$.$.~ $.;.$.#.^ *.$.$.:.:.<.U.q.<.:.$.$.$./ :.<.2.2.2.2.<.<.<.:.$.$.:.:.:.$.#.;.2.e.q.;.$.;.:.:.:.$.$./ / $.*.$.$.:.:.#.*.*.*./ / / ~ ^ %.<.e.e.q.<.;.%.%.#.#.%.%.#.#.%.$.:.:.;.;.$.$.$.$.$.*.#.#.;.0.e.e.e.e.q.q.:.%.:.U.U.<.$.$.;.;.:.:.:.%.#.*.*.$.*.~ ~ ~ ^ #.$.*.#.*.~ ^ ~ ~ *.#.#.^ ! ! ^ #.! ! ! z ! ^ #.%.%.#.#.#.#.#.#.#.*.^ ! ^ $.$.^ ^ ^ #.%.#.%.#.^ ^ #.#.#.*.#.%.<.q.<.;.#.#.#.#.#.#.#.#.&.,.,.,.%.%.#.#.#.#.#.%.;.&.#.@.! @.%.%.%.;.:.$.^ ! ! #.%.%.@.@.@.#.#.^ ~ ~ $.F.<.;.%.%.@.#.#.$.*.$.$.$.#.^ ^ #.#.@.^ ~ ~ ^ ^ ^ %.%.%.%.#.@.! ! ^ #.%.%.%.%.;.;.<.<.&.%.%.$.! F U ! #.#.#.^ ^ #.#.! ! #.#.#.#.#.$.$.$.;.:.:.$.#.#.:.:.&.&.#.@.! @.%.%.&.#.@.@.@.@.I ! I ! @.@.#.#.^ ! U ! @.@.^ I F ! ! ! ! ! ! ^ ^ ^ ^ ~ *.~ ~ ~ / :.:.:.:.:.:.$.$.$.:.:.$.*.#.~ $.$.<.<.<.$.#.$.;.$.$.$.$.$.;.$.:.&.:.%.#.%.:.<.$.#.@.^ #.;.<.<.:./ / / $.~ ~ #.;.:.<.<.<.$.$.$.*.*.$.:.;.$.~ R R ~ ~ ~ ~ ~ *.$.$.#.^ #.#.#.^ ^ #.&.&.&.#.! ! #.$.*.! F U #.;.<.<.:.#.#.#.&.;.&.#.@.^ ~ ~ / g.g./ / ~ R R ~ ^ / R R R ~ ~ #.%.%.&.#.@.^ ^ ! A R R k k k z z D J D D I P P P L L ! ! ! ! I I } ....#.#.@.@.@.@.%.%.5 I F.",
"* L H.#.J J J J L F z z z A z z z l j j j j j j j g u u u g g g j j l z @.#.%.%.#.#.! @.#.$.*.#.:.2.2.<.Z.V.$.V.:.Z.:.:.$.:.:.Z.Z.Z.l.l.Z.Z.V.l.V.Z.Z.Z.F.G.G.G.G.Z.Z.Z.Z.Z.Z.G.G.G.F.F.F.F.Z.Z.Z.Z.Z.Z.Z.Z.Z.Z.F.F.Z.:.V.V.Z.Z.Z.Z.Z.g.g.l.Z.Z.Z.Z.:.$.$.Z.Z.Z.Z.Z.:.$.:.F.F.F.<.<.$.$.$.~ $.$.$.$.$.$.:.:.:.:.$.$.$.$.V.V.Z.:.:.:.<.<.<.q.q.2.2.<.<.<.<.<.:.$.$.$.;.$.$.:.$.$.$.$.$.<.:.$.$.#.%.%.$.*.$.$.$.$.*.$.$.*.$.*.~ ~ *.*.*.~ ~ *.$.Z.Z.Z.:.:.:.Z.Z.Z.Z.Z.:.$.$.:.$.$.$.$.$.:.$.$.$.$.$.$.$.$.:.$.$.<.<.<.:.<.:.:.:.:.:.:.<.<.<.<.2.:.$.$.$.:.:.$.:.<.F.Z.:.:.<.2.F.F.F.F.F.Z.:.:.<.<.:.;.:.Z.Z.:.Z.:.V.Z.G.Z.:.$.$.$.$.:.:.$.$.$.$.$.$.#.$.$.:.:.Z.Z.V.$.$.$.$.$.$.$.~ ^ ~ ~ $.$.$.$.$.$.$.:.:.$.~ ~ *./ ~ ~ ~ $.$.*./ / ~ / ^ ~ $.$.$./ V.Z.Z.V.V.Z.Z.V.*.*.Z.F.<.<.$.*.*.*.$.:.<.:.$.$.$.$.$.$.*.$.$.$.$.$.$.*.^ *.*.*.*.*.*.#.#.*.*.*.*.$.$.:.:.:.Z.Z.Z.Z.Z.Z.:.:.:.:.:.:.:.:.Z.Z.Z.$.$.$.$.$.:.:.$.*.^ *.$.$.$.$.:.Z.:.$.$.$.$.$.*.$.$.:.:.$.$.$.$.:.Z.Z.Z.Z.V.Z.Z.Z.Z.Z.Z.Z.F.Z.Z.Z.V.g./ / Z./ V.V./ / / / / V.V.V.$.V.V.*.$.$.$.:.:.:.$.$.<.:.$.$.$.$.V.V.V.$.$.$.Z.:.<.:.$.$.$.<.<.Z.:.Z.Z.Z.Z.Z.Z.G.G.G.G.Z.Z.F.H.H.Z.~ ~ ~ ~ #.^ @.@.@.@.@.@.! A k a k a a k k k j g g j g g g g g k z k k k z z z D F L L z z x ^ &.5 I F.",
"> J F.#.I } I } } I L I I I F F D S S S S S S S S l S l l z l l D J J L @.#.%.%.@.@.@.%.$.<.<.<.<.:.:.:.$.$.$.<.<.<.:.:.$.$.$.$.$.$./ / *.*./ / / $.$.$.$.$.$.$.$.$.$.$.$.$.;.$.$.$.#.#.#.#.*.#.~ ~ ~ ~ $./ ~ / $.#.#.#.*.*.~ ~ *.$.$.$.$.V.Z.$.$.$.$.^ *.*.*.$.$.:.$.$.%.$.%.#.#.#.*.~ ^ ^ *.*.*.*.*.*.#.#.#.#.^ #.#.^ ^ *.$.$.$.%.%.%.....#.#.@.@.@.! ^ @.@.#.#.@.@.@.@.@.#.@.@.@.@.%.%.$.%.%.#.#.@.@.#.@.#.#.#.$.%.%.$.$.$.$.#.*.$.$.$.$.$.Z.Z.<.<.<.:.<.:.:.<.<.$.#.$.$.$.;.;.$.$.<.<.$.$.$.:.:.:.:.<.<.<.<.:.:.:.:.<.<.<.<.<.<.<.<.:.:.:.$.$.$.$.$.$.$.$.<.<.<.<.<.<.2.q.2.2.2.Z.<.<.<.<.2.<.<.<.F.<.<.<.<.<.:.$.$.;.<.<.<.<.;.;.$.$.$.:.:.<.<.<.<.<.F.F.Z.Z.$.$.:.:.<.<.<.:.$.$.$.$.$.$.$.:.<.<.Z.<.:.$.$.:.$.$.$.$.$.$.$.$.*.*.#.#.#.$.:.:.$.:.G.G.$.Z.Z.Z.$.$.$.:.F.<.<.$.$.$.*.#.#.$.%.#.#.#.#.#.#.#.$.%.#.#.#.#.^ ^ @.#.#.#.#.#.@.@.@.@.@.@.@.@.@.@.@.%.$.$.$.$.#.@.#.#.#.#.#.#.#.#.#.#.#.#.@.@.@.@.@.! ! ! ! @.#.#.#.$.%.#.#.#.#.#.#.#.#.#.#.$.$.$.$.$.#.#.#.*.~ ~ / #.$.$.$.$.$.$.$.$.~ ^ ^ ^ ^ ^ ^ *.*.~ ~ ^ #.#.*.#.#.^ #.#.~ *.$.$.:.<.$.$.$.$.$.$.$.$.$.*.*.$.*.*.^ ^ ! I ! ! ! #.#.@.$.#.$.$.$.#.#.$.$.$.$.$.$.;.:.<.F.<.$.^ $.;.$.%.#.! I ! @.@.@.! z k k k z F F D z z A z l j g g z z z z z z z z z z z z z z k k ! &.5 } I.",
"> S 2.%.%.%.%...#.@.} @.#.} J D P |  .....+.,.+.| | ..| P D D P ..#...} @.%.%.@.! #.;.<.<.<.&...J j 8 8 8 6 6 5 5 7 7 5 5 5 , , , 5 , , , > > , , , 5 5 5 5 , 5 , , , > > > 5 5 5 > > > > > > > > > > > > , > > > > > > > , , , , 5 5 6 6 6 6 5 5 5 , , , , > > > , , , , , , > , , , , , , , , , , , , , , , > > > , > , , , , 5 5 5 > > > > > > > > ; > > > > > > > 5 > > > > > > > 5 , 5 5 , , > 5 > 5 > , 5 5 5 5 5 5 5 5 5 5 , 5 , 6 5 5 6 6 6 6 6 5 8 6 7 6 5 5 , , 5 8 8 8 8 j j j 8 8 8 8 8 j 8 j j j j j 8 8 8 j j 8 8 8 8 j 8 8 8 6 6 6 6 6 6 u u 6 8 8 8 j j j w w 8 j j j j 8 8 j j j j j 8 8 8 8 8 j j j j j j j j j j 8 8 8 j j j j j j j j j j j j j j j j j j j j j j j j j j j j j j j j j j j l j j j j 8 8 6 g 6 6 8 6 8 8 8 j g g l l j j j j 8 < , 8 8 6 6 6 6 , , , , 5 , , , , , , , , , , , > ; ; ; ; > > > , > > > > > > * > > > > > > 5 5 5 > > > 5 > , > > > > > > > > > > > > > > > > > > > > 5 5 5 5 5 5 5 , > , , , 5 5 , , 6 6 < , , , , , , , , > , , , > > > > > > > > > > > > > > , , , > > > > > > > > ; , 5 6 6 6 , , , , , , , , , , , , , ; ; ; > * * = = * > > > ; ; > ; ; ; > > ; ; ; ; > > , , 6 6 j l I #.:.<.$.! ! ! @.@.! ! ! ! A F ! @...{ I Y I P J P P Y Y ! I I I I I J I U I I D D F #.&.5 { F.",
"> S <.#.#.&.%.%.#.} @.@.} { J J P  .+.,.,.,.,.,.+.+.%...| P } ..%.,.%...%.%.#.#.$.:.<.<.#.S 7 * o . # # . . . # # # # # # # # . # # . . # # @ X + X @ @ @ @ # . X @ @ # # @ @ @ @ # # @ # # # . X X O X X X X X O O O O O X # . . @ O # # @ @ O O X . . . . X . # . . . . + + . # . # . . + . # X . . X # # # # @ @ # @ # # . . + + + O O + + O O . O + O X O O O O O O O O O O O O O O O + + O . . O O . O O . . # # # # O X # . # . + . + O . X + + + + + X . . + O . + + . . . o o o o o o . . o # . o o o o o . . o o o . . . . . . o + + + . . o o o o o o . . o o o . . . o o o o o o o o o o o o o o o o o o o o o o o o o o o o o o o o o o o o o o o o o o o o o o o o o o % o o o o o o o o o o o o o o o . . . . . . . + . o + + o . o o o o o o o o . . . . . . + o . . . + . . . . . . . . . . . + O O + + . . O . O O O O O O O . . O O . + O O X # # . . . # # # # # . . # # # # # # X @ @ # # # X X X X X # # # # # # # . X . . . # # # # # . . . . . . . . . O X # # # . . X X O O @ @ @ @ # @ . X # # . . . # @ # # . . . . # . . + + + O + . . . . + + . O . O O + O + + O O + + . # . + # . . X . . . . . O O . . . . . o % , j I &.<.&.@.! ! L I ! #.! ! Y %.%.+. ...................@.@.@.......I I ! @...I I ! #.&.5 P 2.",
"5 z <.#.@.&.&.%.I I @.@.@.I I I P ..%.,.,.,.,.,.%.%.,.%.....%.,.,.,.,.,.%.#.#.$.2.<.#.l , o . # # # # # # # > 5 5 5 4 - # - - - 4 5 - # 4 4 4 - > 5 4 4 4 4 5 4 4 4 4 4 5 5 5 5 5 5 4 4 5 5 5 - - - # # # # # # # # # # 4 - # # # # 4 5 5 5 5 4 4 4 4 5 4 4 - 4 5 5 5 > 4 4 5 5 5 4 4 5 5 4 4 4 4 4 4 4 4 4 5 4 4 4 4 4 4 4 4 4 4 4 4 - - 5 > # # # # > > 5 5 1 # # # - > 5 5 > # 1 5 5 5 5 5 - * # # # # # # # * 5 5 4 - # # # 1 5 4 1 # # # - - # # # # # # # # # # # # o # # # # # # o * o o o o # # # o o o o o # * o o o o o o o o o o o o . # o o o o o o o # # # o o o o o o o o o o o % % o o o o o o % * o o o o o o o % o % % o o o o o o o o # % o o o # o o o o o o o o % o o o o o o o o o o # o o o o o o . o o o o o o o o o % # # # * * * * * o # # o o # o * * # # # # - - 4 5 5 5 5 5 5 5 5 > - # - - > > - - - 4 > > > # # # o # > > 5 > > > 5 5 5 5 5 5 5 4 5 5 5 5 5 5 4 4 4 - - 1 4 4 4 4 # # # # 4 - 4 4 5 5 5 5 5 5 5 5 4 5 4 5 5 5 5 4 > - - > 5 5 5 5 5 5 5 5 5 > - 5 5 5 4 4 4 4 5 # 5 4 4 5 5 5 5 5 5 4 5 5 5 5 5 5 4 4 4 - # # > > > - - - 5 5 5 - - # # # # - 4 4 4 # # # # # 4 - - # # # # # # # # # # # # o o o o % , l #.:.&.#.! I ! #.#.@.@.%.,.,.,.+.....%...#.%.%.%.....@.%.&.&.%.@.! ^ @.%.#.#.#.$.:., J <.",
"5 l :.#.@.*.$.^ ! ! ^ ^ ! I ! ! I ..+.,.,.;.q.0.,.,.,.,.%.,.+.0.0.0.1.%.#.#.;.<.&.J 5 # + # # > > > 5 7 w l S { { { T l w n n w w w w w n n [ [ [ [ [ n w S  .[ [ [ w w ' [ ' ' ' ' w w n n n n w q q q w w w q q w w w n n w n n q ' X.X.O. .' w ' n n n w w ' ' [ [ [ ' ' [ [ ' ' _ w w w ' ' ' ' ' ' w w w w w w w w ' [ [ [ [ w w w w w S w 7 7 w n w w S w q 7 w n n n n w w w n ' [ [ [ w w w w w 7 5 5 w S [ [ [ w 5 7 q w w w w q q q w w q q w 5 # # # * * # # # # # # # > > * > > * * > > > * > > > > * > > ; ; * * = ; > > = * * * * * = = = = = * * > > > > ; ; ; ; , , , , , , , , , , , > > > , , , , > > > > ; ; ; ; ; ; ; ; = = = = = ; , , , , , , , , , , , , , , , > * = * * , > ; > ; ; ; ; ; ; > ; ; = ; = = = = ; ; = = * * > > > > > > > > > * > > 5 5 5 5 5 5 5 5 5 5 q q 7 7 w w w w w 7 q w w w q q q w n n n n w 5 > 5 7 w w w w w w w n ' ' w w w w w w q q w w w w w q 5 q w w w w q q q w w ' ' w w [ [ n ' n ' ' w w w w w w w w n w q w w [ n w w w w w w w q q w w w w w w w q w w w w q q w [ w q q w w w w w w w w w w n n w w w q w ' w w w 7 7 q w w w w w q q q q q q q w q q 7 w w w w w w q 5 5 > > > > * # o o , J %.$.@.I I #.%.%.%.,.,.0.0.%.%.....%.%.,.%...! @.@.@.;.;.%.@.! ! @.%.%.%.*.$.;.5 J $.",
"5 l :.@.@.^ ~ ^ ^ ~ ^ ^ ! L ! ! ^ %.,.,.,.,.q.0.,.,.,.,.,.,.0.w.0.1.,.%.#.<.<.@.j = + # # 5 5 7 5 7 l S S S ..&.,.,.+.o.+.+.+.+.+.X.X.o.+.=.=.=.5.5.=.o.O.+.=.=.+.+.O.X.O.5.5.5.5.O.O.X.X.X.O.O.X.X.] X.O.O.O.[ ' X.O.O.O.X.X.O.X.X.O.+.+.3.+.X.[ X.X.X. .X.X.O.+.+.O.O.O.O.O.O.O.O.] ' w ' O.+.O.O.O.O.X.X.X. . .X.[ X.X.o.+.o.O. . . .X.X.O.X.n w [ X. .X.X.[ n w n [ [ X.X.[ [ X.X.O.o.+.o.[ n n [ S w q w [  .+.+.X.' w w S X.X.X.X.' ' [ [ [ ' ' [ 7 # # # # o o o # . . + . o o + o o o . o o # o o o o o o o o # # o o o # * % o o o o o o o % o % % * * * * * * * * * # * * * * % * * % * * * % % % * * * * * % % % % % % % % % * * * * * * * * * * * * * * * * * * * * * * * * % % % % * % % % % % % % % * * % % o % o o o o o o o o o o o * * * * > > * * * * > 5 5 5 5 5 5 5 5 5 q w w w n [ ' ' [ ' w ' [ ] ' n w w n [ X.X. .n 5 5 5 w n ' ' ' ] ] X.X.X.X.X.' ' X.X.[ ' ' ' X.X.X.X.' w ' X.] ' ' ' ' ' [ X.X.X.X.X.X.O. .X.X.O. .X.[ [ X.X.X.] X. .[ w w [  .X.X.] X.X.X.X.' ' ' ' ] ] X.X.X.X.X.X.X.X.[ n n [ [ ' w ' X. .X. . .X. .[ ' [  .X. . .[ ` [  . .X.[ n w n ' ] ' X.[ [  . .X.[ X. . .X.[ ' [ X.O.X.O.X.S q w S 7 > > > > # o . = l %.%.@.! @.#.&.%.,.,.,.0.,.%.%.%.%.,.,.,.#.^ @.! ^ @.#.@.I ! ! #.%.%.#.~ / ;.5 J $.",
"5 l :.@.@.! R ~ ~ ~ ^ ^ ! F z R ^ $.,.,.%.,.q.,.,.,.,.;.,.,.e.0.1.1.:.#.:.:.#.g o . # 5 7 w w S w 7 7 l l l { +... .O.O.+.+.O.O.O.O.X.O.+.5.5.3.5.+.+.O.O.O.O.O.O.O.O.X.O.O.O.O.O.O.X.X.] X.X.X.X.' ' ' ] X.X.' ' ] ] ] X.' ' X.[ _ [ O.O.O.O.X.[ ' [ [ [ X.X.X.O.O.O.O.O.O.O.O.O.] ' w n ' X.O.O.O.O.O.O. .X. .X.X.X.X. . .O.X.X.X.X.X.X.O.X. .[ n X.X.O.O.X.X.' n n X.X.X.O.X.X.X.O.o.+.+.+. .' ' [ [ w w w [ X.O.X.[ w w w w [ [ X.[ ' w n _ n n ' [ q # . . . + O + + . . . .                                                                                 .   .         yXyXyXyXyXyXyXyXyXyXyXyXyXyXyXyXyXyXyXyX          yXyX                                                                                                              . . . . .     o + . . + . . # # 5 5 5 5 5 q q 7 w w w w w w w w ' X.X.[ ' ' ' [ O.X.X.n q 5 q w ' ' ' ] ] ] X.O.O.O.X.X.X.X.X.X.' ' X.X.O.O.X.' w ' ' ' ' ' ' ' ' [ X.X.X.X.' X.O.X.O.O.O.X.X.X.X.[ X.X.X.O.O.X.' _ ' X.X.X.] ] O.X.X.X.X.] ] X.X.O.O.O.X.O.O.O.X.X.' ' ' X.' ' X.X.X.X.X.O.O.X.X.' X.X.O.X. .[ ' [ X.X.[ ' w w _ ' [ ' X.X.X.O.O.' ' X.O.X.X.] ' ' X.X.X.X.[ w 5 5 w 7 5 5 q q 7 5 +   % j %.&.$.! ^ %.;.,.,.0.0.0.0.0.,.,.,.,.,.%.^ ^ ^ ^ ! @.@.#.! ^ #.%.#.^ R ^ ;., D $.",
"5 l :.@.! ^ R ~ ~ ~ ~ ^ ! I ! R ^ %.,.,.%.,.0.,.,.,.,.,.,.w.0.%.%.;.$.$.F.! 6 % # # 5 7 w l S [ [ S w w w l S S n n w w ' ' ' w n w w n ' ' ' ' w w w w w q w w w w w w w q q q q q q q q q w w q q q 5 9 q q 9 9 q q q 7 5 7 q q 5 5 q q q w w w q w w w w w w w w w w w w w w w w q 7 w w w w w w w w w w w w w w w w w 7 q q q q q q q w q 7 7 7 w q w w 7 7 7 7 7 q w w w w w w w w w w w q 7 7 5 5 5 5 5 5 5 q 7 5 5 5 5 5 7 7 7 7 5 5 5 5 5 5 5 5 # @ . # . . . + + . . o o .         .                           yXyXyXyXyXyXyXyXyXyXyXyXyXyXyXyXyXyXyXyXyXyXyXyXyXyXyXyXyXyXyXyXyXyXyXyXyXyXyXyXyXyXyXyXyXyXyXyXyXyXyXyXyXyXyXyXyXyXyXyXyXyX          yXyXyXyXyXyXyXyXyXyXyXyXyXyXyXyXyXyXyXyXyXyXyXyXyXyXyXyXyXyXyX                    .   .           O > > . . + o . . + . # # # # # # # # > 5 - 5 5 4 4 5 5 5 5 5 5 5 5 5 5 5 5 - > > 7 7 7 q q q q q q q q q q q q 7 7 7 q q q q q q 7 5 q q 9 q q q q q q w w w q q w w w w w w w w w q 7 q w w w w w q 7 q q q q q q q q q q q 7 5 7 q w w q 7 7 q 7 q q 7 7 7 q q 7 q q 7 q q q q 7 7 7 5 5 7 7 7 7 7 7 7 5 5 5 5 5 5 7 q 7 7 q q q q 5 4 5 q q q q q 7 7 7 7 7 5 5 5 5 5 5 q w w w w w 5 o . # l &.&.^ ^ #.;.0.0.0.0.0.w.w.0.,.%.+.+.%.#.^ #.^ ^ #.%.;.^ ^ #.^ ^ R R ~ :., L :.",
"5 j :.@.! *.~ R R ~ ~ ! ! @.#.^ ^ #.;.,.%.%.,.,.0.0.,.,.,.0.,...@.%.$.<.#.6 o + 1 5 w w S S S [ [ [ w 5 5 5 6 5 5 7 5 5 5 5 5 5 5 > > > 5 > > > * 5 5 5 > * * > * > > > > * > > > > 5 5 > > > > > > ; > > > > > > > > > ; ; > > > > > > > , 5 6 8 5 6 6 6 8 6 5 5 6 6 6 6 6 6 5 5 5 , < u < , , , , , 5 5 , , > > > , > > > > > > , > > > > ; > > > , > > > > > > > > > 5 5 5 5 5 5 5 5 , , , , > > ; > , 5 5 > > > > > > 5 > > > > > > > > > > * # # . . + + . . o o o o o * > > O   O O o o o O # .             yXyXyXyXyXyXyXyXyXyXyXyXyXyXyXyXyXyXyXyXyXyXyXyXyXyXyXyXyXyXyXyXyXyXyXyXyXyXyXyXyXyXyXyXyXyXyXyXyXyXyXyXyXyXyXyXyXyXyXyXyXyXyXyXyXyXyXyXyXyXyXyXyXyXyXyXyXyXyXyXyXyXyXyXyXyXyXyXyXyXyXyXyXyXyXyXyXyXyXyXyXyXyXyX            . * o . O .       . 7 7 # . o o # # # . + . . . o # * * * > > > > > > > > > > 5 5 > > > > > , > > 5 , , , 5 > > > > 5 5 > > 5 > > > > , 5 , > > > > > > 5 5 > 5 5 5 5 5 > > > 5 5 5 5 5 > , , , 5 5 5 > ; , > 5 5 > > , 5 > > > , > > > > > > > > > ; ; > > ; * * * * * > ; = * * * * * * * * * = = = = = * % * = % ; ; > = = = = > > > > > = = * * * * * o * > * * > , = = ; = ; * % * = * > w S S l w q 7 5 # . ; l &.Z./ ^ #.,.,.0.0.0.w.w.w.0.%.%.%.%.@.! ! ^ ^ #.#.%.^ ^ ~ ~ R R R $.:.6 } F.",
"8 j ;.@.! ~ / ~ ~ ~ R F I ..#.#.! ! %.,.%.%.,.0.0.0.0.,.,.%.%...@.%.;.$.6 o . # 5 q w [ l S [ S w 5 5 < j l A A D D F A z z D z z z A D D l l l z L L D z z l D z z z z F z D F F I ! ! I F A F F F F F F F F F F A A A A A A A A ! A F ! ! ! ! ^ ! ! ! @.@.^ @.@.#.#.@.#.#.#.@.@.! ^ ^ ^ ~ ! ! ! U ! ! ! ! U U I ! I I ! ! ! ! ! ! ! ! F L F ! ! ! @.@.! ! ! ! #.#.! ! ! ! ! ! ^ Y I ! ! ! ! ! F F F I ! #.#.#.^ @.@.@.%.%.@.@.} } ..} } } } } } J J j 5 o . . . + + o . o * 5 5 +   # o # * * + * o     yXyXyXyXyXyXyXyXyXyXyXyXyXyXyXyXyXyXyXyXyXyXyXyXyXyXyXyXyXyXyXyXyXyXyXyXyXyXyXyXyXyXyXyXyXyXyXyXyXyXyXyXyXyXyXyXyXyXyXyXyXyXyXyXyXyXyXyXyXyXyXyXyXyXyXyXyXyXyXyXyXyXyXyXyXyXyXyXyXyXyXyXyXyXyXyXyXyXyXyXyXyXyXyXyXyXyXyXyXyXyXyXyXyXo > o . . . . . + . 7 8 > # * o . o . + . > 6 l { ....} } ..#.#.#.#.#.#.@.@.@.#.#.@.#.@.@.@.@.^ ^ ^ ! ! ! ! ^ ^ ^ ^ #.#.! ^ #.#.! ! ! ^ ^ ! ! ! U I ! ! I I L L L L L F F F I I ! ! ! ! ! ! ! U ! ! ! ! ! ! ! ! ! ! ! ! ! F F ! ! ! ! ! ! ! ! ! ! ! ! A A R R A A A z A F F A z k k z A A A A A z k z z z k k k k k k A z z z A A A A z z z k k g g g g p p p p p p k k a p g g j j l j 6 < , 5 w l l 7 7 7 5 5 > o * l :.:.~ #.%.&.,.0.w.w.w.w.0.,.%.,.&.@.! ! ! ^ #.! ! ! ^ ^ ~ R R R $.:.6 } F.",
"j 8 ;.@.! ~ / ~ ~ ~ ! F J { ..! ! I #.%.;.;.,.0.0.0.e.q.,.%.%.#.%.:.%.g # # # 5 w w w ` [ [ S 8 5 8 A ~ / / / g.g./ $.$./ / / / / ~ ~ *.*.~ ^ #.$.$.$.$.$.$.$.:.$.$.$.$.$.$./ $.$.V.Z.Z.V./ / / / $./ / g.g./ / / g.g.g.g./ g./ g.g.g.V.V.Z.Z.V./ / :.Z.Z.Z.Z.Z.Z.Z.Z.Z.Z.F.F.Z.Z.Z.Z.Z.Z.V.V.$./ $.$.:.:.$.$.$.:.Z.:.:.:.:.V.V.$.$.$.$./ $.$.$.$.$.Z.Z.V.V.V.Z.Z.Z.V.*.*.$.$.V.Z.$.$./ / $.$.$.~ ~ *.$.$.Z.Z.$.$.$.$.:.<.<.<.:.:.:.:.:.:.:.:.:.$.$.$.#.#.l * . . . . . o * 5 7 7 . . # # > > > o 5 >     yXyXyXyXyXyXyXyXyXyXyXyXyXyXyXyXyXyXyXyXyXyXyXyXyXyXyXyXyXyXyXyXyXyXyXyXyXyXyXyXyXyXyXyXyXyXyXyXyXyXyXyXyXyXyXyXyXyXyXyXyXyXyXyXyXyXyXyXyXyXyXyXyXyXyXyXyXyXyXyXyXyXyXyXyXyXyXyXyXyXyXyXyXyXyXyXyXyXyXyXyXyXyXyXyXyXyXyXyXyXyXyXyXyX% > o o * > * # # # 8 l 5 > > # o o + o 8 @.%.;.:.:.<.<.<.<.<.<.<.Z.Z.Z.$.*.$.Z.$.$.$.$.$.*.$.$.$./ / ~ ~ / g.g.g.V.V.V.$.$.V.V.V./ / g.V.V.g./ $.$.V.$.$.$.$.V.V.V.V.$.$.$.$.$.$./ / / / / / / / / / ~ / / $.$.$./ g./ / / / g.g.g.g./ g.g.g.g.Z.Z.g./ / g.g.g.g./ / / g.g./ / / / / / / g.V.g.g./ ~ g.g.g.~ ~ ~ ~ / g./ ~ / / / / ~ ~ ~ ~ ~ ~ R R R R R R E E E E E E R R ~ R ~ ~ ^ F A D D l l l 8 5 7 7 7 7 5 * # * l ;.Z.*.#.%.;.,.0.0.0.0.0.,.%.%.#.! ! F F @.#.! ! ^ #.^ R R R ~ $.,.5 } 2.",
"w 8 %.@.F ~ ~ ~ ~ ~ ~ ! I } @.I F @.%.&.;.,.1.0.0.0.e.0.,.,.#.#.:.:.D * # # 5 q w w w [ [ ` 8 , J &.:.:.$.^ ^ / / $.$.$.~ ~ ! ! ! ~ ^ ^ ~ ! ^ #.#.%.@.@.@.#.#.#.^ ^ ^ ^ ^ ^ ^ ^ ^ ^ #.#.#.*.^ ~ ~ ^ ^ ^ ^ ~ R R E E / / / R R ~ g.Z.$.;.:.:.$.$.;.:.:.>.Z.;.;.;.:.;.$.$.;.:.<.<.;.%.$.$.$.$.#.#.^ #.#.#.#.$.^ ~ ^ *.~ ~ $.$.~ ~ R ~ ~ ~ ~ ^ ~ ~ ~ ~ ~ $.$.$.$.$.$.*.*.*.~ ~ ~ $.$.$.$.^ ! ~ *.$.$.#.$.$.$.$.$.*.#.*.#.^ #.$.%.%.&.%.%.%.#.%.%.&.#.#.} } #.$.J > . + . # * 5 5 w 7 o + * * > 5 7 * j 5     yXyXyXyXyXyXyXyXyXyXyXyXyXyXyXyXyXyXyXyXyXyXyXyXyXyXyXyXyXyXyXyXyXyXyXyXyXyXyXyXyXyXyXyXyXyXyXyXyXyXyXyXyXyXyXyXyXyXyXyXyXyXyXyXyXyXyXyXyXyXyXyXyXyXyXyXyXyXyXyXyXyXyXyXyXyXyXyXyXyXyXyXyXyXyXyXyXyXyXyXyXyXyXyXyXyXyXyXyXyXyXyXyXyXyX< = > 7 7 5 > * * l T 8 5 > > * + o l &.<.:.%.%.#.&.:.<.2.<.:.&.&.&.&.:.%.#.%.%.$.%.%.#.#.#.#.@.^ ^ ^ ~ ~ ~ ~ ~ ~ ~ ~ ~ ^ ^ *.$.^ ~ ^ ~ ~ ^ ^ ^ ^ ^ ^ ! ^ ^ ^ ~ ^ ! ^ ~ ^ #.^ ! ~ ~ ~ ~ ! ^ ^ ~ ^ ^ ^ ~ ~ ~ ^ *.^ ^ ~ ~ R R / / / ~ ~ E E ~ ~ ~ / / R R E ~ ~ ~ ~ R R ~ ~ ~ ^ ~ ~ ~ / / / / $.~ R R ~ ~ R R R ~ ~ g.E ~ ~ R R R ~ ~ ^ ^ ! ! A k z R k a k x R R R R R R R R A R A A j g z L I I I S 6 > 5 7 5 5 5 # X % D Z.Z.*.#.&.,.0.0.0.w.0.,.%.@.@.! ! ! ! #.#.^ ~ ^ @.^ ^ ! R R #.;.5 } F.",
"w 8 %.@.L ! R ~ ^ ~ ^ ! ! @.@.I I #.&.%.%.,.0.1.,.0.w.0.,.%.%.$.Z.! , . # 5 q _ _ w S  .l 6 8 I <.<.$.#.@.} Y ..@.%.%.@...@.@.@.@.#.^ ^ ^ @.%.%.&.;.&.%.%.%.%.%.%.@.#.#.#.%.%.#.@.#.%.;.,.<.;.#.@.%.&.:.:.#.^ ~ $./ $.$.$.%.^ ~ Z.F.<.<.<.:.:.<.q.<.<.<.2.<.<.2.q.q.<.:.:.q.e.e.e.q.<.:.:.<.;.;.&.;.&.:.%.:.$.$.#.$.$.$.<.<.$.^ ^ ~ $.$./ $.*.#.~ ^ *.<.<.;.;.:.<.$.$.$.$.$.$.:.:.2.<.$.#.^ $.<.2.<.<.<.<.<.<.:.:.:.:.%.%.<.q.q.q.0.0.0.,.,.q.w.0.%. .{ } %.&.S . . # 5 5 7 q w 7 o o * > 5 6 7 5 l j     yXyXyXyXyXyXyXyXyXyXyXyXyXyXyXyXyXyXyXyXyXyXyXyXyXyXyXyXyXyXyXyXyXyXyXyXyXyXyXyXyXyXyXyXyXyXyXyXyXyXyXyXyXyXyXyXyXyXyXyXyXyXyXyXyXyXyXyXyXyXyXyXyXyXyXyXyXyXyXyXyXyXyXyXyXyXyXyXyXyXyXyXyXyXyXyXyXyXyXyXyXyXyXyXyXyXyXyXyXyXyXyXyXyXyXj , 5 w q 5 5 * > S ..S 8 > 5 # o l ;.<.;.;.,.q.0.0.0.w.e.e.q.q.q.e.e.e.q.q.0.q.q.q.0.0.0.,.,.,.&.&.&.%.#.$.:.;.$.%.%.%.&.,.<.<.:.%.%.;.;.%.$.#.#.%.%.%.%.%.:.;.#.@.#.:.:.:.%.#.#.$.#.^ ,.<.:.%.%.%.%.#.^ #.%.<.<.;.;.:.#.$.$.$.$.$.$.$.^ $.#.$.$.$.~ ^ ^ ^ ^ ^ #.^ ! ! #.#.#.$.#.#.#.$.$.$.$.*.^ ^ *.*.^ ! ^ #.^ / ~ $.$.^ F F #.$.#.^ ^ ^ F z z ! ! A A A z A z x A A A A A A A U A l j j l D @.#...8 > > 5 7 5 > # . ; ^ G.$.#.%.,.0.0.0.0.0.,.%.@.#.^ ! ! @.%.#.^ ~ ^ #.%.#.^ ! R #.,.6 } F.",
"8 6 %.@.I ! R ! ^ *.^ ! I @.^ ! ^ %.%.@.#.;.0.0.0.0.0.,.+.#.&.2.%.6 o # 5 9 w _ w w w w l 8 P <.<.#.@.%.;.,.,.,.,.1.<.;.,.,.%.%.;.;.^ ^ ;.<.<.1.,.1.<.1.1.<.<.<.2.<.:.:.<.<.<.<.1.,.1.q.e.q.:.;.<.q.q.q.q.q.<.%.<.<.q.0.q.e.1.;.<.U.q.q.<.1.w.u.u.e.<.<.2.q.e.e.T.#Xq.<.<.e.u.u.u.u.e.q.q.e.e.e.q.q.1.q.q.q.2.<.%.$.;.<.q.q.2.2.<.<.;.;.<.2.:.$.$.$.$.<.F.<.<.2.I.U.2.2.2.2.$.:.2.U.q.<.<.$.$.2.q.q.2.2.<.;.:.<.q.q.q.<.q.e.u.u.u.u.u.t.w.e.u.u.t.w.,.+.....;.0.8 . # 5 8 7 w S w o o * 5 8 w w 5 z j     yXyXyXyXyXyXyXyXyXyXyXyXyXyXyXyXyXyXyXyXyXyXyXyXyXyXyXyXyXyXyXyXyXyXyXyXyXyXyXyXyXyXyXyXyXyXyXyXyXyXyXyXyXyXyXyXyXyXyXyXyXyXyXyXyXyXyXyXyXyXyXyXyXyXyXyXyXyXyXyXyXyXyXyXyXyXyXyXyXyXyXyXyXyXyXyXyXyXyXyXyXyXyXyXyXyXyXyXyXyXyXyXyXyXyXl < 8 w w 5 > * > [ %.[ 8 5 5 # w 0.q.,.1.e.e.u.u.u.w.u.u.u.u.u.u.!.!.u.!.!.u.e.e.e.t.u.u.u.e.e.e.e.e.q.,.<.q.2.q.q.q.e.e.t.u.e.q.q.<.q.2.2.2.2.:.<.e.e.e.q.e.q.:.:.:.2.U.e.q.<.:.;.%.%.w.u.e.q.;.,.<.:.;.;.<.t.u.e.q.q.1.<.<.$.<.2.2.<.:.<.<.2.:.:.:.$.$.$.$.$.$.$.%.#.#.;.<.<.;.;.;.<.:.<.;.<.:.$.:.2.:.%.:.2.%.^ $.<.<.;.#.%.;.<.%.^ @.#.^ I U ^ ~ / ~ ~ ! ! R ! ~ ~ R R R R ! ^ ^ ^ D l j j S %.q.,.8 # > 5 7 5 # . . 8 $.Z.*.#.&.,.0.0.,.,.,.,.%.#.@.@.! ^ %.#.^ ! $.:.;.%.@.! ! ^ ;.6 } U.",
"8 < %.@.I I ! ! ! $.*.! I I ! ! #.$.#.@.#.;.0.w.0.0.0.+...%.:.:.l # # 4 5 q _ _ w q 5 5 l ..%.%.@...#.;.e.e.0.,.,.1.0.,.1.1.1.<.<.$.#.;.<.2.1.,.;.;.1.0.e.e.1.<.q.q.<.<.2.<.<.q.q.0.0.0.0.,.;.;.2.e.e.e.e.e.q.,.0.0.w.0.w.0.w.q.<.2.T.2.1.w.u.!.!.e.<.:.<.q.u.!.0X#Xq.q.q.e.u.u.u.u.e.q.w.t.u.u.e.0.0.q.q.q.<.:.;.;.<.2.q.q.<.q.U.q.:.;.<.U.2.<.:.;.;.<.<.<.2.q.T.T.e.q.U.U.%.:.2.q.<.<.<.;.:.<.q.q.<.&.$.$.&.<.e.e.e.q.q.e.u.u.!.!.u.u.w.u.8X6Xu.y.w.0.,.%.%.q.,.5 # > 8 w S [ w o o 5 7 j j l 5 z g .   yXyXyXyXyXyXyXyXyXyXyXyXyXyXyXyXyXyXyXyXyXyXyXyXyXyXyXyXyXyXyXyXyXyXyXyXyXyXyXyXyXyXyXyXyXyXyXyXyXyXyXyXyXyXyXyXyXyXyXyXyXyXyXyXyXyXyXyXyXyXyXyXyXyXyXyXyXyXyXyXyXyXyXyXyXyXyXyXyXyXyXyXyXyXyXyXyXyXyXyXyXyXyXyXyXyXyXyXyXyXyXyXyXyXyXl 6 w l w 7 5 > > { %.S 7 5 > > +.e.0.q.u.!.!.!.!.!.!.u.u.7X7Xu.5X5Xu.u.8X8Xu.u.u.u.u.u.8X!.u.u.u.u.e.e.e.e.e.e.e.e.t.u.u.u.u.e.e.e.e.e.e.e.T.q.e.t.u.!.u.u.e.e.e.q.<.e.e.u.e.e.<.;.;.0.u.u.u.e.1.<.<.<.<.<.e.u.u.w.0.0.0.q.:.#.;.<.2.<.:.<.q.q.;.$.$.$.#.#.%.$.$.:.;.%.%.&.:.:.;.:.;.<.;.<.:.<.2.<.<.e.q.<.<.q.;.@.%.<.1.0.,.,.,.;.@.^ ! $.#.#.^ ^ ^ ~ R R ! ! ! ! ^ / / / W R ! ^ ^ ^ ^ I S j j S ,.#Xq.8 * > 7 5 # . . o l $.$.^ #.&.,.0.,.,.,.,.,.%.#.@.! ! ^ #.@.^ $.;.%.@.! ! ! #.&.6 } U.",
"j < $.@.P I ! ! ! #.$.#.! I ! ! #.%.#.@.&.<.0.w.w.w.0.+...$.<.I > # 5 5 q _ ' w q 7 5 8 l #.;.%.%.&.@.#.;.<.1.;.;.,.,.,.<.;.%.%.$.$.$.;.:.:.;.%.;.%.,.e.e.q.;.:.2.q.<.<.<.;.<.q.e.e.e.0.,.;.:.2.<.q.e.e.e.e.e.1.q.0.e.w.w.r.w.e.<.<.2.2.<.e.e.u.u.e.H.2.<.q.T.#X#XT.e.e.e.u.u.u.u.u.e.e.w.u.7X8Xt.w.,.q.q.q.<.:.<.:.:.2.q.q.e.q.q.q.2.$.^ I.2.<.:.<.<.<.:.<.2.q.T.T.q.2.I.U.$.<.2.<.;.<.2.2.<.:.,.<.Z.$.*.$.&.q.e.t.t.t.t.t.u.u.5Xu.6Xu.u.7X8X8X7Xu.u.w.w.w.,.,.u.[ o * 7 l S { l * * 7 w l S l , z p .   yXyXyXyXyXyXyXyXyXyXyXyXyXyXyXyXyXyXyXyXyXyXyXyXyXyXyXyXyXyXyXyXyXyXyXyXyXyXyXyXyXyXyXyXyXyXyXyXyXyXyXyXyXyXyXyXyXyXyXyXyXyXyXyXyXyXyXyXyXyXyXyXyXyXyXyXyXyXyXyXyXyXyXyXyXyXyXyXyXyXyXyXyXyXyXyXyXyXyXyXyXyXyXyXyXyXyXyXyXyXyXyXyXyXyXD 6 l [ w 7 5 > > ..,.[ 7 7 > S e.t.e.u.0X0X!.6X8X8X8X8X8X8X8X8X8X8X8X8X6X6X5X5Xu.u.6X6X0X0Xu.e.u.u.u.u.u.T.u.e.e.e.e.u.!.!.u.e.e.e.u.e.e.u.#XT.u.!.0X8X!.!.T.u.T.T.e.e.e.u.e.e.e.0.w.u.5Xu.t.w.q.q.q.e.q.q.e.t.u.e.q.q.<.H.Z.$.$.;.<.<.%.<.<.<.#.~ $.$.#.$.:.:.;.;.;.,.;.&.$.$.$.<.:.:.:.<.<.q.q.<.<.q.e.q.<.q.,.%.%.q.0.0.0.0.,.%.! ! #.$.#.#.^ ^ ^ ~ ~ ! ! ^ I F ! / / / R k R #.@.@.I I { { P S { e.0X,.7 # > 5 5 # # + * ! $.*.! %.,.,.=.,.0.0.,.%.%.#.! ! ! #.#.#.#.*.^ ! ! ! ! #.&.5 } q.",
"l u ;.@.D ! ^ ^ ~ ^ #.#.@.@.@.^ #.#.%.%.,.q.0.0.w.w.0...@.Z.$.j o # 5 9 w ' w w w  .o.l l %.;.#.:.$.#.#.#.:.<.;.<.<.q.q.<.:.%.%.$.:.:.;.$.;.;.;.;.%.#.;.2.<.#.$.;.<.<.<.;.#.<.q.e.e.e.0.;.%.;.<.2.e.e.e.e.q.e.e.q.<.<.0.e.t.e.2.F.F.:.<.<.<.<.q.q.q.H.F.Z.<.2.q.e.e.q.e.u.u.u.t.u.e.e.e.e.u.6Xu.e.0.,.0.<.<.<.<.<.;.;.:.;.,.q.q.q.q.<.$.~ :.Z.F.2.2.2.<.2.2.2.q.q.q.:.<.<.Z.$.<.<.:.;.<.2.2.<.;.<.2.$.*.*.V.$.<.e.e.e.e.u.e.u.u.u.u.u.u.u.7X7X7X5X7Xu.u.u.u.e.%.u.+.o * 5 l [ +.S * * 8 w S P l , A j .   yXyXyXyXyXyXyXyXyXyXyXyXyXyXyXyXyXyXyXyXyXyXyXyXyXyXyXyXyXyXyXyXyXyXyXyXyXyXyXyXyXyXyXyXyXyXyXyXyXyXyXyXyXyXyXyXyXyXyXyXyXyXyXyXyXyXyXyXyXyXyXyXyXyXyXyXyXyXyXyXyXyXyXyXyXyXyXyXyXyXyXyXyXyXyXyXyXyXyXyXyXyXyXyXyXyXyXyXyXyXyXyXyXyXyXL j l  .w w 5 * > +.q. .w 7 5 %.u.w.u.0X0X0X6X6X0X0X0X8X0X0X0X0X0X0X0X0X6X6X6X6X8X8X8X8X0X0Xu.t.u.T.u.u.T.T.u.e.e.e.e.e.u.u.e.0.e.e.T.u.u.u.T.#X#X#X8Xu.u.!.#XT.#X#Xe.e.e.u.u.u.u.e.e.u.6Xt.w.q.q.q.q.e.e.q.e.t.t.e.q.<.<.2.Z.$.:.$.<.:.#.:.<.<.#.$.$.$.;.;.:.:.<.;.,.,.<.:.$.$.$.:.:.:.:.<.q.e.e.q.<.<.<.<.<.<.;.:.$.<.q.q.0.0.<.%.^ R ^ $.;.$.#.^ U ~ ^ ^ #.#.#.^ ! ~ R R k A ! ^ #.#.^ I J L @.@.J %.u.u.+.5 # > 5 5 # . . j $.$.^ #.;.,.,.,.0.0.,.%.%.#.@.! ! ! #.^ ^ ~ ^ ^ ^ ! ! #.&., J 2.",
"l j <.#.F #.*.~ ~ ~ ~ #.@.@.@.I @.@.%.%.,.0.0.5.0.w.0.%.#.Z.#., o 5 5 w ' w w [ +.5.3.l P %.;.$.$.#./ ^ #.;.;.;.1.q.0.1.<.:.;.%.;.;.;.#.#.;.:.;.;.#.@.@.#./ ~ $.#.;.2.<.$.~ <.<.q.e.0.1.;.;.$.:.<.q.q.q.e.e.q.e.e.1.;.;.<.q.<.;.:.V.$.>.<.<.;.;.<.<.F.Z.g.Z.:.:.2.q.q.e.u.u.e.e.e.e.e.e.e.e.u.t.q.q.1.<.:.<.;.$.$.~ $.#.@.;.q.q.q.<.$./ g.V.Z.F.2.2.<.<.2.q.2.q.2.2.$.$.$.$.$.:.$.:.<.q.2.:.%.%.:.<.$.$.V.g.*.:.e.e.e.e.e.e.t.u.u.u.u.u.u.5X5X5X7X8X8X8X8Xu.e.%.0.%.o # 7 S ..%.{ * > w S  .| J 6 A j     yXyXyXyXyXyXyXyXyXyXyXyXyXyXyXyXyXyXyXyXyXyXyXyXyXyXyXyXyXyXyXyXyXyXyXyXyXyXyXyXyXyXyXyXyXyXyXyXyXyXyXyXyXyXyXyXyXyXyXyXyXyXyXyXyXyXyXyXyXyXyXyXyXyXyXyXyXyXyXyXyXyXyXyXyXyXyXyXyXyXyXyXyXyXyXyXyXyXyXyXyXyXyXyXyXyXyXyXyXyXyXyXyXyXyXyXl {  .S w 5 * > %.e.+.l 7 > ,.u.e.u.8X8X8X8X8X8X9X8X8X0X0X0X8X8X8X8X8X6X6Xu.u.!.!.8X8X0X#Xu.u.u.u.u.u.u.u.e.e.e.e.e.e.e.e.e.q.q.e.T.T.u.e.T.#X#X#X!.u.u.u.T.T.q.e.e.q.e.u.u.u.e.e.t.t.t.0.q.q.<.<.e.e.e.e.e.w.0.1.<.<.;.:.$.$.:.#.$.;.#.$.:.:.#.$.~ $.;.$.%.%.<.<.<.q.<.$.$.$./ $.$.;.;.;.q.e.e.<.:.<.;.;.<.<.:.<.$.:.<.<.,.,.&.#.^ R R ^ $.#.^ ^ D A ! ^ @.#.%.@.! ! R N A ! ^ ! ^ ^ / ^ ! F ! #.J ..w.u.e.[ > > 5 5 > o . > ! $.~ ^ &.+.,.,.0.,.%.#.@.@.@.! ! I ! ^ ~ ~ ^ ^ ^ ! ! #.&., J 2.",
"l j <.#.U #./ / ~ ~ ~ ^ ! @.I } @.%.%.%.,.0.0.,.0.w.,.#.$.Z.F * # 5 5 ' S w [ +.0.=.[ j I / $.:./ ^ $.#.#.;.;.%.%.,.1.;.%.#.#.#.@.#.#.^ ^ #.;.#.#.^ ^ ! ! ~ / / ^ $.<.:.^ ~ ;.<.2.<.;.;.<.:./ ~ #.;.:.<.e.e.e.e.q.;.;.%.%.%.#./ / / / :.:.:.$.$.$.:.Z./ / / $.;.<.<.2.e.e.e.e.0.q.e.e.e.e.e.e.e.0.q.<.<.:.;.$./ ~ ^ $.#.@.;.q.<.<.:.;./ / Z.V.:.$.$.$.<.2.2.2.<.<.<.;.$.~ / $.:.$.:.2.2.<.;.#.#.;.<.$.$.$./ #.&.<.e.e.e.e.e.e.u.u.u.u.w.y.5Xu.5X8X8X8X8X8Xu.0.%.0.%.. o 5 S %.,.{ * > l [  ...{ 6 F l     yXyXyXyXyXyXyXyXyXyXyXyXyXyXyXyXyXyXyXyXyXyXyXyXyXyXyXyXyXyXyXyXyXyXyXyXyXyXyXyXyXyXyXyXyXyXyXyXyXyXyXyXyXyXyXyXyXyXyXyXyXyXyXyXyXyXyXyXyXyXyXyXyXyXyXyXyXyXyXyXyXyXyXyXyXyXyXyXyXyXyXyXyXyXyXyXyXyXyXyXyXyXyXyXyXyXyXyXyXyXyXyXyXyXyX%.D { o.[ w 7 * > %.t.+.l 7 > +.T.u.u.0X9X0X8X8X8X8X8X8X8X8X8X7Xu.8X8X8X8X7X!.u.!.!.5X8X7X!.u.u.u.u.u.u.u.t.w.w.t.t.e.w.w.w.t.0.0.e.u.u.e.e.e.W.!.u.u.u.u.e.e.e.<.<.q.q.q.u.u.e.e.e.e.e.0.,.,.,.,.,.0.q.w.e.e.w.1.1.<.;.;.%.#.$.;.%.$.;.#.;.;.$.#.$.$.$.$.#.#.^ ;.<.q.q.:.%./ :./ #.#.;.;.;.<.e.e.:.:.<.$.#.;.<.:.:.#.#.%.;.;.%.%.@.~ R R R ^ ! U I D A ! ^ #.#.#.#.#.R R R R ~ ~ ~ ~ R / / / R R ! I ..0.t.!.0.w > > 7 > * . o l $.*.^ @...,.,.,.%.%.#.@.@.I ! ! ! ! ! ~ ~ ~ ~ ! ! ! #.;., J 2.",
"l j <.#.U ^ / ~ *.$.$.~ ~ ! @.%.;.;.;.,.0.e.w.0.,.,.&.^ Z.Z.g o # 5 q w w w o.0.,...S @.^ / / / $.~ #.#.;.q.;...^ #.%.%.%.%.%.#.@.@.#.^ ^ @.#.#.^ ^ ! ^ ^ ^ ~ ^ ^ #.%.#.#.^ #.#.$.%.;.;.:.:./ ! ! #.%.;.<.1.q.1.;.;.:.#.@.^ ! ~ W / W / $.$./ / / *./ R / $.#.;.;.;.<.e.w.w.w.w.0.0.w.w.w.0.0.0.0.0.1.,.;.&.#.#.^ ^ #.%.&.%.,.;.;.:.;.$./ / / / $.$.#.;.<.2.2.;.:.:.:.<.$.$.:.<.%.;.<.<.;.%.:.%.%.;.$.$.$.$.$.:.:.q.0.q.q.e.e.e.w.u.t.t.u.y.u.u.u.7X8X8X8Xu.0.,.0.... o 5 l ..<...* > l { ..%.} u F l .   yXyXyXyXyXyXyXyXyXyXyXyXyXyXyXyXyXyXyXyXyXyXyXyXyXyXyXyXyXyXyXyXyXyXyXyXyXyXyXyXyXyXyXyXyXyXyXyXyXyXyXyXyXyXyXyXyXyXyXyXyXyXyXyXyXyXyXyXyXyXyXyXyXyXyXyXyXyXyXyXyXyXyXyXyXyXyXyXyXyXyXyXyXyXyXyXyXyXyXyXyXyXyXyXyXyXyXyXyXyXyXyXyXyXyX&.J  .o. .w 7 * > %.u.+.l 5 * [ T.u.u.0X8X0X8X8X0X8X8X0X8X8X8X8Xu.0X6X7X7X5Xu.u.u.u.u.u.u.u.u.u.u.u.t.t.t.w.w.w.w.w.w.0.0.0.0.0.0.e.e.e.0.w.w.w.u.t.t.t.e.q.q.,.1.,.1.q.q.w.w.w.0.0.0.w.0.%.&.&.%.%.,.1.,.w.0.0.0.,.;.#.#.@.%.#.%.%.#.%.%.;.#.%.#.%.$.%.#...%.U %.%.,.,.%.#./ $.#.#.#.%.;.;.,.,.<.;.:.$.#.^ @.#.#.^ ^ ! I Y @.@.@.! ! A A A I ..P I P D A U @.%.@.^ ^ A R R R / / ~ R R E Q Q E W R F ..q.u.u.w.o.5 > 7 5 5 . + 5 #.$.~ @.+.,.,.,.,.%.&.%.#.@.I ^ #.^ ! #.$.^ ! ! ! ! #.;., I 2.",
"l j <.@.I ! ~ ~ $.<.:.$.^ @.%.;.:.<.,.0.e.t.t.e.0.,.#.^ Z./ , o # 5 7 w 5 [ +.0.=. .[ 2.<./ ~ ~ / / #.%.<.<.@.^ U D D D I ^ Y U D D D U I Y I D J D D D U U U I L I I @.@.! I U F D I ! @.U A A A P P { } ....P D U ! F D z z A A R A U ! ! ! ~ ^ ! A R ! ! @.@.I U I Y .......... . . .X.X. .....} } } } } } I I I I P { [ J P { ..^ ! ! R A U ^ ^ ^ I @.%.%.! @.@.#.#.@.@.#.&.} P ....#.#.&.#.%...@.@.#.#.#.%.%.&.%.%.%.%.%.%.+.,.,.0.w.w.w.w.u.5X5X8X8Xu.e.,.0. .+ # 5 l { ,...> 5 w [ ..,...g F j .   yXyXyXyXyXyXyXyXyXyXyXyXyXyXyXyXyXyXyXyXyXyXyXyXyXyXyXyXyXyXyXyXyXyXyXyXyXyXyXyXyXyXyXyXyXyXyXyXyXyXyXyXyXyXyXyXyXyXyXyXyXyXyXyXyXyXyXyXyXyXyXyXyXyXyXyXyXyXyXyXyXyXyXyXyXyXyXyXyXyXyXyXyXyXyXyXyXyXyXyXyXyXyXyXyXyXyXyXyXyXyXyXyXyXyX#.D  .+.o.[ 7 * > %.u.o.w 5 * S u.u.8X8X0X9X9X8X8X8X8X8Xu.u.t.e.%.,.0.0.0.0.,.,.0.0.+.+.=.+.=.,.%.%.+.+.+.+.%.+.+.+... . . . .....%...............+.%...%.%.......| | ..|  . .| ........ .{ } J P P J I L } } #.@.@.I D D D I F F D D J D I J } I I U U J S J D D D D I U U A U U U D I I I P P I I ^ ! ! ! ! ! U D D D D S S D D D z j l l l l l S j l j j S { D Z j j k k A ^ ^ ^ ! R W E Q / / ~ A ..q.e.w.0.+.w * 5 8 5 o O , ^ *.~ #.1.,.%.%.,.,.;.&.:.#.! @.#.%.#.:.<.$.! F ! ! #.;., I 2.",
"l < ;.@.I ^ ^ *.$.2.2.;.#.&.1.<.<.<.<.q.t.u.u.e.q.,.@.~ Z.! % . # 5 8 5 5  .=.0.,.o. .q.2.>./ ^ / / #.;.:.Y A A k p p < p p j j 8 j j j j l j j j j j j j j l l l D S D F F A j j j z k j Z A A D D D D D A D z D D U D z z z F A A A A F F A A U F A ! U ! Y D F A A Z D U U ! ! R A A A A R R R m A A A R ! ~ ~ ~ ! A U A A D U I Y U A A A A A U I D l S F z D D D J { ..{ +.[ S S S { J { J } | | Y ..........} I P J P } J ..{ {  .+.+.0.0.w.5X7X8X8X8Xt.,.w.o.O * 7 l  .0. .> 5 w  .+.,...g F j .   yXyXyXyXyXyXyXyXyXyXyXyXyXyXyXyXyXyXyXyXyXyXyXyXyXyXyXyXyXyXyXyXyXyXyXyXyXyXyXyXyXyXyXyXyXyXyXyXyXyXyXyXyXyXyXyXyXyXyXyXyXyXyXyXyXyXyXyXyXyXyXyXyXyXyXyXyXyXyXyXyXyXyXyXyXyXyXyXyXyXyXyXyXyXyXyXyXyXyXyXyXyXyXyXyXyXyXyXyXyXyXyXyXyX8 @.D ..+.+.[ 7 * > ,.u.o.l 6 % S u.u.8X0X0X9X7X7X8X8X5Xt.0.,.%.%...#... ... .{ {  . .{  .{ [ [ P S [ S { { { { S S S l l l l l l l S l S P P S S S l J S D D S S J S S G S S S S D I D J F A R A A W ~ W N R W ) ) Q W N W W W W W N R W W W N W R C C Q W A A R R A A U U A A Z A U A A Z S D l A A F A A A F F D D D S Z l j j j j j j l l j j < j < j j j j l l j l j j j j Z P Y ^ ! R E / Z.Z./ A S %.,.,.,.,.S * > 8 5 # + = F / R #.<.%...%.,.,.;.,.:.#.^ @.%.;.;.<.2.;.^ ! ! ! #.;., I 2.",
"j < ;.@.} @.#.^ %.q.e.<.:.<.q.<.<.<.<.q.e.u.u.e.0.%.I R V.F % # > 5 8 > 5 o.0.0.0.+. .;.2.F.;.#.#.#.%.;.U j A A k z U @.^ ! ! @.....#.Y Y ..@.@.#.^ ^ ^ #.;.:.<.<.<.;.;.:./ / / :.:.F.:.:.Z.S.H.H.F.F.S.G.:.:.Z.H.F.U.U.F.F.<.H.>.>.:.:.>.<.>.:.>.2.2.U.U.OXH.2.H.J.S.S.`.*X*X*X*X}.`.J.J.`.}.}.].D.x.z.z.D.].].].[.[.D.D.D.}.}.-X-X-X`.`._.+XH.S.H.H.H.2.<.2.<.2.<.<.<.q.U.e.u.e.e.<.2.H.<.<.<.q.q.q.2.2.:.:.<.q.2.q.<.;.;.:.<.2.;.<.<.;... .5.w.5X8X8X8X6Xt.0.w.o.O 2 w [ %.e. .> 5 w  .+.,...u v j     yXyXyXyXyXyXyXyXyXyXyXyXyXyXyXyXyXyXyXyXyXyXyXyXyXyXyXyXyXyXyXyXyXyXyXyXyXyXyXyXyXyXyXyXyXyXyXyXyXyXyXyXyXyXyXyXyXyXyXyXyXyXyXyXyXyXyXyXyXyXyXyXyXyXyXyXyXyXyXyXyXyXyXyXyXyXyXyXyXyXyXyXyXyXyXyXyXyXyXyXyXyXyXyXyXyXyXyXyXyXyXyXyXyX8 @.J %.0.+.[ q > > ,.u.+.l j = l e.u.!.0X0X8X7X7X8Xu.u.,.&.<.<.<.2.<.<.<.<.<.<.q.w.q.q.e.e.w.e.e.0.1.0.e.e.q.q.q.e.e.q.q.q.0.0.<.<.q.q.q.2.U.U.U.q.2.U.H.2.:.<.<.2.<.<.<.;.<.<.H.H._.+X+X].[.].^.^.XXoXoX].XX X,X,X X].]..XoXoX].].].].].].].c.).).^./.{.].c.z.z.Z.:.>.H.F.>.:.1.2.H.<.;.;.;.<.<.<.<.F.:.F.F.:.$.$.;.;.:.;.;.#.....%.%.^ ! / / W W / ~ W Q / ~ ! ! F I U ^ ^ D l l D ! ! ~ R ~ ~ / :.U l { +.+.+.,. .5 * 7 5 > # % F V.~ #.<.<.,.,.,.1.,.;.$.#.! #.%.;.;.1.<.;.#.^ ! ! %.,., I 2.",
"l g <.#.} @.@.@.%.0.e.q.q.e.e.e.q.q.w.w.w.t.t.1.%...z ~ Z.@.= # # > 5 # 5 +.0.0.w.+. .;.<.<.;...+.%.%.%.j g ! z g I #.#.^ U F F I @.#.^ F F U ! ! W ~ ) :.:.:.F.>.:./ ! W W Q Q ) l.Z.) ) ( l.Z.:./ / l.Z./ / ~ $.#.;.:.>.:./ ) / Q W / / / / W / :.:.:.:.>.:.) :.Z.( l.S._._.H.OXOXOXU.H.H.H.J.D.Z.:./ $.F.S.m.m.m.m.j.j.l.D.D.}.-X`.D.S.H.H.F./ / :.:.F.<.:.$.;.;.;.;.;.<.1.e.e.2.2.H.H.2.H.H.H.H.Y.U.F.;.;.<.2.<.U.2.#.@.%.:.2.@.%.:.q.;.T +.0.u.7X8X8Xu.0.,.w.o.O > l { ,.e.+.> 5 w  .%.,...g ! j     yXyXyXyXyXyXyXyXyXyXyXyXyXyXyXyXyXyXyXyXyXyXyXyXyXyXyXyXyXyXyXyXyXyXyXyXyXyXyXyXyXyXyXyXyXyXyXyXyXyXyXyXyXyXyXyXyXyXyXyXyXyXyXyXyXyXyXyXyXyXyXyXyXyXyXyXyXyXyXyXyXyXyXyXyXyXyXyXyXyXyXyXyXyXyXyXyXyXyXyXyXyXyXyXyXyXyXyXyXyXyXyXyXyXg ! F %.0.+.[ w > > ,.#X%.S l = l e.e.u.8X8X7X7X7Xu.u.0...<.U.:.@.%.%.$.%.@.^ #.%.:.,.q.0.e.e.t.t.e.e.e.e.e.,.0.e.e.e.e.e.e.e.e.q.q.T.OXU.2.U.OXU.U.2.2.H.<.#.#.$.:.#.#.;.^ ;.:.>.H.J.`.J.].K.K.z.l.S.J.`.S.H.H._._.S.x.D.].XX].x.z.c.D.z.l.z.l.D.c.c.m.K.A./ / s.( / $.:.;.$.^ ^ ;.:./ / ! ^ #.#.$./ $.$.$.$.^ R R ~ / / / / ^ Y ....#./ W ) x.j.V Q ) j.x.l./ ~ ! R F ! ^ ! ^ I l l F ! ~ R ! ~ ~ $.^ l { +.+.+.+.o.7 o * * # # = ^ J.Z.$.;.,.q.0.0.0.1.,.%.#.#.%.;.;.;.;.;.;.@.! ! ^ :.<., } 2.",
"l j F.%.} #.@.@.;.w.w.e.e.e.w.q.e.e.w.w.0.w.0.,.%.} z ~ G.! = # > > * # q +.0.w.w.0. .&.:.;.,.,.0.+.+...j z U z j Y @.U ! F k g z A ! ! A F ! ~ W R R / / / / :./ / ~ W W Q Q W Q Q ) W W ) ) :.:.~ W Q l./ / / #.@.%.#./ ~ ~ / W W W W W W W W / / / ~ ~ ~ / / ^ / / ( Z.H.2.2.<.<.e.<.<.;.;.;.$.^ @.#.@.#.$.( l.Q Q W W ~ / / F.H.>./ / ;.$.^ R R R R ^ ~ W R ^ ^ #.%.@.@.#.q.2.2.F.F.H.S.S.H.H.H.J.Z./ ~ ^ *.#.%.:.$.I U #.#.! z F ^ U.q.{ o.0.u.7X8X!.u.0.,.w. .. 5 l { ,.e.+.5 5 S  .,.0...g ! j .   yXyXyXyXyXyXyXyXyXyXyXyXyXyXyXyXyXyXyXyXyXyXyXyXyXyXyXyXyXyXyXyXyXyXyXyXyXyXyXyXyXyXyXyXyXyXyXyXyXyXyXyXyXyXyXyXyXyXyXyXyXyXyXyXyXyXyXyXyXyXyXyXyXyXyXyXyXyXyXyXyXyXyXyXyXyXyXyXyXyXyXyXyXyXyXyXyXyXyXyXyXyXyXyXyXyXyXyXyXyXyXyXyXyXj L z #.%.=.[ w > > 0.#X,. .l * S e.e.t.u.8Xu.7X5Xu.u...P <.:.@.! #.#.$.$.^ R R ~ *.*.%.&.,.e.e.e.w.e.u.u.q.,.,.e.e.1.;.,.q.q.0.<.1.2.2.<.#.:.<.:.;.:.>.#.#.^ ^ / / ~ ) :.) :./ / ( S.S.Z.Z./ V.~ ^ ..#.#.Y ....%.#.#.^ ~ / / / W W ~ ~ ~ R / / $./ / / / / ! / / / / ^ ^ ! ^ A R R W R R W ~ ~ ^ $./ $./ / ^ ~ R R R R E E W ! ^ ..^ ^ ! R W j.V C N N Q Q W x k k k k k a a R ! F j j A R R ~ ^ ^ :.^ l  .+.+.+.+.o.8 o * # # # ; #.J.Z.*.%.%.,.0.0.0.1.1.;.;.;.,.,.;.,.&.%.#.! ! @.@.:.<., @.I.",
"l j F.&.} ..#.%.,.w.w.e.e.w.q.q.e.t.w.w.0.0.,.,.%...z ^ G.! * # 5 > # o q 5.w.w.t.0. .%.%.%.,.w.r.=.+.{ j D ! F D ..P l U #.z g g z A ! ~ ~ / / / R R / / / / / / / ) l.c.c.j.Q Q Q ( ) / ) :.>.>./ W W / / ( / $.$.%.@.! ~ / ( / / / / / / / Z.F.$.^ ~ ^ ^ :.:.$./ l.Z.Z.<.<.,.<.<.<.2.:.$.$.#.^ T ........#.^ ^ ~ ! ! %.%.#.#.;.:.%.@.%.;.;.#.^ ^ ~ R R R ~ R / $.<.$.@.^ @.<.<.;.:.H._.J.H.H.+X+XJ.Z.l./ / $.#.#.$.%.! ! *.$.z L #.#.F.q.} o.0.u.u.8X!.u.w.,.w. .+ 5 l { ,.e.+.> 5 [ +.0.w.+.g ! k .   yXyXyXyXyXyXyXyXyXyXyXyXyXyXyXyXyXyXyXyXyXyXyXyXyXyXyXyXyXyXyXyXyXyXyXyXyXyXyXyXyXyXyXyXyXyXyXyXyXyXyXyXyXyXyXyXyXyXyXyXyXyXyXyXyXyXyXyXyXyXyXyXyXyXyXyXyXyXyXyXyXyXyXyXyXyXyXyXyXyXyXyXyXyXyXyXyXyXyXyXyXyXyXyXyXyXyXyXyXyXyXyXyXyXyXF z #.0.0. .w > > 1.&X0. .l > S e.w.e.u.8X8X8Xu.u.t.| P :.#.! @.$.! ^ <.~ x x E ~ ~ ! ! #.<.e.e.e.e.e.e.e.,.,.,.<.%...%.,.,.,.;.;.:.:.;.#.;.;.;.:.>.F.$.$.$./ / / ( S._.S.;./ ! / Z.Z.( W W / ) ) ;.;.;...%.....@.^ ^ Y ! ~ ~ R W ! ! A A ^ / #.^ ~ / ~ / ^ ) / :.:.$.@.@.#.^ / E E E Q / / / ) Z.$.:.$.:./ / / / Q E E E W / #.%.@.^ ! R W Q Q C m a R A k k k k A R i e a R ^ ! j l ! R R ^ ;.$.:.^ j { %.%.+.+.+.w o * > * o > ^ G.$.^ @.,.0.w.w.0.,.,.1.,.,.,.,.,.%.%.@.@.! @.} ! ;.q.6 @.U.",
"D j U.&.P } ..0.0.w.w.e.e.w.0.0.q.e.w.r.0.0.w.0.,...z ~ Z.F * # > 5 > o q =.w.e.e.,. .%.%.%.%.,.0.=.=...j D @.! I } I 8 j %.^ k z l z F ~ ~ W W l.l./ W / ( / / ~ / ~ l.].^.c.j.Q Q / / / $.;.:.:./ W E / / / ~ ^ #.#.! ! ^ / W W W / / Z.:./ F.H.:.#.:.#.^ $.:.$.) D.D.l.$.%.%.,.;.;.;.%.%.:.:.#.^ @.#.@.@.#.#.^ ! ^ #.;.,.,.%.%.%.+.+.%.0.0.,.%.#.~ R R ! ~ ^ ~ $.:.%.^ ^ #.,.<.<.:.H.+XU.q.H.H.H.D.Z.z.l./ #.^ %.#.#.@.#.:.! J } #.%.2.q.} +.w.u.!.8X0X0Xe.,.w. .+ 5 l { ,.w.o.> 5 [ 0.t.y.+.g R z .   yXyXyXyXyXyXyXyXyXyXyXyXyXyXyXyXyXyXyXyXyXyXyXyXyXyXyXyXyXyXyXyXyXyXyXyXyXyXyXyXyXyXyXyXyXyXyXyXyXyXyXyXyXyXyXyXyXyXyXyXyXyXyXyXyXyXyXyXyXyXyXyXyXyXyXyXyXyXyXyXyXyXyXyXyXyXyXyXyXyXyXyXyXyXyXyXyXyXyXyXyXyXyXyXyXyXyXyXyXyXyXyXyXyXg F z #.0.0. .w > > q.$Xq. .w > S e.0.e.8X9X8X!.u.u.w. .} &.#.^ #.#.U l %.;.R R E E R R ~ #.&.q.q.<.2.2.e.e.1.;.%.%.%.%.%.;.:.:.:.$.:.>.F.F.>.>.H.H.>.:.Z.Z.Z.l./ / Z. X-XD.>.$.^ ~ / / ~ / l.z.Z.:.;.2.2.<.;.%.#.%.;./ ! ! ^ ^ ~ R ! ! ^ ! U ^ #.^ / / ~ / ~ R / / / #.;.:.;.:.Z./ Q s.g./ / / / / / / / $.;.:.$.~ / / E E / $.%.%...@.! R R N N R A j k k z z k k A A u p k R ! U 8 j ! ^ @.#.;.$.$.#.j { %.,.%.%.+.w # > 5 > o , ^ Z.~ ! #.,.,.0.0.0.,.,.0.,.,.,.,.%.%.%.%...@.@.! ^ ;.q.< @.U.",
"D j U.&.} ....,.0.e.w.w.w.w.e.q.,.0.y.y.w.w.w.w.,.#.z ~ Z.D * # > 6 5 # q =.w.w.w.,. .%.%.;.%.%.,.,.,...j D #.@.I I I 8 , I #.! z z k R R R W Q / l./ W W / / W R W W ( D.c.c.x.) ~ ~ ~ / :.;.:.;./ ~ ~ / / / ! ! U A A ! ~ / W W W / :.F.:.$.$.>.;.;.;.;.#.$.;.;.F.S.Z.( $.%.%.%.;.;.#.@.%.;.:.$.^ ^ ^ ! ^ #.#.#.^ ^ %.,.%.,.%.%.%.+.+.,.t.w.,.%.@.#.^ ~ ^ #.$.~ *.%.$.$.#.#.%.<.<.:.S.H.<.<.:.:.) / l.l./ ~ ^ ! ^ #.^ ! $.$.z I @.#.%.2.<.{ +.t.!.8X8X0X0Xu.0.w. .+ 5 l [ +.0.+.5 5 S o.0.r.+.j ^ z .   yXyXyXyXyXyXyXyXyXyXyXyXyXyXyXyXyXyXyXyXyXyXyXyXyXyXyXyXyXyXyXyXyXyXyXyXyXyXyXyXyXyXyXyXyXyXyXyXyXyXyXyXyXyXyXyXyXyXyXyXyXyXyXyXyXyXyXyXyXyXyXyXyXyXyXyXyXyXyXyXyXyXyXyXyXyXyXyXyXyXyXyXyXyXyXyXyXyXyXyXyXyXyXyXyXyXyXyXyXyXyXyXyXyXj ! z #.0.0. .w > 5 0.#X,.[ w > S e.w.u.8X8X8X!.u.u.r.{ } :.&.#.@.@.D j P %.^ E E E R R R ~ $.:.<.;./ ;.;.<.<.;.$.$.$.;.;.:.:.:.Z.$./ ( Z.F.F.>.H.F./ / / Z.g./ / / Z.`.`.:.;.;.$./ ^ ^ ^ :.Z.z.l.:.:.2.2.2.;.%.%.%.;.^ R R ~ ~ R R ~ ^ ^ ^ F ! ! ^ ^ R R R R R W R R ^ ;.;.:.:./ / W W Q / ( / ~ ~ / ~ R ~ :.$./ ! ~ / / R ~ $.%...S F A k a a a a k j p g g g g z ! z u k z R ! F 6 j ~ #.#.$.$.$.$.#.l { +.,.0.0.%.7 # > 7 > o , ^ Z.~ ! #.,.,.0.0.,.,.%.,.,.,.,.,.%.%.,.1.;.%.@.! ^ <.q.< @.U.",
"z j U.;.} ..#.%.q.e.w.0.w.e.e.q.;.0.u.u.w.w.w.w.0.#.z ~ Z.A * 2 5 6 5 > q +.w.0.0.+. .%.$.$.#.#.%.;.;.@.p F #.I D D I j % j @.! ! R R R R / / ( / / / / ~ R R / ~ ~ ~ / Z.( l.:.:.$./ / ;.;.:.;.;.;.;.:.;.;.;.@.^ ^ Y U ^ / / ~ ~ ^ $.;.<.<.$.:.<.:.<.1.;.;.;.<.<.F.:.:.:.:.<.,.<.<.:.#.@.%.;.;.$.$.#.%.@.@.#.%.$.^ @.%.,.%.&.%.%.%.+.+.+.w.w.,.%.%.%.$.:.%.;.:.$.#.%.:.:.;.<.,.<.2.>.:.:.;.;.;.^ ! ^ / / / ~ ^ ^ $.^ ! ! $.@.j P @.#.%.<.<.P +.u.!.!.8X8X8Xu.w.e. .# 5 w S +.0.+.5 5 w [ +.5.o.j ~ z .   yXyXyXyXyXyXyXyXyXyXyXyXyXyXyXyXyXyXyXyXyXyXyXyXyXyXyXyXyXyXyXyXyXyXyXyXyXyXyXyXyXyXyXyXyXyXyXyXyXyXyXyXyXyXyXyXyXyXyXyXyXyXyXyXyXyXyXyXyXyXyXyXyXyXyXyXyXyXyXyXyXyXyXyXyXyXyXyXyXyXyXyXyXyXyXyXyXyXyXyXyXyXyXyXyXyXyXyXyXyXyXyXyXyXj ! z ..,.+.[ q 5 5 0.T.%.S w 5 S w.e.u.8X7Xu.u.u.u.w.{ } :.:.#.I @.D 8 S @.#.~ / ~ / / / ~ / :.:./ / ~ $.:.<.>.:.;.<.F.F.F.:.$./ / / / / Z.H.H.<.<.$./ $.$./ / / #.:.:.;.^ %.;.;.;.;.$.$.<.F.Z.Z.;.:.<.<.:.%.%.%.#.#.^ ! ~ ~ ~ ~ R ~ $.$.$.^ ! ! ^ ~ ~ ~ R ~ / / ~ ^ #.;.$.*.~ ^ / ~ R ~ / $.$.^ ! $.#.! ^ #.#.#.! ^ ^ ^ ! ! #.@.} Z j p k a a a k j g p p g g g ! ^ p u k z k A A , j ! ^ #.#.$.$.$.#.l S { %.0.0.+.7 # > 8 > # , ^ Z.^ U ..,.0.0.0.,.,.%.,.,.1.1.,.%.&.0.0.<.&.@.@.^ :.q.6 @.U.",
"l j U.:.} } @.&.;.<.0.w.e.e.e.1.;.w.u.u.w.w.w.w.,.#.z ~ G.A > 5 5 6 5 > q +.0.0.0.%. .&.$.$.^ @.#.$.#.I p A ! A l l D l ; 8 I ! F F z z z A U ! U U U U U F D U ! I D I Y Y Y ............#.#...| | ..{ { | ..{ P I P D P P D D P P P ....@.#.#.%.%.%.....#.#.#.#.#.@.^ @.#.#...%.#.@.I I J U I } @.#...} P } } I I P } { { }  . . . .o.o.+.o. .{ { P I } } ..@.F F } } } #.%.+.+.%.@.I I ....{ D D F A A ! ! ! ! ^ U ! @.%.l j { ..#.%.q.q.{ o.t.u.u.u.u.u.u.e.t. .# 5 q S %.q.+.5 5 w [ +.5.o.g ~ z .   yXyXyXyXyXyXyXyXyXyXyXyXyXyXyXyXyXyXyXyXyXyXyXyXyXyXyXyXyXyXyXyXyXyXyXyXyXyXyXyXyXyXyXyXyXyXyXyXyXyXyXyXyXyXyXyXyXyXyXyXyXyXyXyXyXyXyXyXyXyXyXyXyXyXyXyXyXyXyXyXyXyXyXyXyXyXyXyXyXyXyXyXyXyXyXyXyXyXyXyXyXyXyXyXyXyXyXyXyXyXyXyXyXyXg F z ..,.+. .w 5 5 0.#X,.[ w 5 S w.t.6X5Xu.u.t.y.u.w.{ J $.%.@.I I D 8 w | @.#.^ #.^ ^ ^ ^ ^ ^ ! U ! ! ! @.@.@.Y ..#.%.$.%.#.! ! ~ ^ ! U @.%.%.%.%.....@...I I @.@.} D S S J P ..@.%.#.#.#.@.^ ^ ....I I I } @.} I D F F ! ! ! ! ! ! ^ ^ #.! F D I ! ! ! F ! #.^ Y Y @.@.@.I I I I I U U I Y @.I P ..I P P | P | J Y P P D I I P P Z g u g g k z z l j g j j j z ! ^ < u z k k A A , 6 z ! U ! ~ ~ / ^ l S [  .%.,. .6 # > 8 > # , ^ F.^ I ..,.,.0.,.,.,.,.,.,.,.,.,.%.,.q.q.,.&.#.@.! ;.q.6 @.U.",
"l j R.:.} @.@.#.%.&.,.0.q.0.,.,.,.w.w.w.w.w.w.,.,.#.z ~ G.! , 5 5 6 6 > q +.0.0.0.%. .,.%.#.#.#.#.^ @.I u z ! g g z F l < 8 j 8 , ; * % % * ; = = = > > > * > > > > > > > > > > > > > > > > * > > * * * * > 5 5 5 > > > > > > > > > > > * > 5 5 5 > 5 5 5 5 5 5 5 > > ; > > > > > > ; > > * ; > > 5 5 5 5 5 > > ; ; > * * > > > > 5 5 5 5 5 5 5 5 5 > > > > > > , , 5 5 5 > 5 5 5 5 , , 5 5 5 5 5 5 , , , , , , : ; , 6 j l 6 g } ......,.1.{ o.w.t.t.u.t.u.e.e.t. .# 5 w [ %.w.%.5 5 S  .+.0...g ~ z .   yXyXyXyXyXyXyXyXyXyXyXyXyXyXyXyXyXyXyXyXyXyXyXyXyXyXyXyXyXyXyXyXyXyXyXyXyXyXyXyXyXyXyXyXyXyXyXyXyXyXyXyXyXyXyXyXyXyXyXyXyXyXyXyXyXyXyXyXyXyXyXyXyXyXyXyXyXyXyXyXyXyXyXyXyXyXyXyXyXyXyXyXyXyXyXyXyXyXyXyXyXyXyXyXyXyXyXyXyXyXyXyXyXo g F l ..0.0.o.w 5 5 0.#X,.[ w 5 S w.t.8Xu.y.w.t.y.y.w.[ D #.@.I L I D 8 w l j j < 6 , , , , , , , ; , ; * > > > > > > > , > > > , , 5 , > > 5 5 5 5 5 5 5 5 > > 5 5 > > * * * ; > 5 5 5 > 5 , = > 5 > = ; > > , , , = * = * = = = , , , , , , , , , , , , , , , , > > > > > > > > > > > * * * > * * > > > > > > , > 5 > > > > 5 > 5 ; ; ; , , , , > ; ; ; = = = , j < , 6 z k k A F 5 6 z ! ! ! ! R ~ ! j [ [ |  . . .7 > 5 8 > # ; ^ F.$.^ #.#.%.,.,.,.,.,.,.,.,.,.,.%.&.<.:.%.@.@.#.! :.q.< @.U.",
"l j R.<.@.@.#.*.$.%.;.<.0.,.,.0.0.w.w.w.0.,.0.,.,.@.z ~ J.! , 5 5 w 8 5 w 0.w.0.0.%. .%.%.%.%.;.%.@.@.J u A ! z k ! ! z 6 , * o . . . . o * * o o * * o o o o o o o o o # # # o # . . . + o o o # # # # # # # > > > * * > * * * * * # * * * * * * * % * * * * * * o * * * * * * * * * > > * > > > * * * * # # * * * * # * * # * * * * * * o o o * * * * * * * * * > 2 1 2 * * # 1 # * > 5 5 5 5 5 5 5 > > > > * # . . . o * > j  .....+.,.,.[  .0.w.u.!.u.u.e.e.t. .# 5 l  .%.w.+.5 5 [ +.%.+.} g ~ z .   yXyXyXyXyXyXyXyXyXyXyXyXyXyXyXyXyXyXyXyXyXyXyXyXyXyXyXyXyXyXyXyXyXyXyXyXyXyXyXyXyXyXyXyXyXyXyXyXyXyXyXyXyXyXyXyXyXyXyXyXyXyXyXyXyXyXyXyXyXyXyXyXyXyXyXyXyXyXyXyXyXyXyXyXyXyXyXyXyXyXyXyXyXyXyXyXyXyXyXyXyXyXyXyXyXyXyXyXyXyXyXyX. o j U j ..0.0. .w > 5 ,.T.,.[ w > S e.e.8X7Xu.u.t.u.y.w.[ D *.#.I L I D j 7 > * o . o o # * * % % * * > * # # # # # # * > > > > > > * * > # # # # # # # # # # # * * * * * * # * * > > > > * 5 * * * # # * * * * * * * * * * * * * * * * * o % * * * * * * o % * o o # # o o o o o % o o o o o o o o o o # # # . . # . # # # o # # o * . o o % % o o . . . . . . . . . o ; 5 l l A U I 5 5 A ^ #.^ ! R R F 8 [  ....... .7 > 5 6 > o = @.F.$.@.@.@.%.,.,.,.0.0.,.,.,.,.,.%.&.&.%.#.! @.@.! :.q., @.q.",
"l j T.<.@.@.#.$.*.$.&.<.q.0.0.w.e.w.w.w.w.,.,.<.<.@.k ~ J.~ , 5 7 S l 5 w 0.t.w.,.+.X.+.%.%.:.<.,.%.#.J < ! $.~ ~ ~ ^ F < o o . # # > > 5 5 5 > 5 5 5 5 5 5 5 7 7 5 5 5 5 7 8 7 7 8 8 5 5 5 5 8 8 6 8 8 8 7 8 w w w w 8 8 l l 8 7 8 8 w w w w 8 w w 8 l l 8 8 8 8 w S w w w w 8 w l l w w w w w w w l w 8 8 7 w w w 7 w w 7 w w w 8 8 8 8 8 8 8 8 8 7 7 8 8 w w 7 5 q w q w w w q q 7 q w l w w 7 q w 7 7 q 0 5 5 q 5 5 5 * > 8  ...%.,.e.0.[ X.0.u.8X8X8X!.e.w.t.[ o 5 S ..,.w.+.5 5 [ +.+.+.{ g ~ z . . yXyXyXyXyXyXyXyXyXyXyXyXyXyXyXyXyXyXyXyXyXyXyXyXyXyXyXyXyXyXyXyXyXyXyXyXyXyXyXyXyXyXyXyXyXyXyXyXyXyXyXyXyXyXyXyXyXyXyXyXyXyXyXyXyXyXyXyXyXyXyXyXyXyXyXyXyXyXyXyXyXyXyXyXyXyXyXyXyXyXyXyXyXyXyXyXyXyXyXyXyXyXyXyXyXyXyXyXyXyXyXyXyX% A ! z #.0.5. .q > 5 ,.u.%.[ w > S e.u.0X8X7Xu.u.u.y.w.[ L $.$.@.I ! F j 5 * * 5 5 q 7 w 8 8 8 8 w w q q q q q q q q q w w w q q q q w l q 5 q q q q w w q q w 7 w w 7 6 7 q q w w w w w w q 8 w w q 7 7 7 q w w w 8 7 7 7 w w w w 6 7 q q w 7 7 7 5 5 7 5 q q 5 q 7 7 8 8 8 5 5 5 6 5 5 5 5 5 5 5 5 5 5 5 5 7 5 7 5 q 7 w w q 7 7 w 7 7 7 5 5 5 5 > > > # * # # . . # > 5 l D ! ^ I 7 6 A ^ #.#.^ R R ! 8 [  .+.%.=. .7 # 5 5 * o = ! F.*.! L ! ;.<.0.0.0.w.0.,.,.,.,.,.&.#.#.#.@.@.! ! :.<., } 2.",
"D 8 T.<.! @.$.*.^ #.:.0.0.0.0.w.w.w.w.w.t.w.0.,.#.! i *.Y.~ , 5 7 S S > n 0.e.e.0.+.[ ..&.%.<.2.:.#.@.D < ! *.~ / / ! l 6 % o # > > > > 5 5 6 8 8 8 8 8 8 8 8 l w 8 w w w 8 w w l S l l j l S S l l l l l l l S S S S S S S S w n S S [ [ [ S S S T [ [ [ S l l S [ [ [ [ S S S S [ [ [ S S S S [ [ S S l l l S l S l l S l l l l l S S S S l l l l l l S S S l l l l S S [ S l w w l l S S S l l l l j 8 j 8 8 8 8 5 5 5 * 5 8 [ { ;.<.<.<.S O.r.u.5X8X8X8Xu.0.t.[ o 5 S ..,.e.+.> > l {  ...} k ~ k $ $ yXyXyXyXyXyXyXyXyXyXyXyXyXyXyXyXyXyXyXyXyXyXyXyXyXyXyXyXyXyXyXyXyXyXyXyXyXyXyXyXyXyXyXyXyXyXyXyXyXyXyXyXyXyXyXyXyXyXyXyXyXyXyXyXyXyXyXyXyXyXyXyXyXyXyXyXyXyXyXyXyXyXyXyXyXyXyXyXyXyXyXyXyXyXyXyXyXyXyXyXyXyXyXyXyXyXyXyXyXyXyXyXyX% A ~ j ..%.+.[ q * 5 +.e.%.S w > [ u.u.u.8X7X!.!.u.y.r.[ J $.$.#.F ! I j l , > 7 5 8 w w w w w S S [ [ S l w w w w w w S S S [ S S S S S S S S S [ [ [ [ S S S [ S [ S S S S S S S S S [ [ S S S S S S S l l S S S l l l l S l S S l l l S S S S l l l l l l l S l l l S S S S l l S S w 8 j l l l l l l 8 l l l l l l l l l S S S S l j j j j j j 8 < < , , ; * * % * 5 , j L #.^ U 6 6 P Y #./ ^ R R U j w [ +.%.+. .5 # 5 5 > o ; I :.^ F ^ %.;.1.1.0.0.0.0.,.0.0.,.,.;.@.#.#.@.@.@.! :.q.< ! F.",
"J 8 T.2.^ @.*.*.#.#.,.0.,.1.0.w.w.w.w.t.t.t.q.;.@.! i $.Y.^ < 5 7 S l > n 0.w.0.,.+.[ ..;.;.F.2.:.#.@.I p ! ~ ~ ~ ~ A l l < % % * > > > > , , , , 5 , , , , 5 6 6 8 6 6 8 8 8 8 8 8 8 8 j j l l l l l w w w w w l l l l l w w 7 7 q w w w 8 8 8 8 8 w w w 8 8 8 8 l w 8 8 8 w w w w l l w 8 8 l w w w 8 8 8 8 w 8 8 8 8 j 8 8 8 8 8 8 8 8 w w 8 8 8 8 8 8 8 8 8 5 5 8 8 j 8 8 8 8 8 8 8 8 8 8 8 8 8 8 8 8 8 8 6 5 , > > * * 5 8 [ { %.;.:.<.S O.r.u.5X8X8X8Xu.,.w.[ # 5 S  .%.e.%.> * 8 S { ..} k ~ k $ & yXyXyXyXyXyXyXyXyXyXyXyXyXyXyXyXyXyXyXyXyXyXyXyXyXyXyXyXyXyXyXyXyXyXyXyXyXyXyXyXyXyXyXyXyXyXyXyXyXyXyXyXyXyXyXyXyXyXyXyXyXyXyXyXyXyXyXyXyXyXyXyXyXyXyXyXyXyXyXyXyXyXyXyXyXyXyXyXyXyXyXyXyXyXyXyXyXyXyXyXyXyXyXyXyXyXyXyXyXyXyXyXyXyXA ^ k ..,.+.[ w * 5 +.q...[ w 5 [ t.t.w.u.7X8X8Xu.u.r.[ D #.$.#.! #.! l I l ; = > 5 5 7 7 7 8 w l l l w 8 8 w w 8 w w w l w w w l l l w w w w w w w w l l l l w w w 8 8 8 w j l l l l l w l l l j j w w w 8 j w 8 w 8 8 8 8 8 l 8 8 8 8 8 8 j 8 8 8 8 8 8 8 8 8 8 l w w 8 8 8 8 8 8 8 5 5 5 6 8 6 8 8 8 6 8 8 8 8 8 8 8 8 w j j j j 8 8 j 6 6 6 5 , , , , ; % * % % > 8 , g A F A A 6 5 P ^ #.~ ! R R A j w [  .+.+. .7 * 5 5 > # = I :.^ z ^ #.#.%.%.,.0.0.0.%.,.1.,.,.;.@.#.#.#.#.@.! :.q.6 @.H.",
"J 6 T.<.^ ^ ^ $.%.&.,.,.,.,.0.w.e.0.w.t.u.u.q.&.#.! k $.Y.^ 6 7 7 S w > w 5.w.0.,.+.[ ..:.<.<.<.:.$.#.Y j ! ~ R R R z l J I < % * ; ; ; ; ; , , , , , , , , , , , , , , 5 5 6 5 5 , < 6 6 j 8 8 8 8 8 8 8 6 6 6 8 8 8 8 8 8 7 5 5 5 5 6 , , , , 5 5 5 5 , , , 5 , 5 , , , , 6 6 6 6 < 6 6 5 5 8 8 8 6 8 5 5 5 5 5 5 5 6 8 5 8 5 5 5 5 5 6 8 5 5 5 , 6 8 5 5 , , , , 5 5 5 5 6 6 6 6 6 < 6 6 6 6 8 8 6 6 6 6 , , , > > = % , j g J P @.#.;.:.J X.r.u.7X8X8X8Xe.,.w.[ # 5 l { +.q.,.5 * 5 l | ..} k ~ x & & yXyXyXyXyXyXyXyXyXyXyXyXyXyXyXyXyXyXyXyXyXyXyXyXyXyXyXyXyXyXyXyXyXyXyXyXyXyXyXyXyXyXyXyXyXyXyXyXyXyXyXyXyXyXyXyXyXyXyXyXyXyXyXyXyXyXyXyXyXyXyXyXyXyXyXyXyXyXyXyXyXyXyXyXyXyXyXyXyXyXyXyXyXyXyXyXyXyXyXyXyXyXyXyXyXyXyXyXyXyXyXyXyXyXF ^ z ..,.0.[ w > 5 %.0...[ w 5 [ t.w.w.5X8X8X8Xu.u.0.[ D $.$.#.#.#.! j ! ! p % = , , 5 5 6 6 6 6 8 6 6 5 5 5 5 6 7 5 8 5 5 6 6 6 , , , , 5 5 6 5 5 5 6 8 8 5 5 8 5 5 , , , , < 8 < 6 8 6 8 6 5 5 6 8 8 8 6 6 , , , , , , 5 5 5 , , , , , , , 5 5 5 , , , , , , , 8 6 5 5 5 , 5 6 , , , , ; , , , , , , , , < 5 6 6 6 < 6 8 < < 6 6 6 5 6 5 5 5 , ; , , , , % % % % 6 j , g z k j z 6 5 D ^ ^ ~ ! R R A j w S  ...+. .7 * 5 7 > # ; ! <.^ F @.*.#.#.%.0.w.0.0.,.1.1.,.,.0.:.%.#.#.#.! ! :.q.6 @.I.",
"J 5 U.<.! ~ ~ %.&.,.0.,.%.%.0.w.w.,.0.e.u.e.,.&.#.! k $.Y.^ 6 7 7 S w > w 0.w.0.0.+.[ #.:.$.$.&.:.;.&.@.j U ~ R R A z j l @.F u , , , , , < u u p u p u u p g p p p g j j j l l j j j l l l j j j j j j j j j l l l l j j l l j l l j j j l l l l l l l l l l l l l l l j l l Z z z z l l l S D D l l S l l l l S l j j l l D Z j j j j l Z l l l l Z l l l l l l l l j l l l l l l l j j l l l l l g g j j j j u 8 < , 6 l z g J I @.@.#.;.P  .0.u.7X8X8X!.e.,.w.[ # 5 S  .,.e.,.> * 7 S  .+.} k ~ R & & yXyXyXyXyXyXyXyXyXyXyXyXyXyXyXyXyXyXyXyXyXyXyXyXyXyXyXyXyXyXyXyXyXyXyXyXyXyXyXyXyXyXyXyXyXyXyXyXyXyXyXyXyXyXyXyXyXyXyXyXyXyXyXyXyXyXyXyXyXyXyXyXyXyXyXyXyXyXyXyXyXyXyXyXyXyXyXyXyXyXyXyXyXyXyXyXyXyXyXyXyXyXyXyXyXyXyXyXyXyXyXyXyXyXF #.z ..0.0. .w > 5 ,.e.%.{ l > [ t.u.5X8X8X!.u.u.u.0.[ L Z.<.*.^ ! ! g z #.F u < < j j j l l l j g g g g j j j l l j j j j l l g j j g j j l l l l j l l j j j j j j j l Z l j j j l D D l l l l Z l l l l j j j j j j j j j j j j j l j j j l l j j j j p j j j j j j j j j j j g j j 8 p j j p p p j j j l j l j g g j k k k z l j j j j j u u u < 6 < , = % % , l l , g A k k z 6 5 D F ^ ^ ^ R R A j l  .+.+.o.[ 5 * 8 8 5 # ; ^ H.*.F #.#.%.%.,.0.w.w.0.,.1.;.%.%.0.<.:.#.#.#.! ! :.q.6 @.F.",
"{ , q.<.! ^ ! #.%.0.0.,.+.%.0.w.w.,.,.w.e.0.,.&.@.! g $.Y.^ 6 7 q S l 5 w 0.w.w.0.+.[ ..%.$.$.:.<.<.:.@.j F ~ ~ ~ ~ F j 5 D #.A g j p p a k k x x x x k R R ! R R R R R A ! ! ! A A ! ! ! ! ! ! U A ! ~ ~ W R ~ ~ ^ ! ! ~ / / / / ~ ~ ~ ~ ~ ^ ^ #.#.#.#.#.^ ^ ^ #./ / ~ ~ ^ #.$.$.:.$.^ ^ $.;.;.%.@.@.#.#.#.#.#.#.#.! ! #.#.;.#.^ U U ^ ^ #.^ ^ ^ / ^ ! ~ ! ~ ! ^ ^ ..@.#.#.#.#.^ ^ ! R ! ~ ~ ! ! ! ! ! ! ! ! ! A z g g D #.J g J L ^ ! ^ %.P  .w.u.8X8X8X!.e.,.e.[ # 5 S +.w.u.,.> > 8 S  .#.I i ~ k & & yXyXyXyXyXyXyXyXyXyXyXyXyXyXyXyXyXyXyXyXyXyXyXyXyXyXyXyXyXyXyXyXyXyXyXyXyXyXyXyXyXyXyXyXyXyXyXyXyXyXyXyXyXyXyXyXyXyXyXyXyXyXyXyXyXyXyXyXyXyXyXyXyXyXyXyXyXyXyXyXyXyXyXyXyXyXyXyXyXyXyXyXyXyXyXyXyXyXyXyXyXyXyXyXyXyXyXyXyXyXyXyXyXyXF #.z ..0.0. .w 5 5 ,.T.0. .l > [ e.u.8X8X7Xu.u.u.y.0.[ } H.Z.#.! ! F g < I ^ A p j F U U ! ! ~ ~ ! ~ ~ ~ ! ! ! ^ ^ ! ! U ! ^ ^ ^ ~ R ~ ^ ! ^ ! ! ! ! ! ^ ! I ! ^ ^ U ^ #.#.$.^ ! ! ^ #.$.^ ^ ^ ^ ^ ^ ^ ~ ^ ~ ! ! ! ^ @.@.! U U ! ^ / / ! A A ! ^ ^ ^ ! ! R R ~ W R A R ! ! U U F ! ! ! A ! ~ / R A A R ! ! ^ ^ ^ ~ R R R ~ / ~ R A A A F F A R R ! A z p p u , , g I j , g A z z A < 5 A A ^ $.<.~ ~ U l S +.,.+.o.S 5 > l l 5 # ; #.H.$.I #.,.,.0.0.0.0.w.1.,.%.%.%.%.,.;.%.#.#.^ ! ! ;.q.< @.F.",
"} , U.2.@.@.@.%.,.0.0.0.,.,.0.w.w.,.,.q.w.0.0.,.@.F p $.Y.! 6 7 q [ S 5 w 0.w.w.0.,. .{ %.$.:.<.<.;.%.I < A $.V.:.~ ! j , j ! ! z a a a s R E E ~ E x x R / ~ ~ R R W R W / / W R W W / ~ / / / ! R / g.g./ / / / / / / g.l.l.l.l.l.l./ / / / $.:.:.F.:.$.$.Z.Z.Z.Z.l./ / :.Z.Z.Z.D.G.V./ F.H.H.F.$.$.:.:.:.:.:.>.:./ $.>.>.F.:.:./ ^ / :.Z.:.:.( / / / ~ / / ~ / #.;.:.;.$.$.:.:./ W W / / / ~ ~ R / / $.V.Z.V./ z k z ^ $.D 6 S D ! F ! %.T X.w.u.8X8X8X#Xe.1.e.[ # 5 S +.w.u.,.> > l [  ...L p E a & & yXyXyXyXyXyXyXyXyXyXyXyXyXyXyXyXyXyXyXyXyXyXyXyXyXyXyXyXyXyXyXyXyXyXyXyXyXyXyXyXyXyXyXyXyXyXyXyXyXyXyXyXyXyXyXyXyXyXyXyXyXyXyXyXyXyXyXyXyXyXyXyXyXyXyXyXyXyXyXyXyXyXyXyXyXyXyXyXyXyXyXyXyXyXyXyXyXyXyXyXyXyXyXyXyXyXyXyXyXyXyXyXyXyXF #.z #.0.0. .w 5 5 ,.#X0. .l > S w.u.8X7Xu.u.u.u.y.0.[ } F.<.^ ^ ^ ! g , z ^ R z A ! ! ! ! ~ / / / g.g./ / / / Z.$./ ~ ~ ~ / $.g./ W / / / / ~ / / / ~ ^ ~ ~ #.#.#.^ #.>.>.:./ ~ ~ / $.$./ g./ / / / / / / / / ~ ~ ~ $.:.$.~ ~ / / ) / / R R ^ / ^ / / / / Q s.s.W W Q / / ~ ~ $.$./ / / / l.s.E R R / / / :.:.Z.V.W E E Q / / R k R R R R E / g./ R R a p i i p F F 6 , g z z k A < 6 A F ^ :.<.;.^ I l [ +.0.,.o.S 7 > 8 l 5 # ; #.H.$.I #.0.w.0.0.0.0.0.%.%.%.,.,.,.,.%.&.%.#.@.^ ! ;.q.6 @.U.",
"} 5 U.2.@.#.#.&.0.e.w.w.0.1.0.w.0.%.%.q.0.w.w.0.%.! a / J.F , 7 w [ S 5 w 0.w.w.0.,. .} ;.$.:.<.:.#.#.P , F V.Z.~ R ! z 6 , A ! A a a a s R E Q g.Q s a R $./ ~ R N N N Q j.z.Q N W W W W W / / W W / l.l.g./ / / Z.$./ g.g.g.j.l.z.z.j.Q W / Z.G.H.H.:./ Z.Z.A.A.l.g./ l.A.A.Z.Z.D.J.l./ Z.J.J.Z./ / :.>.:.:.F.Z./ / :.F.F.:.Z.:./ / / :.A.Z.l./ / / / / / W W / :.H.2.;.#.$.Z.:./ W B Q g.l./ W R / / g.Z.Z.g.R x k R *.%.l 6 J D A z I %.[ X.w.u.8X8X8X#Xe.1.e.[ # 5 S  .0.u.,.> > l { ....L p ~ s & & yXyXyXyXyXyXyXyXyXyXyXyXyXyXyXyXyXyXyXyXyXyXyXyXyXyXyXyXyXyXyXyXyXyXyXyXyXyXyXyXyXyXyXyXyXyXyXyXyXyXyXyXyXyXyXyXyXyXyXyXyXyXyXyXyXyXyXyXyXyXyXyXyXyXyXyXyXyXyXyXyXyXyXyXyXyXyXyXyXyXyXyXyXyXyXyXyXyXyXyXyXyXyXyXyXyXyXyXyXyXyXyXyXyXF #.D %.w.w.o.w > 5 0.T.%.{ l > l w.u.7X7X7X!.u.7Xy.0.[ ..H.$.^ #.^ ! j 5 j ^ R R A ! ^ ~ ! ~ $.Z./ s.s.Q Q W / Z.Z.Z./ E R / Z.l.g.Q / / g./ / / / / ~ / / / $.$./ / #.>.F.Z./ / / / $./ g.l.g.Q g.l.l.g.l.l./ R R ~ / :.:.~ R / g.Q s.W R / / / / W / l.s.Q s.i.s.V Q Q / / ~ Z.Z.g.W Q g.g.s.B N W l.Z.Z./ l.Z.l.Q E E E Q / R s R E R s E g.h.s.E s a i i i k ~ z , , j z z k A 8 6 D ! ^ #.:.;.#.I S [ +.,.+.o.S 7 * 5 8 > > , ^ J.$.} %.0.r.w.w.w.,.,.! %.1.0.0.0.,.,.<.<.%.@.@.@.:.e.j #.U.",
"} 5 e.q.#.#.&.0.w.w.w.r.0.0.w.w.0.%.0.e.0.0.w.q.,.I g *.Y.F , 5 w [ S > w 5.w.w.w.0.o.#.<.$.&.<.2.$.;..., A ~ ~ R R U z 6 < z U ! k e i a s N B E R s s R E Q B B N s s B s.k.s.B R E Q / / / / W E Q j.z.j.s.Q g.A.A.A.l.j.j.z.z.z.k.l.Q E / Z.J.J.D.l.Q Q j.z.z.z.j.j.j.z.D.z.z.D.D.j.g.z.D.D.Z./ / / l.Z.F.Z./ / / g.Z.Z.( ( / / / / / D.z.g.Q Q Q g.l.g.Q W / / Z.F./ / / / / W Q Q Q g.g./ Q E W / / Q s.E N A x R ~ ^ g g F U A R ^ %.J  .w.!.0X0X#Xe.2.:.e.[ # 7 l { 0.u.%.> > j { ..+.} a Q s & & yXyXyXyXyXyXyXyXyXyXyXyXyXyXyXyXyXyXyXyXyXyXyXyXyXyXyXyXyXyXyXyXyXyXyXyXyXyXyXyXyXyXyXyXyXyXyXyXyXyXyXyXyXyXyXyXyXyXyXyXyXyXyXyXyXyXyXyXyXyXyXyXyXyXyXyXyXyXyXyXyXyXyXyXyXyXyXyXyXyXyXyXyXyXyXyXyXyXyXyXyXyXyXyXyXyXyXyXyXyXyXyXyXyXl @.z #.w.t.+.w 5 5 ,.e.%.{ S 7 l w.w.u.!.8X!.u.5Xu.5.[ P :.:.*.*.#.! l 5 6 D ! z z F ! ! R R / l./ Q g.Q E E Q g.z.l.W E E Q g.l.g.Q E E Q g.l.l.l.E N W / / $./ / / / / Z.l.( / / g.l.A.K.z.z.h.g.g.z.l.l.g./ W W g.Z.$./ / Q s.s.s.s.s.s.Q / / / W Q g.s.B B d.s.i.B B Q Q s.s.s.s.Q B B i.i.B B s.j.x.j.Q s.j.j.s.B B a.s.B N B E W R s E s.s.s.E s k i i a x R k , = k R k k z u j U ! ^ ^ ~ ^ $.#.l [ ,.+.+.o. .7 * 5 8 > # , #.H.$.@.%.0.0.0.0.0.0.,.U ! ,.0.0.,.;.:.<.<.&.@.! ! <.e.6 #.U.",
"} 5 U.2.@.#.&.<.q.w.w.r.0.0.w.w.0.0.w.w.w.0.0.,.%.I g *.Y.F > 5 w S l > w 5.w.w.w.0.+.%.2.<.<.<.<.$.&.@.p F R R R ! I D 8 8 D U z u , u k k k R R k k k k z x k k a a a s W W R A A A A R ! ! U A A R R ~ ~ W R ! ^ ^ ^ ! R ~ / / / / / ~ R ~ ^ $.$.#.^ ~ ~ / ~ ~ / / ~ / $.$.$./ / / ~ ~ / :.:.$./ ~ ^ ^ #.#.^ ! R ! ~ ^ ^ ^ ^ ^ ! ~ ~ ~ ~ ~ ! R R ~ ~ ~ / ! R ! ! #.^ ! U ! ! ! R R R ~ ~ ~ ! R A A U F R ! R A F z A F A j j ! ^ ^ ~ #.%.S  .w.u.8X#Xu.e.<.<.T.[ # 7 l  .0.e.+.> > 8 S  .+.} k f.x & & yXyXyXyXyXyXyXyXyXyXyXyXyXyXyXyXyXyXyXyXyXyXyXyXyXyXyXyXyXyXyXyXyXyXyXyXyXyXyXyXyXyXyXyXyXyXyXyXyXyXyXyXyXyXyXyXyXyXyXyXyXyXyXyXyXyXyXyXyXyXyXyXyXyXyXyXyXyXyXyXyXyXyXyXyXyXyXyXyXyXyXyXyXyXyXyXyXyXyXyXyXyXyXyXyXyXyXyXyXyXyXyXyXyXj I l ..0.w. .w 5 5 ,.T.;.} S 7 l w.w.u.u.7Xu.u.u.u.0.X.I :.$.~ ^ #.! j 6 j J I D z z D D D D U ! A R ! ! A A R ~ ~ ~ ! A A R R ! R R A A R ~ ^ ~ ^ R A R ! ! ! ! ! U A ! ! ! U ! R ! ~ ~ ~ ~ ~ ~ ~ ~ / / ^ ^ ! ! ! ^ ^ ! U ! ! ! R ! ~ ~ ~ ! ! ! ! ! ! ~ R N N W W W R R R R R ~ ~ ~ R R R R R R W R / ~ / R R / / / R R R R R R R R A k k R R R R R k g u p p g z g , < z k a k R j j U ! ~ ! ~ ^ $.#.[  ... . .+. .w > 5 8 > * , ^ G.*.@.%.0.0.0.0.w.0.0.@.@.,.0.0.,.%.;.<.:.%.@.! ! <.e.6 #.U.",
"@., U.2.@.#.%.:.q.w.w.r.r.w.w.0.0.w.t.w.w.0.0.%...F k *.Y.F , 5 7 S w * w 0.t.t.t.0.+.&.2.<.<.,.;.;.&.#.g F R R ! ! @.I w 5 5 , % % % % = = % % % = % % % % % % % % % % % , , % % % % % % * * * * ; ; ; ; ; ; ; > > > ; ; ; > , , , , , , , , , , , > , , , , , , < , , , , , , , , , , , , , , , , , ; ; , , , , , , , , , > > > > ; , , ; = ; , ; ; , , , , ; ; ; ; > , , , , , < < , , , , , = = * > > > , , , , ; , , , , l ! #.$.$.$.%.P { 0.u.u.u.u.e.2.;.e.[ # 5 S +.0.u.%.5 5 5 w { +.@.a g.s & & yXyXyXyXyXyXyXyXyXyXyXyXyXyXyXyXyXyXyXyXyXyXyXyXyXyXyXyXyXyXyXyXyXyXyXyXyXyXyXyXyXyXyXyXyXyXyXyXyXyXyXyXyXyXyXyXyXyXyXyXyXyXyXyXyXyXyXyXyXyXyXyXyXyXyXyXyXyXyXyXyXyXyXyXyXyXyXyXyXyXyXyXyXyXyXyXyXyXyXyXyXyXyXyXyXyXyXyXyXyXyXyXyXyXl ! z #.w.w. .w 5 5 ,.#X0...S 5 l w.t.u.u.7Xu.u.u.u.0. .I $.*.! ! ^ F j l l j 6 , ; * * * * * * * % % = > ; * * ; ; ; ; = = = % % % % = % = ; , , , = = = ; = = ; ; ; = = ; * * ; > > > > = , , , , , , , > > > ; * * > > * > ; > * = ; ; ; > * * * * * = ; = ; ; , , % % = ; > = , , , , = & & & & , , , , , , < < < < , = & = , , ; = = = , , ; , , = * % % % % * * = j D k R x R j j F A R R ~ ~ *.@.{ [  ...0.0.o.w > 5 8 > * , ^ Z.~ I %.0.0.0.w.w.w.w.;.%.,.r.0.,.%.%.&.$.%.@.^ @.<.e.8 @.U.",
"} , q.2.^ #.%.&.&.w.t.w.w.w.,.,.0.w.t.t.w.0.0.%...F k / Y.F , 5 7 w 8 > q 0.u.u.t.0.+.&.2.<.2.1.;.%.&.@.u F ! ! ! ^ @.P 5 # . . . + o o o o o . . o o o o o o o o % * * * % * * * # # # # # # # * > > > * > > > > > 5 > > > > 5 5 > * > > > > * * * * * > > > * * > > 5 > > > > > > > 5 5 > > 5 5 > > > > > 5 > > > 5 > > > 4 4 > > > > * * > > > > > > * > > > * # # # * * * * * * * * * * # # # # # # # * > > > > * * * * > 7 F ^ ^ ^ #.;.P { 0.t.u.u.u.#Xe.;.q.[ # 5 S o.w.u.+.5 5 7 l { ..} s s.x $ yXyXyXyXyXyXyXyXyXyXyXyXyXyXyXyXyXyXyXyXyXyXyXyXyXyXyXyXyXyXyXyXyXyXyXyXyXyXyXyXyXyXyXyXyXyXyXyXyXyXyXyXyXyXyXyXyXyXyXyXyXyXyXyXyXyXyXyXyXyXyXyXyXyXyXyXyXyXyXyXyXyXyXyXyXyXyXyXyXyXyXyXyXyXyXyXyXyXyXyXyXyXyXyXyXyXyXyXyXyXyXyXyXyXyXl ^ F &.t.w. .w 5 5 0.#Xq.+.S 5 l e.u.u.u.7Xu.!.u.u.0.[ D *.^ ! ! ^ A < > > * o o o # * * * # # # # * * > > > * * # - # > * * # # * * * * * * > > * > * * # * # * * * # # * * > > > > > > 5 5 5 5 5 5 5 > > # # # # # # # # # # # # # # # # # # # # * * o * * * # o o o . o o . o o o # * # o o o # * * * % o o o * * * * * * * * # # # # * * * * * * * * o o o + . . % j F R ~ R R u j F A R R ~ R ~ #.{ S  .%.w.0.o.q # 5 8 > # , ^ Z.#.I %.,.0.w.w.w.w.w.,.,.0.w.0.1.;.&.&.$.%.#.@.@.<.e.6 @.U.",
"@., q.2.#.#.%.$.&.q.t.w.w.w.,.1.0.0.w.y.w.r.0.0.%.D p ~ Y.F > 5 5 w w > q 0.u.t.w.,. .%.F.F.U.e.;.%.%...g ! ^ ! ! ! ^ l , o . o o * * * * > > > > > > > > > > > > > , , > > > > > > > > > 5 5 > 5 5 5 5 5 5 5 5 5 5 5 5 5 5 5 5 5 5 5 5 5 5 5 5 5 5 5 5 5 5 5 5 5 5 5 5 5 5 5 5 5 5 5 5 5 5 5 5 5 5 5 5 5 5 5 5 7 7 7 5 5 5 5 5 5 5 5 5 5 5 5 5 5 5 5 5 5 5 5 5 5 5 > 5 5 5 5 5 5 5 5 5 5 5 5 5 5 5 5 5 5 5 5 6 8 7 5 > > > 5 5 z ! ! F @.;.S [ 0.e.e.e.u.u.e.,.q.w o 7 [ o.0.u.+.5 > q S { #.! s g.x $ yXyXyXyXyXyXyXyXyXyXyXyXyXyXyXyXyXyXyXyXyXyXyXyXyXyXyXyXyXyXyXyXyXyXyXyXyXyXyXyXyXyXyXyXyXyXyXyXyXyXyXyXyXyXyXyXyXyXyXyXyXyXyXyXyXyXyXyXyXyXyXyXyXyXyXyXyXyXyXyXyXyXyXyXyXyXyXyXyXyXyXyXyXyXyXyXyXyXyXyXyXyXyXyXyXyXyXyXyXyXyXyXyXyXyXj #.F &.e.w. .w > 5 0.0X0...S 5 l e.u.!.!.7Xu.u.7X5X0.[ D ~ ~ ! ! ! z , * * * * * > 5 5 5 5 5 > > 5 5 > > > 5 5 5 > > 5 5 5 > > > > > > > 5 > > > > > 5 > > > > 5 5 5 5 5 5 5 5 5 5 5 5 5 5 5 5 5 5 5 5 5 5 > > 5 5 > > > > > > > > > > > > > > > > = > ; * > > > > > > > > > > > > > > > > > > > > > > > > > > > > > > > > > > > > > > > > > > > ; > > , = * * % o % , j F R ! A A g j U A R R ~ R ~ @.J S +.0.0.=.X.7 # 7 8 > # ; ^ G.*.I #.,.,.0.t.w.w.w.0.,.0.w.0.0.1.<.<.:.$.#.@.@.<.e.6 @.U.",
"} > q.q.@.#.%.&.:.w.t.w.w.w.0.0.w.0.w.w.w.w.w.w.,.P g ~ J.F > 5 5 w 7 # q 0.w.w.0.+. .$.F.H.U.q.;.#.%...j ! ^ ~ R ! ! j j , o * % % * % * * * * * * * * * * * * * * = = ; * = = * * * * * = = ; ; ; > > > > > > > * * * * * ; ; ; ; * > > > > > * * ; ; > * * * * ; > > > > > > > > ; > > > > > 5 5 > > > > > > > > > > > > 5 > > > > > * * > > * > > > > > > * * * * * * * * * * * * > > > > > > > = ; > > , , < , , = = , 8 8 l @.@.} #.;.S [ 0.w.w.t.t.u.e.q.q.w # 7 [ o.0.t.+.> > 8 S } #.! s g.R $ yXyXyXyXyXyXyXyXyXyXyXyXyXyXyXyXyXyXyXyXyXyXyXyXyXyXyXyXyXyXyXyXyXyXyXyXyXyXyXyXyXyXyXyXyXyXyXyXyXyXyXyXyXyXyXyXyXyXyXyXyXyXyXyXyXyXyXyXyXyXyXyXyXyXyXyXyXyXyXyXyXyXyXyXyXyXyXyXyXyXyXyXyXyXyXyXyXyXyXyXyXyXyXyXyXyXyXyXyXyXyXyXyXyXyXj #.I &.0.0. .w > 5 q.0X0.+.S 7 l e.u.!.8X8Xu.u.5Xu.0.[ D *.~ ! ! ! z < 5 > = = * * > ; ; * * * * # * = = = * * * > > * * * * * * * % * * = = ; ; ; > > * * * * * * * * > > > > > * * > > = * * * * * * * * * * * * % % * % % % % % * % % * * * * = % % % % % * * * > > = > > ; ; > * * * * * * % # * * % % * * * * * * * * * * * * * * * = * * * % % % % % % % % % , l g A A A k z g g U ! ~ R ~ R R ! J [ ,.w.0.=.X.7 * 7 7 * o ; ! G.$.I ....%.,.0.w.w.w.0.0.0.0.,.0.0.e.w.<.$.#.@.@.<.e.6 ! q.",
"} * q.q.#.#.%.&.;.0.w.w.w.t.w.w.w.w.0.w.w.u.5Xw.,.{ g ^ J.F > > 5 w 7 # q 0.w.w.0.+. .$.H.G.2.;.,.#.%.} u ~ *.~ ~ ~ ~ k D j % % % % * = > = = , > , , = = = ; * > > , , , > , , > > > > > ; > ; ; , , > 5 > > > > > > > , , , , , , , , 6 6 < < , < 6 6 6 6 < < < < < < < < , , , , < , , 5 5 5 5 5 5 , > > , , , , , , , , , , , ; ; ; , , , , , , , , , , , , > > > > , , , , , , , , , , > > > > > , , , , , < , , = , 6 S l S #.&.#.%.%.S [ 0.r.t.u.t.t.e.q.e.w # q [ o.%.w...> * 8 S { } F s g.R $ yXyXyXyXyXyXyXyXyXyXyXyXyXyXyXyXyXyXyXyXyXyXyXyXyXyXyXyXyXyXyXyXyXyXyXyXyXyXyXyXyXyXyXyXyXyXyXyXyXyXyXyXyXyXyXyXyXyXyXyXyXyXyXyXyXyXyXyXyXyXyXyXyXyXyXyXyXyXyXyXyXyXyXyXyXyXyXyXyXyXyXyXyXyXyXyXyXyXyXyXyXyXyXyXyXyXyXyXyXyXyXyXyXyXyXyX#.L %.,.,.{ l > 5 q.0Xw.+.{ 8 l w.u.u.8X8X8Xu.5Xy.0.[ L $.*.! z z g j S 6 ; = ; , , , , , , , , ; , , , 5 5 , , , , , , , > ; ; > > , , , , 6 6 6 < < 6 , , , , , , , , , , 5 5 5 , , , 5 , , 5 5 5 5 5 5 5 5 , , ; ; > > > > > ; ; ; ; > ; = = = ; ; ; , > ; ; ; > , > 5 5 5 , , , , , , , , , ; , , , , , , > , , , , , , , , , , , > , , > > ; = , = = % % % % g l u A ^ ~ A D g j I ! ~ ~ E x R ^ J S ,.e.w.w.+.q # 5 5 * # ; ! H.$.} ..@.%.%.%.0.w.w.e.0.0.0.0.0.w.t.e.<.%.@.@.#.q.e.6 ! q.",
"} * 2.U.#.#.&.&.,.0.w.w.u.u.0.,.0.t.w.w.u.u.u.t.,.} k ~ J.F > > 5 w 7 # 5 +.w.w.w.,. .&.F.;.;.;.<.;.;...j ! / E E ~ ~ k D P , = = , , u u u p p g g g u u p g g g g g g j g j j l l j j j l l l j l l l l S l l l l j l l l l l A A D D U F D D D D D D J J S S J D D D D D S D J J S P P J J P { { { S j l D l z z z D S l Z S l j j j g S S S S S S S J l Z S l j g l l l S l l S D D S S l j j j l l l l S l l S j < , l P l l P @...%.%.[ X.0.w.u.u.t.t.q.0.t.w # w {  .+.q...> > 8 l D @.! s g.R $ yXyXyXyXyXyXyXyXyXyXyXyXyXyXyXyXyXyXyXyXyXyXyXyXyXyXyXyXyXyXyXyXyXyXyXyXyXyXyXyXyXyXyXyXyXyXyXyXyXyXyXyXyXyXyXyXyXyXyXyXyXyXyXyXyXyXyXyXyXyXyXyXyXyXyXyXyXyXyXyXyXyXyXyXyXyXyXyXyXyXyXyXyXyXyXyXyXyXyXyXyXyXyXyXyXyXyXyXyXyXyXyXyXyXyXyX#.F @.&.%. .l 5 5 q.#Xw.,.[ 7 w t.u.u.u.5Xu.8X5Xu.0.[ L / ~ x x R k < S l , , j l l j j l l l l j j l l l l S S l l l j j j j l Z A A l l S D P P P P P P P I D S l l J P I P J S S l l l l J D D D D P T S S j j j l S S l l j j l j g j g p p j j l z l g g g j l j l l l l l l l l z z l Z j g l l l l l j l l j g g g j l l l g g j j g j j j g h u u = = % = l D < z ! ! ! U j j F A ! ~ / E R ! D l  .0.w.w.=.q # 7 5 > # ; ! F.#.P ..%.,.0.0.w.w.w.w.0.0.0.w.w.0.q.<.;.%.@.@.#.2.T.g ! U.",
"{ , q.U.%.#.&.<.0.w.w.u.u.u.w.,.0.w.w.w.u.u.u.e.&.} z / J.F > > 5 w 7 # 5 +.w.w.w.,. .%.<.;.:.;.<.<.:.@.j F ~ R R R R p g @.l = , u p g g g a k z z z z z A A F A z z z A F ^ #.^ I U F U ^ ^ ^ ! U U ! #.%.#.^ I ............I } @.#.%.%.#.@.%.%.%.&.#...%.%.%.%.#.%.%.%.......%.%.&.<.;.%.&.,.,.,.%.....@.#.%.@.@.@.%.%.%.&.;.%.@.....@.%.%.%.+...%.,.&.@.@.........@.@.@.@...#.%.@.@.@.%.%.} I } ....I I } I I I z p < D ..l l J } ..%.%.[  .0.y.u.u.t.e.0.,.e.w o w { { +.e.+.> = 8 l L @.! s g.R $ yXyXyXyXyXyXyXyXyXyXyXyXyXyXyXyXyXyXyXyXyXyXyXyXyXyXyXyXyXyXyXyXyXyXyXyXyXyXyXyXyXyXyXyXyXyXyXyXyXyXyXyXyXyXyXyXyXyXyXyXyXyXyXyXyXyXyXyXyXyXyXyXyXyXyXyXyXyXyXyXyXyXyXyXyXyXyXyXyXyXyXyXyXyXyXyXyXyXyXyXyXyXyXyXyXyXyXyXyXyXyXyXyXyXyXyX! z ^ :.&. .l 5 5 q.#X0.+.[ 7 l t.u.t.u.u.u.!.u.5X0.[ D ~ ~ x v ! k < S P u p k z z D D J P } P P @.I F P ..%.#.I I U I D D I ^ ! U F L I } ..%.%.%.%.%.%.%.:.%.@.} } %.,.;.%.......} Y | ..%.#.Y @.#.%.%.%.%.} P I @.#...I I P J F U U U U A z D ! @.@.L D F ! ! A A A A A A F F F I I I I U I U U F D F I } @.I D z F F F F I U F F z z D D D D z z l g < , , , D l , z F F F I l j F A ! / Z./ ~ ! J w  .+.0.w.=.q # 6 7 > # = ! F.#.P ..,.0.0.0.w.w.w.,...%.0.w.0.1.<.<.<.&.#.@.#.q.T.g @.U.",
"{ > q.T.%.%.&.q.w.w.y.u.u.u.w.w.0.0.w.w.w.u.u.0.%.} z ~ J.! , 5 5 w 6 # 5 +.w.t.w.0. .%.:.<.<.<.:.;.#.I j F ~ E E R R k , ^ I < u u p g k a k x R z k k k R R ~ R k k k A ~ ~ $.^ U F ! ^ ~ / / / R R ~ :.F.$.^ ^ %.%.%.%.%...I I %.<.<.%.@.@.&.,.,.:.%.%.;.<.;.%.$.:.:.;.%.%.%.%.%.2.q.<.;.;.q.e.0.,.,.%.%.%.$.%.%.%.$.&.&.%.%.%.%.%.%.%.;.,.%.%.%.,.q.:.#.^ @.%.&.%.%.#.#.%.%.:.&.@.^ #.&.:.%.@.@.&.%.@.@.#.@.@.! F g j I P 8 l D I @.#.&.[ o.w.t.u.u.t.w.,.,.w.w # 7 [ { %.e.%.= * 8 P } #.! s g.R . yXyXyXyXyXyXyXyXyXyXyXyXyXyXyXyXyXyXyXyXyXyXyXyXyXyXyXyXyXyXyXyXyXyXyXyXyXyXyXyXyXyXyXyXyXyXyXyXyXyXyXyXyXyXyXyXyXyXyXyXyXyXyXyXyXyXyXyXyXyXyXyXyXyXyXyXyXyXyXyXyXyXyXyXyXyXyXyXyXyXyXyXyXyXyXyXyXyXyXyXyXyXyXyXyXyXyXyXyXyXyXyXyXyXyXyX^ F *.<.<.{ l 5 5 q.#X0.+.[ 7 S u.u.w.r.u.u.u.u.5X0.[ J *.~ ! ! ! A < 8 } z k z A F I I I ..@.%.#.%.! D I %.;.#.U F U U F U ^ $.^ ! ! ! @.#.&.:.,.%.#.%.&.:.$.#.@.....&.<.;.%.#...........&.,.%.I ^ &.%.&.;.&.@.I @.%.%.@.} ..I I F U U ^ U A A U %.%.@.F F ! ~ / / W W W W C R W ~ ! I ! ! ^ ^ ! F A D U Y @.#.I A F F ! F F ! ! ! ! k z F I F F F z j g < , = j I j < z z z A I l j z F #.>.G.Z.~ ^ S w o.=.0.0.=.q # 6 7 > # = ! H.#.} +.0.0.w.w.w.w.w.,.T ..1.w.0.1.1.q.q.,.&.%.%.q.u.j @.U.",
"{ > q.U.%.#.%.,.w.w.y.u.y.y.r.w.r.0.w.w.w.u.w.0.#.} z ^ J.! , 5 5 w 5 # 5 +.w.w.w.0. .%.2.<.<.<.;.^ Y I j ! g.g.~ R R z , l I g u i i a a a x R E R a i a R E ~ R s a a R / / / R k A R / / / / / ~ R ^ Z.l./ W ^ ;.:.;.%.%.#.! ^ $.Z.Z.*.! ^ %.:.:.%.%.:.2.<.:.$.~ $.#.#.&.;.%.@.$.<.H.<.;.;.<.<.<.;.&.%.$.#.~ ~ :.:.:.$.*.^ ^ ^ ^ #.@.%.&.:.%.#.#.:.<.$.~ R ^ %.:.;.#.^ *.$.<.<.$.! ! ^ $.<.$.#.^ $.$.#.#.#.#.^ ! z g A @.D 8 l F I F ! %.S  .w.t.u.u.t.w.0.,.0.w # 5 S { ,.T.,.> = j } @.#.! s g.k . yXyXyXyXyXyXyXyXyXyXyXyXyXyXyXyXyXyXyXyXyXyXyXyXyXyXyXyXyXyXyXyXyXyXyXyXyXyXyXyXyXyXyXyXyXyXyXyXyXyXyXyXyXyXyXyXyXyXyXyXyXyXyXyXyXyXyXyXyXyXyXyXyXyXyXyXyXyXyXyXyXyXyXyXyXyXyXyXyXyXyXyXyXyXyXyXyXyXyXyXyXyXyXyXyXyXyXyXyXyXyXyXyXyXyXyX^ ~ $.<.&.S w > 5 q.#X,.+.S 5 S u.t.w.w.u.u.u.u.5X0.S I &.$.! ! ! D 6 5 L F k k R A A A F ! ^ ^ ^ ^ R A ! $.$.^ R R R R R R ~ / R R R ^ #.#.$.:.%.@.@.%.:.$.~ ^ $.#.@.%.;.$.^ ! @.%.%.@.@.%.$.#.! ! #.$.#.%.%.@.I ! @.^ I ! ^ ^ U A R R R R A A ! #.^ ! ! R R ~ / / / E N B Q Q s./ R R ! ! ~ ~ ~ A A ! ! ^ #.#.! A ! R R R R R R R R a k ! ! ! R k a p u p u u A ^ 5 , z z z A F j j z U ;.<.<.$.^ ^ l w X.=.0.5.=.w # 5 7 > # = ^ H.$...+.,.0.0.r.w.w.w.0.....0.w.w.0.0.w.q.,.%.%.%.e.u.8 @.U.",
"{ , q.U.%...%.%.0.w.w.u.u.u.r.w.r.0.w.w.r.t.w.,.#.I l ~ E.! , 5 5 w 7 # 5 +.0.0.0.+.[ &.2.<.<.<.;.#...{ j ! V./ ~ x k A u , D F p i i i a a x R R R a i a R E E x s a a R R W E R a R / / / E E E E R E / g./ W ^ ;.;.%.#.#.^ ^ ~ ~ / / ~ ~ ^ $.$.%.#.#.$.<.:./ ~ / / ^ #.:.:.&.^ / $.:.:.$.$.%.%.%.%.$.$.*.^ R / V.Z.$.~ ^ ~ ^ ^ #.#.#.#.#.#.*.#.$.$.$.~ R R ^ $.$.$.~ ~ ~ $.$.$.^ ! ! ^ $.$.$.^ ^ ~ ~ ^ ^ ^ ~ ! ! z z ! ! j j D F F A ! #.S [ ,.t.u.u.u.u.e.,.0.w . 5 l S &.U.%.> = 8 S I @.! i Q a   yXyXyXyXyXyXyXyXyXyXyXyXyXyXyXyXyXyXyXyXyXyXyXyXyXyXyXyXyXyXyXyXyXyXyXyXyXyXyXyXyXyXyXyXyXyXyXyXyXyXyXyXyXyXyXyXyXyXyXyXyXyXyXyXyXyXyXyXyXyXyXyXyXyXyXyXyXyXyXyXyXyXyXyXyXyXyXyXyXyXyXyXyXyXyXyXyXyXyXyXyXyXyXyXyXyXyXyXyXyXyXyXyXyXyXyX*.~ *.&.#.l w > 5 q.#X,...S 5 w e.e.e.t.u.u.u.u.u.0.S } <.$.! F L D 6 5 S F z R A A A R ! ^ ^ ^ ^ ! R R ~ #.#.~ R R R R R R / / R R ~ / ^ #.#.#.@.@.@.#.$.$.~ / *.^ ^ #.#.~ ! F ! #.#.@.@.@.@.^ ~ ~ ^ ^ ^ @.@.@.^ ! ! ! ! ! ^ ~ R k R R R R R R ! ^ ! ! ! R R R E / s.E N B V s.j.g.E R ! ^ / ~ R R R ~ ! ! ^ ^ ! R R R x s x x x R R s k R R R R a i i u i i k ~ A > , j z z z z 6 g F ! #.#.$.^ ^ @.l q  .+.5.5.+.w * 6 6 * # , ^ J.$.#.%.,.0.w.w.w.w.w.w.0.0.w.r.w.r.w.e.w.,.+.%.%.e.u.8 @.U.",
"} = 2.U.#.#.%.,.0.w.w.w.w.w.w.w.w.w.w.w.w.w.0.:.#.I l ~ *X! , 5 7 l 7 # 5 +.0.5.+.o.[ #.U.q.<.,.;.;.%.{ 8 ! / ~ R A A A 6 = l ! z p p p a k k k k k k k k A R x k a k k k R R R k k A R ! W N N R R R W R R R R ! #.#.@.I U F F ! ! ! ! ! ! ! ! @.I ! ! ! ! ! ^ ~ ~ ! F @.%.&.#.^ ! ^ #.#.#.#.@.@.@.#.#.%.#.! ! ! ^ ^ ^ ! ! ! ! ! ^ #.#.#.@.@.! ! ! ^ ! ! R ! ! ^ #.^ ! ! ! ^ ! ! ! F F U @.#.#.#.^ ^ ^ ^ ! ! ! A A z F #.I 6 6 J F F A ! %.S S ,.w.u.u.u.u.e.,.0.w . > 8 l %.q.%.> > 6 l J @.! i E p   yXyXyXyXyXyXyXyXyXyXyXyXyXyXyXyXyXyXyXyXyXyXyXyXyXyXyXyXyXyXyXyXyXyXyXyXyXyXyXyXyXyXyXyXyXyXyXyXyXyXyXyXyXyXyXyXyXyXyXyXyXyXyXyXyXyXyXyXyXyXyXyXyXyXyXyXyXyXyXyXyXyXyXyXyXyXyXyXyXyXyXyXyXyXyXyXyXyXyXyXyXyXyXyXyXyXyXyXyXyXyXyXyXyXyXyX~ R ~ #.%.[ w > 5 q.#X,...S 5 w 0.e.t.u.u.t.u.y.y.5.S I Z.<.^ F D D 8 5 l I ! ! F A A F ! ! ^ ! ! U A A A I ! ! F F A A A R ! ! z z ! ! ! I ! I Y Y @.#.^ ! ^ ! ! ! I ! ! ! F F I @.#.^ I I L F ! ! ! ! U I Y @.^ I U F F F ! F A k k z A A A U U A F F F ! A A W W Q W N N N W Q / R R A F ! R A A ! ! A U U ! F z z k k k k z z R R k z A z z k a i p u u i z ! p * 5 j k z A l 6 j ^ ~ ! ! #.~ *.%.l w  .+.5.5.+.q # 7 6 > # , ^ J.$.@.%.,.,.w.t.w.w.w.y.w.w.w.r.w.w.w.e.w.,.+.%.%.q.u.8 @.U.",
"@., 2.U.%.#.%.,.0.0.w.w.r.w.w.r.r.w.w.u.w.0.;.%.@.L k ~ *X^ , 5 7 S 8 # 5 +.0.0.+.o.[ #.q.2.<.,.1.1.%.{ 8 F ~ R z z ! z 6 > 8 l < > = ; , , , , , , , , , < < , , , < , , < , , < < < < < < < < < u u u u u < < 8 8 6 6 6 6 6 6 6 6 6 < 6 g g 8 8 6 < 8 6 6 6 g < u < 6 8 8 8 8 8 8 j j j j j j 8 8 w w j j j g < < j < < 8 6 6 6 j j j j j j j j g j j j j 8 j 8 j j j j j j 6 8 8 6 g g j l j j j j j j j j j j < < g z j , 8 I I ! ! #.;.[ [ ,.w.t.u.u.u.e.,.q.l . > 6 l #.q.%.> > 6 l D } F i E p   yXyXyXyXyXyXyXyXyXyXyXyXyXyXyXyXyXyXyXyXyXyXyXyXyXyXyXyXyXyXyXyXyXyXyXyXyXyXyXyXyXyXyXyXyXyXyXyXyXyXyXyXyXyXyXyXyXyXyXyXyXyXyXyXyXyXyXyXyXyXyXyXyXyXyXyXyXyXyXyXyXyXyXyXyXyXyXyXyXyXyXyXyXyXyXyXyXyXyXyXyXyXyXyXyXyXyXyXyXyXyXyXyXyXyXyX^ z ! %.,.X.w > 5 q.#X,...S 5 w 0.e.u.u.u.t.t.w.y.5.S I Z.<.#.I F D j 5 8 D z g < < < 6 8 8 8 8 8 8 < p 8 8 8 j 6 6 6 6 8 8 6 6 6 6 6 < 6 6 6 6 j 8 8 8 8 j 6 6 j 8 8 j 8 8 6 6 8 8 j j 8 8 8 6 < < 6 < < j 8 8 8 8 < , < 6 < < < , < < < < 8 6 , , < 6 6 6 < < < < < < , , , , < < g u < < < < < < 6 < < 6 6 6 6 < , , , , , , , , < < < , , < , , , = & = , , < & > 8 z z ! F D 6 j ^ ~ / ~ ^ ^ *.#.l l +.5.5.5.+.q # 7 7 > # ; ^ J.$.@.%.;.,.0.e.t.w.w.u.w.w.w.r.w.0.0.w.0.,.%.%.&.q.e.j @.R.",
"} , 2.U.%.#.%.,.0.0.,.,.0.w.w.w.0.w.w.t.w.0.,.%.! D g ~ E.^ 5 5 7 S w # 5 +.0.0.0.+.[ #.:.:.1.q.q.1.,...j z R R A A F D 8 5 > = o + + + o o o o o o o o # o o % * * * % o o o o o # # # o o o * # o o % * * # * * * * * * * * * * * % o * * * * * * * * * * * * * * * * > > > > * * * * * * * > > # * # * * * * * * * * * > > * * > > > > > > > > = * * * * > > > > > > * * * * * * * = * * > > * > > > * * * * * * * * * > = 8 L I ! ! #.&.J [ ,.e.t.t.e.e.q.,.q.l # 5 8 l %.e.%.> > w l J } L a ~ k   yXyXyXyXyXyXyXyXyXyXyXyXyXyXyXyXyXyXyXyXyXyXyXyXyXyXyXyXyXyXyXyXyXyXyXyXyXyXyXyXyXyXyXyXyXyXyXyXyXyXyXyXyXyXyXyXyXyXyXyXyXyXyXyXyXyXyXyXyXyXyXyXyXyXyXyXyXyXyXyXyXyXyXyXyXyXyXyXyXyXyXyXyXyXyXyXyXyXyXyXyXyXyXyXyXyXyXyXyXyXyXyXyXyXyXyX! z ! &.,. .S > 5 q.T.,.{ l , 8 ,.q.q.q.e.w.t.w.r.5.S I Z.<.$.#.@.I j 6 5 8 5 > > * > > 5 > > > * > > > > > > * * * * * > > * * > = * = * * * * * > > * = = * * * * * * * * * * * * * * # * * % % % % o * * * * * % o o o o o o o o o o o o * o o o % % % * % % % % o * * o o o # o % % % o o o % * % % * * # * % % o o o o o o o % * o o o o o o o o o o . o . o % > l z ! R ! F g j #.~ $.~ ~ R ~ #.l S 5.r.5.5.O.q > w w > # , ^ J.*.! %.%.,.,.0.w.w.w.w.w.r.0.r.w.0.0.q.w.0.%.%.%.q.e.8 @.T.",
"#.6 U.U.%.%.%.,.q.q.,.,.0.0.w.0.0.0.w.w.w.0.,.&.@.D g ~ E.^ 5 5 7 S 8 # 5 +.0.0.0.+. .&.%.%.;.q.q.<.0...j A ~ R ! ! ! D j 5 * o o * * * > > > > > > 5 5 5 5 5 5 5 5 5 5 5 > > 5 5 5 > > > > > 5 5 5 5 5 7 5 5 5 5 5 5 5 7 7 7 7 7 7 5 5 5 7 7 7 7 7 7 7 7 8 7 7 7 7 7 5 5 5 5 7 7 7 7 5 5 7 7 7 7 7 7 7 8 8 7 q 7 7 5 7 7 w w q q w w w w l w w 8 8 8 8 8 8 w w w w 8 w w w w w 8 8 7 5 7 8 w l w 8 8 8 8 7 7 7 7 7 5 > > > * 6 F U ! ~ *.$.J [ 0.e.e.0.0.<.:.:.q.l # 5 l J %.U.%.> > w l { ..L a / k . yXyXyXyXyXyXyXyXyXyXyXyXyXyXyXyXyXyXyXyXyXyXyXyXyXyXyXyXyXyXyXyXyXyXyXyXyXyXyXyXyXyXyXyXyXyXyXyXyXyXyXyXyXyXyXyXyXyXyXyXyXyXyXyXyXyXyXyXyXyXyXyXyXyXyXyXyXyXyXyXyXyXyXyXyXyXyXyXyXyXyXyXyXyXyXyXyXyXyXyXyXyXyXyXyXyXyXyXyXyXyXyXyXyXyXyX! z ! %.+. .S > 6 q.T.&.{ S 6 j ,.<.<.<.q.w.t.w.w.0.[ ..Z.<.$.%.&...8 > > > 5 5 7 7 q q q q 7 7 7 8 7 7 7 7 7 7 7 7 7 7 7 5 5 7 7 5 8 8 7 8 7 7 7 q q 7 8 8 w w 8 8 7 5 5 5 5 5 5 5 5 5 5 5 5 5 5 5 5 5 5 5 7 7 5 5 5 5 5 5 > > > > > > > > > > > > > > , , , , , ; > > > > > > > > > > > ; > > > > > > > > > > > > > > > > > > , 5 5 5 5 5 > > > > > > * * * % % % > j k ! x R ! g l #.^ ~ *.*.! ^ #.l [ 0.w.5.5.O.q > w l 5 # , ^ G.*.I %.,.0.q.w.0.0.0.w.w.0.0.w.w.0.%.<.q.0.,.%.#.q.e.8 #.T.",
"@.6 U.U.%.%.%.,.w.e.w.w.w.r.0.5.5.0.w.w.w.0.0.%.@.J g ~ E.^ 5 5 7 S 8 # 5 o.0.0.0.+. .&.&.%.<.0.0.1.,...j F ^ ~ ! ^ ! z 8 * o o o * * > > > 5 , , < , , 5 5 5 6 6 6 8 6 6 6 , 6 6 6 6 , 5 5 6 5 8 8 8 8 8 7 7 8 8 5 5 7 5 7 8 8 8 8 7 7 7 8 8 8 8 8 8 8 8 8 8 8 8 8 6 5 5 5 5 6 8 8 8 < 8 8 8 8 8 8 8 8 8 8 8 q 8 8 8 8 7 w w w w w w w w w w w w w 8 8 j w l l l l l l l l l l w w 8 8 8 8 w w w 8 l j 8 8 8 8 j 8 5 5 5 > , 8 ! ! ! ~ *.$.J [ 0.e.w.0.,.;.&.&.q.l # 5 l { ,.U.%.> > l S ..%.L a / z . yXyXyXyXyXyXyXyXyXyXyXyXyXyXyXyXyXyXyXyXyXyXyXyXyXyXyXyXyXyXyXyXyXyXyXyXyXyXyXyXyXyXyXyXyXyXyXyXyXyXyXyXyXyXyXyXyXyXyXyXyXyXyXyXyXyXyXyXyXyXyXyXyXyXyXyXyXyXyXyXyXyXyXyXyXyXyXyXyXyXyXyXyXyXyXyXyXyXyXyXyXyXyXyXyXyXyXyXyXyXyXyXyXyXyXyX! z ! %.+. .w > 8 q.T.,.{ S 6 l ,.;.;.;.0.w.u.w.y.0.[ @.Z.$.*.*.%.I 6 > * * > , 8 8 8 8 8 8 8 8 8 8 8 8 8 w w 8 8 8 8 8 8 7 7 7 7 8 8 8 8 8 8 8 7 7 7 8 8 8 8 8 8 7 7 5 5 5 5 5 5 5 5 5 5 5 5 5 5 5 5 5 5 7 5 5 5 5 6 6 5 5 6 6 < 5 5 5 5 5 5 5 5 > > 5 , 5 5 , , ; ; ; ; ; > ; > , , , , = ; > ; > > > > > > ; , , , , , ; ; , , < < , 5 5 , , , , , > > * * * * o > g k R R R R g l #.^ ^ ^ $.^ $.#.l S 0.0.5.5.O.q > w l 5 > , ^ G.*.I %.0.w.t.t.w.0.0.w.w.w.w.w.w.w.;.&.;.,.%.%.#.q.e.8 #.#X",
"@.6 U.U.%.%.%.0.0.t.u.u.w.r.r.0.5.0.w.w.r.0.0.,.#.J l ~ E.! , 5 7 S 7 . 5 +.0.0.0.+. .&.:.<.e.0.,...+. .j F ~ ^ ! ^ ! k , o o o o o % * * * = ; ; , , = = * * * * = , = ; ; % = % % % % % % * * = = > > ; = ; > > * * * * * > > > > > > > > > > > > > 5 , , , , , , , ; ; > > > * = ; ; ; ; > > ; = = * > = * > > > > * * > > > > > > > > 5 > > > > > > ; ; > > > > > > > > > > > , > > > * * > * = > > > > > > > > * = = , j l ! #.! ! *.$.J [ 0.e.w.w.0.q.:.%.<.w # 5 l { %.e...> > l S %.%.} a ~ k . yXyXyXyXyXyXyXyXyXyXyXyXyXyXyXyXyXyXyXyXyXyXyXyXyXyXyXyXyXyXyXyXyXyXyXyXyXyXyXyXyXyXyXyXyXyXyXyXyXyXyXyXyXyXyXyXyXyXyXyXyXyXyXyXyXyXyXyXyXyXyXyXyXyXyXyXyXyXyXyXyXyXyXyXyXyXyXyXyXyXyXyXyXyXyXyXyXyXyXyXyXyXyXyXyXyXyXyXyXyXyXyXyXyXyXyX^ z I %.+. .w > 5 q.T.%.{ S 5 l <.,.,.<.q.w.u.y.u.w.X.@.Z.*.~ ^ ^ A < j , % % % = = , ; ; ; > > > * = = = > > > > > ; > * * * * * > > > > > > > > > * * * * * * > > * > > > > > * * * * * * * * * * * % % * * * * * * * > * * = * * % * * * * * * * # * * * * * % % % % % % # * * * * = % % % % % % % * # o * * * % % % % % % % % % % * * * * % % % * % % % o o * * l l z ~ x R ! g l @.! ! ^ %.$.;.%.l l o.+.+.5.+.w > w 8 > > , ^ J.$.! %.0.w.u.t.t.w.w.t.t.w.w.w.t.t.<.:.%.%.%.@.@.2.T.g #.#X",
"} , U.U.%.%.,.0.w.w.u.u.w.w.w.w.0.w.w.w.r.r.0.,.%.} z *.E.! > 5 7 l 7 # 7 =.0.0.0.+. .&.2.<.q.1.%.....{ j F / / ~ ~ R k j 8 ; * ; , < < < < < u j j 8 8 8 6 5 5 5 5 5 , < , 6 < < , 5 , , , , 5 5 5 5 5 < < < , 6 , , , 5 5 5 , , 5 8 6 6 6 8 8 8 8 8 8 j j j j j j j j 8 6 6 5 5 5 8 8 6 6 7 8 8 8 7 7 7 5 5 5 , < < < 6 5 6 6 8 8 8 8 8 6 8 8 8 5 5 6 , , , 5 6 5 6 6 5 5 , , 5 6 6 < , 5 5 5 6 5 5 5 5 5 5 , , , ; ; = j L l F *.$.^ $.&.J [ 0.w.e.e.e.e.<.%.,.w # 5 l J #.q...> > l l #.@.z i E k   yXyXyXyXyXyXyXyXyXyXyXyXyXyXyXyXyXyXyXyXyXyXyXyXyXyXyXyXyXyXyXyXyXyXyXyXyXyXyXyXyXyXyXyXyXyXyXyXyXyXyXyXyXyXyXyXyXyXyXyXyXyXyXyXyXyXyXyXyXyXyXyXyXyXyXyXyXyXyXyXyXyXyXyXyXyXyXyXyXyXyXyXyXyXyXyXyXyXyXyXyXyXyXyXyXyXyXyXyXyXyXyXyXyXyXyX^ z L #.+. .w > > 1.#X,. .S 5 l q.q.q.e.e.e.u.y.u.w. .^ Z.$.~ ! ! A l @.j & & & , < u u < < 5 5 5 5 6 < , , 6 5 6 , , , 5 5 , 5 5 6 < 6 6 6 8 8 8 5 5 5 5 5 5 5 5 5 5 6 8 5 6 6 5 , , , 5 5 , , , , 5 , , , 5 5 5 > > 5 > > , , > , , , , , 5 5 5 5 5 5 , < 6 8 6 6 6 8 8 7 5 7 7 7 8 8 6 6 < < < < 8 6 6 5 7 7 5 , , , , , 5 5 5 5 5 5 5 5 5 5 5 5 5 , , = = % = 8 @.l A ~ R R ! j j @.! ^ ^ %.;.;.%.l l  .+.+.5.+.q # 7 7 > > , ^ J.$.@.%.0.w.w.u.w.w.t.t.w.w.w.e.w.w.e.2.:.%.%.%.#.q.T.g @.T.",
"} < U.U.&.,.0.w.w.w.u.y.w.w.0.0.w.w.w.r.r.w.w.0.,...z ~ Y.I > 5 5 w 7 # q 0.w.r.0.+. .&.2.<.<.,.,.%...P g R V.V./ ~ R k D I < ; < < j j j p g g l l l l l l l j l j j l z z z z z D D D l l z J J l z D D D F F D D D J S S S l l D D D D J J J J J S J P J J J I I I P J S S S S S S S S S S T { { { { S S S S l z z z l l z z D F F D A l z z A S S S D S S S S S S S S l l l l l l l l l S S l l l l l l l j j j j 6 g J #.l z *.$.~ $.<.J T 0.0.w.t.t.u.q.&.,.w o 5 l S ..e.+.5 5 l l D L k i R g . yXyXyXyXyXyXyXyXyXyXyXyXyXyXyXyXyXyXyXyXyXyXyXyXyXyXyXyXyXyXyXyXyXyXyXyXyXyXyXyXyXyXyXyXyXyXyXyXyXyXyXyXyXyXyXyXyXyXyXyXyXyXyXyXyXyXyXyXyXyXyXyXyXyXyXyXyXyXyXyXyXyXyXyXyXyXyXyXyXyXyXyXyXyXyXyXyXyXyXyXyXyXyXyXyXyXyXyXyXyXyXyXyXyXyXyX^ z L %.+. .w > > 1.#X,. .S 5 8 q.e.e.e.e.u.u.u.u.0. .@.Z.$./ ! ! D l %.L u u i l D D D D S S S S J J D l A D S J D S S S S S S l l l l l l D D S S S S S S D D S S J T T S J D l l l l S l j j j j l l l l l S S S S S l j j l l j l l l l l l l l l l l l l z z S D J J J S [ S J D S l l l z z z S S S S S S l j j l j j j l j j l l l l l j j j j j p < , , < D ..< z R R ! ^ j j } ! @.@.%.;.;.@.l l o.+.+.=.o.7 # w 7 > # , ! H.$.@.%.,.w.w.w.w.w.t.u.w.0.w.w.w.w.t.e.q.<.:.%.%.q.U.6 @.T.",
"L 6 U.U.&.0.w.w.t.u.u.w.w.0.&.&.0.t.w.0.w.w.w.w.,...D ~ Y.I > - 5 w 7 # q 0.w.w.w.=. .&.q.<.;.&.;.%.%.P p R g.g./ ~ ! k g I j , < u j g k k z z k k z z A A A F I A z R ~ ~ R R ! ^ ^ ^ ! ! #.#.#.! ! ^ #.*.$.$.#.@.@.%.&.&.@.@.! ^ #.#.%.%.%.&.%.%.%.%.%.%.@.@.#.$.&.&.%.%.%.+.%.#.....#.%.%.%.%.%.&.&.%.#.@.^ ^ ^ *.*.! ! ~ ^ #.$.$.#.^ ! R ! ^ @.%.%.@.^ I @.........@.@.I I I I I ! ........{ { L L L F F A F D l j z #.%.l z ! #.^ $.<.T [ ,.0.w.t.t.u.q.&.,.w # 5 l l #.e.%.5 5 l j k z x i E j .   yXyXyXyXyXyXyXyXyXyXyXyXyXyXyXyXyXyXyXyXyXyXyXyXyXyXyXyXyXyXyXyXyXyXyXyXyXyXyXyXyXyXyXyXyXyXyXyXyXyXyXyXyXyXyXyXyXyXyXyXyXyXyXyXyXyXyXyXyXyXyXyXyXyXyXyXyXyXyXyXyXyXyXyXyXyXyXyXyXyXyXyXyXyXyXyXyXyXyXyXyXyXyXyXyXyXyXyXyXyXyXyXyXyXyX^ k ! &.+. .7 > 5 0.#X0.+.S 5 5 ,.w.e.e.u.e.u.u.u.0.[ #.Z.$.~ ! ! F j { #.z i k F @.%.@.@.@.@.@.%.#.%.#.^ @.%.%.%.%.%.#.@...#.%.} F ! ! ! ! @.@.#.#.%.%.%.#.@.@.@.#.%.%.%.#.@.I I I } #.%.#.I D D F L I ! ..} P } @.%.@.! F ! ! ! L L L L I P I I I L F D F F U U U U U I I I P I ^ ! A A A U ! U F D J } } ..} D l z A A F F z z z z z F F z z z k k z g p < , j I J , z z z ! @.j j I ^ #.#.;.;.;...l S o.=.0.5.o.7 # w w > # ; ! G.$.@...,.0.w.w.w.u.u.u.w.w.e.w.w.w.u.t.w.0.&.#.%.q.e.6 @.T.",
"} 6 U.e.%.,.0.0.t.u.y.w.e.0.%.%.w.t.w.w.w.w.w.,.&.@.z ~ J.I > - 5 w 7 - w 0.w.w.w.0. .&.q.<.;.&.&.%.%.U p R ~ Q E R ! k , l l < < h k z z x R R E E R R R R ~ ~ *.^ R R ~ ~ R ~ / ~ ~ ~ *.$.$.$.*.^ ^ *.$.:.Z.<.%.#.&.2.q.<.&.#.#.#.$.:.:.:.<.<.q.q.<.,.<.<.:.$.:.F.2.:.;.<.q.e.q.&.@.%.:.<.<.<.<.2.2.<.<.<.<.%.$.:.Z.$.$.$.$.:.<.<.<.<.:.~ ~ ^ ;.:.:.,.;.;.&.&.;.;.&.#.#.%.%.#.#.#.@.@.%.:.,.&.&.%.#.^ ~ ~ ~ ~ ! A g l L %.@.j z F ! ! *.<.{ [ ,.0.w.e.t.u.q.&.1.w # 5 j l %.e.%.5 > j j k x x i ~ g .   yXyXyXyXyXyXyXyXyXyXyXyXyXyXyXyXyXyXyXyXyXyXyXyXyXyXyXyXyXyXyXyXyXyXyXyXyXyXyXyXyXyXyXyXyXyXyXyXyXyXyXyXyXyXyXyXyXyXyXyXyXyXyXyXyXyXyXyXyXyXyXyXyXyXyXyXyXyXyXyXyXyXyXyXyXyXyXyXyXyXyXyXyXyXyXyXyXyXyXyXyXyXyXyXyXyXyXyXyXyXyXyXyXyXyX^ z ! %.+.[ 7 > 5 0.#X0.+.l > 5 ,.e.e.u.u.t.w.u.u.0.[ %.G.V.^ ! ^ I j l #.! k k ^ $.:.;.;.;.;.:.:.2.2.;.#.%.:.<.:.;.:.;.&.%.;.<.$.#.*.$.#.%.$.;.;.,.q.q.q.:.#.#.#.%.:.2.<.:.%.@.! @.%.:.<.:.%.@.! ! #.#.%.%.@.I ..;.:.$.*.~ ~ ^ ^ ^ @.@.! } } @.@.@.@.! R ~ ! ! ~ ~ ! U U Y ^ ! #.#.~ R A ! ^ ^ ! F z F #.$.$.^ ! A A R ~ ^ ^ ! z z ! ! ! R R R x k k k k p u j D @.l , j z z z I j j ..Y #.%.1.;.%.P l l o.=.0.0.o.5 # w w 5 > = ! Z.*.I ..,.0.w.w.w.u.u.u.e.e.e.e.w.w.u.t.0.;.%.@.%.q.e.6 @.U.",
"} < U.q.#.%.%.,.q.t.w.t.t.w.0.q.e.t.w.w.y.w.0.%.#.@.z ~ J.I > - 5 w w > w 0.w.w.0.+. .&.<.:.&.&.%.#.#.U k R E E R z A z , g z p u h k k a s x R Q Q E R R R ~ ~ ~ ~ R R R E R / / / ~ ~ ~ $.$.~ ~ ~ ~ ~ ~ $.:.$.#.#.$.F.<.$.$.$.#.#.$.:.:.;.:.:.<.q.:.%.:.F.:.$.:.<.;.#.#.:.q.q.2.#.I #.<.<.<.:.:.:.:.:.:.;.;.#.*.:.:.*.*.$.:.;.#.%.$.;.$.~ ~ ~ $.$.@.#.%.;.%.%.%.%.#.@.#.$.$.~ ^ ~ ! ! #.$.&.#.%.$.^ ~ R ~ ~ R R a p z @.&.} j z ! ! F #.:.{ [ 0.w.w.w.e.e.<.;.q.l # 5 l S %.e.,.5 > j j h x x h ~ k .   yXyXyXyXyXyXyXyXyXyXyXyXyXyXyXyXyXyXyXyXyXyXyXyXyXyXyXyXyXyXyXyXyXyXyXyXyXyXyXyXyXyXyXyXyXyXyXyXyXyXyXyXyXyXyXyXyXyXyXyXyXyXyXyXyXyXyXyXyXyXyXyXyXyXyXyXyXyXyXyXyXyXyXyXyXyXyXyXyXyXyXyXyXyXyXyXyXyXyXyXyXyXyXyXyXyXyXyXyXyXyXyXyXyXyX^ z L ..+.S q > > 1.#X0. .w * 5 ,.e.T.#Xu.t.w.w.w.0.[ #.Z.$.~ ! ! U j 8 I #.! z ~ $.$.$.%.;.;.:.:.:.:.%.#.$.2.F.:.#.%.:.$.#.;.:.$.$./ ~ ^ #.%.:.;.;.0.q.2.;.#.#.#.^ #.:.2.<.#.! ! ! *.$.$.$.$.^ ! ! #.$.$.$.^ D U #.$.#.~ / ~ R ! ^ #.#.! F F ! @.@.^ R E Q B E / W R R A A ! ^ ~ ~ R R x R ! R R k k A ^ $.~ ~ R x k k R ^ ~ x k x ! R R x R x x a a a i p p z F ! 8 6 j z z z z 8 j ..T ..;.<.;.%.} l l o.=.0.0.o.5 > w 7 5 - , ! Z.*.} #.,.,.0.w.t.t.u.e.q.e.t.t.w.w.t.e.1.%.#.#.#.H.T.8 #.U.",
"} , U.I.#.#.@.#.&.0.w.w.t.e.q.w.t.w.w.w.w.w.w.&.#.@.z ~ J.! > - 5 l w 5 w 0.w.0.=.o.[ %.<.<.&.&.%.#.#.U k R Q Q R z A A < u z g j p h a a a s x E E R N s R R R R R R N N N W W Q W R E / V./ / / / / / / / / V./ ~ ~ ~ ~ / / / ~ / ~ :.:.:.;.:.:.<.#.#.;.<.:.$.$.$.$.^ #.;.<.2.;.#.! ^ $.:.:.$.$.$.:.:.$.$.$.*.~ / ~ ~ *.*.$./ ^ $.$.$.$.E W / / ~ ! ! ^ / #.@.#.#.^ ^ ~ / / / / R R R ^ $.$.#.^ ^ ~ R R R R R x k g D @.#.J < z L ! z ^ &.{ [ 0.e.w.0.0.q.<.:.q.w # 7 S { %.u.,.5 > j j h x x i ~ j     yXyXyXyXyXyXyXyXyXyXyXyXyXyXyXyXyXyXyXyXyXyXyXyXyXyXyXyXyXyXyXyXyXyXyXyXyXyXyXyXyXyXyXyXyXyXyXyXyXyXyXyXyXyXyXyXyXyXyXyXyXyXyXyXyXyXyXyXyXyXyXyXyXyXyXyXyXyXyXyXyXyXyXyXyXyXyXyXyXyXyXyXyXyXyXyXyXyXyXyXyXyXyXyXyXyXyXyXyXyXyXyXyXyXyX~ k ! @...T 7 > > 1.#X,.{ l * > <.T.#X#Xu.t.e.w.w.0.[ ! ~ ~ ^ ^ ! U j 6 l @.^ R z ! *.$.$.;.;.:.$.$.$.~ ^ $.:.:.$./ $.$.$.$.~ ^ ~ / / ~ R A ! ^ ^ @.%.:.:.$.~ ~ ^ ! ! $.:.:.^ ! ~ ~ ~ ~ ~ ~ ^ ! R ! ~ ~ ~ #.^ ! ! ^ #.#.~ ~ R R R ! #.^ ! F F F ~ / ~ E V V B B Q E W R R R R ~ / / R s R R R a a s R R R ~ R R R x s s x R x k z R R x s s s s s s a i i i k z F A , , z F z j l 6 l ..@.;.%.%.@.@...l l +.+.+.+.X.5 > l w 5 # , ! G.$.} #.%.%.,.0.e.t.u.q.0.w.u.t.w.w.t.w.;.%.#.#.#.H.U.j #.U.",
"} , U.F.^ ! ! ^ #.,.w.t.t.e.e.e.t.w.w.w.w.w.w.<.&.@.z *.Y.! > - 5 w 8 # w =.0.,.+. .S #.<.<.;.&.%./ ^ F k R / Q ~ A A A u , z z j 6 u u p a k k x x k a k k A m m A x a a a a R R R R R ~ ~ R R R R ~ R R R ~ ~ ~ ~ ~ R A R R R R R A ! ^ ^ #.#.@.@.I U ^ ^ ! ! ! U U U U I I I U F z z F ! ! ! ! ! @.#.^ ! ! ! ! ~ ! ! ^ ! ! ! ^ *.$.^ ! R W R R R ! ! ! ^ ! ! ! ^ ! ! ! ~ ~ R R A A A A ! ! U U U F A A A A A z D l J } } l g F L ! F ! %.S [ 0.e.w.0.,.,.&.&.q.w # 7 T { ,.u.=.5 > 8 j x R x i E j     yXyXyXyXyXyXyXyXyXyXyXyXyXyXyXyXyXyXyXyXyXyXyXyXyXyXyXyXyXyXyXyXyXyXyXyXyXyXyXyXyXyXyXyXyXyXyXyXyXyXyXyXyXyXyXyXyXyXyXyXyXyXyXyXyXyXyXyXyXyXyXyXyXyXyXyXyXyXyXyXyXyXyXyXyXyXyXyXyXyXyXyXyXyXyXyXyXyXyXyXyXyXyXyXyXyXyXyXyXyXyXyXyXyXyX~ R ^ @...S 7 > > ,.T.%.{ l * , 0.T.#Xu.u.u.t.t.w.3.[ U / ~ ^ ^ ! D j 5 j ! #.! z k ! ^ #.$.$.$.*.^ ^ ~ ! ! ! ! ~ ~ ^ *.*.^ ~ ! ! ! R R k k z A U I @.$.$.#.! ! F A F ^ ^ ^ ! R ! ! ~ R ! ! ! F A A F F F U U I ! ! ! ! ! ! R A z A U F D z z D F R R R N N s s R R A R R A A R ! R A k A A A k k A R R R R k k x x a k k k k k z z z k k k a a a a a a a g z z A z , , z A F F F j l @.@.#.#.! F ! ! j l +.+.o.+. .5 > l w 5 # , ! H.$.I @.%.&.,.0.t.t.u.0.,.w.u.u.y.w.t.q.%.%.#.@.^ F.U.u @.U.",
"} , U.F.^ ! ! ^ #.<.e.u.u.t.t.t.t.w.0.0.w.w.t.q.<.#.z *.Y.! > # 5 w 7 # 7 +.,.,.,. .w @.:.Z.:.<.%.^ ! F g ~ / ~ ! F z l j < l j , * % % % % % % % = = = = & % & & & , = & & % & , , , , , , , , = , , , = , < < < < , = % = = = , , % % ; > , 5 > > , , , ; ; ; ; * * * = * = > = = = * = > > , , > , 5 , , ; , , , , , , , , , , , , , , : , , , , , , < < , , , , , , 5 , , , , , , > > > 5 , , , 5 , , , , , 6 5 8 8 j j 6 j F ! @.! ! %.l S ,.w.e.e.q.0.&.&.q.w # w { ..,.e.+.5 > j j k R x i R j     yXyXyXyXyXyXyXyXyXyXyXyXyXyXyXyXyXyXyXyXyXyXyXyXyXyXyXyXyXyXyXyXyXyXyXyXyXyXyXyXyXyXyXyXyXyXyXyXyXyXyXyXyXyXyXyXyXyXyXyXyXyXyXyXyXyXyXyXyXyXyXyXyXyXyXyXyXyXyXyXyXyXyXyXyXyXyXyXyXyXyXyXyXyXyXyXyXyXyXyXyXyXyXyXyXyXyXyXyXyXyXyXyXyXyX~ R ~ #.} S 6 = > ;.T.%.I l , 5 ,.e.e.e.y.u.u.t.w.+.S ^ Z./ ^ ^ ! D 8 7 6 8 j < , = & , < < 8 < , , , , , , , , , < u u < < , , , , , , , , , , , , 8 8 6 , , , , = , < , , , , < , , , , , , , , , , , , , , , , , , , , , , ; ; = = = ; ; * > = * * = % & $ % % % ; , , , , , , , , , , , , ; ; , , , , , = = = = = = = = = , , , , , , , , , , = = , , , , , 6 6 5 < z F ^ #.@.j j @.^ / ! ! A ! F j 8  .+.+.3. .5 * w w > # = ^ J.$.L I &.<.w.t.t.u.u.e.0.w.w.y.y.u.e.<.%.%.#.@.^ F.H.u #.R.",
"@., U.H.@.^ ! @.*.:.q.e.t.t.w.t.u.t.0.0.r.w.w.,.$.@.z ~ J.I > # 5 l 7 # 5 +.0.0.0.o.w } ;.<.<.<.%.^ Y P g ! / ~ ! ! A A j 6 8 ; o O . . . . . . . + + + + . . . . . . . + . + + + + + + + + + . o o o o + + o o o o o o o + + o o * o # # # # # # # * # # o o # o # # o # # # # # # # o o # # # # # # # # # # o o o o o o o o + . . . o o % o o o o % o o o o o o o o . + o o o o + # # # # # # # # # # # + + # # o o o * * = j ! L @.! ^ %.l S ,.w.e.u.e.q.&.#.<.w # 7 P { &.e.+.> 5 j g h a a i E j O   yXyXyXyXyXyXyXyXyXyXyXyXyXyXyXyXyXyXyXyXyXyXyXyXyXyXyXyXyXyXyXyXyXyXyXyXyXyXyXyXyXyXyXyXyXyXyXyXyXyXyXyXyXyXyXyXyXyXyXyXyXyXyXyXyXyXyXyXyXyXyXyXyXyXyXyXyXyXyXyXyXyXyXyXyXyXyXyXyXyXyXyXyXyXyXyXyXyXyXyXyXyXyXyXyXyXyXyXyXyXyXyXyXyXyX! x R @...S 8 ; > <.#X&.} j , , &.q.w.e.w.t.u.t.r.+.S #.J.Z.$.#.^ F j 7 > * o . o . o o o . . o o o o o o o o o o o o o o o o o o o o o o % * o o o . . . . o o o o o o o o o o o o . . + + + o o o + . o + + + . . . . + . . . . . . . . . . O . O O O   .   O . . . . . . . .     + + . + O . . O O O . . .     . + + . . . + . . . + + + O . . O O . . . . . o * 6 g z ! *.#.@.g j @.^ ^ ^ ^ ! ! F 8 7  .+.5.5.o.5 * 8 8 > # , ^ J.$.U @.%.<.e.t.u.u.u.u.t.w.w.w.t.t.w.,.;.%.#.#.#.F.U.< #.R.",
"@., q.F.#.@.#.%.&.&.&.q.e.u.u.y.u.t.w.w.r.w.0.%.#.@.z ~ J.F > # 5 l w # 5 %.q.e.0.+.w { ;.<.<.<.&.#.@.P j A / R ! ! ! F u = = # o # * * ; ; > > ; > > > > > > > > > > > > > > 5 5 > 5 5 > > 5 5 5 5 5 5 5 5 5 5 7 7 7 7 5 5 5 7 7 7 7 7 8 7 7 7 q q w 7 7 7 7 7 5 0 5 5 5 5 5 5 5 5 5 5 5 5 5 5 5 5 5 5 5 7 7 7 7 7 7 7 7 5 5 5 5 5 5 5 5 5 5 5 5 6 6 6 7 5 5 7 5 5 5 5 5 5 > 5 5 5 5 5 5 5 5 5 5 5 5 5 5 > 5 > > > > > > > , z @.! @.^ ^ :.S S ,.e.e.e.e.q.&.#.<.l o 5 j l %.e.+.> 5 j j h k i i E k +   yXyXyXyXyXyXyXyXyXyXyXyXyXyXyXyXyXyXyXyXyXyXyXyXyXyXyXyXyXyXyXyXyXyXyXyXyXyXyXyXyXyXyXyXyXyXyXyXyXyXyXyXyXyXyXyXyXyXyXyXyXyXyXyXyXyXyXyXyXyXyXyXyXyXyXyXyXyXyXyXyXyXyXyXyXyXyXyXyXyXyXyXyXyXyXyXyXyXyXyXyXyXyXyXyXyXyXyXyXyXyXyXyXyXyX! k ! #.%.S 8 > , <.#X&.} j ; = &.q.q.t.w.t.t.t.0.+.S #.J.J.Z.#.#.! g > * > > > 5 5 5 7 5 5 5 5 5 5 5 5 5 5 5 5 5 5 5 5 5 5 5 5 5 5 5 5 5 5 7 7 7 5 5 5 5 7 5 5 5 , 5 5 > 5 5 5 5 5 > > > > > > > > > > > > > > > > > 5 > > > , 5 , > > > > > > * > > * > > * > = > ; = % = = = * * o # * * * o o * * * * * * # % * * * * * * > > > * > * * * # # * * * * * * % * > 8 j D ! #.^ ! g j ! ! ~ ! ^ ~ ! L 8 7 O.5.5.5.o.7 o 5 7 > # , ~ J.:.U @.%.;.w.w.w.w.w.u.w.y.w.w.t.w.0.,.;.;.%.#.#.H.U.6 #.T.",
"@., q.2.#.#.#.<.<.<.<.q.t.u.u.w.w.u.w.w.w.w.0.%.#.I z ~ J.F > * 5 l 8 # q 0.e.e.0.+.n { ;.<.;.&.&.$.%...j A ~ R ! ! ! F , % o # * * = ; ; ; * * ; , , , , , 5 > , , 5 , 5 5 > 5 8 8 8 8 6 6 6 5 6 6 8 6 6 6 5 7 8 8 8 8 5 5 5 5 5 5 5 5 6 8 7 7 5 5 8 5 5 5 5 5 5 7 5 5 7 5 5 5 5 5 5 5 7 5 7 7 7 8 8 8 8 8 8 7 5 7 7 5 7 6 7 7 5 7 7 5 5 7 5 5 8 5 5 6 8 8 6 7 7 5 5 6 8 5 , , 6 7 7 6 7 7 7 7 6 6 6 5 5 5 5 8 5 8 8 5 5 , , l #.! @.^ #.:.{ S ,.e.e.e.q.q.&.#.q.l o > 6 j #.w.+.> > j l z z x x / k .   yXyXyXyXyXyXyXyXyXyXyXyXyXyXyXyXyXyXyXyXyXyXyXyXyXyXyXyXyXyXyXyXyXyXyXyXyXyXyXyXyXyXyXyXyXyXyXyXyXyXyXyXyXyXyXyXyXyXyXyXyXyXyXyXyXyXyXyXyXyXyXyXyXyXyXyXyXyXyXyXyXyXyXyXyXyXyXyXyXyXyXyXyXyXyXyXyXyXyXyXyXyXyXyXyXyXyXyXyXyXyXyXyXyXyX~ x ^ &.%.T w > > <.#X&.J j , = %.q.q.t.u.u.u.w.0.o.S #.J.G.$.^ #.! j * * > 5 5 5 5 7 8 8 8 8 8 7 7 7 7 7 7 8 8 w 7 7 q q 7 7 7 7 7 7 8 8 8 8 7 8 8 8 6 5 5 6 6 6 6 6 8 5 5 5 5 5 5 5 5 5 5 5 5 5 5 5 , , 5 5 6 6 5 5 6 8 5 5 8 8 6 5 , , > , , > : , , , , , , , , , , , , , , , > * ; > ; , , , , , , , , > ; = ; , ; > > > , 5 5 , 5 6 , , > > , > > > > , , = = 8 g z ! ! ! ! j j I ! ~ ~ ~ ~ ^ ! 8 7 o.5.5.5.o.7 # 5 8 > # , ~ Y.:.! #.&.,.w.w.w.w.w.w.w.u.u.u.t.w.,.,.<.;.%.#.#.H.T.6 %.R.",
"#., U.F.#.#.%.:.<.q.e.u.5X5Xy.w.r.w.u.w.w.w.,.&.%.! z *.J.I > # 5 l 8 * q 5.w.0.,. .S ..%.#.#.%.%.;.%...j F ~ R F ! ^ A < = o # # # # * # # # # * * * > > * * * > > ; > * * > > > , , , , , > > > > , > , > > , , , , , > > , , > , > > > , , , > > , , , > > > > > > > > > > > > > > > 5 > > > 5 > > > , 5 5 5 > > , , > > > > > > > > > 5 > > > > , , > > > > > > > > > > ; > > > > > > 5 5 5 5 > 5 5 5 > > , 5 5 > > > = = 8 ! ^ ^ ^ $.:.P [ ,.0.0.,.,.q.:.%.q.l # 5 5 l %.q...> > 8 j I @.! x g.A .   yXyXyXyXyXyXyXyXyXyXyXyXyXyXyXyXyXyXyXyXyXyXyXyXyXyXyXyXyXyXyXyXyXyXyXyXyXyXyXyXyXyXyXyXyXyXyXyXyXyXyXyXyXyXyXyXyXyXyXyXyXyXyXyXyXyXyXyXyXyXyXyXyXyXyXyXyXyXyXyXyXyXyXyXyXyXyXyXyXyXyXyXyXyXyXyXyXyXyXyXyXyXyXyXyXyXyXyXyXyXyXyXyXyXyX^ x @.&.%.{ 7 > 5 1.#X%.[ l > = %.q.0.t.u.u.u.w.,.+.S @.Z.$.^ ^ @.U j 6 > * > * * 5 > > 5 5 > , > 5 5 5 5 5 5 5 5 5 > > 5 5 > 5 5 > , , > 5 , > > > , , ; ; > ; ; , ; * * > = = ; , , ; ; ; ; ; , , = ; = = * > = = ; > > ; ; ; , ; = ; = = ; ; ; ; = = = = = % % * ; ; , , , ; ; = % = = ; = = > = ; ; ; ; > * * % % % = = > > > > > > 5 > > * * * * * * * * * o * 8 g z F ! ! ! k l F ^ ^ ~ / / ^ ! l w o.=.=.3.X.5 # 8 w 5 # , *.Y.$.! #.,.w.w.y.y.r.w.w.u.y.w.u.t.w.0.,.;.;.%.#.#.U.U.6 &.Y.",
"#., U.F.#.@.%.,.<.0.w.t.u.u.w.w.w.y.u.u.y.w.0.&.#.F z $.E.! > 2 5 l 8 * w +.,.,.+. .S #.#.^ ^ #.%.%.%.@.j F $.~ A ! ^ k g l > * * * % = % % ; ; , , , , > > > , , ; ; , ; ; , , , , , , , , , , , , , , > > , 5 5 , , , > , , , , , ; > 5 5 < , , 5 , < < , > > > > > 5 > > > > > > > , , > > > 5 5 5 > 5 , > > > ; ; , > > ; , , 5 5 , , 5 , , , , , , , , , , , , , > ; , ; = = ; ; ; > > 5 5 > > , > > > ; = , , * * = , 6 j F ^ ~ ~ $.:.J { ,.,.,.%.;.<.:.$.q.l . > 8 z #.q.+.> > 8 j I #.! x g.A .   yXyXyXyXyXyXyXyXyXyXyXyXyXyXyXyXyXyXyXyXyXyXyXyXyXyXyXyXyXyXyXyXyXyXyXyXyXyXyXyXyXyXyXyXyXyXyXyXyXyXyXyXyXyXyXyXyXyXyXyXyXyXyXyXyXyXyXyXyXyXyXyXyXyXyXyXyXyXyXyXyXyXyXyXyXyXyXyXyXyXyXyXyXyXyXyXyXyXyXyXyXyXyXyXyXyXyXyXyXyXyXyXyXyXyX~ x @.&.%.S 8 > > ,.#X%.{ S 5 * %.q.0.t.8Xu.u.w.,.+.S @.Z.*.! ^ #.F j z g > > > > 5 5 5 5 5 6 , , , 5 5 6 6 5 6 6 5 , , 5 5 , 5 6 5 < < , 5 5 5 5 5 5 6 5 , , , , , , , 5 5 , , , , , , , , , , , ; ; ; ; > > > > > > , , > , , , , , , , , , , , 5 , , , , , ; , , , , , , , , : & = = , , ; , , , , ; ; > > > ; % % % ; ; ; > > > > ; > ; ; * * = = % = % % % * 6 S j ! ^ ! ! ~ z l F ! R ~ ~ $.~ ! l l +.=.5.3. .5 # 7 w 5 # , ^ J.$.L #.q.w.t.y.y.w.w.u.u.u.u.t.t.t.q.,.;.:.%.#.#.H.e.6 &.$X",
"#., U.F.#.#.%.,.0.0.w.t.w.w.w.w.u.u.y.y.y.0.,.&.#.I z $.*X! > 5 5 l 8 > w +.,.,.+. .S @.$.^ ^ #.#.#.#.@.j U Z./ R R ~ k j @.l , , < < u u u u g g g z z g j g g g g g g g j l l l l l l z A A Z l j g j j l S S S P T S S l l j j l j l S S S l S S D D D S l l S S S S S l j l l l l D D D l S [ [ P P S S l l l l l l j j l S D S l l j z l z A l l l D D S l l l l j j j g g j j l l l l S S l j j j j j j < < g 6 6 6 l D j z ~ *.*.$.:.J { ,.,.&.%.%.,.:.&.I.l . > j L &.e.+.> > 8 l J @.! s Q k .   . yXyXyXyXyXyXyXyXyXyXyXyXyXyXyXyXyXyXyXyXyXyXyXyXyXyXyXyXyXyXyXyXyXyXyXyXyXyXyXyXyXyXyXyXyXyXyXyXyXyXyXyXyXyXyXyXyXyXyXyXyXyXyXyXyXyXyXyXyXyXyXyXyXyXyXyXyXyXyXyXyXyXyXyXyXyXyXyXyXyXyXyXyXyXyXyXyXyXyXyXyXyXyXyXyXyXyXyXyXyXyXyXyXyX~ x @.%.+.{ 8 > > ,.#X%.[ S 5 = #.q.0.e.t.e.e.0.,.+.S ^ Z.~ ^ #.@.D p A z , , 5 j S D D D D D D D F D D D D J J P D D D D J J D D D D D D D S T {  .....{ J l l l l l l z S S S D S D l l l z l l l l S j l S S S S D D D S S S S D D D P P S l l l l k A A A D A A A A A l j g g g g g g j g g j l l j j j l l j u < u j j j j j j j j 8 8 8 < u u u , u u , , 8 J { p ! $.^ ! ~ z z U A k A ^ / ~ F l [ +.5.5.=. .5 # 7 w 5 # , ^ H.$.L @.,.0.w.y.y.w.w.u.y.y.w.w.w.e.e.0.,.;.%.#.#.H.e.6 &.$X",
"@., q.H.#.%.&.0.0.w.w.w.w.r.0.w.5Xu.r.r.w.r.0.,.%.I k ~ E.! > 5 5 l q > w +.0.0.0.o.S @.$.$.#.#.^ ^ ^ ! j ! Z.~ ! ~ / A p @.! u u u p p a k k a k z R z k k z k z k k k z A U U I I I U I ^ #.^ R A A F F I ..} ..%.%.%.@.} I I I @.@.#.#...I I I @.@.@.@.@.@.@.@.@.@.@.@.^ D I ! ! ! ^ ^ / ^ #.&.;.,.%.#.@.^ ! ! ~ ^ ^ ! F I ^ #.@.! I I ^ ! ! ! ! ! ^ @.@...#.@.I F ! ! ! ! ! ! ! ! U I I ....I F L F D z z z g z j z l I I j v *.$.*.$.<.{ T %.,.,.%.%.%.%.$.q.l . 5 j L ,.e.+.> > 8 l D @.R s Q k .     yXyXyXyXyXyXyXyXyXyXyXyXyXyXyXyXyXyXyXyXyXyXyXyXyXyXyXyXyXyXyXyXyXyXyXyXyXyXyXyXyXyXyXyXyXyXyXyXyXyXyXyXyXyXyXyXyXyXyXyXyXyXyXyXyXyXyXyXyXyXyXyXyXyXyXyXyXyXyXyXyXyXyXyXyXyXyXyXyXyXyXyXyXyXyXyXyXyXyXyXyXyXyXyXyXyXyXyXyXyXyXyXyXyX~ x F } { l 8 > 5 ,.#X+.[ S 5 * #.q.0.q.w.0.0.,.,.+.S ^ Z./ ~ *.! Z p z R u < 8 I ! ! @.^ ^ ! ^ ^ $.^ ! ! #.#.#.@.@.@.@.@.@...@.@.^ ^ #.#.#.%.%.<.q.q.<.:.%.#.! I I I @.@.#.#.@.@.@.@.I ! ! ! ! ! ! ! @.I I %.%.@.^ %.%.#.@.^ @.@.@.@.@.%.%.I D I ! R W E W / ^ ~ ~ ^ ^ ^ ! U F A z z z z k A A F F D z A D L F F z k k z z D D U D z j z z z k k k k a a a p u l ..D u ! ^ ! ! ^ A z F A R R ~ ~ ~ L l [ 0.0.5.=. .7 # 7 7 5 # , ^ H.$.! #.%.%.w.t.y.w.w.y.y.w.w.0.0.w.e.q.1.<.&.#.#.H.q.5 &.R.",
"@., U.2.#.%.&.0.w.w.w.w.w.r.0.w.u.u.r.r.w.u.u.q.%.L g ~ E.! , 5 5 w q > q +.0.0.0.o.S #.$.$.#.*.^ ~ ~ ! j U Z.~ ~ / / ! < z @.p u u p p a a a a x R R z z z z R R x x x R ~ ^ ^ ^ ! U U ! #.$.^ R R A ! ! @.@.I I %.%.%.%.@.@.! #.$.%.&.%.! F F ! #.$.*.#.*.$.*.#.#.#.#.*.^ ! ! ^ ^ ~ ~ ~ / ~ $.;.:.<.;.#.@.^ / ~ ~ / ~ ~ ! ! ^ #.^ ^ #.$./ ~ R ~ ^ #.%.%.@.%.;.%.^ ^ #.^ ^ ^ ^ ^ ! ! ! ! ! ^ ! I I ! ! ! ! F A A z k z z I D 8 ! #.*.! #.:.{ T %.,.,.,.,.,.%.$.q.8 . 5 j L ,.e.+.> * j z D @.R s Q k .   yXyXyXyXyXyXyXyXyXyXyXyXyXyXyXyXyXyXyXyXyXyXyXyXyXyXyXyXyXyXyXyXyXyXyXyXyXyXyXyXyXyXyXyXyXyXyXyXyXyXyXyXyXyXyXyXyXyXyXyXyXyXyXyXyXyXyXyXyXyXyXyXyXyXyXyXyXyXyXyXyXyXyXyXyXyXyXyXyXyXyXyXyXyXyXyXyXyXyXyXyXyXyXyXyXyXyXyXyXyXyXyXyXyXyX^ x z J { l 8 > 5 ,.T.+.[ [ 5 * #.q.,.q.q.0.0.,.,...S ^ Z.V.$.#.U l < z R i u j U ~ ^ ~ / / ~ ~ ~ $.~ ~ ^ $.$.#.^ #.#.#.#.@.@.#.#.^ ^ ~ / $.$.:.2.<.:.:.<.:.$.~ ^ ^ #.#.#.%.%.%.$.#.@.! ^ ^ ^ ^ ^ ^ ^ ^ ~ ! $.$.^ ^ $.$.$.^ @.#.#.#.#.%.;.#.I F ! ~ g.s.s.s.s./ ~ ~ ~ ^ ~ ! ! R R R R x k k k A A F A z A F ! ! R R k k k A F F F A k k z x x x k a a a a p u u D @.l u ~ ! U ! ^ z l F ! ~ / ~ ~ ~ ! l l +.+.+.+. .7 # 6 7 > * , ^ J.;.! @.@.#.0.w.w.w.w.y.u.y.w.w.w.t.e.w.0.,.&.@.@.2.e.5 &.Y.",
"@., U.2.@.} %.0.w.w.w.w.w.w.0.w.u.u.w.r.w.u.u.q.#.L g ~ E.! , 5 5 w 7 # q 3.r.r.5.o.n #.:.:.$.*.~ R ~ ! j ! F.$./ Z.:.^ u j ! A u p p p a a a k k R k a k R A R R x a s R ~ $.$.#.! U U ^ #.*.~ R R R ~ ~ $.$.! I %.;.&.%.#.#.^ #.;.<.&.#.! A R ~ ^ $.~ ~ ~ $.$.*.*.*.^ ^ ^ ^ ^ / / / / / / / $.$.$.:.;.#.^ / / E E / / / ~ ~ ^ ^ ^ ^ $.Z.g.E E / $.:.:.$.#.%.;.%.^ ^ $.~ ~ ~ ~ ~ ~ ~ ~ ^ ! U ! ! ^ ^ ! ! ! ! ! A k a k A ! D 8 ! ^ ^ ! %.<.{ S %.,.,.0.0.q.:.$.q.8 . 7 8 z %.e.%.5 * j D F @.R s g.k . . yXyXyXyXyXyXyXyXyXyXyXyXyXyXyXyXyXyXyXyXyXyXyXyXyXyXyXyXyXyXyXyXyXyXyXyXyXyXyXyXyXyXyXyXyXyXyXyXyXyXyXyXyXyXyXyXyXyXyXyXyXyXyXyXyXyXyXyXyXyXyXyXyXyXyXyXyXyXyXyXyXyXyXyXyXyXyXyXyXyXyXyXyXyXyXyXyXyXyXyXyXyXyXyXyXyXyXyXyXyXyXyXyXyXyXyXx ! ....S 8 * 5 ,.T.%. .[ 5 * #.<.,.,.q.q.0.,.,...S #.Z.Z.*.! D S 8 j ~ x g l A R / / / / / / ~ / / / ~ $.$.^ / $.$.$.#.#.#.#.#.^ ~ / / ~ $.<.<.$.#.$.$.$.V./ ~ / ~ #.#.#.$.$.$.$.#.#.~ ~ ~ ~ ~ ~ ~ ~ ~ ~ / ~ ~ ~ / / / ~ ^ ^ ^ #.#.%.%.@.! I ! ~ s.d.d.i.Q R ~ / ~ ~ ! ! ! R R R R R x k A A A z z A R ! ! R R R R R k R R R z k a a z x x x a a a a i p p k I ^ j j ^ ^ U U U l l F ~ ~ / / E E ^ j 7 S  .+.+. .7 # 5 7 > * , *.J.$.I @.^ @.,.w.w.r.w.w.u.w.w.w.t.t.t.w.0.,.&.#.#.q.e.5 %.Y.",
"^ , e.2...} +.,.0.0.0.w.w.w.w.w.w.u.u.w.w.w.r.0.#.I k ~ E.^ , 5 5 w 7 # q 5.y.5Xr.o.w #.F.H.Z.*.~ R ~ ! j ^ G.Z.Z.H.:.^ j , F ! p u u p p a k x R R a i z ^ ! R x s a a R R $.$.#.U A F ^ ^ ^ ~ R R R ~ ~ $.$.U U #.:.:.#.^ ^ ^ #.$.$.$.^ A k R ~ / / ~ ~ ~ ~ ~ ~ ~ ~ ~ ~ ~ ~ ~ R ~ E E / / / / ~ #.%.$.*.~ R R W R E ~ ~ ~ ~ ~ ! ! ! / :.g.E R ~ $.:.:.%.^ ..#.@.! ~ ^ ~ ~ R / ~ ~ ! R ! F A A ! ^ ! R x x R R k k a k ! #.z < F ^ #.#.<.q.[ S +.0.w.e.e.e.<.$.q.8 . 7 8 l ..q.%.5 > j D F ^ v s g.R . . yXyXyXyXyXyXyXyXyXyXyXyXyXyXyXyXyXyXyXyXyXyXyXyXyXyXyXyXyXyXyXyXyXyXyXyXyXyXyXyXyXyXyXyXyXyXyXyXyXyXyXyXyXyXyXyXyXyXyXyXyXyXyXyXyXyXyXyXyXyXyXyXyXyXyXyXyXyXyXyXyXyXyXyXyXyXyXyXyXyXyXyXyXyXyXyXyXyXyXyXyXyXyXyXyXyXyXyXyXyXyXyXyXyXyXyXx ! #...l 5 * > ,.T.%. .[ 5 * #.<.&.&.<.<.q.0.,...S ^ J.G.~ A D S 6 8 ! R g l R N R W R E E E R E E / ~ ~ ~ ! ~ ~ ^ ^ ! ^ ^ ^ ! ! ~ / / / ~ $.$.$.*.$.$.~ E R R ~ ~ ^ ! ! ^ #.*.~ ^ ^ R R R R R R R R / ~ R R R E ~ / / / / ~ ~ ^ #.#.^ ! ! I U ! Q k.k.d.Q R W ~ ~ ! R ! ! R R N x x x a a A k k a z R R R x R R R x x x x k k a a a a k x a a p p i p i a z ! A 6 g #.#.I D U l l F ~ ~ / ~ Q / ^ l 5 8 [ +.0.o.7 # 7 w 5 * , @.H.$.L L #.#.%.w.w.w.u.u.u.w.w.u.w.w.w.w.0.,.&.%.#.U.e.5 #.Y.",
"I , U.<...+.+.3.0.0.w.w.w.w.u.u.y.u.u.y.w.0.0.<.%.@.k ~ E.^ , 5 7 w 7 * w 0.y.w.w.+.n #.F.J.Z.#.^ ~ ^ ! p U F.J.H.H.;.I j , l ^ A g u p a a k R R k a i a x R x R R a a R R ~ ~ ! ! ! R ! ~ ^ ~ R R R R / / / ! ! ! #.*.^ ^ ^ ~ ~ ^ ~ #.! z z x R R ~ ^ ^ ^ ~ ~ ~ ! ! ~ ! ~ ~ R R ~ ^ ~ ~ ~ ~ $.#.#.#.#.#.! ! ! ~ ^ ~ ! ~ ~ ^ ! U A A / / W ~ E R ~ ^ ^ @.! I F F A R ! ~ ~ ~ / ~ R R R R A A A ! ! ! ! ! A A k k z k k ~ ^ l 8 ! ! %.;.q.e.[ [ +.0.0.e.q.0.&.&.<.8 # 5 l J %.e.%.> > j z F @.R d h.x . . yXyXyXyXyXyXyXyXyXyXyXyXyXyXyXyXyXyXyXyXyXyXyXyXyXyXyXyXyXyXyXyXyXyXyXyXyXyXyXyXyXyXyXyXyXyXyXyXyXyXyXyXyXyXyXyXyXyXyXyXyXyXyXyXyXyXyXyXyXyXyXyXyXyXyXyXyXyXyXyXyXyXyXyXyXyXyXyXyXyXyXyXyXyXyXyXyXyXyXyXyXyXyXyXyXyXyXyXyXyXyXyXyXyXyXyXk F #...S 7 * 5 %.T.%.{ l 5 * #.q.$.#.%.&.q.q.,...l ^ Z.V.~ F I D 6 , l #.F z F A R R ~ ~ ~ R R ~ ~ ~ ~ ! ! R ! ! ! ! ! U U U ! ! ~ ~ ~ ~ ~ ! ! #.$.#.^ ! ! R ~ ~ ~ ! ! ! ! ! ^ ^ ^ ! F F F ! ! ! ! ~ ~ ! A R ~ ~ ! ~ ^ ~ ~ ~ ~ ^ ^ ^ ! ! U U A R E j.k.s.V W ~ ~ R R W ! ~ R R R R x k k A k k a k k R R R R R R x k k x x a a a i a a k k k a a i i u i k R ~ a , j ^ ~ ! ^ ^ D l ! ~ / E R R ~ ~ j , 8 ..,.0.o.7 > 7 w > > , #.H.$.I #.;.,.0.w.w.y.u.u.y.u.w.w.w.0.,.,.q.,.;.%.#.U.T.5 #.Y.",
"I , U.<.@.+...%.w.w.0.0.0.w.u.u.w.u.u.u.w.w.w.q.$.! g ~ *X^ 5 7 0 w w > w 0.r.w.0.+.l #.Z.Z.$.~ ~ ~ ~ ! p I >.F.H.<.#.P j , l @.F j 6 < < < u j j u < < < g g j g p p u p j l l j j j j j l l l g g u p g g j j j j j j j j j j j j j j j 6 g u g g j j j j j j j j j j j j g j g l l l l j l l j j j l l j j l l l l l j l l l j j j z z j j g j g 6 8 j j j j j j j j j g l l j g g j j j j j j j j l j g g g g g g g k z j j ! ! $.;.2.T. .[ ,.0.0.0.0.,.%.$.<.8 # 5 l J ,.T.,.> > j J @.#.^ s h.k .   yXyXyXyXyXyXyXyXyXyXyXyXyXyXyXyXyXyXyXyXyXyXyXyXyXyXyXyXyXyXyXyXyXyXyXyXyXyXyXyXyXyXyXyXyXyXyXyXyXyXyXyXyXyXyXyXyXyXyXyXyXyXyXyXyXyXyXyXyXyXyXyXyXyXyXyXyXyXyXyXyXyXyXyXyXyXyXyXyXyXyXyXyXyXyXyXyXyXyXyXyXyXyXyXyXyXyXyXyXyXyXyXyXyXyXyXz ! %...S 5 * 5 %.T.#.S l > > %.q.#.#.%.&.<.q.1...l ! Z.$.^ ! @.P 5 > j L D g g g l l l l z j g l l l j j j j j j j j j 8 8 8 8 j j j j j j j j j l l j j j j j j j g 6 8 8 j j j j j 6 6 6 6 < < < j j j < 6 j j j l l l j j j j j j j j j j j j p a a i i g j 8 j j j j j j p p p u , < < < < < 6 j j j g j p p u u u u u u u < , , < g g g u < , < , , g j z j , j ^ / / $./ A l ! / / E R R E ~ g 6 l ..%.,.o.7 * 7 w 5 > , *.U.;.I #.&.&.,.w.y.u.u.u.u.u.t.u.w.w.0.0.q.;.;.%.%.T.e.5 &.$X",
".., U.<.@.} ..%.0.w.1.%.,.w.u.u.r.w.u.5Xu.u.t.q.&.I g ~ *X~ 6 7 w n n 5 q +.0.0.,...S #.V.V./ ~ / / ~ ^ g ^ :.:.;.%.#.P S 8 8 j ; # o o o o o o o o o o o o o o o o o o o o o o # # * # o # # * % % o o # o # # # # o # # # * # # o o o o o o o o o o o o o o o o o o o o * * o o * * * o o * * # # # * * # o # * > > * * * * * * # # * o # * * # # # # # % * * # o o o # o # # o . o o o # # # o o % % % % % % % % = % = = 6 l ! ^ $.;.2.U.{ [ 0.w.q.q.q.,.%.$.<.l # 5 l J ,.T.,.> > w { #.%.@.x g.k     yXyXyXyXyXyXyXyXyXyXyXyXyXyXyXyXyXyXyXyXyXyXyXyXyXyXyXyXyXyXyXyXyXyXyXyXyXyXyXyXyXyXyXyXyXyXyXyXyXyXyXyXyXyXyXyXyXyXyXyXyXyXyXyXyXyXyXyXyXyXyXyXyXyXyXyXyXyXyXyXyXyXyXyXyXyXyXyXyXyXyXyXyXyXyXyXyXyXyXyXyXyXyXyXyXyXyXyXyXyXyXyXyXyXyXyX! @.%. .l 5 * > &.T...l w > * %.q.#.#.&.%.:.<.<...j ! Z.$.^ @.%.} 8 5 > , = % * o * * > * > * # o o o # o o o % % o o o o o o o o o o o o o * * * * * * * * * * # # * # o o o o # # o o o o o o o o o # # o o # # # # # * # o o o o o o % % % o o o o o o o % . . . o o o o o o $ $ o . . . o o o o o o o o o o o o + . o o o o o . . o o % % o o . o o o % % = % , g / F.S.S.F.U l ! ~ / E ~ R E ! g 6 l {  .+. .7 * 7 w 5 * , $.Y.<.} @.%.%.%.0.t.u.u.u.w.w.t.t.w.w.w.0.,.%.%.#.#.U.e.5 #.$X",
".., U.<.@.....&.,.1.,.%.,.0.u.w.r.r.y.5Xu.u.t.q.%.I j ^ *X~ 8 7 q n n 5 q +.0.,.%...S ~ V.g./ ~ $./ / ^ l ^ <.;.#.@.%.P l 5 > % . o o o # # # # * * # # # # * * * * * > > * > > > > > > > * > > > > > > > > > > > > > > 5 5 5 5 > > > > > > 5 5 > - > > > > > > > > > > > 5 5 > 5 5 5 5 5 5 5 5 5 > 5 5 5 > > 5 5 5 5 5 5 5 5 > 5 5 > 5 > > 5 5 > > > > > > > 5 5 5 > > 5 > > > > * > > > 5 5 5 5 > > > > > > > > * > * * o 5 l ! *.$.$.<.q.J [ 0.e.e.q.q.<.%.$.<.l # 5 l J ,.T.,.> > w { +.%.@.x f.k     yXyXyXyXyXyXyXyXyXyXyXyXyXyXyXyXyXyXyXyXyXyXyXyXyXyXyXyXyXyXyXyXyXyXyXyXyXyXyXyXyXyXyXyXyXyXyXyXyXyXyXyXyXyXyXyXyXyXyXyXyXyXyXyXyXyXyXyXyXyXyXyXyXyXyXyXyXyXyXyXyXyXyXyXyXyXyXyXyXyXyXyXyXyXyXyXyXyXyXyXyXyXyXyXyXyXyXyXyXyXyXyXyXyXyXyX! @.%. .l 5 * , &.T.#.l w > * %.2.#.*.<.$.#.#.#.I j I :.:.#.#.%.I 6 > * * # # * * > 5 5 5 5 5 5 > > > 5 5 5 5 5 5 > > > > > > > > > > > > > 5 5 5 5 5 5 > > 5 5 5 5 5 5 > > > > > > > 5 5 5 5 5 5 5 > > 5 5 > 5 > > > > > > > > > > > * > > > > * * > > > > > > > > > > > > > ; ; ; ; > > > > > * * * * * * * * > * # * * * > # # # # # * * * * * # # o # # o o o , p ^ F.S.F.:.A z ! R R ~ / ~ ~ ! g 5 l [ [  . .7 * 5 7 > * , $.Y.<.@.@.#.%.%.0.w.u.u.u.w.w.t.t.w.w.w.0.,.#.@.I ! q.e.5 %.$X",
"..5 U.<.@.#.@.#.&.,.,.0.0.0.w.y.r.r.w.5Xu.u.e.,.#.I l ^ *X/ 8 7 q ' n > q +.0.,.+.{ S ^ V.V.~ ~ $./ $.#.j @.F.:.$.#.;.@.j ; % % % % = > > > > > > > > > > > > > > 5 5 5 5 , , , 5 5 5 5 > > > , , , 5 5 5 5 5 5 5 5 5 5 5 5 5 5 5 5 5 6 5 5 5 5 5 > 5 5 5 5 5 5 5 5 5 5 5 6 5 5 5 5 5 5 5 5 6 6 6 6 5 5 5 5 , 5 5 5 5 6 8 8 8 6 5 5 5 7 5 5 5 5 6 6 5 5 5 5 5 5 5 5 5 5 5 5 5 8 6 5 5 5 5 7 5 5 5 5 5 5 5 5 5 , , 5 5 5 > * 5 l ! $.$.$.:.2.P [ 0.e.q.q.q.<.#.$.<.j # 5 l J %.T.%.> > w [ +.,.#.s Q a .   yXyXyXyXyXyXyXyXyXyXyXyXyXyXyXyXyXyXyXyXyXyXyXyXyXyXyXyXyXyXyXyXyXyXyXyXyXyXyXyXyXyXyXyXyXyXyXyXyXyXyXyXyXyXyXyXyXyXyXyXyXyXyXyXyXyXyXyXyXyXyXyXyXyXyXyXyXyXyXyXyXyXyXyXyXyXyXyXyXyXyXyXyXyXyXyXyXyXyXyXyXyXyXyXyXyXyXyXyXyXyXyXyXyXyXyX! @.%. .S 5 = , %.T.#.S w > * ..<.#.$.F.$.^ I I D j I <.<.<.$.#.F < * * > 5 5 5 5 5 5 5 5 5 5 5 5 5 5 5 5 5 5 5 5 5 5 5 5 5 5 5 5 5 5 > > 5 5 5 5 5 5 5 5 5 5 5 5 5 5 5 5 , , , , , , 5 5 5 5 5 5 5 5 5 5 5 5 5 > > > , , , , , , , , > > > > > , , > > > , , , > , , , , > , , , , , , > , , > > > ; ; ; , , , , > > > , , > > > > > > > > , > > > > > > > * % ; j p R / ) ) / A l ! R / / g./ / ! 6 5 l [ [  . .7 # 5 5 # # , $.Y.<.@.@.%.,.0.w.w.w.u.u.0.0.t.t.r.r.w.0.,.#.@.! ! U.e.5 &.$X",
"..5 U.H.#.#.@.#.%.,.0.w.w.r.w.w.y.w.y.5Xu.t.w.,.#.I l ^ *X~ 8 5 q [ n > w ,.0.,...{ l ^ $.*.^ #.$./ $.@.j ^ F.Z.:.:.:.^ l j = % o $ % * % % % * * * * * * * * * * * = * * % = = = * = = * * * = = ; ; ; ; > > , > > ; > > > = = = ; ; ; ; ; ; > = * = = * = = = = = = * * = = * > > > > > > > > > = > > ; > * = = = = = = * > ; ; = ; > * * ; ; > ; ; ; ; > > > > > * * * = ; , = = ; ; ; > > * * * * * > ; = = = = * * * 5 8 l ! $./ / :.U.{ [ 0.w.0.q.q.q.$.$.<.l # 5 l z &.U.&.> > w  .=.,.#.s E a .   yXyXyXyXyXyXyXyXyXyXyXyXyXyXyXyXyXyXyXyXyXyXyXyXyXyXyXyXyXyXyXyXyXyXyXyXyXyXyXyXyXyXyXyXyXyXyXyXyXyXyXyXyXyXyXyXyXyXyXyXyXyXyXyXyXyXyXyXyXyXyXyXyXyXyXyXyXyXyXyXyXyXyXyXyXyXyXyXyXyXyXyXyXyXyXyXyXyXyXyXyXyXyXyXyXyXyXyXyXyXyXyXyXyXyXyXF ..%.+.{ 8 > , &.T.%.l 8 > * } :.$.<.F.$.! F F l j L :.<.;.#.#.F u < = % * * * * = = = * * * * = = = = = = = = ; * * * * * * * * * * * % * = * = = = = = * * > > > > * = = = = = = % = = = * * = * = % % = = * * % % * = = = % * = * * * * * * = * % % % % > = = % % = = = % % % % % = * % % % % % % % % = % % % % = = % % * * % % % % % % % % % % % o % # % o , { g A ~ / ) ) A z ^ / / / g./ / ! j 5 S [ [ +. .7 # 5 5 * # , $.Y.<.} #.0.w.t.t.w.w.u.u.w.w.t.u.w.w.0.0.,.%.@.@.#.U.U.6 %.R.",
"..5 U.H.#.%.@.@.#.,.w.w.w.r.0.w.u.y.u.u.u.t.0.<.%.} z ~ >X~ 6 5 q [ n > w 0.w.,. .S j ! *.#.! #.<.:.$.@.j ^ Z.g./ g./ A A ^ 8 # o % = ; ; ; > > > > > > > > > * * ; > > > > * = > = > > * > > > * ; > > > > > > > > > > > > > ; > = ; * ; > > = * * = = = = = = = = = * * * * * * * * * * * * * * * * * > > * * * > > > * = > > > ; > > > > > * = , > > ; , , , , , = = * = ; = % % = = = = = = = = = * * * = = = = = ; * l S l ! ~ ~ / F.U...[ 0.w.0.e.e.U.&.$.<.j # 5 l z #.U.&.> * S +.0.0.#.s a.i .   yXyXyXyXyXyXyXyXyXyXyXyXyXyXyXyXyXyXyXyXyXyXyXyXyXyXyXyXyXyXyXyXyXyXyXyXyXyXyXyXyXyXyXyXyXyXyXyXyXyXyXyXyXyXyXyXyXyXyXyXyXyXyXyXyXyXyXyXyXyXyXyXyXyXyXyXyXyXyXyXyXyXyXyXyXyXyXyXyXyXyXyXyXyXyXyXyXyXyXyXyXyXyXyXyXyXyXyXyXyXyXyXyXyXyXyXD ..,.,.| 8 > 5 &.R.#.l 8 , > } <.:.F.Z.*.! F F l 8 L $.$.^ ^ ^ ! k z < % % * = ; = = = > ; > > > > = ; ; ; , , * = = = * * * * * = * * * = = = = = = = = = = = = > > > = = = = = * * * = = = = * * = = * , > > > ; ; = * * = = = = % % % * * * * * * = * * > = * * = = = * * > = % = = = = % = = = = * = = = = = = = = % % % % % % * * * = = = * * = % * % * = l #.g A ^ :.S.S.U D ^ / / g.V.g./ ! j 8 [  . .+. .7 # 5 7 > # < $.Y.<.} %.0.w.u.u.w.u.u.u.u.t.t.u.w.w.0.,.,.%.%.#.#.U.U.6 %.Y.",
"} < U.F.#.#.#.#.#.%.0.r.w.w.w.w.u.5X!.!.u.t.w.,.#.U l U =X^ 8 7 7 n w > w ,.0.1.%.J 8 R ^ #.%.;.:.:.#...S ^ / W / / / A 8 } I u & u u p g g k k z z j j j j j j j j g g g g g j j j l l j 8 j j j j j j j l l l l l l l l l j j j g p g j g p p p p p p g g j g g j j j g g p u j j j j p p p u 6 g j j j j j < j j j u u p p p g g g g g j u p p p h u g g g g p p p g j z k g j g j j l A A z g g g g k z k a a k z p g @.} l ! / / / Z.J.@.[ 0.t.t.t.q.<.&.$.I.l . ; z z ^ H.#.= * S +.,.w.&.x E i .   yXyXyXyXyXyXyXyXyXyXyXyXyXyXyXyXyXyXyXyXyXyXyXyXyXyXyXyXyXyXyXyXyXyXyXyXyXyXyXyXyXyXyXyXyXyXyXyXyXyXyXyXyXyXyXyXyXyXyXyXyXyXyXyXyXyXyXyXyXyXyXyXyXyXyXyXyXyXyXyXyXyXyXyXyXyXyXyXyXyXyXyXyXyXyXyXyXyXyXyXyXyXyXyXyXyXyXyXyXyXyXyXyXyXyXyXF | 0.,.{ j > 5 %.U.#.l l 5 * { <.$.$.#.~ ~ ! P S 8 F $.$.! U %.! g ! ^ u u j 8 j j j j j j j < < < j u u u u g g g g j p u < < u j j 6 6 6 g j 8 8 8 < < < < < g u u u j j j < < j j j j g j g g j p j j j g u u < 6 6 6 g g g u < < < < , , < 6 j p g j j p p u < < < j j 8 j j p j j l p p g l l j j j g g u g p j u g g g p p p p j u g k a i a a a a p u p ! I j ! ! / D.D.! F / / / / / / ~ ^ j 8  .o. .o. .7 # 5 l 5 > < $.J.$.I %.0.w.t.e.w.w.u.u.u.u.u.u.w.0.0.0.0.,.#.@.@.2.T.6 %.T.",
"} 6 U.2.@.@.@.@.#.%.0.r.0.0.0.w.y.u.u.5Xu.u.t.0.^ F w U *X^ 8 5 5 w 7 # w ,.e.q.,...l ^ $.#.:.<.:.#.#...S ^ l.g./ / / A < l } z p k z z z z A A F U F z D F F ! ! R R R E E R R R ! F F R R R ~ ~ ~ R ! ^ $.$.$.#.#.#.#.%.%.#.@.! ! ~ #.#.! F I ! I ! @.@.%.%.#.@.@.%.%.%.@.^ ^ #.#.#.#.#.$.$.*.$.$.&.%.@.I @.%.#.#.@.@.#.#.#.#.@.#.#.#.#.~ ~ ~ / / ~ ~ #.#.#.#.#.#.^ ^ ^ ^ / ^ ^ ^ #.$.%.%.%.%.#.@.@.@.#.^ ^ ~ ~ R ! k F #.J 8 @.:.:.$.S.J.@.X.w.u.t.e.0.,.&.<.I.S . > l F $.U.#.= > l  .=.0.#.x E a .   yXyXyXyXyXyXyXyXyXyXyXyXyXyXyXyXyXyXyXyXyXyXyXyXyXyXyXyXyXyXyXyXyXyXyXyXyXyXyXyXyXyXyXyXyXyXyXyXyXyXyXyXyXyXyXyXyXyXyXyXyXyXyXyXyXyXyXyXyXyXyXyXyXyXyXyXyXyXyXyXyXyXyXyXyXyXyXyXyXyXyXyXyXyXyXyXyXyXyXyXyXyXyXyXyXyXyXyXyXyXyXyXyXyXyXyXF ..,.,.{ j > 5 %.U.#.D j 5 * ..<.$.^ ^ ^ ~ ^ #...l I :.:.^ ! #.^ j z ^ k z @.#.^ @.@.@.I I @.@.@.#.#.@.! ! @.#.$.%.%.#.#.$.^ ! ~ ~ ~ ^ ^ #.#.#...} } ....I ..@.@.I I @.#.$.! L @.#.#.@.@.#.#.@.@.@.@.#.@...} } I U U U ! ! ! ! ^ @.@.! ! ! ! F R R E ~ ~ R R R R ~ ~ R R R R ~ R R R / / ~ ~ ^ ! ! ! ! ! ~ ~ R ~ R / ~ #.#.@.@.^ ! ! ! ! R R v v v R k z k p z ^ D j ! ! / Z.D.! F ~ / / ~ R ~ / ^ l w o.+.o.o.X.q # 5 w 5 > < $.J.$.I %.0.w.w.w.w.w.t.u.u.u.w.u.u.w.r.w.0.,.#.@.#.q.T.6 %.#X",
"} 6 U.F.@.} @.#.%.,.0.r.0.0.w.w.y.u.u.5Xu.u.w.0.^ D 8 ! =X^ 8 7 5 7 7 * 7 ,.e.e.e.,.S ^ $.;.<.<.%.^ @...l ^ Z.l./ / / ! < 6 P L g k k z A R ! ! ! ^ ! z F ! ! ! ! R R ~ ~ / / / / ! A A R ~ / ~ / ~ ~ ~ :.Z.Z.:.$.@.%.:.<.<.%.#.^ ~ / F.<.$.#.%.$.%.$.:.<.2.q.<.@.;.:.<.<.$.^ $.:.:.:.$.:.F.Z.Z.G.G.H.F.%.%.:.q.<.&.&.:.;.#.$.$.&.:.:.:.$.$.$.$.$.$.$.Z.<.<.:.:.;.$.$.:.:.$.$.$./ #.$.:.;.;.:.2.:.%.$.$.#.^ ^ ~ ~ ~ x k ! @.j 5 @.$.:.$.S.H...X.r.u.u.t.0.,.;.<.U.S . > l L :.U.#.> > l  .=.,.#.x a.a .   yXyXyXyXyXyXyXyXyXyXyXyXyXyXyXyXyXyXyXyXyXyXyXyXyXyXyXyXyXyXyXyXyXyXyXyXyXyXyXyXyXyXyXyXyXyXyXyXyXyXyXyXyXyXyXyXyXyXyXyXyXyXyXyXyXyXyXyXyXyXyXyXyXyXyXyXyXyXyXyXyXyXyXyXyXyXyXyXyXyXyXyXyXyXyXyXyXyXyXyXyXyXyXyXyXyXyXyXyXyXyXyXyXyXyXyXR @.+...S j > 5 %.U.&.J l 6 = } <.$.^ ^ ^ / #.;.%.S I Z.F.$.! #.@.j g ^ R x ~ $.~ $.$.$.$.#.#.#.<.<.<.:.$.;.<.F.F.<.:.<.<.<.$.$.~ :.Z.$.$.Z.<.;.&.:.&.%.#.@.#.%.%.#.#.%.<.F.#.! $.&.$.%.%.&.%.&.:.%.<.<.2.<.;.&.%.#.#.#.$.$./ / $.&.%.#.#.#.! ! ~ / g.g.~ E E / / / $.~ R R / ~ / R / / / / ~ ^ ^ #.#.^ ! ~ ~ ~ ~ ~ $.$.$.#.#.#.#.! F ! ^ ! R v v R R x z p h F ^ j 8 ! ! ~ :.Z.! ! ^ ~ ~ ~ ! ~ ~ ^ l w o.+.3.3.o.q # 5 w 5 * < $.J.$.I #.0.0.e.t.t.t.t.u.u.w.u.u.u.w.w.w.0.;.@.^ #.F.T.g %.#X",
"} 6 T.2.@.@.@.%.,.0.0.w.w.w.w.w.u.u.u.5Xu.u.w.0.#.F 8 ! =X*.j 7 5 8 8 * w 0.w.t.e.,.S ^ $.:.<.<.%.#.%...l #.A.l./ / / ^ j , l F g p a k z R R R ~ ~ ! k k R R F z z z R R R g.l./ ! l z ! ~ / ~ ~ / / ^ $.Z.:.;.%...%.1.q.<.%.@.~ / V.Z.Z.:.$.$.$.$.<.F.F.U.U.2.#.:.<.<.:.^ ^ $.:.$.$.$.$.F.$.$.Z.Z.F.<.#.%.:.2.:.%.&.<.$.! $.$.$.$.#.$.$.%.#.#.#.#.#.$.Z.:.$.:.$.*./ $.$.*.*.*.$.*.~ ~ $.$.;.<.<.$.$.$.^ ~ / / R E a k ^ ! j 8 L ^ ^ $.F.J.#.o.r.y.u.u.t.w.0.<.e.S # > l L :.R.%.> > [ +.+.%.@.s a.a .   yXyXyXyXyXyXyXyXyXyXyXyXyXyXyXyXyXyXyXyXyXyXyXyXyXyXyXyXyXyXyXyXyXyXyXyXyXyXyXyXyXyXyXyXyXyXyXyXyXyXyXyXyXyXyXyXyXyXyXyXyXyXyXyXyXyXyXyXyXyXyXyXyXyXyXyXyXyXyXyXyXyXyXyXyXyXyXyXyXyXyXyXyXyXyXyXyXyXyXyXyXyXyXyXyXyXyXyXyXyXyXyXyXyXyX~ R F { [ S j , 5 ,.T.&.J l 6 = @.2.$.*.^ ~ / ^ %.%.l U Z.F.$.^ #.@.j 6 ! ~ x R / / / ~ / $.$./ ~ $.$.$.$./ / $.Z.Z.$.:.:.Z.$.$.#.$.$.$.*.$.Z.Z.~ #.:.$.#.^ ~ ^ ^ ^ #.#.#.:.<.^ ! #.$.$.$.#.#.#.;.<.#.$.Z.F.<.$.#.#.#.#.#.#.*.*.^ #.;.#.#.^ ! F A ! / / ~ x R / ~ ~ ~ ~ ~ R R ~ ~ R R ~ / ^ ~ R A ! / ^ A F ! ^ R ~ R *.$./ / ~ *.#.F k R ~ ~ R x R R R x a i k ! ^ 8 j ^ ! R ~ ~ A F ^ $.$.$.#.^ ^ ! l w o.+.5.5.o.q # 5 w 5 > < $.J.$.L #.,.0.w.t.t.t.t.t.u.u.u.u.w.w.w.w.q.,.%.@.^ 2.U.g %.T.",
"} 6 R.U.@.#.#.%.0.w.w.w.w.0.0.r.u.u.u.5Xu.u.y.w.$.L 8 ! =X#.8 7 5 8 8 > w ,.w.w.w.%.S ^ $.:.<.<.$.$.$...j ;.D.l.$.$.$.#.l , j D j u p a k z A A R R R k k R x k k k a x R R s.j.g.R a a W E Q E E Q / R W g./ / ~ ! ^ :.<.<.%.! ! ~ ~ / V./ ~ ^ ^ #.:.<.<.2.F.<.#.$.$.<.$.^ ^ *.$.$.:.:.:.F.:.$.$.$.$.$.#.%.:.<.;.$.<.Z.$.~ *.$.$.#.#.^ $.$.$.~ ~ ~ ~ $.:.~ ^ $.$.~ / $.$./ ~ ~ Z.$.~ ~ ~ / $.:.$.^ $.~ ~ R R R R R k R ~ U < 5 J A ! $.S.J.#.o.r.y.y.u.u.t.0.;.q.S # > l J &.U.&.> > S +...%.@.s a.k .   yXyXyXyXyXyXyXyXyXyXyXyXyXyXyXyXyXyXyXyXyXyXyXyXyXyXyXyXyXyXyXyXyXyXyXyXyXyXyXyXyXyXyXyXyXyXyXyXyXyXyXyXyXyXyXyXyXyXyXyXyXyXyXyXyXyXyXyXyXyXyXyXyXyXyXyXyXyXyXyXyXyXyXyXyXyXyXyXyXyXyXyXyXyXyXyXyXyXyXyXyXyXyXyXyXyXyXyXyXyXyXyXyXyXyX~ x F I  .T j , 5 ,.#X:.J l 6 = #.2.$.*.^ ~ ~ ! @...l ! Z.F.$.^ #.^ j 6 F ^ R x ~ ~ / / ~ / / ~ R / / / / / ~ / ~ / / / ~ ~ / / ~ ~ / / R ~ / Z.~ ^ *.^ ^ ~ ~ ~ ~ ~ ^ ^ ~ ~ / ~ ~ ~ ~ $.$.^ ! #.<.F.$.~ $.:.$.^ ! ^ #.*.~ *.*.~ ~ ^ $.*.^ ! A z k R E / E x R / / E R E E R R R R E E E E R R R R ~ ~ ~ R R ~ ~ R E R ~ ~ R R ~ ~ ~ z a R ~ R R s x x s a a a x ~ A , j ^ R A ~ R A F ^ #.;.<.<.$.^ I l w o.3.3.+.O.q # 7 w 5 > < $.J.$.L @.#.%.0.w.w.t.e.t.u.u.u.w.w.w.0.w.q.<.%.@.^ <.U.6 #.T.",
"I 6 R.U.@.#.%.%.0.w.r.w.w.0.0.w.u.u.y.u.y.5X5Xw.%.F 8 F =X#.8 5 5 7 8 > 7 +.0.5.+. .S ^ $.:.:.$.$.Z.$.^ j $.Z./ $.$.$.#.l < j D l g g g z z z z z z z z k k k s x x s s s s E Q E a a a N N E E E Q W R R ~ R ~ R R ! #.%.%.#.@.L F ! ~ ~ ^ ! ! ! #.:.;.;.;.:.$.#.#.#.#.#.@.! ! #.#.$.$.$.<.$.#.#.@.@.@.@.@.#.@.@.#.$.$.#.! ! #.#.@.I ! ^ ^ ~ / / / ~ ~ #.! ! #.#.! ~ ^ ^ ^ ~ ~ / ^ ! ^ ^ ^ ^ #.! ! $.^ ! ! ! R R z z ! ^ F , j } ! / :.D.H.#.+.r.w.y.u.u.u.0.&.q.l o > l z &.U.&., > S ......@.s a.k .   yXyXyXyXyXyXyXyXyXyXyXyXyXyXyXyXyXyXyXyXyXyXyXyXyXyXyXyXyXyXyXyXyXyXyXyXyXyXyXyXyXyXyXyXyXyXyXyXyXyXyXyXyXyXyXyXyXyXyXyXyXyXyXyXyXyXyXyXyXyXyXyXyXyXyXyXyXyXyXyXyXyXyXyXyXyXyXyXyXyXyXyXyXyXyXyXyXyXyXyXyXyXyXyXyXyXyXyXyXyXyXyXyXyXyX~ x ! #...T 8 > 5 &.T.&.J l 6 % #.I.$.~ ~ R ~ ! @...j ! Z.G.:.#.#.! j 6 D / ^ ! F ! ^ *.*.^ ^ ^ #.$.$.*.$.$.#.^ ~ ^ *.^ ! ! ^ ~ / / / E R ~ / ~ ^ ! F F ! ~ ~ ! ! ~ ^ ! F ! R R R R ~ ~ ^ ! ! ! #.;.^ ^ ^ #.! F I ! ^ ^ / $.$.~ R ! ! ^ ! z k k k R R E R x R E E R R R R R N R R E Q E R s x v R R z z x ~ R E R E R R R A A F ! F z k R R R x x x x k a a k ! ! z > Z ^ R R ~ ~ A D @.#.;.<.<.*.~ ! j w o.+.+.O.X.w * 7 w 5 * , *.H.$.D } @.%.0.w.w.w.t.t.t.u.w.w.w.w.0.0.0.;.#.@.#.2.e.6 #.T.",
"I 6 R.q.@.#.%.%.0.0.0.w.w.w.w.y.u.u.y.u.5X5X5X0.%.D 8 ! =X#.6 5 5 7 7 > w =.0.3.o.[ S ^ $.$.$.$./ g.$.! l ^ / W ^ #.$.#.l 6 j l j , , , , , , , , , , , = = , , , < < , , , u u , , = , : : u u u u < < , , , , 6 6 6 6 6 j j j 6 < u g u < 6 6 j j l l j j j j j j j 6 6 6 6 < 6 8 j j j j j 6 6 6 6 6 6 6 6 6 6 8 8 8 j j g 6 6 6 5 5 5 5 5 8 j j 8 8 8 6 5 6 6 6 u 6 6 6 j g j 6 6 6 j j j j j j j j g g g g g u , u g g , l #./ >.J.`.`./ +.w.w.y.u.u.u.q.%.<.l o > l z &.U.&., > l { I @.@.x a.a     yXyXyXyXyXyXyXyXyXyXyXyXyXyXyXyXyXyXyXyXyXyXyXyXyXyXyXyXyXyXyXyXyXyXyXyXyXyXyXyXyXyXyXyXyXyXyXyXyXyXyXyXyXyXyXyXyXyXyXyXyXyXyXyXyXyXyXyXyXyXyXyXyXyXyXyXyXyXyXyXyXyXyXyXyXyXyXyXyXyXyXyXyXyXyXyXyXyXyXyXyXyXyXyXyXyXyXyXyXyXyXyXyXyXyXE x R &.+.S 8 > , #.U.%.J l , % ..q.:.$.~ ~ ~ ^ %.%.j ! Z.G.<.#.@.I 8 5 D ! F j g j j j j 6 8 j j j j j j j j g j j 8 < < 6 j j l l j 8 8 8 6 g g , , , < < , < < u g g , , , , , , < , < < 6 6 6 j g 6 < , > , < < < 6 j j g u < , , , , ; = * = , , , , , < , , < , ; ; , % = , , < < , ; , , , ; ; ; ; , , 6 < g , , , , , , 6 6 < , < < < < u < < , , , u g j < 5 P / ~ / :.Z.F D } @.%.$.$.~ ~ ! j 7  .+.+.+.o.w # 5 l 5 * , *.G.#.z } @.&.w.t.w.w.w.w.u.u.w.w.w.w.w.r.0.%.} I #.2.e.8 %.T.",
"I 6 R.I.@.} %.,.%.%.,.0.w.w.t.y.y.u.u.y.y.y.r.,.@.L g R =X#.6 5 5 7 7 > w 5.0.0.o.[ l ^ ~ / / V./ / ~ ^ l ! / ~ ^ #.#.I j 8 5 = % o o o . . o . # . O O + + . # # o o . . . o o o . . . . # # # o o # # # # # # # # # # # # # * > * * # # # * # # > * > * # * * * * * # # # # # # # 2 5 5 > > > > > * # * 2 # 5 1 1 4 5 > > 5 > # # - # # # # # 2 5 5 5 5 # - # - > # # # * * * * * * > > > > > > * # # # # # # # * * % % = , z #.:.H.*X}.`.#.o.r.u.w.y.t.t.,.&.<.l # 5 j z %.T.,.> * l } L @.@.c g.k     yXyXyXyXyXyXyXyXyXyXyXyXyXyXyXyXyXyXyXyXyXyXyXyXyXyXyXyXyXyXyXyXyXyXyXyXyXyXyXyXyXyXyXyXyXyXyXyXyXyXyXyXyXyXyXyXyXyXyXyXyXyXyXyXyXyXyXyXyXyXyXyXyXyXyXyXyXyXyXyXyXyXyXyXyXyXyXyXyXyXyXyXyXyXyXyXyXyXyXyXyXyXyXyXyXyXyXyXyXyXyXyXyXyXyXR x ! %.+.S 5 > 5 #.U.#.J l 5 * ..2.<.<.&.~ *.*.&.%.S ! G.J.<.@.Y D 8 7 8 7 > * * * 4 5 2 # * # * * * * 5 > * * * # # o # o o # # # # # # # # # # # # # # # # # # # # # # # # # # # # . # # # # * > > # # o # o # o o # * # # # # # # # # . + . . + # o o % % o # o # # # . . . . . . . . . . . X O X X X O + # # # # + + + # . . # # # # o o o o o o o o o . o o % 5 } / / z.D.D.! D ..#.#.^ ~ R ~ ^ j 5 l  .+.+.+.w - 7 l > # , ^ G.~ z } %.,.w.w.w.w.w.w.w.w.u.w.w.w.w.w.,...I ! #.2.T.j %.U.",
"Y 8 U.2.@.} %.%.%.%.,.0.0.w.u.y.y.y.u.u.y.w.0.&.@.L g R =X$.6 7 5 7 7 5 w 0.w.0.+. .w ^ ~ / $.V.*./ ~ ^ l #.Z./ ~ #.^ I j > * % # * > > > 5 5 5 5 5 > > > > > * 5 5 5 , 5 5 5 5 5 > > > > 5 5 5 5 5 7 7 7 7 7 7 7 7 7 7 7 7 7 7 8 8 7 7 7 7 q 7 7 7 7 7 7 6 6 7 5 7 5 5 5 5 5 5 5 5 7 w w w 8 8 w 8 8 8 8 w w w w w w w w l w 7 7 7 7 5 5 5 5 5 7 q q 7 7 7 7 7 7 7 7 7 7 8 8 8 8 8 w w w w w w w w w w w w w w 8 7 7 5 > = 6 l #.:.H.+X}.`.^ +.r.w.w.u.t.e.,.:.q.l # 5 l z &.T.,.5 = l } } #.@.E h.x     yXyXyXyXyXyXyXyXyXyXyXyXyXyXyXyXyXyXyXyXyXyXyXyXyXyXyXyXyXyXyXyXyXyXyXyXyXyXyXyXyXyXyXyXyXyXyXyXyXyXyXyXyXyXyXyXyXyXyXyXyXyXyXyXyXyXyXyXyXyXyXyXyXyXyXyXyXyXyXyXyXyXyXyXyXyXyXyXyXyXyXyXyXyXyXyXyXyXyXyXyXyXyXyXyXyXyXyXyXyXyXyXyXyXyXR x R #...l 6 > > #.U.%.J j * * { <.<.<.&.^ *.*.:.%.S ! Z.Z.#.! Y U j 7 5 5 > 5 5 q 7 q q 8 8 8 8 8 8 8 w w w 8 8 8 7 7 7 5 5 5 5 7 7 7 7 7 7 7 7 5 5 5 5 5 5 5 5 5 5 5 5 5 5 5 5 5 > , 5 5 5 5 8 8 6 7 7 5 5 5 5 5 > 5 5 5 8 8 8 7 5 > > > > > > > > > 5 5 5 5 > 5 5 5 > > > > > > 5 > > > > > > * * * * * * > 5 5 5 5 5 > > > > > > > > > 5 5 5 5 5 5 > > * * * * 5 I :.Z.D.].D.A l ..@.%.#.~ ~ ~ ! j 5 S  .+.5.+.w # 5 w > * , ^ G.~ z } &.,.0.0.w.w.w.w.w.t.t.w.w.w.r.0.,.#.@.! @.2.T.j #.U.",
"} < U.2.@.} &.%.,.,.q.0.0.w.u.u.w.w.u.u.y.w.,.%.^ F g R =X$.w 7 7 7 7 * q 0.w.w.0.o.l ^ ~ $.g.$.*./ / ^ S $.Z.g.$.:.! l < % * % o * * * * > > 5 > > > > > > * * , , < < < < u < < < < < , , , , , 6 6 8 8 8 8 8 8 8 8 8 8 8 l l l j l l j j j 8 8 8 8 w 8 8 8 8 8 8 8 8 < < 8 8 < < 6 8 j j 8 j j j j j j j j j j j j j j j j j j 8 8 8 8 6 6 8 8 w w w j j j j j j j 8 6 8 8 8 j j j j j j j j j l j j j j j j j l 7 7 5 > 6 l &.:.>.F.J.J.#.+.r.r.w.u.t.e.,.&.q.l # 5 l L <.T.,.5 = l } } #.@.E A.R     yXyXyXyXyXyXyXyXyXyXyXyXyXyXyXyXyXyXyXyXyXyXyXyXyXyXyXyXyXyXyXyXyXyXyXyXyXyXyXyXyXyXyXyXyXyXyXyXyXyXyXyXyXyXyXyXyXyXyXyXyXyXyXyXyXyXyXyXyXyXyXyXyXyXyXyXyXyXyXyXyXyXyXyXyXyXyXyXyXyXyXyXyXyXyXyXyXyXyXyXyXyXyXyXyXyXyXyXyXyXyXyXyXyXyX~ E ~ @.} l 8 > > %.U.#.D j * % } 2.;.<.$.#.$.$.<.&.l ^ A.Z.*.^ #.I j > > > 5 5 5 7 8 8 j l l j j l j j j l l l j j j j 8 8 8 6 8 j j j 8 j j j 8 6 , , , 5 6 , 6 8 6 < < < 6 , , , , , , , , , 6 8 6 j 8 6 < , < , , < 6 g j j j 6 6 , , , , , , > , , 6 6 5 , ; , , > ; = ; * ; , , , , , , , ; ; ; ; , , , , , 6 6 < , 5 5 5 , , , , , , , 5 6 6 8 5 5 , > > * * , j ! ( S.c.l.A l ..@.;.;.$.~ ~ ! j 7  .o.+.5.+.w # > 8 , * , ^ G.~ z } &.%.,.w.w.w.w.w.w.u.e.0.0.w.0.0.,.%.@.@.@.2.T.j %.U.",
"} 6 U.2.} } #.&.<.<.q.1.0.w.u.w.w.w.t.u.t.w.&.*.^ ! g ~ :X$.w 7 5 5 7 * 5 +.w.w.w.+.l ^ / :.$.$.$./ $.@.l / A.l.Z.:.! g j ; % % % * * % * * = * * * = = = * * % = = ; & = = & % % % = = % * = = = , , , , , , , , , , , , , , < < , , , , , , , , , , , , , , , , , , , , , , , , , , < 6 6 , , < < < < , , , , < 6 6 6 6 < < , , , , , , , , , , , , , , , , , , , , , > , , , , , , , , , , < 6 6 < < , , , , 6 5 > > > 5 l l %.;.>.Z.H.J.#.o.r.r.w.w.t.e.;.&.q.l # 5 l L <.T.,., = l J ....@.R A.R     yXyXyXyXyXyXyXyXyXyXyXyXyXyXyXyXyXyXyXyXyXyXyXyXyXyXyXyXyXyXyXyXyXyXyXyXyXyXyXyXyXyXyXyXyXyXyXyXyXyXyXyXyXyXyXyXyXyXyXyXyXyXyXyXyXyXyXyXyXyXyXyXyXyXyXyXyXyXyXyXyXyXyXyXyXyXyXyXyXyXyXyXyXyXyXyXyXyXyXyXyXyXyXyXyXyXyXyXyXyXyXyXyXyXyXg.f.~ ! F z j > , :.Y.#.z j * o } <.;.$.&.%.$.%.<.%.l ^ J.G.$.#.;.! u ; ; ; > ; * > , , , 6 6 5 6 6 5 , 6 6 5 , , , , , , > > , , , , , , , , , , , ; * * ; , , , , , , ; , = , , = = % ; % = ; , , , , , , = = = = = = = = , , * = = % % % = = = = = = = ; = * % % = * % % $ o % % % % % % % % $ $ % % % % % % % = = = % * % * * * * * = * * * = = ; = * % % % * > j j A ~ / Q Q k l @.#.:.<.:.~ ~ ! j 5 X.+.+.5.+.w # 5 8 , > , ^ G.~ F I } #.,.w.w.w.w.w.w.e.w.,.,.,.<.,.;.%.@.@.#.2.T.8 %.H.",
"I 6 U.2.} } } &.<.<.<.1.0.e.u.u.w.w.t.t.e.0.%.^ R F g ~ :X$.j q 5 5 7 * 5 +.w.w.w.+.l ^ $.:.$.%.:.$.%.#.l ~ D.D.Z.$.! z D j % = = = = = , , , , > > , , , , > > > , , , , , , , , , , , , ; > , < < , , , < , , , , , , < < , , , , , , , , , , , , , , < , , , , , , , , , , , , , < 5 5 5 , 5 6 , , , , 5 5 , 5 5 5 5 5 5 5 , , , , 5 , , , , , , , , , , , , , , , , > > , , , , , , , 5 5 5 5 5 6 6 6 6 6 6 6 6 , , , S { l ..;.2.I.Y.+X@.O.r.y.w.w.t.e.<.<.I.l # 5 l L <.T.,., * l [ ..%.@.R A.A .   yXyXyXyXyXyXyXyXyXyXyXyXyXyXyXyXyXyXyXyXyXyXyXyXyXyXyXyXyXyXyXyXyXyXyXyXyXyXyXyXyXyXyXyXyXyXyXyXyXyXyXyXyXyXyXyXyXyXyXyXyXyXyXyXyXyXyXyXyXyXyXyXyXyXyXyXyXyXyXyXyXyXyXyXyXyXyXyXyXyXyXyXyXyXyXyXyXyXyXyXyXyXyXyXyXyXyXyXyXyXyXyXyXyXyXg.Q E R A k 6 = 5 2.$X#.l 8 * % } <.;.:.<.:.:.%.,.+.l ^ G.F.$.#.$.! g j < % = , , , 5 5 5 5 6 5 5 5 5 6 6 6 6 6 5 5 5 , 5 5 , , 5 5 5 5 5 5 , , , 5 5 , , , , , , , , , , , , < < < , , , , 5 5 5 5 5 6 6 5 , 5 5 5 6 6 < , , , , , , , ; ; > > > , = = , , , , ; > > > = = ; ; ; ; ; , , , , , = = = * , > = = = , , , = * > > ; ; ; > > > ; * > > > , , = % % , l I j ! / W W W k l @.#.;.<.>.~ ~ #.8 5 [ O.=.5.+.w # 5 w > > , ^ G.~ A } ..%.0.e.w.0.0.w.w.w.0.,.&.#.%.%.&.#.@.@.#.2.T.j %.H.",
"L g U.<.I L } #.&.;.;.,.0.w.u.u.t.w.w.e.0.,.#.~ R F g ~ :X$.j w 7 7 7 * 5 +.w.w.0.+.l ! #.;.;.;.1.1.;.%.Z / K.D.( ^ ! l D I 8 , , , , u g g g g j j j j j j l j j j j l l l j l l l j j l l l l l l l l S D S l l l S S D D l l l l l l z l l z z z D A z z l l l z z l l z z z z D D l l l S S z l l l S l S S S S S S S D D S l l j j l l l l l l l l l l l l j j j j j j j j l l l l l l S S l l l l l l l l l z j j j #...l ..;.<.I.Y.+X#.O.y.u.w.w.w.w.<.<.I.l . > l L <.T.,.5 > S  .%.0.#.R A.z     yXyXyXyXyXyXyXyXyXyXyXyXyXyXyXyXyXyXyXyXyXyXyXyXyXyXyXyXyXyXyXyXyXyXyXyXyXyXyXyXyXyXyXyXyXyXyXyXyXyXyXyXyXyXyXyXyXyXyXyXyXyXyXyXyXyXyXyXyXyXyXyXyXyXyXyXyXyXyXyXyXyXyXyXyXyXyXyXyXyXyXyXyXyXyXyXyXyXyXyXyXyXyXyXyXyXyXyXyXyXyXyXyXyXyXV.Q E ~ ~ k 6 * 5 <.$X%.l l * % { ;.%.:.q.q.<.,.,.o.l #.J.H.$.@.%.I l #.F < , j g l l l l l S l l j l l l l l D D l j j j l j l l l l S S S J S l S S S l l z z z l S S S l l l z l l l l l l l l l l S S l l l S S S J D l l l l l z l l j j j j j j j j z z j l l l j g g l l l l l l l l l l j j j j j j j j j j j j j j j j j j j j j j j j j j j g g u u < l @.I g ^ / R R W z l ^ #.;.;.:./ / #.8 5 ' O.3.5.+.w # 7 l 5 > , ^ Z.~ F @.&.,.0.0.0.w.w.w.w.w.0.,.%.#.^ ! #.#.@.#.#.2.T.j #.F.",
"} 6 U.:.L L } @.#.&.;.0.0.w.w.t.t.w.e.e.0.0.&.^ ! F g ~ =X$.j w 8 7 w > 7 +.0.w.4. .l @.%.;.,.1.e.e.q.%.S / D.z./ ^ #.j j } D j u p g z F ! ! A A z z z A A F ! F z z z A A A ! ! F z F L ! ! ! ! ! ! ^ #.#.@.@.^ @.@.@.%.%.#.@.@.^ Y I ! ! I ^ @.@.#.@.@.@.^ @.@.#.#.! ! ^ #.#.$.$.;.#.@.%.;.:.%.@.@.%.&.;.;.;.;.&.&.%.#.#.#.#.#.^ ^ ^ #.#.#.%.#.@.@.@.#.#.^ ^ ! ! ! I @.^ ! ! ! ! ^ @.@.%.%.%.@.@.@.#.#.#.@.^ ! ! F D L &.I l %.,.1.2.H._.#.O.r.y.y.w.w.w.,.&.q.l o > j l ;.T.;.5 > [ =.,.0.%.R A.k     yXyXyXyXyXyXyXyXyXyXyXyXyXyXyXyXyXyXyXyXyXyXyXyXyXyXyXyXyXyXyXyXyXyXyXyXyXyXyXyXyXyXyXyXyXyXyXyXyXyXyXyXyXyXyXyXyXyXyXyXyXyXyXyXyXyXyXyXyXyXyXyXyXyXyXyXyXyXyXyXyXyXyXyXyXyXyXyXyXyXyXyXyXyXyXyXyXyXyXyXyXyXyXyXyXyXyXyXyXyXyXyXyXyXyX$.E E ~ ^ k 6 > 5 <.Y.&.J l > * P ;.#.:.w.w.q.,.0.o.w #.J.F.%.#.,...l ! ^ z g z D F F U ! ! #.#.#.#.#.#.! ! ! #.%.@.I I ! @.^ ! @.#.#.@.#.%.%...P I @.@.@.^ ^ ^ ^ ^ @.%.%.@.! ! ! ! ! @.#.#.@.! U ! ! %.%...} ..%.%.#.@.@.@.! F F ! ! ! ! ! I I ^ ^ U U ! ! ! ! ! ! ! ! ! ! ! ! ! ! #.#.@.I ! ! F D D F I F F F F F z z F F A A z z A F ! F F F F F F A k g p p A #.I u ! ~ R R / A l Y @.#.^ $./ $.#.w 5 [ O.+.5.+.w - 7 l 5 > , ^ Z.~ F @.,.,.%.+.,.e.w.w.w.w.w.,.&.$.*.^ #.@.@.#.#.2.T.j #.F.",
"{ 6 U.:.J L } @.&.0.0.w.w.w.w.w.w.w.r.t.e.w.,.%.! L g ~ =X$.w w 7 w w > 7 +.0.,.+. .S ! #.%.1.0.e.e.e.,.l / m.m.l.~ #.l 5 S } F g p k z ! R ~ R R z k k k A R ^ ! A A k k x R / ~ ! ! ! ^ ~ ^ ~ R R / ~ ~ ~ $.$.^ ^ #.%.%.%.$.$.$.#.@.#.%.#.@.%.$.%.$.$.$.$.$.#.$.$.$.$.^ #.$.$.:.Z.<.%.%.<.F.<.;.$.%.;.<.2.q.q.q.q.<.$.$.$.:.:.;.$.$.;.$.$.:.<.<.;.;.;.:.$.$.$.$.#.#.%.$.$.#.! ~ ^ ^ #.$.&.&.:.:.%.%.<.<.;.%.#.#.! F F ! ;.I l %...;.<.H.J.@.o.r.u.t.t.e.q.&.#.<.l o > g z ;.T.,.5 > [ +.0.w.&.R z.k     yXyXyXyXyXyXyXyXyXyXyXyXyXyXyXyXyXyXyXyXyXyXyXyXyXyXyXyXyXyXyXyXyXyXyXyXyXyXyXyXyXyXyXyXyXyXyXyXyXyXyXyXyXyXyXyXyXyXyXyXyXyXyXyXyXyXyXyXyXyXyXyXyXyXyXyXyXyXyXyXyXyXyXyXyXyXyXyXyXyXyXyXyXyXyXyXyXyXyXyXyXyXyXyXyXyXyXyXyXyXyXyXyXyXyX/ R ~ ~ ~ k < > 5 ;.Y.%.{ S 5 * I %.#.&.w.e.e.0.0.+.w @.H.F.%.%.<.%.l z ! R k z F ! ! ! ! ^ $.<.<.<.<.:.#.^ $.Z.<.$.$.#.#.$.$.$.$.$.$.*.$.$.:.#.I ! #.$.~ / / / ~ #.$.:.:.$.^ ! ^ #.#.$.<.<.$.#.^ ~ / :.:.:.%.;.<.<.%.%.$.;.*.R R R ~ / ^ ! ! @.%.#.^ ! ^ ~ ^ ^ R ! ! ! ! R R E R ^ $.#.@.! ! ! ! ! ! ! ^ ! ! ^ ^ F z x ! ~ ! A z F F ! ! ^ ^ ! ! ! A A k k p p F @.l g F ~ E / g.A l ! @.#.! *.~ $.%.w 9 X.o.+.5.+.w - 7 l 5 > , ^ Z.~ F @.,.,.,.%.0.w.w.w.w.w.w.0.;.&.<.$.$.#.@.@.#.2.T.j #.U.",
"{ 6 q.:.I L } #.%.w.0.0.w.u.w.w.w.t.r.w.t.w.0.:.^ L g ~ =X$.w w 7 w w * q +.,.,.+.{ S I #.#.1.q.q.e.<.%.S / P.M.D.:.#.D , 8 J I A p a R R R R R R x x k k R ~ ~ R R R R x s W / / R R ~ ~ ~ ~ R R E E W / / / / / / $.$.$.$.;.;.;.%.#.$.$.%.#.$.<.$.$.$.:.:.:.$.$.$.$.$./ ~ ~ $.Z.Z.:.$.:.F.G.F.:.$.$.$.:.<.F.U.I.I.2.$.$.Z.F.Z.:.$.:.:.$.Z.Z.Z.Z.Z.<.<.:.:.$.$.:.$.$.$.$.$.^ ~ / / ~ $.$.$.$.:.<.;.;.H.H.F.$.$.~ ^ ! ! ^ ;.I l ....<.<.F.J.#. .r.u.u.t.e.q.&.#.:.j o , j F <.T.%.5 5 S ..,.w.&.R h.A   yXyXyXyXyXyXyXyXyXyXyXyXyXyXyXyXyXyXyXyXyXyXyXyXyXyXyXyXyXyXyXyXyXyXyXyXyXyXyXyXyXyXyXyXyXyXyXyXyXyXyXyXyXyXyXyXyXyXyXyXyXyXyXyXyXyXyXyXyXyXyXyXyXyXyXyXyXyXyXyXyXyXyXyXyXyXyXyXyXyXyXyXyXyXyXyXyXyXyXyXyXyXyXyXyXyXyXyXyXyXyXyXyXyXyXyX/ R ~ ~ R k < > 5 ;.$X&.} S 7 * } $.*.&.q.w.e.w.w.=.n I G.F.$.&.<.#.j j ! ! z z ! R ^ ^ ! ^ $.<.:.F.F.:.~ / Z.Z.:.:.$.$.$.*.$.$.$.$.~ / Z.Z.:.#.! ! #.*.~ / g.~ ^ #.:.<.<.$.#.^ ~ ~ *.$.<.<.$.~ ~ / / $.:.<.:.:.<.:.%.$.:.Z.V.~ R E E ~ ~ ~ ! ^ #.~ ~ ~ ~ ~ ~ R R ~ ^ ! x x c c R ~ $.$.^ ! ! ~ ~ ~ R R ~ ~ ~ ~ ~ R x v ~ ~ R k k R R x R ~ *.^ R R A z a p p k ! ! 6 j F ~ / l.l.! l @.#.#.#.*.~ $.$.w q O.+.+.+.O.q 4 7 l 5 > , $.G.~ F @.,.0.w.w.w.w.w.w.w.w.w.0.,.,.<.:.&.%.@.^ #.2.T.j #.U.",
"..8 q.<.} } } %.%.0.0.0.y.u.w.0.0.w.w.t.w.w.0.:.#.L g ~ =X$.S w 7 7 7 * w =.0.0.,.+.S F #.#.;.:.<.:.:.%.S ( P.M.A.:.#.U 8 , j U A a a x R R x s x x s a a R ~ R R R R R R N W / / R R R R ~ E R E E E E E E ~ E E / / $.*.#.*.#.#.#.#.$.$.^ ^ ^ $.$.~ / $.:.:./ ~ / / / / / / / / / ~ ~ :.F.F.:./ / / / ~ :.F.H.2.<.<.$./ / $./ / ~ / / / / / / $.V.Z.$./ ~ / / / / ~ / / / R R E E / ~ ~ ~ ~ $.:.$.$.G.H.Z./ / / ~ ! ! ^ #.z < I Y <.<.F.H.#. .0.w.w.t.e.e.:.#.<.8 o , j } <.e.+.5 5 l ..,.0.&.R A.R   yXyXyXyXyXyXyXyXyXyXyXyXyXyXyXyXyXyXyXyXyXyXyXyXyXyXyXyXyXyXyXyXyXyXyXyXyXyXyXyXyXyXyXyXyXyXyXyXyXyXyXyXyXyXyXyXyXyXyXyXyXyXyXyXyXyXyXyXyXyXyXyXyXyXyXyXyXyXyXyXyXyXyXyXyXyXyXyXyXyXyXyXyXyXyXyXyXyXyXyXyXyXyXyXyXyXyXyXyXyXyXyXyXyXyXyX$.R ^ *.! g 6 5 5 ,.$X:.#.S 7 * } $.$.&.0.0.q.w.w.5.l I F.<.$.%.&...j 8 F ^ F z ! R ! ~ ! ! $.;.$.:.:.$.^ ~ $.$.$.$.$.*.~ ^ ^ ~ / ~ ~ ~ $.Z.:.$.^ ^ #.^ ~ / / ~ ^ $.:.:.&.^ ~ ~ / ~ ~ ^ ;.:.$.~ / / / ~ / $.:.:.$.#.^ ^ $.Z.g.E s R E E E R R ~ ^ / / / / ~ R s R R ~ R x x s d s E / / ~ R E / / ~ R R R R E E E R s x E Q R s s x x s k / / / R R k k a k k z ! A < j F ~ / / l.F l #.#.#.$.$.~ / #.8 q +.+.+.+.X.q # 7 w , > < $.J.$.L { ,.0.w.y.w.w.r.w.w.0.0.0.0.<.<.:.$.#.@.@.#.q.e.j #.R.",
"#.8 U.<.@...} %.%.,.0.0.r.r.w.0.0.w.w.w.0.,.,.%.! L g ~ =X*.l l 7 w w * q 5.w.t.t.%.S z #.#.%.%.:.$.%.%.S / m.v.( / @.I j 5 l J z k p k R ! R k x R x k k R ~ R R R R R R R / / / ~ ! ! ! ~ R R R R E / / / ~ / / ~ $.$.*.#.#.$.#.$.$.^ $.$.$.$.$.$./ $.$.Z.Z./ / / / g.g.g./ / / / ~ $.:.<.$.$.$.$.$.$.$.:.<.F.<.<.<.$./ / $.$.$.$.$.$.$.$.$.$.:.Z.Z.:.:.$.$.Z.Z.$.$.~ ~ / ~ / / / ~ ^ *.$.$.:.:.$.$.Z.:.$.$./ / ~ ~ ^ #.^ l j @.#.2.<.F.H.#.o.0.w.w.w.t.e.,.#.,.8 + > l } <.e.+.5 5 l ..&.0.&.R A.R yXyXyXyXyXyXyXyXyXyXyXyXyXyXyXyXyXyXyXyXyXyXyXyXyXyXyXyXyXyXyXyXyXyXyXyXyXyXyXyXyXyXyXyXyXyXyXyXyXyXyXyXyXyXyXyXyXyXyXyXyXyXyXyXyXyXyXyXyXyXyXyXyXyXyXyXyXyXyXyXyXyXyXyXyXyXyXyXyXyXyXyXyXyXyXyXyXyXyXyXyXyXyXyXyXyXyXyXyXyXyXyXyXyXyXyXyX:.R ^ $./ l 8 > 7 ,.$X<.} S 8 > @.<.$.<.0.0.0.w.w.5.w U Z.F.$.%.%.{ 8 8 l ! ! F ! ! ^ ^ ^ ^ $.:.:.:.$.^ $.$.$.$.$.$.$.$.$.*.^ ^ ~ $.~ $.$.:.:.$.$.$.*.^ ! ~ ~ ^ #.%.&.&.#.^ ~ $./ ~ ^ #.$.*.#.^ ^ ~ ~ $.$.:.:.<.;.#.#.*.*.$./ ~ E R R R ~ ~ ^ ^ ~ ~ ~ ~ ~ ~ R x R ~ *.~ R s s s x ~ / ~ ~ R ~ / / / R R R R ~ E ~ R R R E ~ E E E E R a z ~ ~ ~ ~ R k k k z ! ! ! z , j U ! R ~ R z l %.#.^ $.$.~ / ^ 8 q +.=.+.+. .q # 8 w , > < $.Y.:.I { 0.r.r.r.r.w.w.u.w.,.,.0.q.<.&.%.%.%.@.#.#.q.u.j %.T.",
"..8 U.<.#.#.#.&.&.&.%.%.0.w.w.w.0.w.w.w.0.,.%.#.! L j ~ =X*.w w 0 w w * w 0.t.t.w.+.[ F ;.;.%.%.%.#.#.%.j ~ v.j./ #.%.Y j , l J j j < j j j l j z z z z z A z z j g g k z z A F ! F z z z l z A z z z A F F F F F D L L F D D D F F F A F I ! ! U F F ! ! ! R A A F ! R R R R ! A z z F L J z z z z D F D J I L J J D z z z D D F U U U F F D D D D F D F F F ! ! I U D z z z z A z l l l D D U P D D D A z D F F z F A z l j D @.#.:.:.S.H.@. .0.w.w.t.t.e.&.#.,.8 + > j J ;.e.+.5 5 z #.%.,.%.R A.! yXyXyXyXyXyXyXyXyXyXyXyXyXyXyXyXyXyXyXyXyXyXyXyXyXyXyXyXyXyXyXyXyXyXyXyXyXyXyXyXyXyXyXyXyXyXyXyXyXyXyXyXyXyXyXyXyXyXyXyXyXyXyXyXyXyXyXyXyXyXyXyXyXyXyXyXyXyXyXyXyXyXyXyXyXyXyXyXyXyXyXyXyXyXyXyXyXyXyXyXyXyXyXyXyXyXyXyXyXyXyXyXyXyXyXyXyX:.x ! #.#.l 7 > 5 ,.$X,.{ S 8 > #.<.:.<.t.t.t.t.t.5.S ! Z.F.;.%.%.{ 8 7 D @.^ I F F ! I ! ! #.#.#.! U U U ! ! ! ! ! ! ! ! ! I F F F F F ! ! ! I I I I D z z A D D D P J J L L ! F F F D J J z z z F z L ! @.@.@.I I J D l z z z z z l l z z D D D D F D D A l j z z F F z a p p g k z l j j z z F F z z z z z z z z j z z z z z z z k g j z z z z k g p p g g z z g , l F F F ! ~ D j @.#.$.~ $./ ~ ! 8 7 o.0.0.0.O.q # 8 l 5 * < $.Y.:...{ 5.0.r.r.w.w.u.u.w.%.%.0.0.,.&.%.:.&.%.#.%.q.T.l #.U.",
"..8 U.<.#.%.%.%.&.%.#.%.0.w.w.r.w.w.r.t.e.0.,.#.! L g ~ =X*.w q q S n > w 0.w.0.+.o.[ ! <.<.;.%.%.#.#.#.j / c.x.$.%.#.I j , 8 5 * * % * % % * = = ; ; ; ; ; * > * % % % % % % = * * * = = * > > * % = = * * = ; ; > * * = = = % * = % = % ; , ; ; ; , , , = % ; % = = = = = = = % = = = = = % * * % % * * * % * % * * % % % * * * = = = = * * * * * * * * * * = > * * * > * * = * * * * * * * * * * * * * * = * % % ; = % % = l I #.;.$.F.H.@. .0.w.t.u.u.e.&.#.<.8 . > j z &.u.,.5 5 J #.#.%.#.R A.R yXyXyXyXyXyXyXyXyXyXyXyXyXyXyXyXyXyXyXyXyXyXyXyXyXyXyXyXyXyXyXyXyXyXyXyXyXyXyXyXyXyXyXyXyXyXyXyXyXyXyXyXyXyXyXyXyXyXyXyXyXyXyXyXyXyXyXyXyXyXyXyXyXyXyXyXyXyXyXyXyXyXyXyXyXyXyXyXyXyXyXyXyXyXyXyXyXyXyXyXyXyXyXyXyXyXyXyXyXyXyXyXyXyXyXyXyX/ x v ! U j 5 > 5 ,.$X&.{ S 8 > #.<.:.q.u.u.u.u.y.3.S ^ D.G.;.%.%.{ w w D I l , , = , , , , , , , , , , , ; ; , , , , , , , ; , , > = = = = = ; ; ; ; ; = * = ; > > > * * > * * * * = * * = = = * * = = = = = = = * * * * * * * * * * * * * * * * * > * * * * * % % % % % $ $ % % % o o o * % % = ; = * * * = = = = * = = * = = * * * % = % % % % % % % % % % = % = , A I D U ! ~ D j Y #./ ~ / ~ R ! l 5  .0.0.0.o.q # 8 l 5 * , $.Y.$.} } +.=.r.r.w.w.w.u.w.0.0.0.0.,.,.q.<.;.%.%.%.q.u.j @.U.",
"..8 U.<.#.%.%.%.&.&.%.%.0.w.w.w.y.y.r.w.u.t.0.#.! L g ~ =X#.w q q n n 5 w =.0.,.o. .[ @.2.H.<.;.%.;.%.%.w :.].z.;.%.@.I j < = % o # % * * % * % * ; ; * * * # * * % o o o % % # * # # # # # # * * % * * * * * > > * * * * * * * * * * * * > 5 > > > > > > * > > > > > > > > * * # > * # * * * * * = * = * * * * * * * * * * * * * > > > > 5 5 5 5 > > > 5 > > 5 5 5 5 5 5 > > > > > 5 2 5 5 > > > * > 5 5 5 > > > > 5 > > * ; l F #.:.:.H.H... .0.w.u.u.u.t.,.%.q.w . > j z %.T.,.5 5 l } @.&.@.R A.R yXyXyXyXyXyXyXyXyXyXyXyXyXyXyXyXyXyXyXyXyXyXyXyXyXyXyXyXyXyXyXyXyXyXyXyXyXyXyXyXyXyXyXyXyXyXyXyXyXyXyXyXyXyXyXyXyXyXyXyXyXyXyXyXyXyXyXyXyXyXyXyXyXyXyXyXyXyXyXyXyXyXyXyXyXyXyXyXyXyXyXyXyXyXyXyXyXyXyXyXyXyXyXyXyXyXyXyXyXyXyXyXyXyXyXyXyX/ x v ! A j 6 > 5 ,.$X&.} l 5 > @.<.<.e.u.u.u.u.w.+.S ^ A.Z.$.#.%.{ 8 5 < , * # * o * > > > > > * > > > > > > > * > > > > * * * * * * * o o # # # * * * # o # # # # * * # # > > * * # # * # # * * # # # # * * * * # * * * * * * * # # * * * * * * * * * o o * o o o o o o + o + . + . . . . o o o * # # # o o # # # # # # # # # # # * * * # o o # # # o o o o o o o < F I J I ^ / D 8 I ^ :.Z.$.~ ~ ^ l 5  .+.0.0.+.q * 8 S 5 = < $.J.$.I } } +.0.w.w.w.w.w.w.w.w.w.w.w.w.e.q.,.#.#.%.q.e.g @.U.",
"#.8 U.2.#.%.%.+.%.,.0.0.w.w.r.r.w.w.w.w.t.t.q.#.! L j ~ =X*.j w q n S 5 q +.0.0.+. .[ @.2.H.<.;.;.;.;.;.S #.}.Z.#.%...P 8 = o % * > ; > > , , > , 8 8 5 5 5 5 5 5 5 5 5 5 5 5 5 5 5 5 5 5 5 5 > 5 5 5 5 5 7 7 7 5 7 7 7 7 7 5 5 7 7 7 q q q q q q q q q 5 7 7 7 7 7 7 7 7 7 5 5 5 5 5 5 5 5 5 5 5 5 5 5 5 5 5 5 5 5 5 5 5 5 7 5 7 7 8 7 7 w w w 7 7 7 7 7 7 7 q q 7 w 7 8 7 7 7 7 7 0 0 7 7 7 7 7 7 8 w w w 7 7 7 7 7 5 5 > 5 j I ;.<.:.H.H... .0.w.w.u.u.u.,.&.q.l # > j z ,.T.,.5 5 l } #.,.#.R D.! yXyXyXyXyXyXyXyXyXyXyXyXyXyXyXyXyXyXyXyXyXyXyXyXyXyXyXyXyXyXyXyXyXyXyXyXyXyXyXyXyXyXyXyXyXyXyXyXyXyXyXyXyXyXyXyXyXyXyXyXyXyXyXyXyXyXyXyXyXyXyXyXyXyXyXyXyXyXyXyXyXyXyXyXyXyXyXyXyXyXyXyXyXyXyXyXyXyXyXyXyXyXyXyXyXyXyXyXyXyXyXyXyXyXyXyXyX/ x v ! A j 5 > 5 ,.$X:...l 5 > @.<.<.e.u.u.u.u.t.5.S ~ A.Z.^ @.@.P 7 5 * ; * 5 7 7 w w w w w w w w w w w w w w q w w w w w q w w q 7 5 5 5 5 5 7 7 7 7 5 5 5 5 5 5 7 7 5 5 7 7 7 7 5 5 5 5 5 5 5 5 7 7 5 7 7 7 7 5 5 5 5 5 5 5 5 5 5 5 5 5 5 5 5 5 5 5 5 5 5 5 5 5 5 5 > * * * * * * * * * > 5 5 5 5 5 5 5 5 5 5 5 5 5 5 5 5 5 5 5 5 5 5 5 5 > > > > 5 > * # # # * < J ....%.;.;.{ w P ^ F.H.Z./ / #.l 5  .+.+.0.+.w # 8 S , > < $.J.$.L } #.%.0.w.w.w.w.r.w.w.w.w.t.w.w.w.q.&.#.@.#.q.e.j @.U.",
"%.7 e.F.#.%.#.#.%.0.w.0.0.w.r.r.w.e.w.0.w.t.q.#.! I z ~ 4X$.j w 0 n S * w 5.w.w.0.o.[ I <.H.:.;.;.:.;.;.J ^ J.Z.:.%...{ 6 o o # o # # # * * > * > > 5 > > > > > > > > > > > > 5 5 5 5 5 > 5 > > > > > , 5 5 5 5 5 5 5 5 5 5 5 5 5 5 5 5 5 5 5 5 5 5 5 5 5 5 5 5 5 5 5 5 5 5 > > > > > 5 5 5 > > 5 > > 5 5 5 > > > > > > > > 5 5 5 5 5 5 5 5 5 5 5 5 5 5 5 5 5 5 5 5 5 5 5 5 5 5 5 5 5 5 5 5 5 5 5 5 5 5 5 5 5 5 5 > > > > * 8 l } <.<.:.H.H...X.5.w.w.u.u.t.,.&.q.l + 5 l J ,.T.,.5 5 l } %.<.#.R A.! yXyXyXyXyXyXyXyXyXyXyXyXyXyXyXyXyXyXyXyXyXyXyXyXyXyXyXyXyXyXyXyXyXyXyXyXyXyXyXyXyXyXyXyXyXyXyXyXyXyXyXyXyXyXyXyXyXyXyXyXyXyXyXyXyXyXyXyXyXyXyXyXyXyXyXyXyXyXyXyXyXyXyXyXyXyXyXyXyXyXyXyXyXyXyXyXyXyXyXyXyXyXyXyXyXyXyXyXyXyXyXyXyXyXyXyXyX~ x x ! F j 5 > > ,.qX<.} l 5 > #.<.<.e.u.u.u.u.u.0.S ~ A.z.#...#.J 5 * > > 5 5 5 > 7 7 7 7 7 7 7 7 7 7 7 7 7 7 7 7 7 7 7 7 7 7 7 7 7 5 5 5 5 5 5 5 5 5 5 5 5 5 5 5 5 5 5 5 5 5 5 7 5 5 5 5 5 5 5 5 5 5 5 5 5 5 5 5 > > > 5 > > > 5 > > > > > > > > > * * > > > > 5 > * * * * * * o # # # * * * * > > > > > > > > > > > * > > > > > > > > > > * * * * * # # # o * % g S ..,.q.<.<. .w P #.:.>.:./ ~ @.w 5 [ o.+.0.0.w # 7 S 5 > , $.J.$.I } #.,.0.w.w.w.w.u.r.0.w.t.w.w.0.,.&.&.#.#.%.q.e.j @.I.",
"#.7 e.F.#.+.#.%.&.0.0.0.0.0.0.r.w.w.0.0.w.t.w.:.@.} l / 4X$.j w 0 n n * w 0.t.w.0.+.[ ! :.:.;.#.;.<.;.%.P ^ S.F.<.,.%...5 = o o o o o # # # * * * = > > * * * = * * # # % % % % * * * * * * * % * * = = = = = = * * * * * * * * * * * * * > > > > > > ; * = ; > , , , , , , , ; ; > > > > > > > > * * > , > ; ; = = = * * = * * > > > > > > > * * * * * > ; = ; > ; ; > * = * * * = = * * = = * = * * * = > > > > = * * * 5 J J { <.<.&.H.H.} X.0.w.w.u.u.t.,.%.<.w + > j J ,.#X0.5 > l } #.&.@.R A.R   yXyXyXyXyXyXyXyXyXyXyXyXyXyXyXyXyXyXyXyXyXyXyXyXyXyXyXyXyXyXyXyXyXyXyXyXyXyXyXyXyXyXyXyXyXyXyXyXyXyXyXyXyXyXyXyXyXyXyXyXyXyXyXyXyXyXyXyXyXyXyXyXyXyXyXyXyXyXyXyXyXyXyXyXyXyXyXyXyXyXyXyXyXyXyXyXyXyXyXyXyXyXyXyXyXyXyXyXyXyXyXyXyXyXyXyXyXd x ! ! z 5 * 5 ,.#X;.J l , > &.F.2.q.t.t.u.u.u.0.T ^ K.A.$.%.#.D 5 5 * % > # - # * * > > > > * > > > > > > > > > > > > > > * * * * * * > * * * * * * * * * * * * * * * * * * * * * * * * * * * = = = = = * * * * * * * * * * * * * * * * o * * * * * * * * * = = * * * % % o o o o o o % % % % % * = * * * * * * * * * * * * * * * * * * * * * * * * * * * % * , z l ..<.T.2.<. .l { ^ #.$.$./ / #.w 5 S o.+.0.0.[ * 7 l 5 > , $.Y.$.! } #.%.0.w.w.w.w.u.w.0.w.w.w.r.0.,.&.&.%.#.%.q.u.j @.U.",
"#.7 e.F.#.+.@.%.%.0.0.r.0.0.0.w.w.0.0.w.t.w.w.<.%...l / 4XV.j w 0 w n * q 0.w.w.0.+.[ ! $./ #.@.#.%.;.%.T ^ D.S.<.,.,.| j S , % > ; > , , 5 5 5 6 6 6 6 6 < , < < , , , , , < , , , < < < , , , , , , , , , , , < < , , , , , < < < < < < < g j j j j < < < < < < p p j j j j j p p < 6 g j j g 6 6 6 g g j j u < < , , , , > , , 6 6 j j 6 6 6 6 6 6 6 < < < g j 6 6 j 6 , , , , , , , < , , , , , , , 6 8 8 8 8 j 6 6 6 J #.J J ;.1.,.H.H.} X.0.w.u.u.u.t.,.#.<.l . > j z %.#X0.> > l ..@.&.@.x z.R . yXyXyXyXyXyXyXyXyXyXyXyXyXyXyXyXyXyXyXyXyXyXyXyXyXyXyXyXyXyXyXyXyXyXyXyXyXyXyXyXyXyXyXyXyXyXyXyXyXyXyXyXyXyXyXyXyXyXyXyXyXyXyXyXyXyXyXyXyXyXyXyXyXyXyXyXyXyXyXyXyXyXyXyXyXyXyXyXyXyXyXyXyXyXyXyXyXyXyXyXyXyXyXyXyXyXyXyXyXyXyXyXyXyXyXyXyXd c R ! A 5 * 5 ,.#X&.J l 5 , %.F.:.;.w.t.u.u.w.0.[ ^ K.D.;.%.$.I l J p % > > 5 5 6 5 6 6 5 5 5 , , , , 6 6 6 8 6 < 6 6 6 6 6 , < < , , < < < , 6 6 5 , < , , , , , , , , , , 5 , , , , , , , , < < 5 5 5 , , , , , , , , , , , , , , , , , 5 6 6 6 < , < < < < < < , , , = = = = ; ; , , , , , < 6 < < < , , , , , 6 6 6 6 < < < , < 6 , < 6 6 6 6 < < , < , 6 D ! j ..,.2.:.;.{ l } #.;.;.;./ / %.w 7 [ o.+.5.+.' > 7 S 5 > < $.Y.$.! #.%.%.w.w.w.w.w.w.w.0.w.w.w.r.w.0.,.&.%.#.%.e.T.j @.U.",
"@.5 e.F.#.+.#.%.,.w.r.w.w.w.w.w.w.5.0.u.w.w.w.,.%...l ~ =XV.Z w 0 n n * q 5.w.w.0.,.[ ! ~ ~ $.%.#.#.#.%.S ! }.D.:.,.,.{ l &.J < < < p g z z l l l l l z z z l z l l l A z l A j j z A z z l g g l l z z z z z z A A D D D D F F F F D F A F U I F U F F D A A F F F F A z z z j j g p j j g j g j j g l z D F F z z l z l l z j j l z z z z z z z z D z z z A D D A A D D z z z l l l S S z D D D D D D P ..@.@.I ! z j j @.&.l S ..,.q.H.H.{ X.0.u.u.y.u.u.q.%.&.l . > j z ,.#X,.> > l } @.&.*.R z.R .   yXyXyXyXyXyXyXyXyXyXyXyXyXyXyXyXyXyXyXyXyXyXyXyXyXyXyXyXyXyXyXyXyXyXyXyXyXyXyXyXyXyXyXyXyXyXyXyXyXyXyXyXyXyXyXyXyXyXyXyXyXyXyXyXyXyXyXyXyXyXyXyXyXyXyXyXyXyXyXyXyXyXyXyXyXyXyXyXyXyXyXyXyXyXyXyXyXyXyXyXyXyXyXyXyXyXyXyXyXyXyXyXyXyXyXyXd x R ! k 5 * 5 q.$Xq.%.J 6 > #.<.$.;.w.t.u.u.w.5.[ #.K.D.$.#.#.I l #.! p u 8 J D F F I I I I D F D D L I I I I D D D I I D D z z D l D D D A z D L D D D l l l l l l z l l l S l l l l l l l l l l l S S l l D l l l l l z z z l l j l l l l S l l l l z z z z z l l l j j g j j j j g j z l l A D D z l l l l l z l l l l z z l g l l j l z z z z z k j p u j @.! p ..;.%.#.#.{ l ..#.<.;.#.^ / %.n q  .+.+.+.+.w 5 w S 5 > 6 $.Y.$.! @.%.,.w.w.w.w.w.w.w.w.w.w.w.w.t.w.q.%.#.#.&.e.T.j @.U.",
"#.5 q.H.%.+.#.%.,.w.w.y.u.w.w.w.0.0.w.u.w.w.0.,.#...S ~ =X$.Z w q n ' > q +.0.0.,.+.S A ~ ~ ;.<.<.:.#.+.n ~ 2X[.>.....P j &.%.l < u g k z x z z z F A A ! ^ ~ F F F I @.@.^ ! ! F F ! ! F ! ! F U ! ! ! I I I U I ! ^ #.#.! ^ #.#.#.#.^ ^ ^ #.#.@.@.^ ^ ^ ! #.#.#.#.#.^ I ! #.^ ! A A z A A F ! ! F U ! ! #.#.#.! ! ^ #.#.#.^ U F U ! ^ #.^ ! ! ! #.$.$.@.@.@.@.^ I I @.#.#.^ ! ^ @.@.@.@.#.%.:.<.<.;.$.$.:.:.;.%.*.F k z #.#.l { | ;.q.H.H.P [ 5.w.w.y.u.u.e.;.<.l . > l I <.#X,.> 5 l P #.<.$.E z.R     yXyXyXyXyXyXyXyXyXyXyXyXyXyXyXyXyXyXyXyXyXyXyXyXyXyXyXyXyXyXyXyXyXyXyXyXyXyXyXyXyXyXyXyXyXyXyXyXyXyXyXyXyXyXyXyXyXyXyXyXyXyXyXyXyXyXyXyXyXyXyXyXyXyXyXyXyXyXyXyXyXyXyXyXyXyXyXyXyXyXyXyXyXyXyXyXyXyXyXyXyXyXyXyXyXyXyXyXyXyXyXyXyXyXyXyXs x R F p 5 * 5 q.qXe.<.{ 8 > @.$.:.q.u.u.u.u.r.5.[ #.L.J.%...#.I l @.*.x g l I ! ^ ^ ^ #.#.#.^ #.@.@.#.%.%.#.#.@.! @.@.@.@.^ ! ! ^ ! @.%.#.! ! @.#.#.@.@.@.I I L I @.#.@.@.@.@.@.I L ! ! ^ ^ ! I I I I I I @.@.! I ! I ! ! @.@.@.U A D I ..} I I D D F I ! ! F U I I I D z z ! F U F F F I I U U ! ! ! I @.@.I I ! I L I F D F ! A z F z z F F A A A z g p u z #.A p ..%.@.^ / } l P Y ;.#.#./ :.,.w w +.0.3.+.o.w 5 w S 5 > 6 $.Y.*.I } ,.0.w.y.w.w.0.0.w.w.w.y.y.y.t.w.,.%.....%.e.T.j #.R.",
"%.5 q.H.&.+.%.&.,.,.0.w.u.e.0.,.0.y.u.u.w.w.0.&.@...l ~ =X$.Z w q n [ 5 w +.0.,.+.{ l ! ^ / <.U.H.>.#. .S ) 3X1XZ.....P 8 } %.I p p p a k R A z A ! F z ~ ~ ~ ! ! I ^ #.%.#.^ ^ ! F ! ! ! ! ! ! ! @.#.#.@...@.^ U ! #.$.#.^ ^ $.:.;.#.#.#.#.;.$.#.@.$.$.#.#.$.:.:.:.:.$.#.;.F.F.$.$.#.#.@.#.$.:.$.#.#.$.$.:.:.$.$.*.$.:.:.:.$.$.#.^ $.<.:.;.;.%.%.:.2.2.2.&.#.#.%.%.#.#.;.<.$.^ $.:.:.;.;.<.<.:.<.U.U.F.<.<.<.;.%.^ F z F #.} l } Y %.<.H.H.P [ 5.w.w.y.5Xu.e.<.q.l . 5 D @.:.#X,.> 5 S } %.q.$.c z.R     yXyXyXyXyXyXyXyXyXyXyXyXyXyXyXyXyXyXyXyXyXyXyXyXyXyXyXyXyXyXyXyXyXyXyXyXyXyXyXyXyXyXyXyXyXyXyXyXyXyXyXyXyXyXyXyXyXyXyXyXyXyXyXyXyXyXyXyXyXyXyXyXyXyXyXyXyXyXyXyXyXyXyXyXyXyXyXyXyXyXyXyXyXyXyXyXyXyXyXyXyXyXyXyXyXyXyXyXyXyXyXyXyXyXyXyXi x ! ! j 6 * 6 q.$Xe.,.{ 7 > @.:.:.e.u.u.u.t.r.5.[ #.L.J.:.%.#.I 8 J *.R k l F R ^ ^ ^ *.#.#.^ #.#.^ #.%.%.%.#.@.@.@.@.#.#.#.^ @.#.#.$.<.:.#.^ #.%.%.#.%.%.%.@.I @.:.:.%.%.%.:.:.%.@.#.#.^ ^ ^ #.#.%.%.@...@.#.@.@.^ ! U ! #.%.#.^ D D I @.#.#.#.I D U ! ^ ! z ! @.#.@.! F R R ~ ! ! ! @.#.#.! U ! %.#.@.#.%.@.L @.@.#.@.I A F ^ ^ ! ~ R A R A A R A k k p p F @.g j ..#.@.^ / T l ..Y #./ :.F.;...w w o.=.5.5.O.w 5 w S 5 > 6 $.Y.$.! } ,.w.w.y.w.w.0.0.w.t.w.w.w.w.t.w.,.%.....%.e.T.j #.R.",
"$.5 q.H.&.+.%.%.&.+.,.w.t.e.0.,.0.u.7Xu.w.w.0.&.@.@.l ~ 4XV.Z w q n [ 5 w 0.0.,.+.{ S ! ^ / 2.U.H.>.;.| S l.3X2XD.#...P j D @.@.l j p a a R ! R F ! ! z ~ ~ ~ ! ! ! ! #.#.#./ :.$.! ! ^ ^ ^ ^ ! ^ #.#.#.%.,.:.%.! ^ $.:.;.#.#.;.2.2.<.<.;.;.<.<.$.$.<.<.:.;.<.2.U.2.U.2.%.:.U.H.<.:.$.$.%.$.2.F.<.#.#.:.:.:.:.&.$.$.$.$.$.$.Z.H.:.#.$.F.<.<.<.;.$.:.<.<.2.:.@.@.%.:.&.$.<.:.$.^ $.<.<.;.:.<.;.#.$.H.Y.U.F.<.<.;.$.! ! A ! #.J l ..Y #.%.<.H.P [ 0.w.w.u.u.u.e.<.q.l o 5 D ! &.T.,.> 5 S ..&.q.$.x h.A     yXyXyXyXyXyXyXyXyXyXyXyXyXyXyXyXyXyXyXyXyXyXyXyXyXyXyXyXyXyXyXyXyXyXyXyXyXyXyXyXyXyXyXyXyXyXyXyXyXyXyXyXyXyXyXyXyXyXyXyXyXyXyXyXyXyXyXyXyXyXyXyXyXyXyXyXyXyXyXyXyXyXyXyXyXyXyXyXyXyXyXyXyXyXyXyXyXyXyXyXyXyXyXyXyXyXyXyXyXyXyXyXyXyXyXyXi x ^ #.D 6 = 8 q.&Xe.,. .7 * @.&.<.e.u.u.u.w.r.5.[ #.L.J.2.;.;.^ w l #.~ k l D ! ^ @.#.$.$.$.%.<.$.@.@.%.$.:.%.$.%.%.#.%.$.$.#.^ #.#.;.<.<.$.^ #.%.%.%.&.<.:.%...%.<.2.%.%.$.2.2.:.$.^ ! ! R ! #.;.<.;.%.@.#.%.@.#.^ ! F ! #.$.$.^ F D I @.%.;.&.@.I U ! ! ! A ! %.&.%.@.! v R ~ ~ ! @.#.$.$.^ U ! $.$.$.$.$.@.F I #.*.#.! A A ^ ~ ~ ~ ! R R R A R z a k p g U @.g j P ..#.:.) P S %.;.:./ F.H.;...w w X.+.0.5.+.n 5 n S 7 > 6 $.Y.$.! #.,.0.w.w.w.t.0.0.e.t.w.w.w.r.w.w.0.&.#.#.%.q.T.j #.R.",
"%., U.U.#.+.&.:.%.%.0.w.u.u.w.0.0.w.u.u.w.w.0.,.#.! S ^ =Xg.j l w S  .5 w 0.0.,.,.%.J ^ ~ / >.2.<.<.;...S l.1X1XD.;.%.P j g F ^ D p u a s R R k R R A R R R R R R R R ! ~ ~ / Z.$.~ R ~ ! ! R R ! ! ! ^ #.<.<.$.^ ^ / $.$.$.#.$.:.F.F.<.$.$.:.:.:.<.<.;.$.$.;.<.F.F.2.<.$.:.F.F.<.:.#.#.#.$.<.2.:.@.@.:.<.<.<.&.%.^ ^ ~ / V.F.Z.$.^ $.<.:.<.<.<.:.$.$.$.$.$.$.^ #.$.$.$./ / / / ~ $.$.$.$.$.$.$.$.F.H.F.F.<.:.$.^ ! ! R ^ *.z l } ! Y ;.<.H.P [ 0.y.u.u.w.t.<.:.q.l o 6 D F %.T.,., , S | ;.q.$.x A.R .   yXyXyXyXyXyXyXyXyXyXyXyXyXyXyXyXyXyXyXyXyXyXyXyXyXyXyXyXyXyXyXyXyXyXyXyXyXyXyXyXyXyXyXyXyXyXyXyXyXyXyXyXyXyXyXyXyXyXyXyXyXyXyXyXyXyXyXyXyXyXyXyXyXyXyXyXyXyXyXyXyXyXyXyXyXyXyXyXyXyXyXyXyXyXyXyXyXyXyXyXyXyXyXyXyXyXyXyXyXyXyXyXyXyXyXyXa x @.#.F 8 > 8 q.#Xe.&.{ 8 > @.:.2.e.u.u.u.r.r.5.[ #.J.J.;.1.:.@.l w I ^ A z F F ! ! ! ! #.$.:.;.#.^ ^ ^ #.#.%.$.#.#.@.#.;.$.^ U ! #./ :.Z.$.^ ^ #.&.:.:.:.%.#...#.$.<.$.#.*.$.:.:.$.~ R R R R ~ :.:.%.@.@.#.*.#.^ ^ ! ! ! ~ ~ ^ ~ ! F F ^ $.:.%.@.! ! ! ! R F F ! #.*.^ ! R R x x R ! / ~ ~ ~ R ~ / V.$.$.~ ~ R R ~ ~ ~ ~ R R R E E R R R R R k k k a a p k ! F u j U ^ :.( ) U l &.>.S.:.:.( / #.w q X.+.0.0.5.[ 5 S T 7 > < Z.L.$.! %.%.,.0.w.w.w.0.w.w.t.w.w.w.w.w.0.,.&.#.@.%.q.T.j #.$X",
"%., U.H.%.+.&.:.,.1.w.u.u.u.w.w.r.y.u.y.w.0.0.%.#.! D ^ =XV.S [ w S S > w 0.w.0.,.%.P @.:.#.#.;.;.<.;.+.[ ( ^.m.D.>.;.I j 6 z I F g p a s R R k k R k k R R x R R R R R R R / / ~ R ~ R R R R R R R R ! ^ #.$.^ ^ ^ ~ ^ ^ ^ ^ / $.$.$./ ~ / :.:.$.$.$.$.$.$.$.$.;.;.:.$.$.:.Z.Z.:.$.*.^ ^ #.$.;.#.^ ^ $.;.;.;.%.#.^ ~ ~ / / :.$.$.^ $.:.:.:.$.$.$.#.^ ^ #.$.*.^ ^ *.~ ^ / / ~ / / ~ *.*.*.*.*.~ *.$.$.:.:.:.$.^ ~ ^ ^ / ~ ^ z j } ^ ^ ;.2.H.P X.r.u.5X5Xw.0.%.&.q.S o 6 D I :.e...> 5 S | ,.q.$.R D.! . yXyXyXyXyXyXyXyXyXyXyXyXyXyXyXyXyXyXyXyXyXyXyXyXyXyXyXyXyXyXyXyXyXyXyXyXyXyXyXyXyXyXyXyXyXyXyXyXyXyXyXyXyXyXyXyXyXyXyXyXyXyXyXyXyXyXyXyXyXyXyXyXyXyXyXyXyXyXyXyXyXyXyXyXyXyXyXyXyXyXyXyXyXyXyXyXyXyXyXyXyXyXyXyXyXyXyXyXyXyXyXyXyXyXyXyXyXk R #.@.D 8 > 8 q.#Xq...{ 7 > #.<.2.q.u.e.e.0.r.5.[ ^ J.J.;.;.:.@.w 7 D ^ ! F F U ^ ^ ^ ^ ^ $.$.#.^ ~ ^ ^ ^ ^ #.#.#.! ! ^ #.^ ! R ! ^ ~ ~ / / ~ ^ ^ $.;.$.#.#.@.@.@.#.*.*.#.^ ^ ~ ~ ~ ~ ~ E R R ~ ^ #.@.^ ^ #.#.^ ! ! ! ! ~ ~ ~ ~ ^ ! ! ! ^ #.#.#.^ ^ ! ! R R A A ! ^ ^ ! ! R x k a k R ~ ~ / ~ R R ~ / ~ ~ ~ R R R ~ ~ ~ ~ R R R R R R x R R R k a a a a a k ! k u g I Y $.Z.) D l ,.2.S.F.:./ / ..l w X.,.w.0.5.[ 5 S T 8 > j Z.Y.$.! %.%.,.0.0.w.w.0.w.w.w.w.w.w.w.w.0.0.,.#.} @.q.R.j #.T.",
"$.> q.H.#.+.%.;.,.w.t.u.u.y.y.y.y.u.w.w.w.0.,.+.@.! J ~ =XZ.S [ w w S * w 0.e.w.0.%.[ #.<.#.%.%.,.1.,.+.[ / c.c.:.;.;.I j j D D l j j g g k j g g k j k k k a k k k k k A A A A k z R z k k k k k k k z A F F A F F A z A A F U U F F F ! ! ! ! ! ! U U U ! ! ! ! ! #.#.^ ^ #.^ ! ! ! F F F I I U F D U ^ ^ I I F F A A A ! ! ! ! I I I ! ! I I I F D F F I F F F F A z A A A A A F F F F F A z z A A F ! ! F A z F ! ! ! z j z ..^ #.;.2.H.D X.r.5X5X5Xy.0.,.%.,.S o 5 D @.<.e...> 5 S  .0.w.&.R J.!   yXyXyXyXyXyXyXyXyXyXyXyXyXyXyXyXyXyXyXyXyXyXyXyXyXyXyXyXyXyXyXyXyXyXyXyXyXyXyXyXyXyXyXyXyXyXyXyXyXyXyXyXyXyXyXyXyXyXyXyXyXyXyXyXyXyXyXyXyXyXyXyXyXyXyXyXyXyXyXyXyXyXyXyXyXyXyXyXyXyXyXyXyXyXyXyXyXyXyXyXyXyXyXyXyXyXyXyXyXyXyXyXyXyXyXyXyXA F #...S w > 5 q.#X<.{ { 7 > #.:.<.2.e.e.e.w.r.0.[ ^ J.J.;.;.:.@.w 7 S I F D D A A F A A A F F A A F F F A F F F F A z z z z z A A F F F ! ! F F F U ! ! I I I L F F F U F F F A A z A A R R A A F I I U U U D A A A A A F A A z z F D z z D D A z A z z k a k z A A k k k a a p p p p k k A A k k k k k z z z k k k k z z z k k a a k k k z k p u k k k k k A k u j I Y ~ / / U [ 0.>.2.q.<.) / ..` w O.+.0.5.+.[ 5 w S w > j Z.J.$.! #.,.0.w.w.w.w.w.w.y.y.w.w.0.0.0.0.0.<.%...@.2.R.j #.T.",
"$.> q.F.@...} %.,.w.w.u.y.y.y.y.5X5Xu.u.w.w.w.0.%.! J ~ =XZ.j w w w S * w w.u.u.w.,.[ #.$.%.;.0.0.0.1.+.S :.`.D.>.;.;.I g 8 j , ; * * = = = ; * ; ; ; = = = % % = = , , ; ; ; : & , , , , , , , , ; ; , , , , , , , , ; ; , , , > ; ; , , < < < , , , , , , , , , , , < , , , , < 6 6 , , , 5 , 6 6 5 6 8 6 6 5 , , , , , , , , , , , , , , , , , , > , > > , > > , ; ; > , = = ; > > > , , , > > ; , , , , , = = , , < < , 8 { @.#.#.1.>.H.D X.8.5X5X5Xu.u.w.,.,.S o 5 z @.<.e...> 5 [  .0.w.&.R A.!   yXyXyXyXyXyXyXyXyXyXyXyXyXyXyXyXyXyXyXyXyXyXyXyXyXyXyXyXyXyXyXyXyXyXyXyXyXyXyXyXyXyXyXyXyXyXyXyXyXyXyXyXyXyXyXyXyXyXyXyXyXyXyXyXyXyXyXyXyXyXyXyXyXyXyXyXyXyXyXyXyXyXyXyXyXyXyXyXyXyXyXyXyXyXyXyXyXyXyXyXyXyXyXyXyXyXyXyXyXyXyXyXyXyXyXyXyXF D #.%.{ l > 6 q.#Xq.{ { 7 5 %.<.$.$.<.<.q.e.w.0.[ ^ J.J.;.;.:.#.w q 7 8 6 , , ; , , ; = = = % = = , , = = ; ; , , , ; = = ; , , , , , , , , , , , , 6 6 6 6 6 5 , , , , , , , , , , , , < < < < < 6 6 6 6 6 , , , , , , , , , > , , > ; ; ; ; ; ; , ; = = % ; ; ; = % % % % % % % % % ; , , , , , , , , , , ; = = = = = , , = % % % = % = = % % % , , , , , u , p l Y U ~ R / Y [ 1.1.>.e.2.:./ ..` w O.+.0.0.+.' 5 w S 7 5 j Z.J.$.! %.<.q.e.w.w.w.u.u.y.y.u.t.w.0.w.w.0.q.&.#.#.2.U.j @.T.",
"$., <.<.}  .} #.%.0.w.y.y.y.u.u.5X5Xu.u.u.t.u.w.;.@.S ! =XZ.w w 7 w S > w 0.u.u.e.,.[ #.%.;.0.e.0.1.1.o.S :.-X`.>.#.%.I 6 = % o o . . . + . . . # o o o o o o o o o o o o o . o o % % o # * * * * * * * * > > * * * * * * * * * * # # * > > > > > * > > * * * # # * * > > > > > > * * > * * * > > 5 > > 5 5 5 5 5 5 5 > > > > > 5 5 5 > > > > > > * * > * # # * * > * * * * * o o # # > > > > 5 5 > > > > * * # # * * * * * 7 [ %.$.;.1.>.H.P ' r.5X5Xu.u.u.w.,.,.l o 5 l I ,.e.+.5 5 S +.0.w.&.x Z.! . yXyXyXyXyXyXyXyXyXyXyXyXyXyXyXyXyXyXyXyXyXyXyXyXyXyXyXyXyXyXyXyXyXyXyXyXyXyXyXyXyXyXyXyXyXyXyXyXyXyXyXyXyXyXyXyXyXyXyXyXyXyXyXyXyXyXyXyXyXyXyXyXyXyXyXyXyXyXyXyXyXyXyXyXyXyXyXyXyXyXyXyXyXyXyXyXyXyXyXyXyXyXyXyXyXyXyXyXyXyXyXyXyXyXyXyXyXA D %.+. .l > 8 q.qXq.{ J 5 > &.<.$.$.%.#.2.q.w.0.[ / J.J.<.1.>.#.w 5 o % % % * * * * * * > > > * = * * * * * * * * * * * * * > > * * * # # # * > > > > > > > * * * # # * * * = * * * * * * * * * * * * * > = = = * # # # # # * * * * # # o # # # # # o o o . # o o o o o o o o o o . . . o o o o o o % o o o o o o o o o o o o o o o % % o o o o o . $ % $ o o o u z ^ F ! E g.! S ,.1.1.0.e.:.#...l w o.0.r.r.5.' 5 w S 7 5 j Z.J.$.! %.<.,.0.w.w.w.w.y.y.y.u.u.w.w.r.r.0.,.%.@.@.<.q.j } e.",
"$., <.<.}  .} #.&.,.0.r.u.u.u.u.5X5Xu.u.u.y.y.w.,...S ! =XZ.8 q 7 w S * q 0.u.u.t.,.[ @.:.1.0.0.0.;.,.+.S ;.`.J.:.#.#.I 6 o o * * > > > > > 5 > 5 5 5 5 5 5 5 5 5 5 5 5 5 > > 5 5 5 5 5 5 5 5 5 5 5 5 5 7 7 5 5 5 5 5 5 5 7 7 5 7 7 7 7 8 8 8 8 8 8 8 8 7 7 8 8 8 5 7 7 5 5 5 5 7 8 8 8 7 7 7 8 l l l l l l l l l l w 8 8 8 l l l l l l l 8 7 7 7 7 7 7 7 7 7 7 8 8 7 7 7 6 5 5 5 5 7 7 7 7 7 8 8 8 8 8 8 7 5 5 7 5 7 5 > > 8 l #.$.;.;.>.H.P ' 8.u.u.u.t.t.q.&.<.S o 5 j J ,.u.+.5 5 [ +.0.w.&.x A.R . yXyXyXyXyXyXyXyXyXyXyXyXyXyXyXyXyXyXyXyXyXyXyXyXyXyXyXyXyXyXyXyXyXyXyXyXyXyXyXyXyXyXyXyXyXyXyXyXyXyXyXyXyXyXyXyXyXyXyXyXyXyXyXyXyXyXyXyXyXyXyXyXyXyXyXyXyXyXyXyXyXyXyXyXyXyXyXyXyXyXyXyXyXyXyXyXyXyXyXyXyXyXyXyXyXyXyXyXyXyXyXyXyXyXyXyXyXA U %.+. .l > 8 q.$Xq.{ S 5 > #.<.$.$.&.#.<.e.e.0.{ ^ D.J.<.1.:.^ w > * ; 5 8 w 8 8 8 8 8 8 8 8 8 8 8 8 7 7 7 7 7 7 7 5 5 5 7 7 5 7 7 5 7 7 8 8 w w 8 8 8 w w 8 8 8 7 7 7 7 8 8 5 5 5 6 7 5 5 5 5 5 5 6 8 8 8 8 8 7 5 5 7 7 7 7 5 5 5 5 5 5 5 5 5 5 5 > > > > > > > > > > > = > > * * * * > > > > > > > , , > > > > 5 > > > > , > > 5 , > > > > > ; = ; = = % o o u z @.U ~ / l.! S ,.1.1.0.e.:.#...l w +.0.r.0.5.[ 5 w S 7 5 g :.J.$.@.%.%.%.,.w.u.u.y.y.y.u.u.u.w.w.w.t.w.,.#.@.@.:.q.j } e.",
"$.> <.<.} ..#.#.%.%.0.0.u.u.u.u.5X5Xu.u.u.u.5Xu.0.#.l I =XV.8 w 7 w S * q 0.u.u.t.0.[ { <.<.,.%.,.;.,.+.P #.S.( / :.%.I 6 o * > = = = ; = ; ; * > > , , , > = > > > > > > > * > = = > > > > > > > > > , 5 5 > > , , , , > , > > > > 5 > 5 5 5 , , , , 5 5 5 5 , , , 5 5 5 > > > > > > > , , , , , 6 8 8 6 5 6 8 6 8 6 5 , , 6 8 5 5 5 5 5 5 , , 5 5 , 5 5 5 5 6 6 5 , , , , , , > > > , 5 5 5 5 5 , , 5 5 > > > > > > > > > l S @.$.%.;.;.F.{ X.5.w.w.u.t.w.&.%.q.S o 5 8 S ,.u.=.5 5 { %.0.0.%.x A.! . yXyXyXyXyXyXyXyXyXyXyXyXyXyXyXyXyXyXyXyXyXyXyXyXyXyXyXyXyXyXyXyXyXyXyXyXyXyXyXyXyXyXyXyXyXyXyXyXyXyXyXyXyXyXyXyXyXyXyXyXyXyXyXyXyXyXyXyXyXyXyXyXyXyXyXyXyXyXyXyXyXyXyXyXyXyXyXyXyXyXyXyXyXyXyXyXyXyXyXyXyXyXyXyXyXyXyXyXyXyXyXyXyXyXyXyXyXA I ,.+. .w > 5 q.#Xq.{ l > * #.:.<.<.q.&.:.e.e.,.T ! D.J.<.;.:.^ 8 > , , , , , , 5 , , , , , , , , , > > > > > > 5 5 5 > > 5 , > 5 5 > > > > > 5 5 5 5 5 5 6 5 < , > > > > > > > > * ; ; > > > ; ; > > > > > 5 , > ; ; ; > , > > , , , , , , , ; > , > > > > > > , * = * * ; = = * * * * * * = ; * = = = = = = = = = = = = = = * * * % = ; ; = % % = % % % * * * j j I @./ / l.! S %.1.1.w.e.;.#...S w o.5.0.r.5.X.5 w S 5 > g $.J.*.@.%.! %.,.t.u.u.y.u.u.u.r.r.w.w.w.t.w.,.@.I I ;.q.j #.U.",
"&.5 q.;.} o...%.%.+.0.r.y.y.y.y.y.5Xu.u.y.y.w.0.%...l ^ *XZ.j w q w w > q 5.w.0.0.3.[ #.<.1.,.=.,.<.,.+.S ;.$./ ;.<.#.S l , $ ; * * * * * * * # * * * * * * * * * * * * * * * * % * * * * * > * * * = = * > > * * * > > > > > > > > * > > > > > > > 5 > > > > > = > * > > = > * * * > > > > > > > > > > > > 5 5 > > > > > * > > > > > > > # * > > > > > * > > , > > > > > > * * # * * * * > > > > > > > > > * * * # # # # 5 } J @.:.$.:.:.H.T ' 5.5Xy.u.u.e.&.#.,.l o 7 l } w.u.,.5 5 [  .+.0.%.x l.R   yXyXyXyXyXyXyXyXyXyXyXyXyXyXyXyXyXyXyXyXyXyXyXyXyXyXyXyXyXyXyXyXyXyXyXyXyXyXyXyXyXyXyXyXyXyXyXyXyXyXyXyXyXyXyXyXyXyXyXyXyXyXyXyXyXyXyXyXyXyXyXyXyXyXyXyXyXyXyXyXyXyXyXyXyXyXyXyXyXyXyXyXyXyXyXyXyXyXyXyXyXyXyXyXyXyXyXyXyXyXyXyXyXyXyXyXyXk D ,.0. .w 5 5 ,.T.<.[ j * * @.:.2.e.e.q.q.q.e.1.{ / J.H.:.%.%.@.j 7 > ; > > * ; > > > * * > = > * * * * * * * * > * * * > > > > ; ; > > * > > > > > > , , > > > > * * * * * * * * * > * * * * * * * # * * * * * * * * * * * * * * * * = * * ; > > * * * * * * * * * * * * % * * % % o o o o o o o o % % * % o o * * * * * % * * * * * * * * o o * # o o o o o > z g F #.:.l.z.^ S 3.,.=.r.w.;.;.,.w _ 3.3.5.5.+.' 5 w l 7 > 6 $.G.*.L } @.;.q.w.w.w.y.u.y.w.w.w.w.w.w.0.1.;.#.! ! :.R.j ..U.",
"%.3 <.%.I } #.#.%.%.0.0.r.w.u.y.y.5Xu.u.y.w.w.,.%...l ^ *XZ.j 8 7 w w > q +.0.,.+.o.[ #.<.1.,.,.,.<.q.+.S ;.l.( :.>.#.S J j % = * * % % = = ; = ; , , ; = = , > > > ; ; ; ; > > > > > > , , > > , , , , 5 5 > 5 > 5 , , , , , , , , , 5 , 5 5 5 5 , 5 , , , > > , > > , , ; , , 5 5 > > , 5 5 , , 5 5 , , , , 5 , , ; = = > = ; * * > > = = = = = ; > > > > > , , , , , , > > > ; ; ; , , , 5 5 5 5 , , , , , , , , ; > > l #.J I $.:.<.F.J.Y X.8.u.u.8X!.e.&.@.,.l o 7 l ..e.#X,.5 5 S { +.;.#.x l.R . yXyXyXyXyXyXyXyXyXyXyXyXyXyXyXyXyXyXyXyXyXyXyXyXyXyXyXyXyXyXyXyXyXyXyXyXyXyXyXyXyXyXyXyXyXyXyXyXyXyXyXyXyXyXyXyXyXyXyXyXyXyXyXyXyXyXyXyXyXyXyXyXyXyXyXyXyXyXyXyXyXyXyXyXyXyXyXyXyXyXyXyXyXyXyXyXyXyXyXyXyXyXyXyXyXyXyXyXyXyXyXyXyXyXyXyXyXa F &.%.[ 8 5 5 &.U.%.{ l * * #.<.2.q.e.e.e.e.e.,.[ #.J.H.<.;.;...l S 6 = * 5 * , > > , , > > , , > > > > * > > > , , , , , , , , , > ; ; > > , 5 6 5 5 6 6 6 5 5 , , , > > , , , , , , > > > ; > > > = ; ; ; , ; > > ; ; ; > , > > > > > > > , > > ; = = ; > , > = ; > ; ; > = = = * = = = = = = * = = = ; > > = = = = = = = = = = ; ; ; ; ; = = = * ; * * % = j z j F ^ :.Z.A.^ S +.,.=.w.e.:.:.;.S _ 3.+.3.5.O.w 5 w w 5 * < *.Z.*.L } @.%.,.w.w.u.u.u.w.w.w.w.w.w.0.0.,.;.%.@.@.:.T.j @.q.",
"%.5 &.#.I @.@.! #.%.0.0.r.r.r.y.y.5Xu.u.y.w.0.,.#.} z ~ *XZ.j 8 5 8 8 * q +.,.+. . .l @.:.;.,.,.,.;.,.+.S >.D.D.Z.:.^ j P I , & , , , , , u j j u u u j g g j g g g u p g k l l j l l l l z D z l z S S S S S l l J D D D l l l D D D D l S J J P J F D l l l l S S S D Z l S D P P S S D D J P P J J J J P J J D S l l l D D j j j l l j g k k k l l l S l l l l z z z A l l l l l l z z z D L D D D D z z z z l j j 6 j ..%.z U ~ $.<.Z.J.^ X.0.w.w.u.u.e.%.@.;.l # 7 S ..e.#X1.5 5 S S } @.^ x g.A . yXyXyXyXyXyXyXyXyXyXyXyXyXyXyXyXyXyXyXyXyXyXyXyXyXyXyXyXyXyXyXyXyXyXyXyXyXyXyXyXyXyXyXyXyXyXyXyXyXyXyXyXyXyXyXyXyXyXyXyXyXyXyXyXyXyXyXyXyXyXyXyXyXyXyXyXyXyXyXyXyXyXyXyXyXyXyXyXyXyXyXyXyXyXyXyXyXyXyXyXyXyXyXyXyXyXyXyXyXyXyXyXyXyXyXyXyXs R #.#.T 8 5 5 &.F.#.L l * * #.<.<.<.q.q.u.e.e.,.[ #.J.U.<.,.1...l @.F u 6 8 j j l l l D l D D z z l l l l S S S S D D D F D D z l l l D D D D J I } } I I J J D D D J J S S S J J J D l l l l l l D l l l l S l l l z A A D D S S S z l l l l l j l l l l l l l j l l l l l l j j j l l l l l l l l z l l l l g g g g g g g g g g g g g g g g g j g g < , , j J z g D ^ $.( Z.^ S %.+.;.,.e.:.>.;.S w +.+.3.5.O.q 5 w n 7 > < ^ Z.~ F L @.@.%.w.w.u.u.u.w.0.w.w.w.w.w.0.,.,.%.@.#.2.U.j #.q.",
"%.= :.$.I L F ! @.&.0.0.5.0.r.y.y.y.u.y.y.w.0.&.@.I z ~ *XV.j 7 5 5 5 > w +.,.%...[ l @.%.;.,.,.,.;.;.+.S F.[.[.D.( ^ 8 l ^ g u u u p a a a z z k k k A A A ! v R k k k R ~ ~ ~ ! ! ! #.^ ^ #.^ F ! @.@.#.%.%.@.@.#.%.%.$.$.#.#.$.$.$.$.@.#.%.%.%.%.$.*.#.@.@.%.%.&.%.%.@.@.;.<.<.;.%.#.#.$.$.;.$.%.&.:.:.:.:.&.$.#.#.$.:.<.;.@.I @.#.#.^ ~ ~ / ~ ~ *.#.%.#.@.! ^ ^ ~ ^ #.#.#.^ ^ ^ ^ ^ ! ^ %.;.$.#.*.*.^ ~ ~ ! ! F z j D %.@.j F ~ $.:.Z.D.!  .0.w.w.t.e.q.&.%.<.l . 7 l ..q.#X,.> , l J ! ~ R s g.m . yXyXyXyXyXyXyXyXyXyXyXyXyXyXyXyXyXyXyXyXyXyXyXyXyXyXyXyXyXyXyXyXyXyXyXyXyXyXyXyXyXyXyXyXyXyXyXyXyXyXyXyXyXyXyXyXyXyXyXyXyXyXyXyXyXyXyXyXyXyXyXyXyXyXyXyXyXyXyXyXyXyXyXyXyXyXyXyXyXyXyXyXyXyXyXyXyXyXyXyXyXyXyXyXyXyXyXyXyXyXyXyXyXyXyXyXyXd E *.@.S 8 5 5 $.H.^ L j * * #.:.:.;.,.0.e.e.w.,.[ %.H.U.;.,.1...j L *.z g z I L ^ ! ! ! #.;.#.*.^ ! ! #.;.;.:.%.@.@.$.$.$.;.$.#.^ #.;.;.$.$.%.:.<.2.<.<.:.$.%.$.$.$.$.&.%.#.%.&.:.:.&.#.@.@.#.*.$.#.@.#.%.%.%.%.^ ~ ~ ~ ^ #.#.@.#.@.@.! ! ! ! ! ! ! ! ! ! ! ! U I ! @.@.@.@.! F F ! ! @.! ! @.! ! ! ^ #.@.! F ! ! R R ! ! ! ! ! F z ! ! ! R R z z z k u , , l I j u D ..#.:.:.D S ,.;.#.;.<.:.:.$.l w o.o.=.5.O.w 5 w S w 5 6 *.Z.~ F J I ..,.w.w.u.u.u.w.0.w.w.w.w.w.w.,.&.#.@.#.<.q.j #.q.",
"#.= <.$.F z z ! @.,.0.0.0.r.r.y.y.y.y.y.y.w.,.@.L L z R E.$.j 7 > > 5 * 7 o.,.,.+. .l I %.;.;.,.,.;.;.%.S Z.[.[.D./ ^ 6 6 I z p u i a a s s x x x s x R ~ ~ ^ ~ R R s R E E E / / ~ ! ~ ~ ~ $.~ R R *.#.#.%.%.@.#.$.$.:.:.$.$.$.$.Z.$.*.~ $.<.<.<.$.$.$.*.$.<.<.<.:.%.$.$.;.F.U.U.<.$.#.$.:.:.$.$.$.<.F.2.<.<.F.Z.$.:.H.H.Z.:.$.#.$.:.$.~ / g.g.g.g.$.Z.<.<.$.$.$./ / / ~ $.$.~ ~ ~ ~ ~ ^ ^ ;.F.:.$.*.V.g./ ~ ^ ! ! z z L %.I j I ~ ~ $.:.Z.Y X.w.w.t.e.w.q.,.;.q.S . 5 w { q.#X,.> , J } ^ ~ R d h.A . yXyXyXyXyXyXyXyXyXyXyXyXyXyXyXyXyXyXyXyXyXyXyXyXyXyXyXyXyXyXyXyXyXyXyXyXyXyXyXyXyXyXyXyXyXyXyXyXyXyXyXyXyXyXyXyXyXyXyXyXyXyXyXyXyXyXyXyXyXyXyXyXyXyXyXyXyXyXyXyXyXyXyXyXyXyXyXyXyXyXyXyXyXyXyXyXyXyXyXyXyXyXyXyXyXyXyXyXyXyXyXyXyXyXyXyXyXd E ~ ! j 5 , , <.Y.*.F j * * @.;.$.&.0.w.u.e.0.,.[ ..H.2.;.%.,.| 8 z $.~ k z ! ! ^ #.^ ^ :.F.$./ ~ ^ *.:.<.<.<.%.^ $.Z.Z.V.:.:.*.^ $.G.F.$.:.F.U.U.2.2.2.2.:.:.F.F.F.<.<.$.%.$.2.F.U.<.$.$.$.$.Z.Z.$.#.:.q.q.<.&.$./ / Q / $.:.:.$.$.#.~ $.~ ~ ~ ~ ~ / / / ~ ^ ~ ^ ^ #.#.#.#.^ ~ ~ ~ ~ ^ ^ ^ ^ ^ ^ ^ *.*.^ ^ R R ~ R R R R R ~ ^ R k R ~ R R R x x k i u , u D F g < P %.;.;.:.D [ <.;.;.%.;.:.:.%.8 q X.o.5.5.+.w 5 7 w 7 5 8 $.G.~ z J I %.0.w.w.u.u.u.u.w.w.w.w.w.r.r.0.%.} I I :.2.j %.2.",
"#.= <.%.L J A ! @.,.0.0.r.r.r.y.y.y.w.w.w.w.%.@.I I z ! Y.$.8 7 5 5 5 # 5 +.,.,.,. .l I $.;.1.0.1.1.1.+.l F.].K.( ^ ^ 8 5 z A k u p i i a s s s s s s x R ~ ~ / R x s N E E B s./ R R R / ~ ~ ~ R R ~ *.#.#.#.^ ^ $.$.$.$.$./ / / g./ ~ ~ $.Z.Z.:.*.~ ~ ~ $.Z.F.F.$.#.^ *.$.F.H.2.:.#.^ *.V./ / ~ $.<.F.<.$.:.G.Z.Z.Z.Z.Z./ ~ ~ ~ $.$.$.*./ g.g.g.g.V.Z.$.$.$.~ ~ ~ ~ / ~ R ~ / / ~ ~ R R ! $.:.$.~ ~ g.g.~ ~ R x z k z ! %.z j ..! ^ #.:.Z.Y X.w.u.w.w.w.0.<.,.q.S O * 5 l <.T.,.> 5 { } ! ~ R d h.N . yXyXyXyXyXyXyXyXyXyXyXyXyXyXyXyXyXyXyXyXyXyXyXyXyXyXyXyXyXyXyXyXyXyXyXyXyXyXyXyXyXyXyXyXyXyXyXyXyXyXyXyXyXyXyXyXyXyXyXyXyXyXyXyXyXyXyXyXyXyXyXyXyXyXyXyXyXyXyXyXyXyXyXyXyXyXyXyXyXyXyXyXyXyXyXyXyXyXyXyXyXyXyXyXyXyXyXyXyXyXyXyXyXyXyXyXyXd s R ! j 5 5 5 :.Y.*.F 8 * * I #.%.;.e.e.t.w.0.+.S ..H.q.1.%.%.{ 8 l $.^ z z F ! ^ ^ ^ ~ $.:.~ R R ~ ~ $.$.$.:.#.^ $.Z.Z./ $.$.^ ~ / Z.g./ / G.U.2.:.:.<.<.$.$.Z.G.G.Z.$.#.^ $.<.F.<.&.#.*.~ / / / ~ ~ %.<.:.$.$./ / E E E / / $.*.~ ~ ~ / / ~ ~ / / E E E E R ~ ~ ~ ~ ~ ^ ~ ~ R E / / ~ ! ! ! ! ! ~ ~ ^ ^ ! ~ R E E E R x x R ~ R k R R x x x x s a i u u k U A , < ....;.;.;.G [ <.:./ $.$.:.:.%.w w +.o.5.5.+._ 5 5 w 5 > 6 $.G.~ z z I &.q.w.w.u.u.u.u.w.w.w.w.w.w.w.0.%.} D L %.<.g %.2.",
"#.3 <.%.I } U ^ @.%.0.0.r.r.y.y.y.y.r.w.w.w.,.&.#.@.z R Y.$.8 7 5 7 7 # 5 +.0.0.,.o.[ ! <.<.1.e.e.e.2...l F.D.x.~ I ^ 8 5 j z z p u u i i a a a s s s a x ~ / E s a s N s B a.a.E R R R E ~ R R R R R ~ ^ ^ ^ ! ! ~ ~ ~ / / ~ E E E R R ~ ~ ~ ~ ^ ! ~ R ~ ~ $.:.$.~ ~ R R / :.>.;.%.#.~ ~ ~ ~ ~ ~ ~ $.;.$.$.$.$./ / / / / R / / ~ / $.V.V./ / E E s./ $.V.V./ / R R R R R R R ~ / R R R R ! ^ / ~ R E E E E R R z F z F @.#.j j ..! #.#.:.Z...o.r.u.y.w.t.t.q.,.w.S O * , j &.T.,.> , { } ! ~ E d h.N . yXyXyXyXyXyXyXyXyXyXyXyXyXyXyXyXyXyXyXyXyXyXyXyXyXyXyXyXyXyXyXyXyXyXyXyXyXyXyXyXyXyXyXyXyXyXyXyXyXyXyXyXyXyXyXyXyXyXyXyXyXyXyXyXyXyXyXyXyXyXyXyXyXyXyXyXyXyXyXyXyXyXyXyXyXyXyXyXyXyXyXyXyXyXyXyXyXyXyXyXyXyXyXyXyXyXyXyXyXyXyXyXyXyXyXyXyXs s ~ ^ l 5 5 5 :.Y.*.z 8 * o P @.%.<.t.t.t.0.0.+.[ ..U.T.q.;.%.{ 8 8 ! *.! A z ! ! ! ^ ! ~ ~ ~ R ~ ~ ~ ^ *.$.$.^ R ~ ~ / / / ~ / / / / Q / / Z.:.;.%.#.$.$.~ ~ g.Z.Z.$.*.! ! ^ $.$.*.#.^ ^ ~ R E E E R ~ $.^ ^ / / Q E B B Q / ~ ~ ~ R R / ~ E E / Q B E E B R R / / R R R ~ R N N E E R ! F z A ~ ~ ~ ^ ~ ~ R x x E E R x x R R x k x x x s s s s a i p p z F a , < ....;.;.;.G { q.( ( $.$./ $.@.w _ 3.+.5.5.5._ 5 5 8 * o 6 :.J.$.z z I ;.0.0.u.7Xu.u.w.w.w.w.w.w.r.r.0.%...F L $.<.g $.2.",
"%.> ;.:.I I ..%.%.,.0.0.0.0.r.w.w.r.r.w.w.w.,.%.@.@.z R E.$.j 7 5 5 7 * 7 +.0.0.0.+.S @.:.>.>.2.e.H.2.,.j :.c.j./ ! U j < j U A p u i i i i a a a a a a R R ~ R R s s N B B s.E B B Q Q E E E E E E B E / ~ ~ ~ ~ ~ ~ ~ *./ / / R R E / / / ~ ~ ~ ~ R ~ ~ ~ ~ ~ ~ ~ ^ ! ! ^ *.$.$.#.#.^ ~ ~ E ~ / ~ ^ ~ $.~ ~ ~ ~ / / / / ~ / / / / Z.Z.Z.Z./ E E / Z.Z.Z.Z.V.g./ / / / ~ R R ~ ~ R R ^ ^ ^ ^ ^ ^ ^ ~ ^ ! ! ! ^ ^ ^ ^ ^ ^ ! k z @.@.%.$.<.F.Y o.r.u.5X5X6X6Xe.0.e.l + = g z %.q.%., , l S A ^ ~ d h.z   yXyXyXyXyXyXyXyXyXyXyXyXyXyXyXyXyXyXyXyXyXyXyXyXyXyXyXyXyXyXyXyXyXyXyXyXyXyXyXyXyXyXyXyXyXyXyXyXyXyXyXyXyXyXyXyXyXyXyXyXyXyXyXyXyXyXyXyXyXyXyXyXyXyXyXyXyXyXyXyXyXyXyXyXyXyXyXyXyXyXyXyXyXyXyXyXyXyXyXyXyXyXyXyXyXyXyXyXyXyXyXyXyXyXyXyXyXi k R ! l 6 5 5 %.Y.*.z j > * S #.$.I.u.t.t.0.0.+.[ %.U.U.H.<.%.Y 8 6 l ! ! A z z ^ ~ ~ ~ ~ ~ / / / / ~ ~ ~ ~ ~ W R R R ~ / ~ / / / / / / / / ~ ~ $.$.$.$./ / / / / / / / ^ ! ! ^ ^ ^ #.! ! R R ~ R R ~ ~ ~ ~ $.Z.V.g.g.g.g./ ~ ~ ~ ~ ~ / / / / / g.Q E s.d.s./ W E W E R R R W N s R E Q ~ R R R R / / / / / Q E B a.s.s.E E E E E E Q Q E E s s s s a s x R R a , j U ..=.;.;.P { <.$.$.$.:.%.@...l w O.5.0.5.O.w > 5 8 5 # 8 <.Y.$.F J #.#.&.0.t.u.u.u.u.u.w.0.0.w.w.r.0.,...L F $.2.g #.<.",
"#.; ;.;.I I ..%.%.,.0.w.0.0.r.r.w.w.r.w.w.w.0.;.@.@.z R E.$.j 7 5 5 5 * w +.0.,.%.o.S @.$.:.H.U.q.:.2.1.S :.c.z.( / D j < j j < : % , , , , , u u u u u p g g g p p i i a a a a a k k k k z k k A k a k z l l l l l j l j l z z g u g j j l l l l g j g l l l l z l l j j g l l Z S l l l g k z l l l D A l l z A A z z z l l z z A A A A A A z A F ! ! ! ! ! A z z z z l j g l j g g z z l l Z z z A l j j l l j z z z l l j J #.%.<.:.<.2...o.w.u.u.5X6X6Xe.0.e.l . = j z %.q.%.> , l S I #.~ s h.R . yXyXyXyXyXyXyXyXyXyXyXyXyXyXyXyXyXyXyXyXyXyXyXyXyXyXyXyXyXyXyXyXyXyXyXyXyXyXyXyXyXyXyXyXyXyXyXyXyXyXyXyXyXyXyXyXyXyXyXyXyXyXyXyXyXyXyXyXyXyXyXyXyXyXyXyXyXyXyXyXyXyXyXyXyXyXyXyXyXyXyXyXyXyXyXyXyXyXyXyXyXyXyXyXyXyXyXyXyXyXyXyXyXyXyXyXyXs x R ! l 6 5 5 %.Y.#.z g > * J %.$.2.e.t.t.w.w.0.[ %.U.H.H.<.;...j j l z z j j j l l j l l j l z A z z l l l l z z z z j j j z z k k k k k k l l z Z l l z D F F A A A D z l j j l j j j j j j p g g g j g j j j z A k k k k l l l l l z z z k j z k k R R R A k k k j g g p k p p k z z A z j j l z z z z z k a a k x k k k g g g g g g k g p p u u p p p g g j u z ^ ..;.#.;.T | <.:.$.$.$.@.@...l ' O.3.3.+.O.w > 8 w 5 # 8 <.Y.:.I } @.%.&.0.t.w.u.u.u.w.w.0.0.w.y.r.0.,...J L :.2.j %.q.",
"@.; ;.;.I } ..%.,.0.r.w.0.0.r.y.u.u.r.0.w.w.0.,.@.I z ! E.:.j 7 5 5 7 * w +.0.,.+.o.[ @.$.:.;.:.<.>.2.0.S :.c.c.F.;.Y l , = % o . . . . . . o o o o o o o o o o % % $ $ $ $ % % % % % % % % % % % % $ % % # * * * # o o o o % % o o o * * * * * # # * * ; > ; = = > > = * * = * * * * * * * * * * > > > > * * * > = = % % * * * = = = ; ; > > > > , > > > > ; ; * % * % * * * * * * = = * * > > * * * * * * * * * = * * * * * l %.,.q.q.U.U...o.w.u.5Xu.u.u.t.0.e.l . * j L <.e.+.5 , l S #.&.^ x A.! . yXyXyXyXyXyXyXyXyXyXyXyXyXyXyXyXyXyXyXyXyXyXyXyXyXyXyXyXyXyXyXyXyXyXyXyXyXyXyXyXyXyXyXyXyXyXyXyXyXyXyXyXyXyXyXyXyXyXyXyXyXyXyXyXyXyXyXyXyXyXyXyXyXyXyXyXyXyXyXyXyXyXyXyXyXyXyXyXyXyXyXyXyXyXyXyXyXyXyXyXyXyXyXyXyXyXyXyXyXyXyXyXyXyXyXyXyXs R ! @.S 8 5 5 %.U.#.D 6 * * P ;.$.<.e.e.u.t.t.0.[ %.H.F.F.<.;.@.l 8 , ; = % o o * * * * # # * % * ; * * * * * * * * * # o % % % % % % % % * * * * > * > ; ; ; ; ; ; , ; * * * * * % o * * * * % ; ; * * * % % % % * % % % % * * * * * * % % * * * * % * > ; = % % % % o o o % % % % % % % % % # % % % * * % % % % % % % o o o . + + + . o o o o o % % % % % o % , z ^ #.#.#.;.I { :.;.;.#.#.Y ^ ..S ' O.+.+.+.O.w 5 8 l 5 * j Z.Y.:.! @.%.;.,.w.t.u.u.u.u.u.t.w.0.w.w.r.0.,...I L :.q.g &.e.",
"@.; ;.;.I } %.,.0.0.0.r.0.0.r.u.u.u.w.w.w.0.0.,.@.I z ! E.:.j 7 5 5 8 * w =.0.0.+.o.[ @.#./ #.,.1.2.e.0.l / c.z.>.#.^ D , . . . o # # # # # # # * * * * * # # * * * * * * * = * * * * * * * * * > = * * > > > > > > > > 5 > 5 5 > > 5 5 , > > > 5 5 , 5 5 5 , , > 5 5 5 > 5 5 5 5 > > 5 5 5 5 5 7 7 7 7 7 5 5 5 5 5 5 , 5 5 7 7 7 7 7 8 8 7 7 7 7 7 7 8 7 7 7 7 5 5 5 5 5 5 5 5 5 5 5 , 5 5 5 5 5 5 5 5 5 5 5 5 5 , > = = * * 8 %.;.e.q.U.T...o.u.5Xu.u.u.u.w.0.q.w . * l } q.u.%.5 5 l S +.;.#.R A.! . yXyXyXyXyXyXyXyXyXyXyXyXyXyXyXyXyXyXyXyXyXyXyXyXyXyXyXyXyXyXyXyXyXyXyXyXyXyXyXyXyXyXyXyXyXyXyXyXyXyXyXyXyXyXyXyXyXyXyXyXyXyXyXyXyXyXyXyXyXyXyXyXyXyXyXyXyXyXyXyXyXyXyXyXyXyXyXyXyXyXyXyXyXyXyXyXyXyXyXyXyXyXyXyXyXyXyXyXyXyXyXyXyXyXyXyXyXx @.%.#.[ 8 5 5 &.U.#.J j * * } :.:.<.e.t.u.u.t.0. .%.J.F.<.;.;.@.j * % o # * * > > 5 > > > > > 5 5 7 5 5 5 5 5 5 > > > > > 5 5 5 > > > > > > > > > > > 5 5 5 6 6 5 5 5 5 5 5 5 > > 5 5 5 5 5 5 5 5 5 5 5 5 5 5 5 > > 5 , 5 5 5 5 5 5 5 5 5 5 5 5 5 > 5 > > 5 > > > > > > > * * * * * * * % * * * * * * * > * > > * * * > > > > # # # * > > > * * * * * * * # o o < k ~ #.#.:.>.I P :.;.;.%...I ^ @.l w O.O.+.+.O.q > j l 5 # g Z.Y.:.! @.%.,.0.t.u.u.u.u.u.u.t.w.w.w.r.r.0.,.%.} } :.q.g %.e.",
"} = ,.;.} } %.%.,.0.0.0.0.w.u.u.y.y.y.y.w.w.w.q.%.} z ! E.:.j 7 5 5 8 > w 5.0.5.+.o.[ ..#.#.;.1.w.2.2.0.w $.D.l./ ^ #.P , o * > > > , , > > > 5 5 5 5 5 5 5 5 5 5 5 , , > 5 6 , , , , , 5 5 5 5 6 6 5 5 8 8 6 5 5 8 8 8 8 8 8 8 8 8 8 j j 8 8 8 8 8 j j j j j j j l l j 8 j j j j j j j 8 8 8 8 j l l l l w l l l l l j j l S l l l l S S S S S S S S S S S S S l w w j l l j j j w j l l l l l l l w l l l l l l j j 8 6 < , j #.%.,.1.e.e...o.t.5Xu.u.u.t.w.,.q.w O > l I <.u.,.5 5 l T +.,.@.R A.! .   yXyXyXyXyXyXyXyXyXyXyXyXyXyXyXyXyXyXyXyXyXyXyXyXyXyXyXyXyXyXyXyXyXyXyXyXyXyXyXyXyXyXyXyXyXyXyXyXyXyXyXyXyXyXyXyXyXyXyXyXyXyXyXyXyXyXyXyXyXyXyXyXyXyXyXyXyXyXyXyXyXyXyXyXyXyXyXyXyXyXyXyXyXyXyXyXyXyXyXyXyXyXyXyXyXyXyXyXyXyXyXyXyXyXyXyXk @.$.%.[ 8 5 5 &.U.@.l l > * } :.:.q.t.t.8Xu.t.0.[ %.J.F.;.;.;.@.< * * > 5 7 7 7 l l 8 8 j j l j l l l l l l l l 8 8 8 8 8 8 8 8 8 8 8 8 j j j 8 8 8 8 8 8 j j j j j j j j j 8 8 8 w l j j j j 8 8 8 8 8 8 8 7 7 5 8 8 8 8 7 8 8 j 8 8 8 8 8 8 8 8 j j j 8 j 8 8 8 8 8 8 5 5 5 5 5 5 5 5 5 5 6 5 5 5 5 6 8 8 8 8 5 5 6 6 6 5 5 , , 5 < 6 8 6 6 < < 5 , , , > ; * j z ^ ^ #.:.F.I J ;.;.;.,.%.I ! } l w +.5.5.5.+.w > 8 j 5 # < $.J.$.F } ;.0.e.w.u.y.u.5Xu.u.w.r.w.y.y.w.w.0.%.} I :.q.6 %.e.",
"} = ,.;.} } ..#.%.,.0.0.r.w.y.y.y.y.y.u.u.u.t.0.&.@.z R E.:.j 5 5 > 8 > _ 5.0.+.+.O.' } ;.<.1.0.w.1.w.,.8 #.D.g.^ #.;.D , * > ; * = ; ; ; ; , , 5 , > > > > , , , , , , , , < < , > > > ; , , , , , , , , , 5 5 5 5 5 6 6 6 , , , 5 5 6 6 5 5 5 5 6 6 6 8 8 6 6 8 j 8 8 6 6 6 6 < < < < , , 5 5 6 6 5 5 5 5 6 6 6 6 6 6 6 8 j 8 8 8 8 8 w j j l l l w w l l l 8 8 8 8 8 8 8 8 8 8 6 6 8 8 6 6 6 6 6 6 6 6 6 8 8 8 6 6 6 < 6 < l #.%.,.,.q.e. .o.u.5X5Xu.u.u.w.,.q.l O > l L %.e.,.5 , l J #.&.^ N D.^ .   yXyXyXyXyXyXyXyXyXyXyXyXyXyXyXyXyXyXyXyXyXyXyXyXyXyXyXyXyXyXyXyXyXyXyXyXyXyXyXyXyXyXyXyXyXyXyXyXyXyXyXyXyXyXyXyXyXyXyXyXyXyXyXyXyXyXyXyXyXyXyXyXyXyXyXyXyXyXyXyXyXyXyXyXyXyXyXyXyXyXyXyXyXyXyXyXyXyXyXyXyXyXyXyXyXyXyXyXyXyXyXyXyXyXyXyXx @.%.#.S 8 5 5 ;.R.@.l l > * I :.;.w.u.u.8Xu.t.0. .%.J.F.<.1.,...8 ; > > 5 5 5 5 8 8 6 6 6 6 8 8 8 j j 8 8 8 8 8 6 5 5 5 5 5 5 5 5 5 5 5 6 6 5 , , > > , 5 6 6 6 6 8 8 j j j 6 5 5 8 8 8 8 8 8 6 5 5 5 5 5 > 5 5 5 5 5 5 5 5 5 8 8 8 8 6 6 5 6 6 6 8 8 6 < 6 5 5 5 5 5 5 5 5 5 6 , , , > , , , , , > > , , , , , , , , , , > ; ; , , , , , , , , , 5 > > > ; * * j k ! ! ^ :.F.I S %.;.1.1.1.@.! I j w +.0.0.0.+.w > 8 j 5 # , $.H.#.D } %.q.e.w.y.y.u.u.u.w.w.0.w.u.u.w.0.,.%.} I :.2.g %.q.",
"} * ,.&.} } } @.#.%.0.w.w.w.y.y.y.y.w.u.u.u.r.%.#.@.z R *X:.j 5 > > 7 > ' 0.w.0.5.O.' P ;.<.<.w.w.1.1.,.7 #.D./ / ;.;.D 6 % % % % * * * = = = * > = = * * * = * * * * * = = = = = * * * * * * * = = * * * * = > > > * = * = = = ; > > = > > > ; > > > > , , > > , , > > > > > > > > > > > > > > > > > > > > > > > * > > > > , > > > > > > 5 5 5 5 5 5 5 5 5 5 > > > > > > > > > > > > > > > > > > > , > > , , , , > 5 > ; , 5 S @.%.w.w.e.e. .o.u.8X8X8X8Xu.t.,.q.l O > l L &.e.%.5 , l P &.<.#.R J.^     yXyXyXyXyXyXyXyXyXyXyXyXyXyXyXyXyXyXyXyXyXyXyXyXyXyXyXyXyXyXyXyXyXyXyXyXyXyXyXyXyXyXyXyXyXyXyXyXyXyXyXyXyXyXyXyXyXyXyXyXyXyXyXyXyXyXyXyXyXyXyXyXyXyXyXyXyXyXyXyXyXyXyXyXyXyXyXyXyXyXyXyXyXyXyXyXyXyXyXyXyXyXyXyXyXyXyXyXyXyXyXyXyXyXyXW x @.@.I S 6 > 6 <.$X&.{ l 5 = I %.%.w.u.u.8X5Xt.0. .%.J.H.H.e.1...j , > > > > , , , , > > > > > > , , , , , , > > > > * > > > > > > > > > * * * * * * * > * ; ; ; ; > > > > > ; > > > 5 5 5 > > > > > > > * * > > > > = > > > > > > > > > > > > > > > > > > > * > ; * * > * * = = = = * * * * * * * * * * * * * * * * * * * * # * * * * * * * * * * > * * * * * * j g ! ^ $.>.F.P S ..+.1.e.e.%.! ! j w +.0.w.0.+.w 5 8 j 5 # , $.J.#.D } %.q.e.w.y.y.u.u.u.u.w.w.w.w.w.0.,.%...I I :.2.g #.q.",
"P = ;.;.} } } @.%.0.w.r.r.w.y.w.w.w.w.u.5Xu.r.0.$.@.z R =XZ.j 5 5 5 8 > _ 0.w.w.0.+.[ J &.<.0.0.,.,.,.+.7 #.l.( :.;.#.A 6 = . o % o % % % % * * % * % % % % % % % % % * * % % % % % * % % % % * = = % % % * * * * * * * * = > > = * * * * * * * * = = = = = = = = > = * * * = * * * > > > > * * > > > * * > > > > = = = * * ; = = ; > * = > > , , > > ; > > > * = ; ; ; ; ; ; = = = * * * * * * * * > * = > > > * > > > > , l l } %.e.e.e.e. .O.w.8X8X8X8Xu.w.,.q.w O > j J %.u.,.5 , l @.&.<.#.R D.~ O   yXyXyXyXyXyXyXyXyXyXyXyXyXyXyXyXyXyXyXyXyXyXyXyXyXyXyXyXyXyXyXyXyXyXyXyXyXyXyXyXyXyXyXyXyXyXyXyXyXyXyXyXyXyXyXyXyXyXyXyXyXyXyXyXyXyXyXyXyXyXyXyXyXyXyXyXyXyXyXyXyXyXyXyXyXyXyXyXyXyXyXyXyXyXyXyXyXyXyXyXyXyXyXyXyXyXyXyXyXyXyXyXyXyXyXg.R @.#.@.l 6 > 5 <.$Xq.{ w 5 = I :.%.0.w.u.8X6Xt.0.[ #.J.H.<.2.;.@.j z 6 * > * > ; > > * = = = = * = = = = = * * * * * * * = * * * * * > * * * * # * * * * * * = = = % % = = = = = = = * > > * * * * % * * * # * * * * * = > ; * = = = * * * = = * * ; ; % = > > * = = * * * * > > * * * % * * * * * % % % % * % * % % % % o # o o o o o o % * % o o # # # # o % 5 j 6 } $.$.:./ S S +.=.1.1.1.@.! ! l w X.+.0.0.3.' > j S > # 8 :.J.$.I ..%.,.w.w.w.w.u.t.w.w.w.w.w.w.w.0.%.#.} I I :.2.g #.2.",
"P ; ;.;.} } } @.&.0.w.0.w.t.t.w.w.w.w.u.u.u.w.q.&.@.! R =XZ.g 5 5 5 w > w 0.w.0.0.+.[ D ;.:.,.=.=.,.,.+.8 ^ ( ( F.;.#.l j j = % = , < < u j j 8 g g 6 6 6 u u g j j j j j j j j j 8 j j 6 8 j j l j j j j j j 8 j 8 8 8 8 l l l l j j j j j j j j j l j j l l l l j j 8 8 j j j j l j j l l l l l l l l l l l S J D D D z l l l l l l l l S S J P J S S S l l j l j j j j j j j j 8 6 8 6 5 5 6 8 j j j j j j j j 8 j j j j L l { %.,.0.e.e. .O.w.8X8X6Xu.u.q.%.<.8 X > j J ,.#X0.5 > D @.&.<.^ x A.R .   yXyXyXyXyXyXyXyXyXyXyXyXyXyXyXyXyXyXyXyXyXyXyXyXyXyXyXyXyXyXyXyXyXyXyXyXyXyXyXyXyXyXyXyXyXyXyXyXyXyXyXyXyXyXyXyXyXyXyXyXyXyXyXyXyXyXyXyXyXyXyXyXyXyXyXyXyXyXyXyXyXyXyXyXyXyXyXyXyXyXyXyXyXyXyXyXyXyXyXyXyXyXyXyXyXyXyXyXyXyXyXyXyXyXyXA./ %.&.%.l 7 > 6 :.OX<.{ w 5 = @.<.%.0.u.u.8X6Xu.0.[ #.H.>.;.:.;.@.j ! J < 5 5 8 8 8 8 8 j j j j 8 8 j j l j j j j 8 8 j 8 8 j w l l l l j j j j 8 6 8 8 8 8 8 j j j j j l l l l l j j j j j l l j j j l l 8 8 8 8 8 j l l l l l j l j j j l j j l j l A A z l l l l l j j j j l l j j j j 8 8 j j 6 5 < 6 6 j j 6 6 6 6 6 5 5 , = > > , , < < , , , > > > * * > j j < I @.#.$./ S S +.=.,.,.%...^ ^ l q X.+.=.0.5.[ 5 j S , # 8 $.J.$.} #...,.w.w.w.w.w.t.t.y.w.w.w.w.w.w.0.%.@.I ! :.2.g #.2.",
"{ > <.:.} I I @.&.0.0.0.w.q.0.w.0.w.w.y.u.u.u.q.%.@.F R *XZ.j 5 5 7 w > w 0.0.0.5.o.[ A ;.<.1.,.=.,.,.+.5 U / / :.#.! g z @.j , < u k k k z z A A z z z z A z z F z z D F F ! F z z D F z F U ! F F I I @.@.L L I I I P { ..} I I ! ! @.I L L I I I ......@.@.%.%.#.#.@.#.#.@.#.^ @.@...I @.%.%.%.I ..%.%.#.%.&.:.$.%.%.%.&.:.%.%.;.:.;.&.%.,.<.<.;.;.<.<.:.@.@.#.#.#.^ @.@.@.#.#.@.@.@.} I I I I ! ! ! ! ! ! ! ! ! F F D ! ! j P ..,.0.e.u. .o.t.8X8Xu.t.e.;.@.:.w X > 8 J 0.0X0.5 > D ! #.:.~ x z.R       yXyXyXyXyXyXyXyXyXyXyXyXyXyXyXyXyXyXyXyXyXyXyXyXyXyXyXyXyXyXyXyXyXyXyXyXyXyXyXyXyXyXyXyXyXyXyXyXyXyXyXyXyXyXyXyXyXyXyXyXyXyXyXyXyXyXyXyXyXyXyXyXyXyXyXyXyXyXyXyXyXyXyXyXyXyXyXyXyXyXyXyXyXyXyXyXyXyXyXyXyXyXyXyXyXyXyXyXyXyXyXyXyXyXK.g.&.<.:.T 5 * 5 %.2.%.S w 5 = @.<.%.w.u.5X8X5Xu.0.[ #.Z.:.#.%.%.@.g ^ $.D j l } @.#.I I @.#.#.^ ..@.@.@.@.#.^ #.#.^ ^ @.@.......%.#.@.@.! ^ @.Y I P P } ......@.@.@.@.@.@.@.@.^ ^ @.@.@.@.@.@.@.! ! ! ! I I I P I I } @.@.@.! ! @.@.@.F F ! ! ! ! I ! ^ ^ ^ I } #.} I I F L @.#.@.} I ! ! I U U F F F D A F ! ! F z z F F z z g p g j g g g g g g g g g g , , l I j j ....#.$.;.T [ +.=.,.+.....@.^ j q O.+.+.0.5.' 5 l P 5 # 6 $.H.$.} %.%.,.0.w.e.0.0.w.r.w.w.w.w.w.u.t.w.,.#.I ! &.q.g #.q.",
"P , <.:.} L L @.#.<.q.0.,.;.,.0.0.w.w.w.u.u.w.,.#.! F R *XZ.j 5 5 7 l > w 0.0.5.5.o.[ Z ;.1.2.w.0.,.%.+.5 ! Z.( #.Y I j l #.z u u p k k z z x ! ! z k k z R R R ! A z A R ! ~ ! A z z F R ! ^ ^ F F ! ^ ^ ^ ! F F U I I #.%.@.L ! ^ @.#.! U ! ^ @.@.%.#.#.#.#.%.%.*.*.#.#.#.#.^ $.$.#.#.#.%.&.<.$.^ #.:.&.%.%.<.2.<.$.$.:.<.:.%.%.:.<.:.%.q.q.e.q.2.2.U.I.:.#.@.#.$.$.$.#.#.%.$.$.#.@.^ #.#.#.^ ! ! ! ^ ^ ^ ^ ! ! R ! R ! *.! j P ..,.q.T.#X.. .t.8X0Xu.e.0.%.^ :.j . > j { e.wX0.5 > l z ! :./ s z.R     yXyXyXyXyXyXyXyXyXyXyXyXyXyXyXyXyXyXyXyXyXyXyXyXyXyXyXyXyXyXyXyXyXyXyXyXyXyXyXyXyXyXyXyXyXyXyXyXyXyXyXyXyXyXyXyXyXyXyXyXyXyXyXyXyXyXyXyXyXyXyXyXyXyXyXyXyXyXyXyXyXyXyXyXyXyXyXyXyXyXyXyXyXyXyXyXyXyXyXyXyXyXyXyXyXyXyXyXyXyXyXyXyXyXyXK./ &.<.:.S 5 * , @.;.@.S w > = @.;.&.w.u.7X7X5Xt.0.{ #.S.F.;.#.@.@.g F $.! z z ! @.@.! ! @.#.#.@.<.<.$.@.#.;.;.$.*.#.#.#.%.#.;.;.<.:.#.#.#.^ ! U I I @.@.@.@.#.#.^ #.#.^ #.#.#.#.#.#.#.%.;.;.$.*.*.*./ ~ ! ! @.%.@.@.@.#.#.^ ! ! #.%.#.U F ^ #.^ ^ #.#.^ ~ ~ ! #.%.I I ^ I U ^ ^ ^ ! ! ! ! ! ! R A A A A R ! ~ ~ ! R R R x k k k k k k h a a k k k k i h p u g F ^ g j %.%.%.:.>.P [ =.=.,.,.,.@.@.! 8 w 3.5.=.5.3.' > l P 5 > < $.F.#.I #.;.%.+.0.w.q.;.,.w.w.w.w.w.w.u.u.w.,.@.I I &.q.g %.q.",
"J , <.&.L J L I @.<.q.<.,.&.&.%.,.0.w.w.w.w.w.,.#.! U ! *XZ.j 5 5 5 w > w 5.0.5.=.o.w l %.;.<.w.0.,.,.+.6 #.`.S./ U I l < L z p i i k k x k x R ~ z a k k R R ~ R R k k R R ~ ~ ! k k A R ~ ~ ^ A A ! ^ ^ ^ ^ ! ! F U @.%.%.@.U ! ^ ^ #.! ! ! ! ! ^ #.*.*.*.^ ^ ^ ^ ^ ^ ^ ^ ^ ^ ^ ^ #.#.#.%.$.:.#.! #.:.;.%.%.:.<.<.$.*.$.&.:.;.;.:.:.:.;.q.q.q.2.:.:.2.F.;.#.#.#.#.#.$.$.#.#.*.#.! ! ! ^ #.#.^ ! ! R ~ ^ ^ ^ ! F ! z R ^ $.L j S ..;.q.#X#X . .e.!.u.u.e.0.%.@.&.j . > l } e.wX0.5 5 l l I $.~ s z.m     yXyXyXyXyXyXyXyXyXyXyXyXyXyXyXyXyXyXyXyXyXyXyXyXyXyXyXyXyXyXyXyXyXyXyXyXyXyXyXyXyXyXyXyXyXyXyXyXyXyXyXyXyXyXyXyXyXyXyXyXyXyXyXyXyXyXyXyXyXyXyXyXyXyXyXyXyXyXyXyXyXyXyXyXyXyXyXyXyXyXyXyXyXyXyXyXyXyXyXyXyXyXyXyXyXyXyXyXyXyXyXyXyXyXR K.g.%.<.%.S 5 * 6 %.<.#.{ w > = ! ;.;.e.!.!.u.w.w.,.[ #.J.H.;...P @.l k ! ! F z F ^ ^ ! ! ! ! ! ! 2.2.$.^ ! #.$.*.^ ! ! ! ^ ^ ;.<.<.;.@.^ ^ ^ ! F ! @.@.@.@.$.*.~ ^ ^ ^ ^ $.$.#.^ ^ ^ ^ #.<.F.$.#.*.*.$./ A ! %.$.@.#.#.#.! ! ! ! #.%.#.! A ^ ^ ! *.$.$.~ R ^ #.&.%.F U ^ ^ ! ~ ^ ^ ^ ! ! ! R R z k k R R x R ! R x x x R x k k x R z a i i a x x k p p p i h z ^ ! 6 8 ....%.;.;.T [ ,.0.0.0.0.&.#.@.j w 5.0.5.5.3.w > S } 6 5 8 ~ F.#.J #.;.%.%.,.0.,.%.%.,.0.w.w.r.r.w.w.w.%...I I :.q.g #.q.",
"D , <.&.L L L ! @.&.%.,.,.<.&.&.,.0.0.0.w.w.w.,.@.I U R *XZ.j 5 5 7 S > w 5.0.5.=.o.w l %.:.1.1.,.1.,.+.6 :.`.S.^ I @.Z < D ! A k k k k z x R ! ~ R R R R R R ~ ~ R k R R ! ~ ~ ~ ! A R ~ ~ ~ ^ ! A ! ^ ^ ~ ^ ^ ! U I @.%.%.#.^ ^ ^ #.*.#.#.#.^ ^ ^ $.$.$.*.~ ^ ^ *.$.#.@.#.#.^ ^ #.#.$.$.;.;.;.$.@.%.:.:.$.:.:.<.:.$.%.%.%.$.:.:.:.%.;.<.2.2.2.:.:.:.<.<.<.$.$.*.^ ^ $.$.$.*.#.#.! ! #.#.#.#.#.#.^ ! ^ $.$.#.^ ! ! ! ~ *.$.z j { %.,.q.T.T. . .t.u.u.u.e.q.;.#.<.8 . > j } e.qX0.5 5 l S ..;.~ x g.a     yXyXyXyXyXyXyXyXyXyXyXyXyXyXyXyXyXyXyXyXyXyXyXyXyXyXyXyXyXyXyXyXyXyXyXyXyXyXyXyXyXyXyXyXyXyXyXyXyXyXyXyXyXyXyXyXyXyXyXyXyXyXyXyXyXyXyXyXyXyXyXyXyXyXyXyXyXyXyXyXyXyXyXyXyXyXyXyXyXyXyXyXyXyXyXyXyXyXyXyXyXyXyXyXyXyXyXyXyXyXyXyXyXyXA A./ #.;...S 5 * 6 :.U.%.{ 8 > = I ;.<.e.u.u.u.w.0.%.S #.J.H.;.....%.Z j F ^ #.! I @.$.$.$.#.#.#.$.:.<.;.#.^ ^ #.$.#.^ ! ^ @.@.;.<.<.;.@.@.^ ^ ^ ^ #.%.#.@.#.$.$.$.*.*.^ ^ $.:.$.#.#.#.#.%.2.F.;.$.$.$.Z.~ ! #.;.;.@.#.*.#.! ! ! ! #.#.#.! ! ^ ^ ^ $.<.$.^ ~ ~ $.&.%.! ! #.@.^ ^ #.#.#.^ ! ! ! ! A z R ~ ~ ! ^ ^ ^ ! ! ! R ! z z ! ! z g h k R R ! z p k k k z ! #.! 6 8 | ..%.:.:.T [ 0.r.w.w.e.<.:.%.l w 5.5.5.5.3.w * S ..8 > 8 ~ F.#.J @.,.1.q.0.,.%.%.,.,.,.0.w.r.r.w.w.0.%...I ! :.2.j %.q.",
"D , <.&.L L L ! @.&.&.%.,.<.<.,.q.0.0.,.,.0.0.&.@.I U R *XZ.j 5 5 7 S 5 w 5.0.5.+. .w l @.;.2.W.W.1.,.,.6 / D.( ^ #.%.D 8 l ! A k g p p k k k z k k z z z k k k k k k k k k k A A z z z k A R ! A z z A A R A A F A A D I I I I F A A ! ! ! ! U F U ^ ! ! ! F F D ! ! I I I I I U I I ! ! ! I ! ! F U I I I @.@.! U U I I I #.#.@.@.@.#.%.%.@.@.@.@.^ ^ ^ ^ #.#.! F F ! ^ ^ ! F A A F F F F F U U F F F I I L D z l z z ! #.l l { %.;.<.q.e. .o.t.8X8Xu.u.w.;.#.<.w + > j L <.#X0.5 5 S [ ,.;.#.x s.i     yXyXyXyXyXyXyXyXyXyXyXyXyXyXyXyXyXyXyXyXyXyXyXyXyXyXyXyXyXyXyXyXyXyXyXyXyXyXyXyXyXyXyXyXyXyXyXyXyXyXyXyXyXyXyXyXyXyXyXyXyXyXyXyXyXyXyXyXyXyXyXyXyXyXyXyXyXyXyXyXyXyXyXyXyXyXyXyXyXyXyXyXyXyXyXyXyXyXyXyXyXyXyXyXyXyXyXyXyXyXyXyXyXyXp g.~ ..,.%.[ 8 * 6 <.U.:.} 8 > = I ;.q.t.e.e.e.0.0.%.[ #.H.U.2.1.,.;.S j F ! ! U z D I I I U F U U I I U F D A A F F F D D D I } } ....I F z z z F I I F F U I ! ! F F A z F ! I D D I I @.! @.#.@.! I ! F A F I U U U ! A z z z z z D F F D D D F ! ! F z A F D ! F z z A z l z z F L D z k g g g g k z z z z z z z z z z z g k l z g u u g k k g h u p u g k z ! z 6 j ....%.;.:.[  .0.w.e.e.e.<.;.@.l _ 9.8.0.5.5.q # S %.w > j / G.#.I #.,.0.0.0.,.%.;.1.,.,.,.0.w.w.w.r.,...I I ! :.2.j %.q.",
"J , <.#.L L L @.#.%.,.,.,.,.<.q.<.1.,.1.0.0.0.;.#...F ~ *XF.j 5 5 7 S 5 w 5.0.+.+. .w S ^ ) S._._.2.<.1.8 ! S./ / ;.<.I 8 8 6 , % % % * = = ; = = % = ; ; ; ; = = = % , = % = ; ; ; ; ; ; ; , , , ; = ; , , , , , , , , , , , , , ; , , , < < , , , 5 , , ; ; ; ; > > > > > > > 5 5 5 , > > > > > ; ; > > > 5 5 5 > > > > > 5 5 5 > 5 5 5 5 , 5 5 5 , , 5 5 5 6 , , < , 5 5 , > > > > > > > , , , 5 5 5 5 5 5 5 5 , 5 5 8 j 8 S ..@.%.;.F.U.| o.w.8X8XT.e.w.,.%.<.l . > j L &.T.,.5 5 S  .=.0.#.s E i     yXyXyXyXyXyXyXyXyXyXyXyXyXyXyXyXyXyXyXyXyXyXyXyXyXyXyXyXyXyXyXyXyXyXyXyXyXyXyXyXyXyXyXyXyXyXyXyXyXyXyXyXyXyXyXyXyXyXyXyXyXyXyXyXyXyXyXyXyXyXyXyXyXyXyXyXyXyXyXyXyXyXyXyXyXyXyXyXyXyXyXyXyXyXyXyXyXyXyXyXyXyXyXyXyXyXyXyXyXyXyXyXyXyXyX/ ! +.0.1.o.w * 6 <.U.&.{ l > = L ;.2.2.<.<.e.e.w.0.[ #.H.U.e.e.0.1.T 8 j j 8 , > > > > > ; ; ; > > ; > > , > ; > > > > > > > 5 5 5 5 5 > > > , , 5 5 5 5 5 5 5 5 , , > > > > > > > 5 5 5 5 5 8 5 5 , 5 5 > 5 > > 5 5 , , = = * > * * > > > > , , , > > ; > ; * * * * % * * * * ; > > > = * * % o o * * * * * * * * = = = * = * * * * % * * = = = * = = * * * > , 5 g S ..^ %.<.:.S [ 0.u.#Xe.e.;.%.#.l _ 5.r.r.5.5.q # S ..8 > j *.G.$.L #.1.,.,.%.%.;.:.<.,.%.,.0.w.w.w.0.,.%...! ! :.2.j #.U.",
"J , ;.@.L L } ..%.0.0.0.0.0.0.,.%.&.,.0.w.0.0.1.%...D ~ *XG.j 7 5 5 S 5 w 5.0.+.+. .w S ^ ) l.S.S.S.>.1.8 Y S.l.Z.F.<.I 8 > . . . . # * > * * * * * * * * * > * * * * * * % % * * * * * * * > > > > * * > > > > > > > > > 5 5 > > > > > > > > > > 5 5 5 > > > > 5 5 5 5 5 5 5 5 5 5 5 5 5 5 5 5 5 5 > 5 5 5 5 5 5 5 5 5 > > > 5 5 5 5 5 5 > > > > > > > > > > > > > > > > > > * * * * > > > > 5 5 5 5 5 5 5 5 5 5 5 5 5 5 5 6 S %.#.:.:.H.H. .+.w.u.u.t.e.0.,.;.<.l o > l L &.U.&.> 5 S  .5.0.$.s s u     yXyXyXyXyXyXyXyXyXyXyXyXyXyXyXyXyXyXyXyXyXyXyXyXyXyXyXyXyXyXyXyXyXyXyXyXyXyXyXyXyXyXyXyXyXyXyXyXyXyXyXyXyXyXyXyXyXyXyXyXyXyXyXyXyXyXyXyXyXyXyXyXyXyXyXyXyXyXyXyXyXyXyXyXyXyXyXyXyXyXyXyXyXyXyXyXyXyXyXyXyXyXyXyXyXyXyXyXyXyXyXyXyXyXyX/ ! %.w.1. .q * , &.q.%.{ l , = F $.$.$.<.<.q.e.w.r.[ #.U.U.e.e.0.1.T 5 5 > > > > 5 5 5 5 5 5 5 5 5 5 5 5 5 5 5 5 5 5 5 5 5 5 5 5 5 5 5 > > > 5 5 5 5 5 5 5 7 7 5 5 5 5 5 5 5 > 5 5 5 5 5 5 5 5 5 5 5 5 5 5 > > > 5 5 5 * * * * * * * * * > > > > > > > > > * * * * # # # # # # * * * * * # * # # # # # * * > > * * > * * * * * * * * * * > > > > > > > * * * * * * j U ^ #.$.;.$.S [ w.u.T.e.1.%.%.%.l _ 5.0.0.5.5.' # l S 6 > g $.H.$.D #.1.,.,.,.;.&.;.;.&.%.0.w.w.0.0.0.0.,.%.@.@.<.H.j #.U.",
"} < ;.@.L J { +.0.w.w.w.w.w.0.,...+.0.w.0.0.0.0.;.#.D ~ *XG.l 7 5 5 w > w 5.0.0.+.X.w S / / ) :.:.>.2.1.w ! S.z.F.F.;.D 5 * . . > 5 8 8 8 8 8 8 8 7 7 7 7 6 7 7 7 7 7 7 8 8 8 8 8 8 8 8 8 w w l l w w w w w w l l l w w w l l l w l l l l l l w w w l l w w w w w l 8 8 l l l l S l S S l l l l l l l w w w w S S l l w w w l l l l l l l w w w w w l w w w w 8 8 8 7 7 7 q q 7 7 7 7 8 8 8 8 w w l S S S S S l l l l 8 8 8 j J #.#.$.:.H.H. .+.w.u.t.e.w.0.,.;.q.l . > l L &.U.%.5 5 [ o.w.w.$.a s u     yXyXyXyXyXyXyXyXyXyXyXyXyXyXyXyXyXyXyXyXyXyXyXyXyXyXyXyXyXyXyXyXyXyXyXyXyXyXyXyXyXyXyXyXyXyXyXyXyXyXyXyXyXyXyXyXyXyXyXyXyXyXyXyXyXyXyXyXyXyXyXyXyXyXyXyXyXyXyXyXyXyXyXyXyXyXyXyXyXyXyXyXyXyXyXyXyXyXyXyXyXyXyXyXyXyXyXyXyXyXyXyXyXyXyX/ ^ %.0.%.[ 0 * 5 &.q.%.{ l > = F ^ ~ ^ 2.q.e.e.w.r.X.#.H.U.e.e.e.1.S 8 5 5 5 8 w w S S S l w w l l S S S l w w l l l l l l l l l l l l l l l l l l l w S S S S S l l l l w 7 7 8 w w l w w w w l l l l l l 8 7 7 w w w q q w w q 7 7 8 8 8 8 7 8 8 8 8 6 8 5 5 5 5 5 , , > > 5 , , 5 5 5 > > ; , > , , , 5 6 8 6 6 8 8 5 5 5 5 5 5 5 5 5 8 8 8 8 8 j 8 6 6 6 < , , j I #./ $.$./ S [ 0.e.e.q.1.;.:.%.l w +.=.,.5.5.' - j S 5 > j $.H.$.D @.,.,.,.,.,.%.%.,.,.,.w.t.w.r.0.0.w.0.;.#.#.<.U.j #.T.",
"} 6 :.@.L L } +.0.w.0.0.w.w.w.,.+.,.w.w.0.0.0.0.%.%.D ~ *XG.l 7 5 7 7 * w 0.w.w.0.o.w D *./ ) ;.1.1.1.,.j ^ D.l.Z.:.#.l , * o > 7 8 8 8 8 8 8 8 8 8 7 8 7 6 6 7 7 7 7 7 7 7 6 6 6 6 6 6 6 8 w w w w w w w w w w l l l w l l l l l l l l l l w w w w S l w w w w w w w 8 8 w l l l l l w l l l l l l l w w l l S S S S S l l l l l l l l l l l l l l l l l l l w w w w 8 8 w w w w w 7 7 7 8 8 w w w l l S S l w l l l l l l l S ! ! ! / F.H.| +.w.u.e.e.e.w.,.,.q.l . > l L &.e.%.7 5 [ +.w.e.#.a s u     yXyXyXyXyXyXyXyXyXyXyXyXyXyXyXyXyXyXyXyXyXyXyXyXyXyXyXyXyXyXyXyXyXyXyXyXyXyXyXyXyXyXyXyXyXyXyXyXyXyXyXyXyXyXyXyXyXyXyXyXyXyXyXyXyXyXyXyXyXyXyXyXyXyXyXyXyXyXyXyXyXyXyXyXyXyXyXyXyXyXyXyXyXyXyXyXyXyXyXyXyXyXyXyXyXyXyXyXyXyXyXyXyXyXyX/ ^ %.0.%.[ q * 8 <.U.&.S l > = F ^ ! ^ <.q.e.u.y.0.[ #.H.U.e.e.e.;.S j 8 8 8 7 w S S S S S S S S S S S S S w w l l l l l l l l w w w w l j j j j j j j j j w l l l l w w 8 8 8 8 w l l w w w l l l l l l l 8 8 8 8 w w w 8 w w w 8 8 8 8 8 8 6 6 8 8 8 6 6 5 5 5 5 , > > > > 5 , > 5 5 5 > > > , 5 5 5 5 8 8 8 8 8 8 8 8 6 6 6 6 8 8 8 8 8 j j j j j 8 8 8 8 6 , 5 j U ! W ~ ~ / D [ 0.w.q.q.e.2.<.%.l w X.o.=.0.5.' - 8 l 5 > j *.G.#.D } ,.,.,.,.,.%.%.,.,.0.w.w.y.y.r.r.w.0.;.%.#.<.2.8 #.U.",
"} 6 <.#.L } #.%.0.0.r.r.w.w.0.,.,.0.w.w.0.0.0.,.%...D ~ *XJ.D 7 5 7 7 * w 5.w.w.0.+.n D #./ :.1.1.1.1.,.8 ^ D.z.l.:.$.z , % o # # # * o o o * * * * * * * % % * * * * % % # o o o o o o o o o * * * * * * > > > > > > > > > 5 5 5 > > , , > 5 5 5 5 7 5 5 5 > > > 5 5 > > > 5 5 5 5 5 > > > > , , , 5 5 5 5 5 5 5 5 5 5 5 5 5 5 5 5 5 5 5 > > > > > > > 5 5 5 5 5 5 5 > > > > > > > > > 5 5 5 5 5 5 5 5 5 7 7 7 5 5 6 8 8 8 j l A ! ! R Z.<.| +.w.t.w.w.w.0.,.%.q.l . > l L %.e.,.7 5 [ =.0.0.#.a s u     yXyXyXyXyXyXyXyXyXyXyXyXyXyXyXyXyXyXyXyXyXyXyXyXyXyXyXyXyXyXyXyXyXyXyXyXyXyXyXyXyXyXyXyXyXyXyXyXyXyXyXyXyXyXyXyXyXyXyXyXyXyXyXyXyXyXyXyXyXyXyXyXyXyXyXyXyXyXyXyXyXyXyXyXyXyXyXyXyXyXyXyXyXyXyXyXyXyXyXyXyXyXyXyXyXyXyXyXyXyXyXyXyXyXyX/ ! +.,.%. .w * 6 q.T.<.{ l , = ! #.#.#.;.q.U.T.w.,.S #.H.U.q.e.q.%.j 5 > > > > > 5 5 5 5 5 5 7 5 5 5 5 5 5 5 5 5 5 5 5 5 5 5 5 5 > > 5 5 > > > 5 5 5 > > > , 5 5 5 5 , , , , > > > , 5 > > > > , 5 5 5 5 5 5 5 , > > > > 5 > > > > > > > > > * * * * * * * * * * * * # # # # * * * * * * * # # * * * * > > 5 5 5 5 5 5 5 5 5 5 5 5 5 5 5 5 5 5 5 5 5 > 5 > > > * > 8 l ! R R W / D [ 0.w.e.e.e.<.;.@.j w X. .+.0.5.' # w S 7 > j $.G.$.L } %.%.,.,.,.,.,.0.0.0.0.0.w.y.y.y.w.,.%.@.#.<.2.8 ..T.",
"} 8 2.$.! @.#.%.%.0.0.w.w.0.&.&.0.0.w.w.w.0.,.%.#...z ! *XJ.D 7 5 5 7 > w 5.w.w.0.+.S A ^ / ;.w.w.,.1.+.8 ^ D.A.Z.Z.^ j u ; o o . o % * * * * * = % = = % % = % % % * % % * % * * * * * % % * * * % % * * = = = = * * * = * * * * * * * * = * * * > * * * % % * * * * * * * * ; = = * % % % % % % % = = = * * % * % % % # # * * * % * * * * * * * * * * * * * * * ; ; = = = * % # * * * * * = * > > > > > > > * * * > > ; j J Z ! #.#.^ >.<.{ o.0.w.0.w.w.0.,.#.%.l . * j J &.U.,.8 7 [ +.=.,.#.a a & . yXyXyXyXyXyXyXyXyXyXyXyXyXyXyXyXyXyXyXyXyXyXyXyXyXyXyXyXyXyXyXyXyXyXyXyXyXyXyXyXyXyXyXyXyXyXyXyXyXyXyXyXyXyXyXyXyXyXyXyXyXyXyXyXyXyXyXyXyXyXyXyXyXyXyXyXyXyXyXyXyXyXyXyXyXyXyXyXyXyXyXyXyXyXyXyXyXyXyXyXyXyXyXyXyXyXyXyXyXyXyXyXyXyXyXyX/ ! +.,.,.+.w > 6 2.$Xq.} l 5 = I $.%.%.;.1.e.e.,.+.S @.H.H.2.e.2...j 8 % $ % % % = ; = = = * > , = = = * * * * * = > > > > > > > * * * * * * * > > > > > > ; ; ; ; ; ; = = = = * = = = = % * * * * * = = = * > > > ; ; ; ; ; ; = = = = = * * * * * % o o o o o o % % o o o o o * o o o o o o o # % % % * > > > = = ; > = = = ; = = = = = = = * * % % * * o % % * 5 j j / / / ( l.D [ 0.e.e.e.e.;.@.U j w X. .+.=.+.w > l S 7 > g $.G.$.I } %.@.#.%.;.,.,.,.,.0.0.0.0.0.r.r.w.,.%.@.@.:.U.j #.T.",
"} j q.&.@.@.@.#.%.,.0.w.0.,.%.&.0.0.w.w.0.,.&.&.%...l ! *XL.F 5 5 5 7 > w 0.w.w.0.+.S D @.#.1.e.u.w.,...8 ^ D.D.Z.:.! k F g , , , , < u u u j j g g g g g p j j j j u < < < u g j j u u u j j j j < < < p u u u < j j j j j j j 8 6 6 6 6 6 6 5 5 5 6 6 < < , < 6 g j j j g u j j g j 6 6 < 6 < < < 6 6 6 6 6 8 6 6 6 6 8 8 8 8 8 6 6 8 6 8 8 5 5 , 5 5 6 8 8 8 8 6 g g g 6 < , , 5 6 < < < < 6 j j j j 8 6 < 5 5 , 5 5 6 P #.l U :.<.$.F.>.P  .0.0.0.0.e.0.1.#.%.l o * < z &.U.,.8 7 [ +.0.0.#.k ~ z . yXyXyXyXyXyXyXyXyXyXyXyXyXyXyXyXyXyXyXyXyXyXyXyXyXyXyXyXyXyXyXyXyXyXyXyXyXyXyXyXyXyXyXyXyXyXyXyXyXyXyXyXyXyXyXyXyXyXyXyXyXyXyXyXyXyXyXyXyXyXyXyXyXyXyXyXyXyXyXyXyXyXyXyXyXyXyXyXyXyXyXyXyXyXyXyXyXyXyXyXyXyXyXyXyXyXyXyXyXyXyXyXyXyXyXg / ! %.,.,.o.w * 6 <.T.<.{ l = = L :.,.,.,.,.q.e.,.+.S #.H.2.<.1.<.I D ..8 , < < u j j j j j j j l j j j 8 8 8 8 j j g g j l l l g p < < < < 6 < 8 8 8 8 8 j 8 8 6 6 6 6 8 j j j 8 8 j j j j 6 6 6 6 5 8 8 8 8 j j j j j l l g j j j j p < < < < < j < , , , , < < < < < < , , < j 6 , , < < , < j g g g g z z l j g j j j g g j j j p u u u < , , , , < , % = = 6 J l p / l.l.l.( D S ,.w.e.e.e.;.^ ! j q X.o.,.0.+.w # l S 7 > g $.G.$.! } @.U U @.&.,.0.,.1.0.0.0.0.0.0.0.,.&.#.@.@.<.U.j @.U.",
"} j q.&.! L } #.&.,.,.,.,.,.;.,.0.0.0.w.0.%.%.%.#.@.l ! =XL.F 5 > 7 7 > w 0.w.w.w.+.S P @.%.0.t.u.w.,...8 ^ S.z.:.#.F g F F g p j g g k z z A A z z z z z A F ! U F A A D D A ! ! ! A A A ! ! ! U D F F U ! U U ! ^ ^ ^ @.@...} I I J I I I I L L L @.I I U F I } #.#.^ ^ ! ! R ! ! I I I Y Y I I I I ! I I I I } } } } } ..I I Y I ! ! ! ^ I U D D P ..@.@...} I I ! ~ ^ ! F D J P I I U A A U ! ^ @.^ ! I U I P J S l S %.%.j J $.:.;.>.>.P  .0.0.0.0.e.e.<.%.&.w . % < z #.q.&.5 7 [ +.w.e...A J.:..   yXyXyXyXyXyXyXyXyXyXyXyXyXyXyXyXyXyXyXyXyXyXyXyXyXyXyXyXyXyXyXyXyXyXyXyXyXyXyXyXyXyXyXyXyXyXyXyXyXyXyXyXyXyXyXyXyXyXyXyXyXyXyXyXyXyXyXyXyXyXyXyXyXyXyXyXyXyXyXyXyXyXyXyXyXyXyXyXyXyXyXyXyXyXyXyXyXyXyXyXyXyXyXyXyXyXyXyXyXyXyXyXyXyXg / ^ %.0.,. .q * 5 &.U.#.l 8 * % D &.,.0.0.,.q.q.0.%.S #.H.<.;.;.:.^ D %.I l z z F ! ! ! ! ! ! @.#.#.! ! ! I I ! ^ ^ ^ ^ ^ #.#.#.^ ! F F ! ! ! U F D P I @.@.#.@.I I ! ^ ^ ^ ^ ! ! ^ ^ ^ #.@.! I I } I ^ ^ ^ ! ! ! ^ ^ #.#.%.@.@.^ ^ ^ ! U U F U U ! U z k k k z A A F A A k j A ! ! z k A A A U ^ ^ ~ ~ ^ $.$.*.^ ! ^ ! ! ^ ^ ^ ^ ! ! ! ! ! R z z z z z p u < < l @.l , ~ / / / / D S +.,.e.e.e.1.#.@.8 q  .+.0.0.+.q # w S 7 * < *.F.#.L L I I ! @.&.,.0.,.0.0.0.0.0.0.0.,.,.#.@.@.@.<.U.j ..q.",
"} j 2.&.L L @.&.,.,.%.&.;.,.0.w.0.0.0.w.0.%.#.#.@.@.l ! *XL.F 5 > w 8 > q 5.0.0.0.+.S } @.;.0.0.1.;.;. .w ^ Z.l./ ^ } l j ! R k j j l A F F ! F ! ! A z k A R ~ ! U A A U U ! ^ ^ ! z A ! ^ #.^ U U ! ! ^ ^ ! ! ^ #.#.@.#.%.%.@.I ^ ! #.#.^ ! ! ^ $.$.#.^ ^ ! #.$.<.;.$.^ ~ ~ R ~ ~ #.%.;.;.%.%.%.$.$.$.#.*.*.#.#.#.@.#.#.#.#.#.#.#.#.~ ~ ~ ! ! ^ @.#.:.<.:.&.%.#.#.*./ / ^ I I @.#.#.#.^ ! U ^ #.$.$.%.@.@.@.@.#.#.I D I :.#.j { #.@.%.:.F.J  .0.0.1.1.q.q.2.&.,.w . * j z #.2.%.5 5 [ +.w.e.+.I -X2.#   yXyXyXyXyXyXyXyXyXyXyXyXyXyXyXyXyXyXyXyXyXyXyXyXyXyXyXyXyXyXyXyXyXyXyXyXyXyXyXyXyXyXyXyXyXyXyXyXyXyXyXyXyXyXyXyXyXyXyXyXyXyXyXyXyXyXyXyXyXyXyXyXyXyXyXyXyXyXyXyXyXyXyXyXyXyXyXyXyXyXyXyXyXyXyXyXyXyXyXyXyXyXyXyXyXyXyXyXyXyXyXyXyXyXj g.~ %.+.,.[ 7 * 5 #.:.! l 5 * % l #.;.q.0.0.0.,.,...l #.G.:.;.$.<.@.l ..@.A z z ! ! ^ #.#.#.$.$.$.$.#.#.#.#.#.$.$.$.*.^ #.$.#.#.#.@.I ! / / / ~ ! ! %.%.$.$.:.&.@.#.;.:.$.:.$./ / $.$.$.$.$.#.#.#.#.$.#.^ ^ ^ ^ #.#.$.:.:.%.#.$.:.$.~ ~ ^ ^ ! ! ! ^ ! F A A A A ! ! ! A A A D ^ ~ ~ R ! ! R F ! #.~ ~ ^ $.:.<.$.^ ^ *.$.*.*.*.*.^ ^ ^ ^ ~ ~ ~ R A A ! A g g g j F } 8 8 ^ A A ~ / D S +.,.w.w.e.:.$.@.7 7 [ o.+.5.O.q # q w 5 - , #.F.#.J } { #.&.&.;.,.,.0.0.0.0.0.0.0.,.,.%...@.@.@.:.T.8 ..e.",
"} j q.&.L ! #.<.,.,.,.,.,.0.w.w.w.0.,.0.0.,.%.! ! L l ! *XL.U 7 5 w w > w +.0.0.+. .S @.$.<.;.%.%.#.%...j ^ Z.l.$.#.#.l g z R A j j l z z F ! z R R k a a a R ~ ! U A A U ! ! ~ ~ ~ A A ! $.$.^ D U ^ #.^ ^ ^ ^ ^ #.@.@.%.:.;.@.I ^ #.^ ^ ^ ! ! #.$.$.#.! ! ^ $.<.<.$.~ ~ / / / R ^ %.<.q.0.;.%.$.<.:.$.$.*.$.;.$.#.#.#.$.#.%.%.#.#.*.*.$.^ ^ #.#.$.;.:.<.<.:.:.$.#.#.~ ~ ^ I ^ %.%.$.*.*.$.#.@.%.:.:.%.@.I @.%.%.@.F D #.<.} j } #.I ..:.F.J  .0.e.<.&.%.&.:.&.,.l . * j z @.2.%.5 5 [ %.w.e.%.I -X>.#   yXyXyXyXyXyXyXyXyXyXyXyXyXyXyXyXyXyXyXyXyXyXyXyXyXyXyXyXyXyXyXyXyXyXyXyXyXyXyXyXyXyXyXyXyXyXyXyXyXyXyXyXyXyXyXyXyXyXyXyXyXyXyXyXyXyXyXyXyXyXyXyXyXyXyXyXyXyXyXyXyXyXyXyXyXyXyXyXyXyXyXyXyXyXyXyXyXyXyXyXyXyXyXyXyXyXyXyXyXyXyXyXyXyXyXg./ @.....S 7 * * @.$.L l 6 * % D @.%.0.0.0.0.;.%.} l @.F.:.;.$.<.@.j J @.F z z ! ! ^ *.$.*.$.$.$.#.#.#.#.#.#.$.#.^ ^ $.#.@.#.#.@.} P I #./ ~ ! ! &.<.,.&.;.,.&.%.;.<.:.$.$.$.$.$.*.*.*.:.#.#.%.@.@.:.%.^ ^ $.$.$.$.;.;.;.%.#.;.<.$.^ ~ $.$.! U ! ^ U A R R A A ! ! F A D I Y / R R ~ ^ ! A F ! #.*.^ ^ $.:.:.#.! ! ^ $.*.^ *.*.^ ! ! ! R R R k k z z p u u u z ! F 5 8 ^ A A ~ / D S +.=.0.0.e.:.#.@.8 7 '  .O.+.O.q # 5 q 5 # 6 $.H.#.L } ..%.;.,.,.,.=.,.,.+.+.,.,.%.%.&.&.#.@.^ @.<.T.j #.e.",
"} j <.&.! ! #.&.,.0.w.0.0.0.0.r.t.w.+.,.0.q.;.#.! L j ! *XL.I 7 5 q 8 > w +.0.0.+. .w ! ;.<.;.#.@.^ #...j / S.Z.:.@.%.S 6 g ! ! g j g z k R R x R R x a a a x R R R A z R ! R R R R R A ! $.$.! D U #.$.$.$.$.$.$.%.#.%.:.2.<.@.I #.$.~ ~ ~ ^ $.$.$.#.^ ! ! #.2.U.:.$.$./ / / E R ~ ;.2.e.1.%.#.$.:.$.$.$.~ ^ ~ *.#.#.#.#.#.%.;.;.;.$.$.^ ^ $.:.;.#.%.;.;.;.$.$.$.$.^ ~ ~ ~ ! ^ #.^ ^ ~ *.$.$.^ #.:.:.%.@...@.@.@.I D ^ ;.&.l 6 { #.@.%.>.F.P  .0.e.q.&.#.#.$.%.<.l + * l L #.2.&.8 8 [ +.0.e.%.! +X:.+   yXyXyXyXyXyXyXyXyXyXyXyXyXyXyXyXyXyXyXyXyXyXyXyXyXyXyXyXyXyXyXyXyXyXyXyXyXyXyXyXyXyXyXyXyXyXyXyXyXyXyXyXyXyXyXyXyXyXyXyXyXyXyXyXyXyXyXyXyXyXyXyXyXyXyXyXyXyXyXyXyXyXyXyXyXyXyXyXyXyXyXyXyXyXyXyXyXyXyXyXyXyXyXyXyXyXyXyXyXyXyXyXyXyXyXg./ $.;.%.S 5 * 5 #.$.I l 8 = % D #.%.0.q.0.,.,.;...l ! >.:.;.&.:.@.j l #.^ F z ! ! $.$.$.$.*.~ ^ ^ $.:.$.#.#.#.^ ^ #.<.:.%.@.#.@...I ! ^ ~ ~ ^ #.<.q.,.%.%.:.%.%.:.<.:.;.$.:.Z.Z.:.$.*.;.%.;.:.#.@.;.$.^ ~ / $.:.;.$.#.$.$.#.;.;.$.~ $.$.:.^ ! U ^ F F ~ W s s R R R ! ^ @.@.R x R ~ ~ A F ! ^ ^ ^ ! ^ $.;.;.#.^ ! ^ *.*.~ ^ ~ ~ R ! x R R R k k k k a g p p F ! k > 8 ^ A ! / / S S +.,.0.1.q.;.^ } 8 7 w  .o.+.O.q # 5 w 5 # g :.Y.;.P } ;.%...+.,.0.0.,.%.+.+.%.&.#.#.%.:.%.@.! ^ <.U.j #.T.",
"} 8 <.%.! ! @.@.%.w.w.w.w.0.r.r.w.w.+.+.,.,.%.#.! L j ! *XE.! 8 5 5 7 > w =.0.0.0.+.w L %.;.$.%.#./ #...j #.J.Z.:.#.&.{ 6 u z F k p g z R R R R E E E E E R R R R R R R ~ / / E R / / ~ ! / $.^ ! ^ $.:.Z.F.F.F.<.<.:.;.<.q.<.%.! #.$.~ ^ ^ $.<.:.%.#.^ ^ ^ #.<.2.:.:.:.$.~ ~ R ~ / ;.<.:.%.#.#.$.;.$.$.:.$.^ ^ *.$.#.#.;.;.:.2.F.F.:.#.! ^ Z.F.:.$.:.<.:.:.$.:.:.$./ ~ ~ / *.^ ^ ^ ~ / $.:.:.#.#.:.2.2.:.#.@.@.@.I I %.&.} 8 8 { #.;.<.H.H.P X.0.e.e.<.%.%.#.@.<.l . * l L #.I.;.j 8 S  .+.0.&.! -X) +   yXyXyXyXyXyXyXyXyXyXyXyXyXyXyXyXyXyXyXyXyXyXyXyXyXyXyXyXyXyXyXyXyXyXyXyXyXyXyXyXyXyXyXyXyXyXyXyXyXyXyXyXyXyXyXyXyXyXyXyXyXyXyXyXyXyXyXyXyXyXyXyXyXyXyXyXyXyXyXyXyXyXyXyXyXyXyXyXyXyXyXyXyXyXyXyXyXyXyXyXyXyXyXyXyXyXyXyXyXyXyXyXyXyXyXg./ :.<.%.S 5 * 6 &.I.%.l j * % L %.%.0.w.0.,.%.:.#.j F ;.:.,.:.<.#.8 q } %.! F F #.F.F.F.F.:.:.$.~ Z.G.F.:.$.$.$.$.:.F.2.%.@.^ @.@.^ ! ! R ~ $.<.F.2.<.:.:.:.$.$.:.:.$.:.<.<.F.F.F.:.;.$.:.<.<.;.#.:.:.$.$.Z.Z.F.Z.$.$.$.$.^ $.$.:.:.Z.$.:.:.$.^ ! F ! / W s s R R R ~ #.#.! s x E E R A ! ^ ^ ^ ^ ^ $.;.:.:.:.$.$.~ / ~ ~ ~ ~ / ~ ~ R R ~ ~ R R R a A z k z F A , , 8 Y / :.F.( S S +.,.;.;.:.#.! I 8 q [ o.+.5.O.q # 7 w 5 * g $.Y.;.I } %.@.} +.,.0.0.0.,.+.+.%.%.@.@.%.:.$.^ ! ^ <.U.j #.T.",
"} 8 <.:.! L I #.,.w.w.0.0.w.r.y.w.w.,.%.%.%.@.#.! L l ! *XE.! w 5 5 7 5 q +.0.0.w.+.w L @.%.%.&.:.%.;...l #.H.F.:.$.;.} 6 < z U A p p z k a a a a a a k k k a a k k k k A R R R R R ~ ! ! ! ! ! F F ! ! ^ ^ ^ ^ #.%.#.........P D F D z z D D J J P U U ! z z F F I I I I U A A U ! ! I D z z D U I I I @.I D D I @.I I I ^ ..@.%.%.@.I D ! ^ ^ ^ ^ #.^ @.#.#.#.#.#.^ ^ ^ #.! U U ! ^ ^ ^ #.#.@.^ @.%.%.#.} D D z S D I J 8 > w ..#.;.2.Y.H.D  .0.e.T.q.%.#.@.@.<.l o * j J %.q.;.8 8 l  .=.0.%.! }.) +   yXyXyXyXyXyXyXyXyXyXyXyXyXyXyXyXyXyXyXyXyXyXyXyXyXyXyXyXyXyXyXyXyXyXyXyXyXyXyXyXyXyXyXyXyXyXyXyXyXyXyXyXyXyXyXyXyXyXyXyXyXyXyXyXyXyXyXyXyXyXyXyXyXyXyXyXyXyXyXyXyXyXyXyXyXyXyXyXyXyXyXyXyXyXyXyXyXyXyXyXyXyXyXyXyXyXyXyXyXyXyXyXyXyXk g./ $./ / S 8 * 8 q.T.q.} j , % L $.;.<.q.,.%.#.%...j D ;.,.1.<.<.%.8 q S @.I j j D ! ^ @.@.@.@.^ ! ^ $.*.#.^ ^ ! ^ ! @.#.@.P D I ^ ^ ! ! R ! ^ ;.:.;.2.2.2.:.:.$.$.$.#.$.;.#.^ ^ #.#.#.^ #.@.^ ^ #.#.$./ $.$.$.:.:.:.:.:.$.#.#.$.:.;.$.~ ^ #.#.U A z F ! R a R A k z ! ! ! U R R R x k z A U U ! ! ! U U F F U ! ! A z k k a k z A z k a k k a a a p g h h l g , % 5 j Y :.F.H.:.Z l ..%.@.! ^ ! ^ I 5 7 [ +.5.5.O.q # 7 w 5 > < $.H.$.L #.#.%.,.0.0.0.0.0.0.0.,.,.%.%.#.%.%.%.@.! ^ <.R.j #.T.",
"} j q.:.} I @.&.0.w.w.0.,.,.w.y.w.w.0.,.%.%.#.#.@.L l ! *XE.! w 5 5 q 5 q +.0.0.0.o.w I @.;.;.,.1.;.;.+.S ..>.:.:.:.:.} j j l l < , = , , % % % % % % % % % % % % = = % % % % % % = , , , ; , , = = = ; ; > , , , 5 5 > , > 5 > > , , > > , 5 > , 5 8 5 < , , , 5 5 , , 5 5 , , , , , > * = ; ; > > , 5 5 > > > > > > > > ; > , > > 5 5 5 , , , , , , ; > > > , > > > , , , > > > > 5 5 5 6 6 6 5 5 7 8 5 > > > = 5 5 6 5 > > l #.#.;.<.H.F.D  .0.e.e.q.&.#.@.@.<.S o * j z %.q.&.8 7 [ +.0.e.%.U `./ .   yXyXyXyXyXyXyXyXyXyXyXyXyXyXyXyXyXyXyXyXyXyXyXyXyXyXyXyXyXyXyXyXyXyXyXyXyXyXyXyXyXyXyXyXyXyXyXyXyXyXyXyXyXyXyXyXyXyXyXyXyXyXyXyXyXyXyXyXyXyXyXyXyXyXyXyXyXyXyXyXyXyXyXyXyXyXyXyXyXyXyXyXyXyXyXyXyXyXyXyXyXyXyXyXyXyXyXyXyXyXyXyXyXyXyX~ R ( l.( T w > 8 q.T.q. .8 > = D #.%.<.q.0.;...#.I j D :.q.q.<.<.%.l q 8 l 6 , = > , , , * > > > , , , , , , , < < , 5 8 8 5 6 8 j j j j j 8 j j l l S S S S S l l l l j 8 8 6 , 6 8 8 8 8 5 5 6 j j 6 6 6 j j j 8 j j l l j j j j j j 6 8 8 w 8 6 5 7 8 < , 6 6 6 < 6 8 8 8 j p u u < < < , , < < , , , > , , < < , , , = % % = , , , , , = = = = = = = = , , = * 8 j U ) :.:.( S S ..@.! F ! ! ^ @.5 7 [ +.5.+.O.q # 7 w 5 * < $.J.$.L @.@.%.q.w.0.0.,.,.,.0.0.0.0.,.%.&.&.#.@.@.! <.R.j %.U.",
"{ j q.:.I @.&.<.0.w.t.0.%.,.w.r.w.w.0.0.,.%.%.#.@.! z ! *XE.! w 5 5 w 5 w +.0.0.+. .S I #.;.<.q.0.0.,.+.w Y ) / $.:.;.} 8 8 , % % % o % * * * o o o o o o o . # o o o o o o o o o o o o o o o o o o o o o o * * * * * * * * * * * = = > > 5 5 5 > > 5 > > > > > 5 5 > 5 5 5 5 > > 5 5 > * * > 5 5 5 5 7 5 5 7 5 5 > 5 5 5 > > * * * * * * # # # * * * * * * * * * # 1 # # # # # # # # * * * * 5 > 5 > > > > > > * = = > > 5 8 l #.#.#.;.:.:.P  .0.e.q.<.&.#.#.#.<.S . * l z #.q.%.7 7  .0.e.e.&.F D.~ .   yXyXyXyXyXyXyXyXyXyXyXyXyXyXyXyXyXyXyXyXyXyXyXyXyXyXyXyXyXyXyXyXyXyXyXyXyXyXyXyXyXyXyXyXyXyXyXyXyXyXyXyXyXyXyXyXyXyXyXyXyXyXyXyXyXyXyXyXyXyXyXyXyXyXyXyXyXyXyXyXyXyXyXyXyXyXyXyXyXyXyXyXyXyXyXyXyXyXyXyXyXyXyXyXyXyXyXyXyXyXyXyXyXyXyXR W z.m.z.Y w > 8 <.U.;.S 7 5 = D #.@.&.0.0.q.,.%.{ j I 2.q.w.<.2.%.S w 5 , = , > > 5 5 > > * > > * * * > > > > > * * > 5 * # * * * = * * * * * * > > * * * * * * * * * # # * * * * * # # # o # * * % # o * * * # # * * > * * * * * * * * > # 1 * * # # # * * * o # * * * * * o o o * % % % % % * * % * 5 5 5 > 5 5 , , > > > > > 5 5 5 5 > > > > > > * % % % % * 8 l j U ^ ^ / / S S @.! ! ! ! ! ! @.6 7 X.+.+.O.O.q # 7 8 5 # < $.Y.Z.! @.@.%.0.0.0.0.=. .+.=.0.0.0.0.,.%.&.#.@.@.! <.R.l &.U.",
"P j T.:.I #.%.,.0.w.t.e.0.,.0.t.w.,.,.0.0.%.#.#.! L z ! *XE.I 7 5 7 8 > w +.=.+.+.| S #.#.#.1.0.0.0.1.,.w ..:./ / ;.%.D , * o . o * * * * * * * * * * = * * * * * ; > > ; ; ; ; > , , , > > > , , , , , > > , 5 5 5 5 5 5 , > , > , , , 5 8 8 5 5 5 8 5 5 5 5 5 5 5 7 7 5 7 8 8 7 7 5 5 5 5 5 7 8 8 8 8 8 8 8 8 8 8 8 j 8 8 8 7 7 7 7 7 5 5 5 5 5 5 7 7 7 7 7 7 7 7 7 7 7 5 5 5 5 5 7 5 5 5 7 7 5 5 5 7 5 5 5 , , > > > > 5 8 S #.^ ^ %.:.:.P { ,.e.,.;.;.,.&.#.<.l # 5 l z @.q.,.5 5 { 1.w.w.%.z D.W     yXyXyXyXyXyXyXyXyXyXyXyXyXyXyXyXyXyXyXyXyXyXyXyXyXyXyXyXyXyXyXyXyXyXyXyXyXyXyXyXyXyXyXyXyXyXyXyXyXyXyXyXyXyXyXyXyXyXyXyXyXyXyXyXyXyXyXyXyXyXyXyXyXyXyXyXyXyXyXyXyXyXyXyXyXyXyXyXyXyXyXyXyXyXyXyXyXyXyXyXyXyXyXyXyXyXyXyXyXyXyXyXyXyXyXx E v./.b.~ 8 > 7 ;.2.@.l 8 8 * D #.! &.0.0.q.w.0.+.l @.q.q.q.q.q.%.J 8 5 > 5 7 5 8 w 8 8 8 8 8 8 q q 7 7 7 8 8 7 8 8 8 7 5 5 5 5 5 5 7 7 7 7 7 7 8 8 w 8 w w 7 7 5 5 5 > 5 5 5 5 5 5 5 > 5 5 5 5 > > > 5 5 5 7 7 5 5 5 5 5 5 5 6 5 5 5 > > 5 > > > > > 5 5 5 > > > > > > > > > > > * * * * # * o o o % * * # # * = * = * * * # * * * * * * * * * * * * o o o o % 5 l l I ! ~ ~ / S S @.! #.^ ! F ! I 8 7  . .X.O. .7 # 7 8 5 > < $.*XZ.! ! #.%.0.w.w.0.,.....%.,.0.,.%.&.#.%.#.^ ! ^ 2.R.l #.U.",
"} j R.:.I @.#.&.,.0.t.t.e.0.w.w.,.+.,.0.0.%...! F z j ! *XE.! 8 5 5 w > w o.+.=.+. .T #.#...,.0.0.1.0.,.w Y :./ ( :.#.j , * o # * * * * * * * * * * > > > > > > > > > > > , , , , , , , , > > > , , , , , 5 5 5 5 5 5 5 5 5 5 5 5 > > > > > > > > 5 , > > > > > > , 5 5 5 5 5 5 5 , , > , , , 5 5 5 5 5 5 5 5 5 5 5 5 5 5 5 5 5 5 5 5 5 5 5 5 5 5 5 6 6 7 7 7 7 7 7 7 5 5 5 5 5 5 5 5 5 5 5 5 5 5 5 5 5 > , , , , 5 > > > ; 5 l #.^ ^ %.>.F.P  .,.0.,.1.0.0.&.#.<.l . > l z %.q.,.7 5 S ..,.0.%.R K.R       yXyXyXyXyXyXyXyXyXyXyXyXyXyXyXyXyXyXyXyXyXyXyXyXyXyXyXyXyXyXyXyXyXyXyXyXyXyXyXyXyXyXyXyXyXyXyXyXyXyXyXyXyXyXyXyXyXyXyXyXyXyXyXyXyXyXyXyXyXyXyXyXyXyXyXyXyXyXyXyXyXyXyXyXyXyXyXyXyXyXyXyXyXyXyXyXyXyXyXyXyXyXyXyXyXyXyXyXyXyXyXyXyXyXyXW c./.m.! 8 5 8 ;.2.@.S l 8 * A #.! :.w.w.e.w.r.=.S %.U.<.1.q.q.%.l 5 > , 5 5 5 7 q 7 7 7 7 7 7 8 7 7 7 8 8 8 8 8 8 7 7 7 7 5 6 6 8 8 8 8 8 8 8 w l l l l l l j j 8 8 6 5 5 5 5 > > > > > 5 5 5 5 , 5 5 6 8 8 8 8 6 6 6 6 6 8 6 6 5 5 5 5 > > , , , > , , , > 5 > > > > > > , > > > = = * * * * * * * * * * * = = % % * = = * * * * * * * = = ; ; ; * * * % * o * j j ! $./ / / D S @.@.#.#.#.! U I 8 7  .o.O.+.X.7 # 7 8 5 > < $.E.$.! @.#.%.0.0.w.w.w.,.%.,.0.0.,.%.#.#.#.#.^ ! ^ F.#Xj #.U.",
"} j U.&.! @.@.@.&.0.t.w.w.w.w.w.,.+.,.e.0.%.} ! z z g ! *XE.! 8 5 7 w > q o.5.0.0.+.[ @.@...+.,.0.1.,.+.7 Y :.l.l.( / z j > . o % o o % % * * * * * * # # # # * * * * * = = * * * * * * * * * * * * = * * * * * * * * * * * * * * * * * * * * # # * * * * * * * * * = = > > > > ; ; = = ; , , , , > > > > > > > > * > > > > * > > > * * > > = * > > > , > > * * * * * * = = = = > , 5 5 5 5 5 5 5 5 5 5 5 5 5 6 6 7 > 5 > = 6 l #.#.#.:.H.H.P  .0.0.0.0.w.w.%.#.:.l . > l J %.q.,.8 5 l { %.0.&.R K.R       yXyXyXyXyXyXyXyXyXyXyXyXyXyXyXyXyXyXyXyXyXyXyXyXyXyXyXyXyXyXyXyXyXyXyXyXyXyXyXyXyXyXyXyXyXyXyXyXyXyXyXyXyXyXyXyXyXyXyXyXyXyXyXyXyXyXyXyXyXyXyXyXyXyXyXyXyXyXyXyXyXyXyXyXyXyXyXyXyXyXyXyXyXyXyXyXyXyXyXyXyXyXyXyXyXyXyXyXyXyXyXyXyXyXyXR z.^.c.P l 5 7 <.U.&.l l 8 * D #.^ ;.e.w.w.w.w.5.S %.U.<.,.<.<.@.j 5 > * > > * > 5 5 > > > > > 5 > > > > > , > > > * * * * > > > > , , , > > > > > > > > , , , , , ; ; = * * % o o o % * * * > = = = * = = * * % % % ; % , , , , > > > > > > > , , , > > ; ; > * * * * > > > > * * * = = = = * * * * * * * = ; ; = = = ; ; ; ; * * = = = ; ; ; , , , , > * * * * j j ^ :.Z.Z.l.D l } ^ %.;.:.@.U J 8 0  .o.+.=.O.7 # 7 w 5 > u $.J.$.! @.@.%.0.0.w.w.w.0.0.0.0.0.,.+.%.#.#.#.^ ! ^ F.#Xl #.U.",
"} g I.$.! @.@.%.;.q.t.y.w.w.t.w.0.,.0.w.w.,.%.#.L z g ! *XE.I 8 5 7 8 > q +.5.0.0.+. .@.#... .+.,.,.%. .5 Y Z.z.z.( / A L j % % = ; ; ; ; ; > > > > * * * * * * * * > > > = * * * * * * * * * * * * = * * * > > * * * * = * * * * * * = = = * * * * = = ; ; ; ; ; ; * * * * * * = = = = = ; > > , , , , > > ; * * * * = ; = * * * * * * * = * % * * = % * * * * * = = * * * * * * = = = * > > * * * * > > > > > > > * > > 5 S S #.<.:.:.F.<.P O.5.0.0.w.w.r.,.#.;.l . > l J %.e.,.7 5 l | ,.q.%.x m.W       yXyXyXyXyXyXyXyXyXyXyXyXyXyXyXyXyXyXyXyXyXyXyXyXyXyXyXyXyXyXyXyXyXyXyXyXyXyXyXyXyXyXyXyXyXyXyXyXyXyXyXyXyXyXyXyXyXyXyXyXyXyXyXyXyXyXyXyXyXyXyXyXyXyXyXyXyXyXyXyXyXyXyXyXyXyXyXyXyXyXyXyXyXyXyXyXyXyXyXyXyXyXyXyXyXyXyXyXyXyXyXyXyXyXyXR l.c.l.T l 5 5 <.Y.<.S S 8 > D #.#.<.w.w.w.w.r.5.S #.U.H.<.<.<.@.l S 5 = = , > , , , , , , , , , , ; ; ; , , , ; ; = * * * * = * > > > > > ; ; ; ; = * * = = * * % = = = = = = * * * % * * = = = = = = = = * = = = ; ; = = ; ; = * * * * * * * * * * * * * * * * * * * * o % % % % * * = % % % % % % * * % * # % % * * * * * * * * * * * * % * = > = = ; * % % 5 D g ^ :.Z.Z.l.D l J } ;.;.:.@.I P 8 7 X.+.5.5.+.7 # 7 l 7 > u $.Y.$.! ! @.%.0.0.r.w.w.w.w.0.0.0.0.,.,.;.&.#.^ ! ^ I.#Xl #.I.",
"} g F.%.@.@.%.&.<.q.t.u.y.w.w.w.w.0.0.w.w.w.0.;.@.J j R *XL.I 8 5 7 8 > w +.5.3.o. .[ @.%.%.+.+.+.....[ 5 ^ D.D.A.Z./ z D I < = = , , , , , , , , , , , , , 5 > , , , 5 , , , , > > > > > > > , , , , < , , 6 6 , 6 6 6 6 6 5 5 5 5 < 6 8 6 , , , 5 , , < < < , < < 8 , , , 5 5 5 5 5 5 5 5 5 5 6 6 6 < < < < , , , , , , , , , , , , < , < < , , 5 6 , 6 6 6 6 , , , , , , ; ; ; ; , , , , , , , , 5 5 , , , , , , , ; , l ..l @.<.<.;.<.:.S O.5.0.0.w.w.r.0...&.j . > l } ,.e.,.8 5 l ..,.e.%.s m.R       yXyXyXyXyXyXyXyXyXyXyXyXyXyXyXyXyXyXyXyXyXyXyXyXyXyXyXyXyXyXyXyXyXyXyXyXyXyXyXyXyXyXyXyXyXyXyXyXyXyXyXyXyXyXyXyXyXyXyXyXyXyXyXyXyXyXyXyXyXyXyXyXyXyXyXyXyXyXyXyXyXyXyXyXyXyXyXyXyXyXyXyXyXyXyXyXyXyXyXyXyXyXyXyXyXyXyXyXyXyXyXyXyXyXyXR ( J.H.| w 5 8 <.$X<. .{ l > J $.;.e.e.w.e.w.w.5.S %.$X$XU.<.<...l %.S , , , g j g g p p p p p j j < < j j g j j j 8 j j 6 g 8 6 6 6 7 8 8 j j j j j 8 8 8 6 5 , , < < < 6 j j j j j g 6 8 8 8 8 6 g g 6 6 6 5 5 5 8 8 6 < < 6 5 5 > 5 5 5 5 5 5 5 5 5 , , < , , , ; > > = , , , , , < < < < , , 5 5 , 5 5 > ; ; , , 5 6 , , 6 6 < , 6 6 6 , , 6 6 < , , = * > l I j F ~ ~ ( / l w { ..;.%...I I I 8 5 O.5.0.5.+.5 # 7 l 7 > g $.*XZ.! ! @.%.0.w.w.r.w.w.w.0.0.0.w.w.w.0.,.%.@.! ^ 2.T.8 #.F.",
"@.g 2.%.@.%.%.%.;.1.w.w.y.w.w.w.w.w.0.0.0.w.0.,.} J j A *XL.I 7 5 5 7 > q +.=.+. .[ S %.&.,.0.0.+.....[ , U Z.A.Z.( $.A j } D , , u u u u p p g k k g g g l z l l l l g g g g g j g j j j g l z z z k z z z z l z z L L I I } } J L F F ! U D D D D ! F U I I I I F I I D D I @.@.I I I @.@.} } ..#.@.I D D F L F z z k k k z D I I I I I ! ! I ............Y I L D l F F D A A A D D z z D D D J I ! U A z A z j j j < j ....j } 2.<.&.:.;.S O.0.w.w.w.t.w.0.%.;.l . * l } <.e.%.5 , l ..&.2.#.s m.R       yXyXyXyXyXyXyXyXyXyXyXyXyXyXyXyXyXyXyXyXyXyXyXyXyXyXyXyXyXyXyXyXyXyXyXyXyXyXyXyXyXyXyXyXyXyXyXyXyXyXyXyXyXyXyXyXyXyXyXyXyXyXyXyXyXyXyXyXyXyXyXyXyXyXyXyXyXyXyXyXyXyXyXyXyXyXyXyXyXyXyXyXyXyXyXyXyXyXyXyXyXyXyXyXyXyXyXyXyXyXyXyXyXyXR R F.*X+X| 7 5 6 :.$X<.+.{ 7 > J $.:.e.w.w.t.t.y.5.S ;.*X+XU.<.:.I j ..@.p u p z F ! ! ! I U F F ! ! F D I @.@.@.^ I I ! ! ! ! ! ! I } } ..#.%.@.@.@.@.#.#.^ I I U U F A F L @.@.@.@.@.! @.......} @.! ! ! U J J S S I } L F F F D D D J J J L } I I I I F z A F F D z D D D F F A z z z k g j z z l l l l l l j p k z z z g k z z z k k z z z k g k k g g < 6 j ..D g D F R / / j w  .,.1.%.I U ^ ..8 7 o.5.5.5.+.5 . q S 7 5 < $.Y.$.! ! @.#.,.0.w.w.w.w.w.0.0.r.w.y.y.w.0.%.@.! ! <.e.5 @.F.",
"I < 2.%.@.%.%.%.%.0.w.w.w.w.r.r.r.w.r.0.r.r.0.,...J j R *XL.I 8 5 5 7 > 7 +.0.5.+.{ S %.&.,.w.w.,.%...{ , U :.l./ W ^ F < P @.j u p i a a a k k x x x z z F ! ! ! z k k k k R R R R x z z R ! ^ ! z k k ! ! ! F F ! *.*.#.%.%.#.@.! ^ *.$.*.^ ^ #.$.$.*.^ #.$.%.#.$.<.<.*.*.<.F.Z.$.*.$.<.<.;.:.q.q.2.%.! ! ! @.^ ! R A k R I #.:.:.$.%.%.$.$.%.;.:.<.1.;.;.:.:.&.$.#.$.Z.$.*.~ ~ ~ #.#.#.#.#.%.%.$.:.*.! F ! ! z A z j D #.} 6 L 2.2.:.2.<.[ O.0.w.w.t.t.r.0.%.<.l . * l L %.1..., = j I %.2.^ N P.W       yXyXyXyXyXyXyXyXyXyXyXyXyXyXyXyXyXyXyXyXyXyXyXyXyXyXyXyXyXyXyXyXyXyXyXyXyXyXyXyXyXyXyXyXyXyXyXyXyXyXyXyXyXyXyXyXyXyXyXyXyXyXyXyXyXyXyXyXyXyXyXyXyXyXyXyXyXyXyXyXyXyXyXyXyXyXyXyXyXyXyXyXyXyXyXyXyXyXyXyXyXyXyXyXyXyXyXyXyXyXyXyXyXyX/ ~ >.-XJ. .7 > ; %.Y.;.[ w 5 * J $.;.,.0.w.t.u.y.5.S $.+X$XH.<.:.I < J %.F a k ! #.#.%.$.:.:.:.;.$.<.%.@.%.:.;.%.%.#.#.^ #.$.$.$.$.#.%.;.;.<.<.<.:.:.:.2.2.$.$.$.$./ / ~ ^ #.%.&.$.%.#.$.$.:.:.,.:.$.~ / / $.#.%.%.%.%.$.*.^ ~ ~ ^ #.$.%.#.! #.$.#.#.$.*.^ R R *.#.! ! ^ #.#.~ ~ ~ R R k a k z ! @.@.I I F F A a a x R R k a a x x x x x R R R k a a a k g u j l } j < I ! ! / / j w +.,.1.%.@.^ #.@.j 7 o.=.=.5.+.5 . w S 8 > < ~ J.$.A ! @.@.%.,.w.w.w.w.w.0.0.w.y.8.r.0.0.%.@.! I :.e.5 ..F.",
"I g <.$.@.#...%.,.w.w.w.w.w.r.r.r.w.r.0.0.r.w.,...S z A *XL.! 8 > 5 8 * q +.5.5.=. .S @.#.1.1.0.,.;.%.{ 8 D ! ~ ^ I @.P j g ! A p p i a a a a a R x k i i x ! ! z k a k k k s E ~ x k k z A A ! ^ R a a R ~ R z z ! ^ #.#.@.%.%.I F ! $.*.^ ! #.&.:.$.^ ! #.$.#.#.$.;.$.#.$.:.Z.:.$.$.:.;.$.;.2.U.q.2.$.#.^ ~ ~ ^ ~ R R k k P ;.2.:.#.! #.:.$.,.,.w.e.1.%.&.&.:.:.$.$.:.$.#.*.$.$.^ Y @.@.@.@.@.%.:.;.#.U A z z z k k l L &.L 6 } %.,.;.2.2.T X.0.0.w.w.y.y.w.%.&.8 # > j J %.q...> ; l z #.>.~ E [.W       yXyXyXyXyXyXyXyXyXyXyXyXyXyXyXyXyXyXyXyXyXyXyXyXyXyXyXyXyXyXyXyXyXyXyXyXyXyXyXyXyXyXyXyXyXyXyXyXyXyXyXyXyXyXyXyXyXyXyXyXyXyXyXyXyXyXyXyXyXyXyXyXyXyXyXyXyXyXyXyXyXyXyXyXyXyXyXyXyXyXyXyXyXyXyXyXyXyXyXyXyXyXyXyXyXyXyXyXyXyXyXyXyXyXg./ :.H.F.T 7 * > %.U.%.J 8 > * P %.%.,.e.e.e.t.r.=.S #.H.H.2.,.,. .6 S %.#.k p I %.%.%.%.&.;.<.;.:.#.@.@.%.%.@.@.%.%.! U ! ^ / ~ ^ #.#.%.%.:.<.:.:.:.:.<.2.%.#.$.$.$.! A I %.:.;.%.@.#.;.:.;.&.,.:.@.R ~ / *.#.#.#.%.#.^ ~ R R R ! %.%.#.^ ! ^ $.#.#.#.^ ! R ! ~ ~ R ! #.*.^ ! R R R k a a x R F ! @.I D D F x x s s a a a s s a a k x x x R R a p p p p u , j U D < , F ^ ! / / j w ..+.,.,.;.#.@...w 7  .+.=.5.+.5 # q w 7 5 6 ^ J.~ ! } @...+.0.w.w.w.w.w.0.0.0.w.r.w.w.0.;.#.} ! <.e.6 @.F.",
"@.g 2.%.} ....%.0.r.y.y.y.w.w.r.r.w.0.0.r.r.w.0...J l R =X*X! 8 > 5 8 * q +.0.5.=. .S #.$.:.&.%.#.%.%.| 8 D ! ! ^ ..%.{ 8 8 F ! k k i a k a a a x x k i a k x R k a a a a a R E R R a k k R R R / R a a R R R R R ! ~ ^ ^ ^ #.#.! A R ~ ~ ^ ^ *.$.$.$.~ ~ ^ $.^ ^ #.$.$.^ ~ $.$.$./ ~ / $.$.$.<.2.<.<.<.$.~ ~ ~ ~ ~ R R k a U $.:.$.^ ! #.$.$.&.,.q.e.q.%.#.%.;.$.$.$.$.*.~ ~ $.$.! U ^ ^ #.#.#.#.#.#.~ ~ R k k k k j z @.&.J 6 } %.;.;.H.2.S X.0.0.w.w.w.t.0.#.&.8 . * j I 0.e...> , l z ! ;.~ B [.W O     yXyXyXyXyXyXyXyXyXyXyXyXyXyXyXyXyXyXyXyXyXyXyXyXyXyXyXyXyXyXyXyXyXyXyXyXyXyXyXyXyXyXyXyXyXyXyXyXyXyXyXyXyXyXyXyXyXyXyXyXyXyXyXyXyXyXyXyXyXyXyXyXyXyXyXyXyXyXyXyXyXyXyXyXyXyXyXyXyXyXyXyXyXyXyXyXyXyXyXyXyXyXyXyXyXyXyXyXyXyXyXyXyXyXyXW $.G.Z.T 5 > , %.U.%.J j 5 * J %.%.0.w.t.t.w.r.=.S ^ :.;.:.<.,.{ 5 l $.$.R k F I ^ ^ ! ^ %.;.%.$.^ ^ #.#.#.^ ^ #.$.$.~ R R R E ~ ^ ^ #.#.%.:.:.<.:.:.;.$.$.$.:.:.~ R R ! $.:.:.#.^ #.;.$.%.%.;.%.^ R E / ^ ^ #.@.#.^ R R R R R ! #.*.#.^ ~ ^ ~ ^ ^ ~ ~ ~ R R ~ R R ! ^ #.! R R E R x a s x R ! ^ @.! F F ! R x s s x x x x s s a a a x R E E x a p u u p g F ! l , , I @.! / / j w  ...=.,.,.%.@.} 8 5  .+.+.5.+.5 # q w 7 5 6 #.J.*.F } ....%.w.r.w.w.w.w.0.0.0.w.r.y.w.0.,.#.@.@.<.e.8 @.H.",
"! u <.%.} ....,.w.w.y.y.y.w.w.w.0.w.r.0.r.r.w.0.+.J l A *X}.! 7 # 5 8 * q +.0.5.+.{ S *.$.$.#.#.@.^ @.{ 8 U / / #.%...{ 8 6 D U z k p k z k k k k z z k k k k k a a a a a a A R R A k k A ! R R ! R k k x R R R R ! ~ ~ ! ^ @.@.! A A R ~ ~ ~ ^ ^ ^ ~ ^ ~ ^ ^ ^ ^ ^ #.#.^ ~ $.~ *.*.~ ~ $.$.$.<.<.;.:.:.$.! F ! ^ ~ ~ R k k F #.#.#.! ! ^ #.#.%.,.,.1.,.#.#.#.$.*.~ *.$.~ ~ ~ $.~ R A ! ^ #.#.#.#.^ ^ ~ ~ R A R A A z D @.@.l < ..%.,.:.H.2.S  .0.w.e.0.0.0.&.@.%.8 . * j @.w.T...> = j z ! #.! s P.W       yXyXyXyXyXyXyXyXyXyXyXyXyXyXyXyXyXyXyXyXyXyXyXyXyXyXyXyXyXyXyXyXyXyXyXyXyXyXyXyXyXyXyXyXyXyXyXyXyXyXyXyXyXyXyXyXyXyXyXyXyXyXyXyXyXyXyXyXyXyXyXyXyXyXyXyXyXyXyXyXyXyXyXyXyXyXyXyXyXyXyXyXyXyXyXyXyXyXyXyXyXyXyXyXyXyXyXyXyXyXyXyXyXyXZ.W $.G.F.T 5 * , :.U.%.P l 6 = J %.%.0.w.u.u.w.0.+.S ^ :.$.;.;.;.{ 8 l @.*.! z F F ! ! ! ^ #.$.#.^ ^ ^ #.#.^ ! ! @.#.#.^ ~ R ~ ~ ~ ^ ^ ^ #.#.%.;.:.:.$.%.%.$.$.$.$.~ ~ R ! #.$.$.#.^ #.#.#.%.%.#.@.! R R ~ ! ! ^ ^ @.! ! R R R ! ! ! ! ! ! ! ! ^ ^ ~ ^ ~ ~ R k A R R ! ! ! ! x R R R s a a k R ! ! I F F F F z x x x x x x k k k a a a x R ~ ~ A g p u u p z ! ! j , , I #.^ ^ / l w X. .=.,.0.%.@.} 8 7  .+.+.5.+.5 # q S 5 5 6 #.Y.$.L @...+.0.0.w.r.w.w.w.0.0.0.r.r.w.w.1.;.#.@.@.2.e.8 #.U.",
"I < :.%.} ....,.0.r.y.y.y.y.0.0.0.w.0.r.w.w.w.0.+.{ z k *XL.U 7 5 5 7 > q o.+.o.o.{ S *.^ #.#.&.%.^ ..{ 8 U >.#.#.%.%.S 8 8 l l j 6 , , g < , < g g u u u u u u u u u , , u , , < < < < g j u u j j u u u p g g g j g g j l l l l g p p g j j l l l z z z z l l l l l l z z D A D D D D D D D D J D J J D j j j l z l l g j j l l l l l l z D J J J S S D D D D z z z A z z z A z j g l z D D D D z z F F z l l j l j j l l 6 8 @.%.<.2.U.2.S  .0.u.e.0.;.%.#.^ $.j # * l @.e.T...> = l z U #.! s m.W       yXyXyXyXyXyXyXyXyXyXyXyXyXyXyXyXyXyXyXyXyXyXyXyXyXyXyXyXyXyXyXyXyXyXyXyXyXyXyXyXyXyXyXyXyXyXyXyXyXyXyXyXyXyXyXyXyXyXyXyXyXyXyXyXyXyXyXyXyXyXyXyXyXyXyXyXyXyXyXyXyXyXyXyXyXyXyXyXyXyXyXyXyXyXyXyXyXyXyXyXyXyXyXyXyXyXyXyXyXyXyXyXyXyXl.W *.F.<.T 5 * 5 2.$X<.} l 6 = J %.%.0.u.u.u.w.0.+.S #.>.:.:.;.,...8 5 8 j u u j j j j j j l l j j j j l j j j j j j j j j g g g g l l l l l l S S l l j j j l l z l j g j l l D D l l D l l S l l j p g j j j j j j j j g p j j j j j j j j j j g g g l g u , < < g j j 8 j u u u u u , , , u g 6 8 6 6 5 , , , , , , < u < < , , , , g g g g g < , , ; , , 6 j < , , I ;.;.$./ l w  .+.,.,.,.%.@.} 8 5 [ o.+.=.+.7 # q S 5 5 6 $.+X$.L #.%.,.0.r.r.0.0.0.0.0.0.0.r.r.r.w.,.%.} } ! <.e.8 #.U.",
"I < :.%.} ....,.w.y.y.y.y.y.0.+.0.w.0.w.w.0.0.,...J D k E.J.F 7 5 5 7 > 5  . . .{ S S ^ ^ #...,.1.;...T 5 U >.:.;.;.#.S 8 5 5 ; % o o o % o . o o o o o o o o % % % o o o o o o o o o o o o o o % % % % % % % % % % % o # # o * * * % % * * * * * * = = ; = * * * * * * * * * > * > = = * = = * * > > > > * * > * * * * ; > > * * * > > * = ; > ; ; > ; > > > > > > > > ; = * * > > * * > > > > > > > , , > > > > > = * * * * l %.;.q.U.$XU.S  .0.t.e.q.&.%.@.R $.j # > l ! q.T...> > l D ! #.^ s m.W     yXyXyXyXyXyXyXyXyXyXyXyXyXyXyXyXyXyXyXyXyXyXyXyXyXyXyXyXyXyXyXyXyXyXyXyXyXyXyXyXyXyXyXyXyXyXyXyXyXyXyXyXyXyXyXyXyXyXyXyXyXyXyXyXyXyXyXyXyXyXyXyXyXyXyXyXyXyXyXyXyXyXyXyXyXyXyXyXyXyXyXyXyXyXyXyXyXyXyXyXyXyXyXyXyXyXyXyXyXyXyXyXyXyXyXl.R ^ :.$.n 5 * 5 U.;XF...l 6 * J %.%.<.t.t.w.,.+.+.S #.H.U.q.,.,...8 # o o * * * * * * * * * * * * * * * > > > > * * * * * * * * * * * * * * * = * * % * * * * * * > > * > > * > > > > = * * = * * = * * * * * * * * * * * * * * * * * # # * * * * * * * % % o o o o o o o o % o o o o o o o o o o . . . . . . . . o . o o o o % # # * * * * # o % % % o * o o * * , , Y <.H.F.$.l w +.+.,.,.,.%.@.} 8 2 w  .+.+.o.7 o w S 7 5 6 $.+X$.L ..%.0.0.r.r.0.=.0.0.0.0.0.w.0.w.0.%...} } I <.e.6 #.R.",
"I , :.%.} ....%.w.y.y.y.y.w.w.0.0.w.w.w.0.%.+.@.I J D z L.J.F 7 2 5 7 > 5 [  . .{ S S ^ ^ ;.,.,.1.1...S 5 D :.F.>.:.^ l 6 > * o o # * > > > > > * * * * * * * * * * * * # # * * * * * * * * * * * * * * * * * * * * * * # # # * * > > > > > > > > > > > > > > > 5 5 5 5 5 5 5 5 5 5 5 > > > > 5 5 5 5 5 5 5 5 5 5 > > > 5 5 5 5 5 > > 5 > > 5 5 > > 5 5 5 5 5 7 7 7 7 7 6 5 5 5 5 5 5 5 5 5 5 5 5 5 5 5 5 5 5 5 > , , > * * > l %.<.q.U.+XH.T X.w.t.e.q.,.&.@.R $.l # 5 j D :.T.| * ; j P #.;.#.x N.R     yXyXyXyXyXyXyXyXyXyXyXyXyXyXyXyXyXyXyXyXyXyXyXyXyXyXyXyXyXyXyXyXyXyXyXyXyXyXyXyXyXyXyXyXyXyXyXyXyXyXyXyXyXyXyXyXyXyXyXyXyXyXyXyXyXyXyXyXyXyXyXyXyXyXyXyXyXyXyXyXyXyXyXyXyXyXyXyXyXyXyXyXyXyXyXyXyXyXyXyXyXyXyXyXyXyXyXyXyXyXyXyXyXyXyXj.R ^ $.#.w 5 * 5 U.%X2...l 5 > J $.%.<.w.0.;.%.+...S %.Y.$XT.<.;.@.j 5 > 5 5 7 7 7 7 7 7 5 5 6 7 5 5 5 5 5 7 7 5 5 5 5 5 5 5 5 5 5 5 5 5 5 5 5 5 6 5 7 7 7 5 5 5 5 5 7 5 5 5 5 5 5 5 5 5 5 5 , > 5 5 5 5 5 5 5 5 5 5 5 5 5 5 5 5 5 5 5 5 5 5 5 5 5 5 5 5 5 > > 5 5 5 > > > > > > * # * > > > > * * * * * * * # # # # # # * * * > > > > > > > > > > , ; ; > * * * * 6 8 I ;.H.H.:.S S +.......,.%.#...7 5 _ X.O.+.O.q o 7 S 7 > < $.+X$.I @.%.0.r.r.r.0.0.0.0.0.0.0.0.0.0.,.....} } } :.q.6 #.R.",
"I , :.%.} { ..+.0.w.y.r.w.w.t.r.0.w.w.0.,.+...@.@.I D z *XJ.L 7 # 5 7 > 5 [  . .{ S S ^ ^ %.,.e.0.=. .[ 7 Z / / $.! A j 6 > * > > > , , 5 5 , > 5 5 5 5 5 5 5 > > > > > > > ; > > > > > > > > > > > > > > > > > > 5 5 5 5 > 5 5 5 5 5 5 5 5 5 5 5 8 8 8 8 8 7 7 7 7 7 7 8 7 7 7 8 8 8 8 8 8 8 8 8 8 j 8 8 8 7 8 8 8 8 8 8 8 8 5 8 7 5 8 7 q w w w w w w w w l w w w l S S w w w w w w w w w w w w w w w w 8 8 8 l 8 8 8 5 5 5 S %.;.<.<.H.<.S X.w.u.u.e.,.%.@.~ $.l # 5 j z &.T...> > l } :.<.#.x z.N     yXyXyXyXyXyXyXyXyXyXyXyXyXyXyXyXyXyXyXyXyXyXyXyXyXyXyXyXyXyXyXyXyXyXyXyXyXyXyXyXyXyXyXyXyXyXyXyXyXyXyXyXyXyXyXyXyXyXyXyXyXyXyXyXyXyXyXyXyXyXyXyXyXyXyXyXyXyXyXyXyXyXyXyXyXyXyXyXyXyXyXyXyXyXyXyXyXyXyXyXyXyXyXyXyXyXyXyXyXyXyXyXyXyXyXj.W ^ $.@.w 8 * 5 q.$X:...l 6 > J $.$.<.q.<.&.&.,.%.S #.H.U.q.;.;.%.j > > 6 8 7 8 w 8 8 w w w w w l w 8 w w l w w w w w w w w w w w 8 8 w l w w w w w w w w w w w w w w 7 7 w w 8 8 7 w w w 8 6 7 w 8 8 8 8 8 8 8 8 8 l w 8 7 7 8 7 7 7 7 5 7 7 7 7 7 7 7 7 5 5 5 5 5 5 5 6 5 5 5 5 > > , , 5 5 , , 5 5 5 5 6 , * > > , > > > , > 5 5 5 5 5 5 5 , < < < , < , > > ; j j J Y ;.>.:.S [ ....| ..,.;.%.| q 9 X.+.+.+. .7 o 7 S 7 > 6 $.Y.:.I } %.w.w.r.r.w.w.r.r.w.0.0.,.%.%.%.......} ..:.q.6 #.Y.",
"} , <.:.} .. .%.%.,.0.w.w.w.w.0.5.w.w.0.0.0.0.&.I I z ! E.J.L 8 * 5 w 5 5  .o. .{ T S ^ ~ #.:.<.;.#...[ 7 D / W R R U l < % = > * > > > > > > > > 5 5 5 5 5 5 5 5 5 > > > * > > > > > > > , , , 5 5 , , , 5 5 5 5 5 5 , > , > > 5 5 5 7 5 5 5 5 7 7 7 5 5 5 5 5 5 7 7 7 7 7 8 8 8 8 7 7 7 7 5 5 8 8 8 8 7 7 7 7 7 7 7 8 w 8 7 7 7 7 7 q q w w w w w 7 7 w w w w w w w l w w w w w w w 8 8 w w S l w w w w 7 7 7 8 5 7 5 5 5 5 l %.%.#.#.:.<.T  .0.q.T.T.q.%.@.^ $.l X 5 J } <.T. .* * l { ,.<.#.x z.a     yXyXyXyXyXyXyXyXyXyXyXyXyXyXyXyXyXyXyXyXyXyXyXyXyXyXyXyXyXyXyXyXyXyXyXyXyXyXyXyXyXyXyXyXyXyXyXyXyXyXyXyXyXyXyXyXyXyXyXyXyXyXyXyXyXyXyXyXyXyXyXyXyXyXyXyXyXyXyXyXyXyXyXyXyXyXyXyXyXyXyXyXyXyXyXyXyXyXyXyXyXyXyXyXyXyXyXyXyXyXyXyXyXyXyXs.E / :.$.D 7 * 5 :.R.&.} J 8 * } :.$.Z.F.<.<.<.,.+.T ^ <.:.%.;.,.#.j 5 5 7 5 5 w > 7 7 w w w w w w w w w 8 j j 8 w 7 w w w w w 7 7 8 7 w 8 8 q q q q q q 8 8 8 8 7 7 w 7 7 7 7 7 8 8 8 7 7 5 5 7 8 5 7 7 7 7 7 7 7 8 8 8 7 7 7 7 7 7 7 5 5 5 5 7 7 7 7 7 7 5 5 5 5 5 5 5 5 5 5 5 5 > > , > 6 > > 5 5 5 5 5 > > > > > > > 5 5 5 5 5 5 5 5 7 7 7 5 5 , 5 , , , * * * j l T #.#.:.:.S l { ..@.@.#.#.#.#.w q +.3.+.+.X.q # 5 S 5 > < $.Y.:.F } ,.0.w.0.0.r.w.r.0.w.t.w.+.+.4.0.,.%.%.#.@.:.q.6 #.U.",
"{ , q.&.I } ..&.,.,.w.w.w.w.w.0.0.0.0.0.0.w.w.,.@.I l R L.J.F 8 > 5 7 # 5 o.=.+. .{ S ^ ~ ^ #.%.&.%... .8 D / R R ^ ^ D j < % * # o * * * > * * * * * * * # # o * # o o o o o o o % # # # o o o o o o % % % # o % * % % # * * * * * * * * * * * * * ; * * * = * * * * * > * > * * > > * * > > = > > > > > > > > > > > > > > > > > > > > > > > > > > > 5 5 > > 5 5 5 5 5 5 > > 5 5 > > > > > > > , , > > > > > > > 5 > > > > 5 l $.:.2.<.F.<.[ X.,.;.<.<.,.%.#.*.;.l . 7 { #.q.T. .* * l J #.;.^ x z.m     yXyXyXyXyXyXyXyXyXyXyXyXyXyXyXyXyXyXyXyXyXyXyXyXyXyXyXyXyXyXyXyXyXyXyXyXyXyXyXyXyXyXyXyXyXyXyXyXyXyXyXyXyXyXyXyXyXyXyXyXyXyXyXyXyXyXyXyXyXyXyXyXyXyXyXyXyXyXyXyXyXyXyXyXyXyXyXyXyXyXyXyXyXyXyXyXyXyXyXyXyXyXyXyXyXyXyXyXyXyXyXyXyXyXyXs.E ~ :.<.Y 8 > 5 <.$X:.} S 8 = } $.#.*.<.$.<.<.0.,.[ ^ F.2.;.,.1.@.8 * % * > * 5 > > > > > 5 > > 5 > > > 5 5 5 > > > > > > > > > > > > ; > > , , , , , , , > > > ; > > > > > > > > 5 , 5 > > > > > * > > ; > > > > > > = = * * ; > * * * * * * * * > > > * * * * ; ; = ; > = > > * % * * * ; % * = * * * * * % % % % o % % * * * * > > * * * * * * % * * * * % # > J l ..;.>.Z.:.S l ..#.%.@.@.! @...w q +.3.+.+.O.w o 5 S 6 , < $.J.$.D @.%.+.0.0.0.0.0.0.0.0.w.0.0.,.0.w.,.%.%.#.@.<.q.6 #.U.",
"J < U.:.L } @.&.,.0.e.t.u.u.w.w.0.0.0.0.w.w.0.,.#.I l A L.J.D 8 > 5 5 # 5 X.,.0.,...S ^ ^ ^ ^ #.;.;.%. .8 D / W ~ $.$.J J D , % * * ; ; , , , , , > > > ; * * > > > * # # % % % = = * * * % % % % % * * = = = = = = * % * * * * * * % = > > > * = = = = = = ; ; ; > = = ; ; > > * * = * % % = = = = = * * * = > > = = = = ; > ; = * * * * = > > ; > > > > * , , , > > > > > > > > ; ; ; > > > 5 5 5 , , , , , , % ; = ; ; , j J @.:.2.2.H.2.[ X.,.#.#.%.%.%.#.#.<.S # 5 S ..q.T. .* * l S } %.^ x z.R     yXyXyXyXyXyXyXyXyXyXyXyXyXyXyXyXyXyXyXyXyXyXyXyXyXyXyXyXyXyXyXyXyXyXyXyXyXyXyXyXyXyXyXyXyXyXyXyXyXyXyXyXyXyXyXyXyXyXyXyXyXyXyXyXyXyXyXyXyXyXyXyXyXyXyXyXyXyXyXyXyXyXyXyXyXyXyXyXyXyXyXyXyXyXyXyXyXyXyXyXyXyXyXyXyXyXyXyXyXyXyXyXyXyXyXs.E $.F.<.| 8 > 5 :.$X:.} J 8 = @.$.^ ^ $.$.<.<.0.0.[ @.H.U.<.,.<...j j , % ; * > ; , , > 5 > > > 5 5 , > > 5 5 5 5 , 5 , > > , , , , , , , , , < < , , , < 5 , , ; ; , ; , , , , , < < 5 5 , > > , , > > > , , > ; = , , = = = ; , , = ; ; = = = = = = * % % % = ; ; = = , = ; % % = = = ; ; % = = = = = * * * % % % % % % = ; = ; ; ; ; ; = ; ; ; ; ; ; ; ; = ; w } l ..%.F.Z./ S l %.%.$.^ ^ ! ! @.w q O.O.O.+.O.q o 5 S 6 , u *.H.#.D @.%.%.0.0.0.w.w.0.+.+.0.w.0.0.r.w.,.%.#.@.^ <.q.6 #.U.",
"J 6 U.<.L I @.#.<.w.e.u.u.w.w.w.w.w.0.0.w.0.0.,.#.I l R E.J.D 7 > > > # 5  .=.0.0...S ^ ^ ^ ^ %.:.;...{ 8 I :./ $.;.:.P J #.l , , < j j g g l l j g j j j 6 j j j 8 < < < 8 j j g g < 6 8 j j u < < < < j j j j j j 8 6 6 6 6 g < u j j j l j j j j g g g l l l l l j g j l l l S l j j j g j l D S S j 8 j j j j j j j j j j j j j j j j j l l l l l j l l l z l j j l l j j j j j j j j j l S l l j l j g u u u j u j j P @.J L #.;.:.2.<.[ [ ;.$.~ #.*.$.*.#.:.S # 5 l { q.T. .> > j S @.;.*.x z.R     yXyXyXyXyXyXyXyXyXyXyXyXyXyXyXyXyXyXyXyXyXyXyXyXyXyXyXyXyXyXyXyXyXyXyXyXyXyXyXyXyXyXyXyXyXyXyXyXyXyXyXyXyXyXyXyXyXyXyXyXyXyXyXyXyXyXyXyXyXyXyXyXyXyXyXyXyXyXyXyXyXyXyXyXyXyXyXyXyXyXyXyXyXyXyXyXyXyXyXyXyXyXyXyXyXyXyXyXyXyXyXyXyXyXyXs.x $.F.&.S 8 > 5 <.$X:.} J 6 = } &.$.$.$.$.<.<.0.0.[ ..H.U.<.;.1.T j #.! p u g j l D D S S l j j l D z j g l l l S S J S l l S D l g z z l A A D D A l l S { P S j g g g l l Z D l l z S l l l j j j j l D D D l j j l z l g j j j j j l l j j j j j j < u u u g j j j j j j u u u u u < u j j j j g 6 8 8 8 6 < < < < < u j j j j j j j j u u u p u u g p u < j I L j ..^ :.Z./ S S &.%.#.! ^ ! ! } 8 q  .O.O.O. .7 # 5 S 8 5 u *.H.#.D } %.%.,.,.0.w.w.0.,.,.0.w.0.0.r.w.,.#.I ! ^ :.2.6 ..H.",
"J < U.<.@.@.@.@.<.e.w.u.u.0.0.w.w.w.0.0.w.w.0.,.%.} l A E.H.l 7 > > 5 # 5  .=.,.=. .S ^ ^ / :.:.<.%...{ 8 ^ Z.l.:.;.<.{ l %.! j < j j k k z z z z z z z g j z F z z z z z z A F F z g l D F F z z k k z F F D F D z l D L L D z A ! ! F I I ! I I I ! ! ! ^ @.@.@.! L I ! @.#.%.,.%...I ^ #.#.%.%.%.%...Y I @.@.@.I I I ......I } I I F I @.@.@.%.&.;.&.%.#.#.%.@.} I @.@.@.I F I I ! @.@.@.%.%...} ..#.@.! ! ! F U F D D %.#.j } %.%.;.2.q.[ [ ;.$.*.#.#.#.#.#.:.J # 5 8 J <.e. .> > l J @.<.$.x z.R     yXyXyXyXyXyXyXyXyXyXyXyXyXyXyXyXyXyXyXyXyXyXyXyXyXyXyXyXyXyXyXyXyXyXyXyXyXyXyXyXyXyXyXyXyXyXyXyXyXyXyXyXyXyXyXyXyXyXyXyXyXyXyXyXyXyXyXyXyXyXyXyXyXyXyXyXyXyXyXyXyXyXyXyXyXyXyXyXyXyXyXyXyXyXyXyXyXyXyXyXyXyXyXyXyXyXyXyXyXyXyXyXyXyXyXs.R ^ ;.#.S 8 5 6 2.%X:.} l 6 % L <.<.<.&.&.<.<.w.0.[ I F.U.<.%.;.P 8 #.$.k g z @.@.@.#.%...{ P I #.^ ! R ~ ! U } #.%.&.#.} } #.#.! U #.#.^ @.#.%.%.%.....%.,.;.#.U U U F ! @.#.#.! ! ^ %.#.@.} I L L @.@.%.%.#.....@.^ ^ ^ ! U F F U I ^ ^ I L I } } F A A z z A F L J z z F A z z z z j l D F I F l z D S { S l j j l j k z z z z z z z z k a k k a k k k h g D #.z l #.I #.:.$.l S %.#.@.U ! ! ! I 8 5  .o.+.O.X.5 # 7 S w 5 g *.H.;.D } @.....+.0.w.w.0.,.0.w.w.0.0.r.w.,.%.@.! ^ :.2.6 } 2.",
"J < U.F.@.#.#.%.<.e.w.u.t.,.0.w.w.0.0.r.r.w.0.;.#.} l F Y.H.l 5 - 5 7 > 5 o.0.=.o.[ S ! ~ >.H.2.<.;...| 8 ^ S.Z.$.#.;.T 8 I #.z u g k k k k k k z R z k k z F F A z z z A R ! ! ! A z F I ^ ^ ~ R ! R ! ! ! ! ! I D D I @.@.L F ! ^ ~ ^ @.@.#.#.@.^ ~ ^ ^ #.$.:.&.#.@.@.#.#.;.q.w.0.&.%.$.$.;.:.:.;.,.;.%.%.:.:.%.%.%.%.%.%.%.%.%.%.@.@.#.;.%.%.%.2.e.q.<.:.:.:.%.@.#.%.#.@.@.#.#.#.#.%.;.;.;.;.%.%.,.,.%.#.^ ^ ! ! F F I &.} 8 #.,.,.,.<.q.[  .;.$.*.#.@.#.%.%.:.J # 5 w J ,.e. .> > l } %.2.$.x z.R     yXyXyXyXyXyXyXyXyXyXyXyXyXyXyXyXyXyXyXyXyXyXyXyXyXyXyXyXyXyXyXyXyXyXyXyXyXyXyXyXyXyXyXyXyXyXyXyXyXyXyXyXyXyXyXyXyXyXyXyXyXyXyXyXyXyXyXyXyXyXyXyXyXyXyXyXyXyXyXyXyXyXyXyXyXyXyXyXyXyXyXyXyXyXyXyXyXyXyXyXyXyXyXyXyXyXyXyXyXyXyXyXyXyXu g.R ^ #.} [ 7 5 5 <.%X<.} l 6 % I 2.<.2.%.&.<.w.w.5.[ } F.U.<.%.,.{ 8 L $.A k z @.@.#.#.%.%...I I %.! ! R ~ ^ F ..%.;.,.%.#.#.%.&.@.! $.#.@.%.:.<.<.,.,.,.q.q.q.$.^ ^ ^ ! #.%.:.;.#.#.$.<.<.:.&.@.@.! %.&.&.%.%.%.,.%.#.#.#.#.@.I I ! ^ #.#.I I #.%.#.I F ! ! z ! ! @.} D D F ! ! F z z z A U I ! F z D P } } P l j z z k z z z z z z z z R x a a a a a a a i z @.#.j l ..P I #.^ l S ....%.@.@.! ! I 8 5  .o.+.+. .5 # w S w 5 g *.H.;.I { ! J { +.w.w.0.0.0.w.w.w.0.0.r.r.1.%.! ! ! ;.<.6 } 2.",
"J < U.2.@.%.:.<.q.e.t.t.e.,.0.w.w.0.0.w.w.0.%.#.! I l F +XH.l 5 > 7 8 > 5 o.5.=.+.[ S ! / S.H.U.<.;.....j ^ S.Z.#.#.,.T 5 z ^ F g j k k k k k A x R R k k k ! ! ! ! A k A R ^ ~ ! A A I ! ! ~ ~ ! ! R ! ^ ! ! ^ ! D D } ....U F ^ ~ ~ ! ! @.#.%.#.#.~ ^ ^ %.:.<.;.%.#.#.%.#.<.w.e.0.&.$.$.$.$.&.:.,.1.;.%.&.:.$.%.%.:.:.%.%.%.%.$.$.#.@.#.;.%.#.:.q.T.q.<.&.&.;.%.#.%.%.#.I ! %.$.#.@.#.%.;.%.%.%.,.1.;.#.#.#.^ ! F z F @.;.J 8 #.,.,.,.<.0.[ X.,.%.$.&.;.;.:.$.<.S # 5 w { q.e...> ; S %.:.H.$.s z.a     yXyXyXyXyXyXyXyXyXyXyXyXyXyXyXyXyXyXyXyXyXyXyXyXyXyXyXyXyXyXyXyXyXyXyXyXyXyXyXyXyXyXyXyXyXyXyXyXyXyXyXyXyXyXyXyXyXyXyXyXyXyXyXyXyXyXyXyXyXyXyXyXyXyXyXyXyXyXyXyXyXyXyXyXyXyXyXyXyXyXyXyXyXyXyXyXyXyXyXyXyXyXyXyXyXyXyXyXyXyXyXyXyXyXu g.R #.;.+. .7 5 , :.%X<.#.l 6 % @.2.<.<.%.%.q.u.w.5.[ ..H.U.<.,.%.{ 8 l #.! z F @.} #.@.#.%...} @...I F F ^ ^ I ..%.;.,.%.%.%.%.;.@.^ $.#.@.;.:.<.<.;.%.,.e.0.1.%.#.$.$.! #.$.:.$.^ #.:.q.q.<.:.#.@.@.%.&.&.%...%.,.&.@.@.%.%.#.! I ^ #.#.@.I ..&.%.%.! ! ~ ! z F ^ #...D A F ~ ^ ! z z F I I ! ^ F z D ......P Z j A k k z z z z z z z F ! R a a k k k p a g z #...6 l ..{ L ! ^ l l ....1.1.%.^ ! I 8 5  .o.+.+. .5 > w S 8 > < #.H.;.I { F I ..,.w.r.w.r.r.0.w.w.0.0.r.w.,.@.L ! ! :.<.5 } 2.",
"J j U.2.@.%.;.<.1.0.w.e.w.w.t.w.w.r.0.r.r.0...@.! L k ! E.H.l 7 5 7 w > 5 O.=.=.+. .S ! ^ >.H.2.1.;... .l ^ :.:.;.;.,.S > j ! ! k p a k x k a k R R R a a a x R R R R a a R / ~ R A A A R R R R ~ R R R ~ ~ ! ! ! A F @.#.@.! ! ~ ~ ~ ! ^ ^ #.$.$.^ ! ^ #.$.$.$.&.$.%.#.#.%.:.q.q.<.:.;.$.*.*.$.:.;.:.;.#.^ #.#.#.#.$.$.#.#.#.#.#.#.^ ^ #.#.#.%.:.2.2.<.$.%.#.%.%.@.@.#.^ ! ^ $.$.^ ^ #.#.#.@.#.%.%.%.%.%.#.*.*.^ U F ^ %.&.l 8  .+.,.,.q.0.[  .,.%.%.;.0.q.,.&.:.S # 5 l } q.e...> > l @.%.2.$.s s.a     yXyXyXyXyXyXyXyXyXyXyXyXyXyXyXyXyXyXyXyXyXyXyXyXyXyXyXyXyXyXyXyXyXyXyXyXyXyXyXyXyXyXyXyXyXyXyXyXyXyXyXyXyXyXyXyXyXyXyXyXyXyXyXyXyXyXyXyXyXyXyXyXyXyXyXyXyXyXyXyXyXyXyXyXyXyXyXyXyXyXyXyXyXyXyXyXyXyXyXyXyXyXyXyXyXyXyXyXyXyXyXyXyXyXu s.R @.:.;.[ 7 > , ;.$X&.} l , % ! F.<.<.%.%.w.t.u.0.[ ..U.R.2.%.%...7 8 ..%.! z F I ! @.@...@.@.! ! ! ! ! ! ! U I @.@.@.@.@.@.^ ^ ^ ^ ^ ^ ^ $.:.:.:.%.#.%.:.:.%.#.$.$.~ R ^ $.$.^ ! ^ $.:.&.&.;.$.#.#.#.%.%.%.%.%.%.#.#.#.#.#.^ ^ ^ ^ ^ ^ ! F ! #.&.#.^ ~ R R x ! ^ #.! z z A ~ R R z k x ! ! ! ! A k A ~ ! ! ! ! R x R R R z k k k z k A R x x a a a a i a k ! #.F , l { ..#.#.^ j l | ..1.q.1.@.I I w 5 S o.+.+. .5 # q S 7 > < ^ G.$.D l A ..,.0.0.w.w.r.0.w.w.0.0.,.,.%.#.I L ! ! <.2.6 } <.",
"J j U.2.#.#.&.&.;.,.w.w.w.w.w.w.r.r.r.r.w.0.%.#.! L j ! *XJ.z 7 5 7 w > 5 o.=.=.+. .l ! ^ ;.>.>.<.;.%...S ^ :.:.;.;.;.[ > j F ! A k k z z z z z R ! A k k k z A A A A k A ! ^ ! ! A z A F ! ! ^ ^ ! ! ! ^ ~ ! ! F D F ^ @.@.! ! ! ~ ~ ^ ^ ^ ^ #.@.I U ! #.#.%.%.%.%.$.#.@.@.%.:.,.,.:.:.$.$.$.<.;.%.;.;.#.^ ^ @.@.#.#.$.#.#.#.#.#.! ! ! ! @.@.#.%.:.;.%.%.@.@.@...I P I ! ! ^ #.#.^ ! @.@.@.@.@.#.#.#.#.#.#.@.^ ! ^ I @.%.&.l j ..%.,.1.e.0.[ [ &.%.%.;.q.q.<.:.<.S # 5 S } q.T...> > j F %.2.$.s Q a     yXyXyXyXyXyXyXyXyXyXyXyXyXyXyXyXyXyXyXyXyXyXyXyXyXyXyXyXyXyXyXyXyXyXyXyXyXyXyXyXyXyXyXyXyXyXyXyXyXyXyXyXyXyXyXyXyXyXyXyXyXyXyXyXyXyXyXyXyXyXyXyXyXyXyXyXyXyXyXyXyXyXyXyXyXyXyXyXyXyXyXyXyXyXyXyXyXyXyXyXyXyXyXyXyXyXyXyXyXyXyXyXyXyXyXs.R #.<.<.{ 7 > , &.T.#.J j 5 * ! Z.<.<.q.0.w.t.w.=.[ } F.2.:.%.%. .w 5 P #.^ F z J I ........I L I I I ! ! I I } } ..} } } } I ^ ^ ^ ! ^ @.%.%.%.%.@.@.@.%.%.%.%.#.#.! ! #.#.#.@.^ ^ #.%.%.%.#.@.@.@.@.#.%.%.#.#.#.@.@.#.#.#.^ ^ ^ ^ ^ ! L F L @.#.@.@.^ ~ ! ! ! ! I F A A A ! ! A z z z A F F F z z z F I I U F z z z z A z z z z k j z z z z k k k k u p z ! @.l , S } &.:.;.#.l l { | ,.;.;.@.U I l 5 w X.+.+.X.5 # 7 l 7 > 6 ^ Z.^ l j I ..=.=.,.0.0.0.0.w.0.,.%.,.,.%.@.I I ! ! <.2.6 } <.",
"z 6 U.2.@.#.#.#.%.0.0.0.0.w.t.w.r.r.0.0.w.0.,.&.@.} j F *XJ.D 7 5 7 w > 5 +.,.+.o.[ l Y ^ / l.Z.S.:.%...l ^ F.>.<.:.<.| 5 6 g g , > > > , > > 5 5 5 , , > > , 5 > > , , < , 6 6 < , 6 6 5 6 6 g j g 6 g g g < < 6 , < 8 j j j g g < u j j j < 8 5 , < < j j j j j j j j j j j 8 8 8 8 l j j j j l j j l 8 6 6 8 8 j j j j j j j j j 8 8 8 j l l S S l l j j 8 8 6 , , , , 8 8 6 6 6 8 j 8 8 8 8 8 8 8 8 j j j g g j 8 j l l 8 l +.,.q.q.e.0.[ [ &.:.:.:.q.<.<.:.2.S . 5 [ %.q.T...> > 8 J ;.2.$.s Q p     yXyXyXyXyXyXyXyXyXyXyXyXyXyXyXyXyXyXyXyXyXyXyXyXyXyXyXyXyXyXyXyXyXyXyXyXyXyXyXyXyXyXyXyXyXyXyXyXyXyXyXyXyXyXyXyXyXyXyXyXyXyXyXyXyXyXyXyXyXyXyXyXyXyXyXyXyXyXyXyXyXyXyXyXyXyXyXyXyXyXyXyXyXyXyXyXyXyXyXyXyXyXyXyXyXyXyXyXyXyXyXyXyXyXyXQ R %.2.<. .8 > , %.U.@.D j 5 * I <.<.q.e.e.e.0.0.+.S P ~ #.%.%...| w 5 8 l j < > > 8 8 6 7 6 5 , , , , < < , , 5 6 5 6 5 5 5 , , 6 6 6 6 6 8 j 8 8 6 5 5 5 8 j l j 8 6 < j j j j j w 8 8 j j 8 8 8 8 8 8 j 8 8 8 8 8 j j j j j j j l j j j j j 8 8 8 j j j j g 8 6 , , , , , , < < < , , , , , < , , , , , , , , ; % ; , ; = = = , = % > * = = = = = * * * > 8 8 > 5 l } ,.2.:.#.l l P ..;.;.%.U F } l 5 ' o.+.3.X.5 . 5 l 8 > 6 ^ Z.^ z l ..+.+.=.,.,.0.0.0.0.0.+.%.,.,.&.%.@.} @.! <.2.6 } 2.",
"l 6 U.2.@.@...#.%.q.w.w.w.w.w.w.w.w.0.0.0.w.0.:.@.} l ! *XJ.D 7 5 5 7 > 5 o.=.+. .[ l J ! x.m.].).( %.| j #.H.F.<.<.2.%.8 * % % o o o o . . . . . . o o . . . . . o o o % % o o o o o o o o o o o o % % % o o % o o o * % * * * % % % * * * * * # o # * * # * % * % * * * * * * # * * > = * * * * * > > * % o # * * * * * * * * * * * * * * * * * * * * * * * * o o o o # # o o o o o * * * * * # # % * * * * * * * * * * > > l +.,.e.q.q.0.S S :.<.:.&.,.<.<.&.<.S . 5 { &.w.T...> > l | ;.2.$.s Q p     yXyXyXyXyXyXyXyXyXyXyXyXyXyXyXyXyXyXyXyXyXyXyXyXyXyXyXyXyXyXyXyXyXyXyXyXyXyXyXyXyXyXyXyXyXyXyXyXyXyXyXyXyXyXyXyXyXyXyXyXyXyXyXyXyXyXyXyXyXyXyXyXyXyXyXyXyXyXyXyXyXyXyXyXyXyXyXyXyXyXyXyXyXyXyXyXyXyXyXyXyXyXyXyXyXyXyXyXyXyXyXyXyXyXyXQ E :.2.:.{ 8 > , %.U.#.J l 5 * I <.:.q.e.e.e.0.%. .l Z ! #.;.;.+. .w 7 5 > * * # # * # # # # # o # o # * # o # o # # # # % % o # * * * * * * * * * * * # o * * * * # * * > > > > > > # # > > > * * * * * > * * * # * * * * * * * * * * # # * o o o * * * * # o * o o o o o . . . o o o o . . . o o o o o o o o o o . . o o o # # # o o # # o o o o o o o o o o * * 6 l } <.<.:.;.l l Y ^ #.^ @.U ! I w 5 X.5.5.5.O.5 # 7 l 8 > < ^ Z.^ z P +.+.=.,.,.,.0.w.0.0.,.%.%.,.q.,.;.#.@.@.@.<.2.6 @.2.",
"l g U.2.@.@.#.#.%.q.q.0.w.w.w.w.y.y.0.0.0.0.,.%.@.I l ! *XJ.D 7 5 5 8 > 5  .+.o. .S S { ~ v./.{.)./ %...j #.J.F.:.:.:...8 * % = * * > > > > > > > > > > > > * > > > , , , , > > , > > > > > > > > > , > > > > 5 > > > > > , 5 5 5 5 5 5 5 5 5 5 5 5 5 5 5 5 > 5 5 5 5 5 5 5 5 5 7 7 8 8 8 7 7 7 8 7 7 7 5 5 5 5 5 5 5 5 5 5 5 5 5 5 5 5 5 5 5 7 8 7 7 7 8 8 8 7 5 5 5 7 7 7 7 7 7 7 7 7 7 7 7 7 7 5 7 8 8 8 8 8 8 8 8 5 5 > 5 S +.,.q.e.q.q.S J :.<.%.%.%.,.<.&.<.S . 5 { %.q.#X%.> > w  .%.<.%.x ~ p     yXyXyXyXyXyXyXyXyXyXyXyXyXyXyXyXyXyXyXyXyXyXyXyXyXyXyXyXyXyXyXyXyXyXyXyXyXyXyXyXyXyXyXyXyXyXyXyXyXyXyXyXyXyXyXyXyXyXyXyXyXyXyXyXyXyXyXyXyXyXyXyXyXyXyXyXyXyXyXyXyXyXyXyXyXyXyXyXyXyXyXyXyXyXyXyXyXyXyXyXyXyXyXyXyXyXyXyXyXyXyXyXyXyXyXQ E $.:.%.{ 8 ; , %.R.&.} l 5 % I <.:.q.e.q.w.0.%. .w D $.<.:.,.,...w 5 5 5 5 5 7 7 7 7 7 7 7 7 5 5 7 7 8 7 7 7 5 7 7 7 7 7 5 7 7 7 w w 8 7 8 w 8 8 7 7 7 7 8 7 7 7 7 7 7 7 7 w 7 7 5 5 5 7 8 8 7 7 7 8 8 8 6 5 5 5 5 5 5 5 5 5 5 5 5 5 5 5 5 5 5 5 5 5 5 5 5 5 > 5 5 5 > * * # * * > > > > > > > > 5 5 > > 5 5 5 5 7 5 5 5 5 5 5 5 5 5 5 5 5 5 5 , > > 5 > > = ; , 8 l ..<.<.<.;.S l ^ ! ! U Y ! ! I 8 5 +.r.5.5.O.7 # 7 S 8 > < ^ G.^ z I +.+.0.,.,.%.0.w.0.0.0.,.,.,.,.;.%.#.#.#.@.2.H.6 @.F.",
"l j U.2.@.#.#.#.%.,.,.0.w.t.w.r.w.w.0.,.0.,.&.#.! L l ! *XJ.D 8 5 5 w > 5  .+.+. .[ l } ^ z.m.^.D.;.%.| 8 #.Z./ / $.#.Z 5 = % * * > > , 5 > > > 5 5 5 5 , , > > 5 5 5 5 6 6 5 5 6 5 5 5 5 5 5 5 5 6 8 8 5 5 5 5 5 5 > , , 5 6 8 8 5 5 6 6 5 5 5 5 5 5 5 5 5 5 5 5 8 6 6 7 8 8 8 7 7 8 j j 8 8 8 w w 8 8 8 5 5 8 8 8 8 8 8 8 8 8 6 5 5 5 5 5 5 8 8 8 8 8 8 8 8 8 5 5 5 5 6 5 8 8 8 7 7 w w w 8 8 8 8 8 w l l l l l w l 8 8 5 5 l +.,.<.<.q.q.S J :.:.;.,.,.,.:.%.:.l . 5 l { q.#X%., > w  .%.,.#.x ~ p     yXyXyXyXyXyXyXyXyXyXyXyXyXyXyXyXyXyXyXyXyXyXyXyXyXyXyXyXyXyXyXyXyXyXyXyXyXyXyXyXyXyXyXyXyXyXyXyXyXyXyXyXyXyXyXyXyXyXyXyXyXyXyXyXyXyXyXyXyXyXyXyXyXyXyXyXyXyXyXyXyXyXyXyXyXyXyXyXyXyXyXyXyXyXyXyXyXyXyXyXyXyXyXyXyXyXyXyXyXyXyXyXyXyXyXQ E $.$.%. .8 * , <.$X<.} l 5 % I :.:.q.e.w.e.0.,. .w { 2.q.,...%...8 > , 6 8 7 7 7 8 8 8 8 w w 8 5 7 8 w w w w 8 8 w w 8 8 8 7 7 8 l l w 8 8 8 8 8 8 8 7 7 8 8 8 8 8 8 8 8 8 j 8 7 6 7 5 8 8 8 8 8 8 8 8 8 8 6 5 5 8 8 8 8 8 8 8 8 8 8 8 8 8 7 5 7 7 8 8 8 8 7 5 5 7 5 5 5 5 > 5 5 5 5 5 5 5 5 5 5 5 5 5 , > 5 5 6 6 5 5 5 5 5 5 5 5 5 > , 5 6 6 5 , , , > , , ; ; 8 l ..<.<.<.;.S l ^ ~ R A U ! ! P 8 5 X.5.5.+.O.q # 7 S 8 > < #.G.~ z L +.%.,.,.%.%.0.w.0.0.w.0.,.,.,.%.#.@.#.#.@.2.H.6 @.H.",
"l j U.2.#.#.#.&.,.,.%.,.e.u.y.r.0.w.0.0.0.,.#.! ! ! z ! Y.H.D 7 5 7 w > 5  .+.=.+.{ S U ^ :.( F.H.2.,. .8 ^ Z./ / / ~ j 5 = % % % * * * * * * * * * * * * * * * * * * ; ; ; ; > > > * * * * > > > > , , > ; > = = = = = = ; ; , , = % = = > ; ; = = = = > > > ; > > > > > > > > > > > 5 , , > > > > > > > * * * > > , , , > , > * * > ; * * = , , 5 , , , , , , > > > > , , , 5 5 5 > > > > > > > > > 5 5 5 6 6 6 5 5 5 5 5 5 S ..%.1.<.q.<.S T &.;.1.w.e.q.;.%.:.S # 5 8 z q.$X&., 5 S +.0.0.%.k ~ u     yXyXyXyXyXyXyXyXyXyXyXyXyXyXyXyXyXyXyXyXyXyXyXyXyXyXyXyXyXyXyXyXyXyXyXyXyXyXyXyXyXyXyXyXyXyXyXyXyXyXyXyXyXyXyXyXyXyXyXyXyXyXyXyXyXyXyXyXyXyXyXyXyXyXyXyXyXyXyXyXyXyXyXyXyXyXyXyXyXyXyXyXyXyXyXyXyXyXyXyXyXyXyXyXyXyXyXyXyXyXyXyXyXyXyXQ E $.<.;.[ 8 * 5 q.qXq.{ j 5 * P :.<.e.u.u.t.0.0.+._ [ <.q.,.%.%...8 , > , , > > > > , > > 5 , > > > > , 5 5 5 5 5 , , > > , > > , 5 6 6 , , , 5 , > > > > , , , , , , , , , , , , , , , , , , , , < , , , , > > > , , , , 5 5 > > 5 5 5 > > > > > > 5 , , , , , , , ; ; ; = * = ; , ; ; ; = ; ; ; ; ; ; = = = = ; ; ; = = = = = = ; ; * = = , , > ; * ; * * * o * j l { ,.2.U.<.S l ^ / ( / #.@.I P w 5 [ +.3.O.X.7 # 7 S 8 > < *.J.*.z L ....%.%.&.,.0.r.0.0.w.0.0.0.,.%.#.@.#.#.@.2.H.6 #.U.",
"l j U.2.#.#.%.,.q.0.,.0.w.u.y.w.0.w.0.0.0.,.%.@.! ! k R Y.H.J w 5 7 l > 5  .,.+.+.{ S U ^ #.#.;.q.e.,. .j ^ Z.W ~ / ! < S 6 % o o o * * = > > , * * = = ; ; = > ; ; , , , , , , ; = = * > ; ; ; = > , > ; ; = ; > , , = = , , , , , : , = = = = , = = , , , , , , , , , , , , = ; > , < < , , , , , , , , , , ; , , < , , , = = = = = , = = , , , < < , , , , ; , , , ; , , , , , , , , > ; ; > ; ; > > , , , , , < < , , 8 S J ..;.#.;.2.:.S S %.,.0.u.u.e.:.%.<.S . 5 l J q.$X%., 5 S %.0.w.&.z ~ u     yXyXyXyXyXyXyXyXyXyXyXyXyXyXyXyXyXyXyXyXyXyXyXyXyXyXyXyXyXyXyXyXyXyXyXyXyXyXyXyXyXyXyXyXyXyXyXyXyXyXyXyXyXyXyXyXyXyXyXyXyXyXyXyXyXyXyXyXyXyXyXyXyXyXyXyXyXyXyXyXyXyXyXyXyXyXyXyXyXyXyXyXyXyXyXyXyXyXyXyXyXyXyXyXyXyXyXyXyXyXyXyXyXyXyXE E Z.H.,.[ 8 > 5 q.$X,.[ l 5 * J $.;.e.u.u.u.w.5.o.w S &.<.%.%.;...j z g , , , , , , , , , , , , , , , , < < , , < , , , , , , , < u u < < < u < < < , , , , , , , , , , , , , , , , , < , , < u u < < < < < < , < < , , < < < , , , , , , , , , , , , < , , > > , , , = , ; ; = = , , ; ; ; % % , , & , , , , , , , , ; ; ; ; = = = ; > = = , , ; ; ; , = = * % 5 J j P %.2.U.<.S l / :.Z.S.<.#.I } w 5 [ o.+.O.X.5 # 7 l 8 > < *.J.$.! I P ..%.%.;.,.0.r.r.r.r.0.0.w.0.,.%.%.#.#.@.<.U.6 #.U.",
"l j U.2.#.#.&.<.0.q.0.w.u.u.y.y.r.w.w.w.0.0.%.%.^ ! g x E.J.J w 5 7 l > 5  .+.+...[ S F ^ @...;.<.1.1...j ! Z./ ~ ~ ! < P D < = * , 5 8 j j j j j j j j j j j j j j j j l l l j j j j j j l j j j j j j j j 8 8 j j j g g g j j l j j l j j g j l g j j j l l l l z l l l l l j l l l l l S J J S l l l j j j j j j j 8 j j j j j j j j g 8 j l l D D S D S l l l l j g j g l l l l l l j j j j j j 8 8 j j l j j l l j l ..#.J I #.~ ~ ;.%.j S %.,.w.e.e.q.&.$.<.J + 5 l I q.$X%.5 > l ..,.,.#.z ~ u       yXyXyXyXyXyXyXyXyXyXyXyXyXyXyXyXyXyXyXyXyXyXyXyXyXyXyXyXyXyXyXyXyXyXyXyXyXyXyXyXyXyXyXyXyXyXyXyXyXyXyXyXyXyXyXyXyXyXyXyXyXyXyXyXyXyXyXyXyXyXyXyXyXyXyXyXyXyXyXyXyXyXyXyXyXyXyXyXyXyXyXyXyXyXyXyXyXyXyXyXyXyXyXyXyXyXyXyXyXyXyXyXyXyXR E $.<.,.{ l > 5 <.T.%.S l 5 * L $.%.0.t.u.u.w.5.+.n S %.;.%...;.@.l ^ ! p g l l A z z l l l l g l l l z A D D S z l l z D F D S z A F F J J D D J J J D z l z z z z z z z z l l z z l l l z z z z A D D D z l l l z D A A z l l l l l j j l j j l j g j g j j j j j g j j j j g j j j < < < < 8 j j g g j j j g g j j j j j 8 6 g g j 8 6 j j g j j j j 6 6 , , S } j F @.#.%.;.D D #.( Z.:.;.^ ! ..l 7 [ o.o.o.X.5 # 7 l 8 > < ~ G.*.F } U ..,.,.,.0.r.r.r.r.r.r.0.0.w.0.,.%.#.@.! <.U.8 #.R.",
"z j U.<.#.%.%.,.,.,.w.w.u.u.y.y.w.0.0.w.0.0.,.&.#.! g z E.Y.P w 5 5 w > 5  .+.o. .[ l F ! @...%.;.,.1...8 ~ Z./ ~ ~ ^ j l @.F j , g j z D F D F F z z A A F F z F A A F ! @.@.U A D F ! F ! ! F F D U ! ! U D D F F F F A F F I @.@.! @.I L I @.^ U ! F L @.#.#.&.%.%.%.%.$.:.$.%.;.;.@...&.q.<.&.%.%.%.@.@.} } @.I } | %...#...I I I ! L D I ! @.%.;.;.%.%.@.@.@.@.@.! ! ! @.#.@.@.@.....} } ....} { { } ..@.@.@.! I F J ;.&.j U #.~ ! #.@.S S %.0.0.0.0.,.%.$.<.S . 5 l } q.$X&.5 > l [  .%.#.k ~ u       yXyXyXyXyXyXyXyXyXyXyXyXyXyXyXyXyXyXyXyXyXyXyXyXyXyXyXyXyXyXyXyXyXyXyXyXyXyXyXyXyXyXyXyXyXyXyXyXyXyXyXyXyXyXyXyXyXyXyXyXyXyXyXyXyXyXyXyXyXyXyXyXyXyXyXyXyXyXyXyXyXyXyXyXyXyXyXyXyXyXyXyXyXyXyXyXyXyXyXyXyXyXyXyXyXyXyXyXyXyXyXyXyXyX~ x R #.%.} l > < :.T.#.S S 5 * L $.#.,.w.w.t.w.5.+.n S &.;.%...;...j ! ^ A A @.#.#.#.#.@.@.#.#.^ @.^ ^ #.#.%.&.;.%.#.#.%.%.%.&.%.@.^ $.$.&.;.;.%.%.%.,.;.&.#...@.@.@...#.%.#.#.....+.+.....@.! ! ^ #.:.;.%.....#.@...#.@.! I I ^ @.#.@.P P @.@.} } I U F A F ! } J l j l l l z z z z z j l D D D A z D F U U F F z z F ! } D D D D D z z z z z F A z A z j j < j I D 6 D I F I ^ D D #./ $.$.;.#.^ } l 7  .o.o.O.X.5 # 7 l 8 > < ^ H.*.F I ..+.0.0.0.0.0.r.r.r.r.r.r.r.w.0.;.%.#.@.I <.U.8 #.R.",
"S j U.2.%.%.;.&.%.,.w.w.y.y.y.r.r.r.0.0.0.w.0.:.#.! j z E.Y.J w 5 5 w > > [ o.o.+.{ S ! ! @.#.%.;.;.,. .8 ! Z./ ~ ^ ^ l < #.^ z , u g z A A A A R A A A R ! R R R R R ! #.$.$.! z A R ~ ~ ~ ~ ~ R ! ^ $.$.#.^ ! ! ~ ~ ~ ! ! ! #.;.:.$.%.#.#.$.<.;.$.$.#.@.&.<.q.q.2.:.2.2.I.U.U.U.T.q.%.%.q.T.T.q.<.2.2.2.:.:.<.:.#.&.1.1.,.%.%.#.#.#.#.^ ! ! @.%.<.q.q.<.,.:.:.2.2.<.;.$.%.$.:.:.:.;.,.;.;.,.<.<.<.,.,.,.,.:.:.;.$.! F L ,.#.6 F ^ ^ ~ $.%.S S %.0.0.0.,.,.%.*.<.l + 5 l } q.$X&., > l {  .+.@.a ~ k       yXyXyXyXyXyXyXyXyXyXyXyXyXyXyXyXyXyXyXyXyXyXyXyXyXyXyXyXyXyXyXyXyXyXyXyXyXyXyXyXyXyXyXyXyXyXyXyXyXyXyXyXyXyXyXyXyXyXyXyXyXyXyXyXyXyXyXyXyXyXyXyXyXyXyXyXyXyXyXyXyXyXyXyXyXyXyXyXyXyXyXyXyXyXyXyXyXyXyXyXyXyXyXyXyXyXyXyXyXyXyXyXyXyX~ x R ! #...l ; < <.R.%.J l 6 ; I $.#.;.w.w.w.0.5.+.n S ;.<.,.%.,...j L *.R ! *.<.<.F.2.2.2.2.<.:.<.<.:.$.<.F.q.2.2.2.2.2.2.2.I.F.<.$.:.H.U.e.e.e.w.e.u.T.q.<.;.;.:.:.;.<.q.2.<.1.0.w.e.e.q.2.&.%.;.H.q.q.<.,.;.q.e.<.<.:.%.#.*.$.<.<.:.&.%.<.<.<.&.$.^ ~ ~ ~ $.:.#.! U I ! I ^ ! R z A F ! #.%.#.I I #.:.;.$.^ ! A ! ^ #.#.! A ! ! ! F ! ! ! R ! R R F z z p u z ! l , z F F U ^ D S #.^ #.#.:.%.#.} 8 7  .+.+.+.[ 5 . 5 w 6 > 5 @.H.#.D J ..=.5.0.0.0.r.r.r.r.r.r.r.r.w.0.;.%.%.@.! <.U.6 #.T.",
"S j U.2.%.%.%.&.&.,.w.y.y.y.u.r.r.w.0.0.0.w.0.:.#.! g z E.J.J w 5 5 w > > [ o.+.+. .S ! ! #.#.%.&.%.%.| 8 A / R ~ ^ $.D , ! *.! g p p k A A A R R R R R R R R E E R x ! #.$.$.^ R R R E / / / / / ~ ^ / $.$.*.~ ~ ~ ~ ~ / ~ ! ^ #.#.#.#.#.#.$.$.<.$.$.$.#.&.q.e.q.:.:.2.2.2.H.U.U.T.H.%.:.e.T.q.2.2.U.U.F.F.F.F.<.$.:.2.<.%.@.%.$.%.#.~ ~ / ^ #.%.q.U.q.q.<.<.2.F.F.F.F.Z.;.;.<.<.:.<.:.:.<.2.2.q.U.e.e.q.<.<.<.<.;.! F I ;.J g z ! ! ~ $.%.j l %.,.0.0.0.,.%.*.$.l . 5 l L 2.T.&., > S { ..%.! a g.k       yXyXyXyXyXyXyXyXyXyXyXyXyXyXyXyXyXyXyXyXyXyXyXyXyXyXyXyXyXyXyXyXyXyXyXyXyXyXyXyXyXyXyXyXyXyXyXyXyXyXyXyXyXyXyXyXyXyXyXyXyXyXyXyXyXyXyXyXyXyXyXyXyXyXyXyXyXyXyXyXyXyXyXyXyXyXyXyXyXyXyXyXyXyXyXyXyXyXyXyXyXyXyXyXyXyXyXyXyXyXyXyXyXyX~ x R #.%.#.l > , <.#X&.S j 6 , I $.#.;.w.w.w.0.5.+.w S :.<.,.%.,...j D $.~ R *.Z.<.Z.F.F.F.F.<.:.H.H.:.$.:.F.2.:.<.<.<.<.2.F.I.F.:.*.$.F.U.T.U.e.e.e.U.T.U.F.:.:.:.:.:.<.F.<.2.2.q.U.T.T.T.2.:.;.<.H.q.q.q.,.<.e.T.T.U.<.$.*.*.*.$.%.&.&.%.%.:.<.:.#.~ R R ~ ~ #.#.^ ^ ^ ^ #.$.~ R a k A F I ^ ^ U ^ ;.2.:.$./ R R R ~ ^ ! ! A ! ! ! A R ~ R x x R x A k k p g F ! j , l F L U ! S S @.I I I #.@.Y P 8 5  .=.=.+.X.4 . 7 S 6 5 5 ! F.#.J { %.=.5.0.0.0.r.r.r.r.r.r.r.r.0.,.,.;.&.#.@.<.U.6 ..T.",
"J j U.2.%.%.%.,.,.,.0.w.y.y.y.r.0.r.w.0.0.w.0.&.#.! g A E.H.J w 5 5 w > 5  .+.o. .[ S ! ^ @.%.%.%.%...| 8 A R R / #.#.P , A ~ *.F g g k k k A R ~ ^ ~ R R R R E E R x R ! ! ^ ! ^ ^ ~ R ~ g.g./ / / ~ ! ^ $.~ ^ ^ ~ ~ ~ ~ ~ ^ ^ ^ ^ ^ *.$.$.*.*.$.$.$.:.$.$.2.q.<.:.<.F.2.<.F.H.U.U.<.;.<.U.2.<.:.2.H.2.<.F.F.F.:.$.<.2.<.#.@.#.;.$.*.~ ~ $.$.$.:.<.q.<.2.<.<.<.<.:.Z.G.F.:.:.<.<.:.:.;.;.:.<.<.<.2.T.T.2.:.%.$.#.#.! ! #.&.l 6 z ! ! ~ $.#.j l %.,.0.w.w.,.#.*.$.j . 5 8 J &.R.<.6 > S { { %.@.x g.k       yXyXyXyXyXyXyXyXyXyXyXyXyXyXyXyXyXyXyXyXyXyXyXyXyXyXyXyXyXyXyXyXyXyXyXyXyXyXyXyXyXyXyXyXyXyXyXyXyXyXyXyXyXyXyXyXyXyXyXyXyXyXyXyXyXyXyXyXyXyXyXyXyXyXyXyXyXyXyXyXyXyXyXyXyXyXyXyXyXyXyXyXyXyXyXyXyXyXyXyXyXyXyXyXyXyXyXyXyXyXyXyXyXyX~ x ^ %.%.} l > , :.$X&.l j 5 > I $.$.<.q.0.e.w.0.+._ [ :.<.,.%.;...8 l #.~ ~ ^ $.;.:.Z.<.<.:.:.$.F.F.:.$.:.F.:.;.<.F.<.<.<.<.<.<.$.~ ~ :.F.U.U.U.U.U.U.F.G.F.Z./ $.Z.F.:.:.:.:.<.<.<.2.U.2.:.$.$.$.;.<.H.H.2.2.2.U.U.2.:.*.~ ~ ~ #.$.$.:.&.@.$.;.$.~ R R R R ~ ^ ^ #.^ ! ! ! ~ R s a A A A F ! ^ ! ^ $.<.:.$.~ R R R ~ ! ! R R ! ! A A R ~ R x k k k k k k k z ! U < , l F ! I Y Z l ........#.I F I 8 7  .=.=.+.X.5 # 8 S 8 > , ! F.#.J { ,.0.0.0.0.w.r.r.r.r.r.r.r.r.0.,.,.;.%.#.@.<.q.5 ..T.",
"{ j U.:.#.%.%.1.,.,.,.0.w.w.w.w.r.0.w.w.w.w.0.%.@.! g R E.J.J w 5 5 w > 5  .o. .[ S l ^ @.@.%.%.%... .{ 8 A / ~ $.:.;...< u ! #.! D l k k k A ! ^ ^ ^ ! R R ~ Q R R R ! U A ! ! ^ ~ ~ R R / / R R ~ ! A ! ^ ^ #.^ ! ~ ~ / / ~ ~ ~ ~ ^ $.$.*.~ ~ *.$.$.$.$.$.$.:.%.:.<.2.<.:.<.F.F.<.$.;.:.<.;.$.$.:.F.:.$.$.:.$.$.*.;.;.;.@.#.#.$.$.^ / ~ / $.$.%.;.:.<.<.<.<.F.:.$.Z.Z.Z.$.$.:.$.#.#.;.:.<.<.;.;.<.U.U.<.#.#.#.^ ^ ! ^ %.;.j 6 z ! ^ ^ / @.j j ..,.0.w.0.,.#.*.$.j o 5 8 D :.T.q.6 , S { ..&.@.x g.k       yXyXyXyXyXyXyXyXyXyXyXyXyXyXyXyXyXyXyXyXyXyXyXyXyXyXyXyXyXyXyXyXyXyXyXyXyXyXyXyXyXyXyXyXyXyXyXyXyXyXyXyXyXyXyXyXyXyXyXyXyXyXyXyXyXyXyXyXyXyXyXyXyXyXyXyXyXyXyXyXyXyXyXyXyXyXyXyXyXyXyXyXyXyXyXyXyXyXyXyXyXyXyXyXyXyXyXyXyXyXyXyXyXyX~ R ~ %...S 8 = , :.$X:.D l 6 > } <.<.<.,.,.e.w.0.o._ [ :.q.<.&.;...8 l @.$.~ ! #.#.Z.Z.<.:.:.:.$.:.:.$.:.:.;.$.:.F.F.F.:.$.#.$.:.$./ / $.:.F.H.H.H.H.F.Z.Z.Z.Z./ / Z.:./ $.:.>.>.:.$.$.;.$.$./ / ~ ^ $.:.F.F.<.$.$.$.$.$.$./ ~ ~ ~ *.$.:.$.#.#.^ #.^ ~ R x R ~ ~ #.*.#.! ! ! R x s x A k z A F ! ^ #.$.$.$.~ ~ R R ~ ~ ! ! ! ! ! A A A R R R R x k a a a a k ! #.F > , J D I I I l j ..%.,.;.%.I L I j 7  .+.+.+. .5 # w S 8 > , ! F.#.P { %.%.5.0.0.0.0.0.w.r.r.r.r.r.w.,.,.%.%.@.@.<.q.5 ..T.",
"{ j U.:.#.%.%.,.0.0.0.0.w.r.r.r.0.0.0.w.r.0.,.$.*.^ k x E.J.I w 5 5 w > > [  .[ S l l ^ @.%.%.#...I | { 8 F / / $.;.;...< , l J J l l j j j j l l D D l j k z z k k j l l j l l D D z z z A z k l l l l l S D D F D z z F z z A z k z F F F z z F ! F I I I J D D } } } } I ! ^ @.@.I I I I P P I @.@.^ I F D D D D J J J D D D D D D A F U I I } } ....@.@.#.@.^ ! ! ^ ^ ! ! ! I D P } ..@...I I @.%.#...I L I D D z L @.#.j 6 F ! #./ #...8 j ..,.0.w.0.,.#.*.$.j . > 8 D <.$Xq.6 5 [ ..#.,.#.k ~ g       yXyXyXyXyXyXyXyXyXyXyXyXyXyXyXyXyXyXyXyXyXyXyXyXyXyXyXyXyXyXyXyXyXyXyXyXyXyXyXyXyXyXyXyXyXyXyXyXyXyXyXyXyXyXyXyXyXyXyXyXyXyXyXyXyXyXyXyXyXyXyXyXyXyXyXyXyXyXyXyXyXyXyXyXyXyXyXyXyXyXyXyXyXyXyXyXyXyXyXyXyXyXyXyXyXyXyXyXyXyXyXyXyXyX~ v ~ #. .S 7 * , :.$X2.I l 7 > } F.2.<.,.,.w.w.0.+.w [ <.q.<.%.,.%.8 8 } %.I l J P I I I P D D D D l D D D Z l D D I D D l l S D A F F A D D I ..@...I D A U F A A U D l D D I I D l l l A z F A z l A D I @.I D A l z D F D z j g l D D l l g j l l g p u u g j j j j j 6 < , , , , , , ; , , < j l z D z z j g p g g g g g g j j u u u u g g p u , , < u g D I l > 8 J D D D D j l ..,.1.;.%.I @.} 8 7 [  .o.+. .5 o w S 8 > , ! F.#.I } } +.5.0.0.0.0.0.0.r.r.r.r.r.w.0.,.%...} ! 2.q.5 #.T.",
"{ j U.<.%.%.%.,.0.w.w.0.w.w.w.r.w.0.,.w.w.0.1.&.*.! g ! *XJ.I w 5 > 7 # > [ o. .[ l l ! %.%.,.%...Y { { 8 D ^ ^ #.#.#.I j , > > ; * * % o o o * * * * * * * % * * * * % % % * # * * = = = % * * * * * * * * * * ; > ; ; = = = * * * * = = = = = ; , , ; ; * * * * * > > > > > > , > > > > > > > > 5 5 5 > > > > * * * * * * * > > > > > > > > > > > > > > > > > > > ; > , > > * > * * > > > > > > , 5 > > > > > > > * > 6 j 6 6 F ! ! I @...8 l %.0.0.w.w.q.&.#.$.j . * 8 z :.T.<.5 5 S ..%.<.#.k E p       yXyXyXyXyXyXyXyXyXyXyXyXyXyXyXyXyXyXyXyXyXyXyXyXyXyXyXyXyXyXyXyXyXyXyXyXyXyXyXyXyXyXyXyXyXyXyXyXyXyXyXyXyXyXyXyXyXyXyXyXyXyXyXyXyXyXyXyXyXyXyXyXyXyXyXyXyXyXyXyXyXyXyXyXyXyXyXyXyXyXyXyXyXyXyXyXyXyXyXyXyXyXyXyXyXyXyXyXyXyXyXyXyXyX~ x ! %...T q * , :.#X2.} l 7 > } 2.2.q.w.w.t.w.0.+.w [ <.2.<.%.,.%.w 5 8 w 5 > > > > > * * * * * # # # # # # # # # # # # # # # - * * * * # # > > > > * * * * * * * # - # > > > * * # * * * * * * * * * * > > * * * * * * * * # o o % * * * # o o * * * o + . + . . . o o o . . . . + . . . . . . o o o * * * * % % % % % % % * % o o o o o o o o o . o . o * * 5 > > j D P P P I j l %.,.,.%...} @.} w 0 [  . .o.[ 5 o w S 6 > , ! F.#.I } I ..,.0.5.0.,.0.w.r.r.r.w.w.w.0.,.%.....@.2.e.< #.T.",
"{ j U.2.&.%.%.%.0.w.w.0.0.w.y.y.w.0.0.w.t.w.<.$.^ F g ! >XY.P w 5 > 8 # > [ o. .[ S l @.%.,.,.%...Y { S 6 D ^ ^ ^ Y U D l 5 o . . + o o + + o o o + o o o o o . o . . o o o o o o % % % % o o o o o o # o o o * * * * * # # # # # # # # * * * * = % * * * * # # # * * * * > > > > * * * * * * * * > > > * * * * * * * * * * * * * * * * * > > * * * > > > > > > > > > = * * * * * * * * > > > > > > > > > > > > > > > * * > , j L I U I #...8 l +.,.0.w.w.e.:.#.&.8 . > j z &.R.&., 5 S ..,.q.#.a R p       yXyXyXyXyXyXyXyXyXyXyXyXyXyXyXyXyXyXyXyXyXyXyXyXyXyXyXyXyXyXyXyXyXyXyXyXyXyXyXyXyXyXyXyXyXyXyXyXyXyXyXyXyXyXyXyXyXyXyXyXyXyXyXyXyXyXyXyXyXyXyXyXyXyXyXyXyXyXyXyXyXyXyXyXyXyXyXyXyXyXyXyXyXyXyXyXyXyXyXyXyXyXyXyXyXyXyXyXyXyXyXyXyXyXR x ^ ;.,.{ q * , ,.T.,.J l 7 > ..2.<.q.w.w.t.w.w.+.[ { %.%.&.&.,.%.S 5 > * > > 5 > > > > > > > > * * > > > * # > > > > > > > > > > > > > > > > > > > > > * * > > * # > > > > > > > * * * * * * * * * * > > > > > * * * * > > * * * * * > > * * * * * * * o o o o o o # * # o o o o o o o . . o # * % % * * * * * * * * * * * > * * * * * * * * * # o o o % o o o o * j z @.....I 8 l ....;.....I @.} 8 7 [  . .X.' > # w [ 7 > , ^ F.#.J { ..+.0.0.0.0.,.,.0.w.r.r.r.r.0.,.%.#.....@.2.e.6 #.T.",
"} j U.q.%.%.%.%.0.w.w.0.0.w.w.r.w.w.0.0.t.t.<.#.F z j ! *XY.P w 5 > 8 # - X.+.o. .S j @.%.=.0.+...{ { S 7 J ^ ^ Y Y U D l , o o % * * = * > > ; ; ; > > > * * * > > ; > > > > > > , > , , * * * ; ; ; > > > > 5 5 5 5 , > > > 5 5 5 5 5 5 5 5 5 5 > 5 5 5 5 5 5 5 5 5 5 5 5 5 5 5 5 5 5 5 5 5 5 5 5 6 5 5 5 5 > > > > 5 > > 5 5 5 5 5 8 7 8 8 7 7 7 7 w 7 7 7 7 8 8 8 8 8 8 7 5 7 7 7 7 7 8 8 8 8 8 8 8 7 7 8 8 7 8 w 7 5 5 8 l @.@.^ @.;.%.8 w ..,.0.w.t.e.,.#.&.j # > j l %.R.;., > S %.0.q.#.i R p       yXyXyXyXyXyXyXyXyXyXyXyXyXyXyXyXyXyXyXyXyXyXyXyXyXyXyXyXyXyXyXyXyXyXyXyXyXyXyXyXyXyXyXyXyXyXyXyXyXyXyXyXyXyXyXyXyXyXyXyXyXyXyXyXyXyXyXyXyXyXyXyXyXyXyXyXyXyXyXyXyXyXyXyXyXyXyXyXyXyXyXyXyXyXyXyXyXyXyXyXyXyXyXyXyXyXyXyXyXyXyXyXyXyXR x #.<.,.{ 8 * 5 ,.T.%.S l 7 5 #.2.<.q.0.w.e.w.0.+.[ { #.#.%.%.;.%.S 5 > > 5 8 w l w w w w w w 8 7 7 7 7 7 7 7 8 8 8 8 8 7 7 5 5 5 5 5 5 5 5 7 8 8 8 8 5 5 8 8 8 5 5 7 7 7 7 7 7 5 5 5 5 5 5 5 5 5 5 5 5 6 6 6 6 6 6 5 5 5 5 5 5 5 5 5 5 5 5 5 5 5 5 5 , > > > > > > > > > ; = = ; ; = * * * > > 5 , , , , 5 5 5 5 5 5 , > 5 5 5 , 5 5 > > 5 5 , > > > > > > * * * 6 g A @.@...U 8 8 ....,.,.%.} @.{ 8 7  .o. .X.w # # w [ 7 > < ^ F.^ D J +.+.0.5.0.0.+...%.0.w.r.r.r.=...#.#.....@.<.e.6 #.#X",
"} j R.q.#.....#.,.w.r.0.0.w.w.w.w.w.0.0.e.t.<.$.! z j ! *XJ.I w 5 5 7 # 5 [ o.o.+.[ j } +.+.+.+.+.| { S 7 P #.@.@.@.^ I < % o % % % * * * * = = ; ; ; > = * * * * > > > > > = > ; > > > = = * > ; ; > > > > > > > > > > * * > > > > > > , = = = = * = > > > > * * > > > > > > > > > > > > > > > > > > > > > = = = ; ; ; > > > > > 5 5 5 5 5 5 5 5 5 5 5 7 7 5 5 8 7 5 5 5 5 5 5 5 5 5 8 7 7 8 8 8 8 7 6 6 6 6 6 5 8 5 7 7 5 7 l #.%.:.:.<.%.7 w  .=.0.w.t.w.,.#.&.j o > j D &.R.,.5 > S +.,.0.#.k R p       yXyXyXyXyXyXyXyXyXyXyXyXyXyXyXyXyXyXyXyXyXyXyXyXyXyXyXyXyXyXyXyXyXyXyXyXyXyXyXyXyXyXyXyXyXyXyXyXyXyXyXyXyXyXyXyXyXyXyXyXyXyXyXyXyXyXyXyXyXyXyXyXyXyXyXyXyXyXyXyXyXyXyXyXyXyXyXyXyXyXyXyXyXyXyXyXyXyXyXyXyXyXyXyXyXyXyXyXyXyXyXyXyXyX^ x ^ ;.+.[ 8 * 5 q.#X0. .l 7 > #.I.<.,.0.0.e.w.0.+.[ } :.<.:.%.:.%.j , > , 5 , 5 5 7 8 w w q 7 5 7 7 7 7 7 7 8 5 5 5 5 5 > > 5 5 5 5 5 5 5 5 5 7 8 8 8 5 5 5 5 5 > > > > > > > > > > > > > > > > > > > > > > > > > > > > > > > > > > > > > > > > > > > ; * * * * * * = = * % % % % % % % * * * = > * * * * > > > > = > > > > > > > > ; ; = ; ; ; ; * > * * * * * > l j F @.} I U 8 8 | ..,.0.0.%.#.{ 7 5 [ o.X.X._ 4 # w [ q 5 6 ^ F.^ J } +.,.0.0.0.,.+.{ ..0.0.r.r.r.,...@.@.....} <.e.6 #.#X",
"} 6 R.2...} ..#.,.w.w.w.w.e.t.u.w.w.0.0.w.t.<.$.@.I l ! *XH.P w 5 5 7 # > [ o.o.+.[ j } +.+.=.%.%.....S 5 P ;.#.@.I ^ D , . . o . o o o o o * % % % % * * # o # # # # * * * % % % % % * % % o % o o o o % * * * * = = = = % % % % = = = = = % % = = = = = * * * * = > > > > > > > > > > > > = = * * > > = * * * * % = = = = > > > > > > > > > > > > > > > > > > > * * * * * * * * * * * * * > > > > 5 5 5 5 6 6 5 , > > * * 5 l ..:.2.<.2.%.7 8  .+.+.,.0.w.,.%.&.l o * j L <.U.%.5 5 l  .%.0.#.k R p       yXyXyXyXyXyXyXyXyXyXyXyXyXyXyXyXyXyXyXyXyXyXyXyXyXyXyXyXyXyXyXyXyXyXyXyXyXyXyXyXyXyXyXyXyXyXyXyXyXyXyXyXyXyXyXyXyXyXyXyXyXyXyXyXyXyXyXyXyXyXyXyXyXyXyXyXyXyXyXyXyXyXyXyXyXyXyXyXyXyXyXyXyXyXyXyXyXyXyXyXyXyXyXyXyXyXyXyXyXyXyXyXyXyX~ x ! %...S 8 * 5 q.#Xq.+.l 7 > #.F.:.,.0.0.e.0.,. .w } F.U.<.%.:.%.8 , = % = > > > > > 5 5 5 > > * * * * * * * > > > > > > > > > * * = = * > > * * * * = * , > > > > > > > > > > > > > > > > > > = * * > > > > > > * * = * = = = * > = ; = ; ; = = = % % % % % % % % % % % % % % % % % o o % * = = * * * * = = ; ; = * * * = * = = * * % % % % % % o % o o % % % > D j F %.%...I j 8  ...,.0.w.,.%.{ 8 5 S  . . .n 5 # S  .7 5 6 #.H.#.P ..,.0.0.0.0.1.,.+.+.0.0.0.0.r.0.%.@...} ..@.2.q.6 #.#X",
"@.6 U.q...} ..%.,.w.w.w.t.e.0.w.w.0.w.w.w.w.,.&.#.} j R *XH.J w 5 5 w # > [  . .{ l g L +.+.3.%.%.%. .S 5 P #.! U U D l j , o . o o o % * * * * * % * % % % % * * * * * * % * % * * * * * = = = = * * * = = = = , , , , , , , ; ; = ; , , , , < < < , , , , ; ; ; > > > > > > > , ; = = = = = = = = = * * = = % % % % % % % * * * * = = * = = ; = = * > ; > > > > > > > ; * * * * * * * * * ; ; ; ; * * * * * * * % = * * > l S } &.:.:.<.&.w w  .%.+.+.,.w.q.%.&.j o 5 l D %.U.%.5 5 w  .,.0.&.k ~ p       yXyXyXyXyXyXyXyXyXyXyXyXyXyXyXyXyXyXyXyXyXyXyXyXyXyXyXyXyXyXyXyXyXyXyXyXyXyXyXyXyXyXyXyXyXyXyXyXyXyXyXyXyXyXyXyXyXyXyXyXyXyXyXyXyXyXyXyXyXyXyXyXyXyXyXyXyXyXyXyXyXyXyXyXyXyXyXyXyXyXyXyXyXyXyXyXyXyXyXyXyXyXyXyXyXyXyXyXyXyXyXyXyXyXR x ! %.+.{ 8 * 5 <.T.,...l 5 > } <.$.,.w.w.w.0.+.[ w J :.2.:.%.,.%.l D j = = > > > , > , 5 > > > , > > ; ; ; > = = > > > > , , , , = > > > > ; ; ; ; ; , , , , > ; > > > > > > > > > > > > > = * * * * * * > > > > = = = * * * % * * * * * ; = = = = = % = = = = = ; , , , , , ; = = * * * % = = = ; ; ; ; ; ; ; = = = * * = = ; ; ; ; , , = = ; = % % = % % % % 6 J g A :.,.,.%.l l  ...,.0.e.0.%.[ 8 7 l  . . .w > # S [ 7 > 6 $.Y.#.I #.%.%.,.,.,.,.%.,.0.0.5.0.0.0.w.,.....| } @.q.e.6 #.T.",
"#.6 U.I.@.} ..%.,.0.w.w.w.0.%.,.0.w.t.r.w.w.,.:.$.@.j R *XJ.D q 5 5 w # - [  . .[ l j L %.+.+.%.%...{ [ 8 D ! A F U D j S l * o % % * ; ; ; ; ; , , , , , , , , , , , , , , < < < 6 8 6 6 < < < , , , , , < < < g j g g 8 6 8 8 < < , 6 j j j j j j j g g < < < 6 8 j 6 6 8 j j j j 6 < < < < < 5 5 6 6 6 6 6 , , , , , , < , , , , < < < < < 6 < , , < , , 6 6 6 6 6 6 5 5 , , , , , , , , < < , 6 8 6 6 6 , , , , 6 , 5 l ..S { %.$.$.:.&.8 8 +.,.,.%.%.q.<.&.&.l o 5 j z @.q.%.5 5 n +.0.w.&.z ~ g       yXyXyXyXyXyXyXyXyXyXyXyXyXyXyXyXyXyXyXyXyXyXyXyXyXyXyXyXyXyXyXyXyXyXyXyXyXyXyXyXyXyXyXyXyXyXyXyXyXyXyXyXyXyXyXyXyXyXyXyXyXyXyXyXyXyXyXyXyXyXyXyXyXyXyXyXyXyXyXyXyXyXyXyXyXyXyXyXyXyXyXyXyXyXyXyXyXyXyXyXyXyXyXyXyXyXyXyXyXyXyXyXyXyXR x ^ :.,.| w * 5 <.T.,...S 6 > } $.#.;.e.e.w.%. .[ w l @.%.%.&.<.%.S $.! j < j j j j j j j j j j 8 j 8 6 8 8 8 8 8 j j j j j j j g g j j j 8 j j j j j j j j j j 8 8 8 j j j j j j l l j j 8 8 6 8 8 8 8 6 8 j j j j j j 8 , , , , 6 5 8 8 j j 6 < 6 6 < < < < g g g j g j j j j 8 6 5 , , j j j g j j j j j j j j < g j 6 6 g j j j j j j g u g u < , u u u , < D J < l &.,.1.;.l l | ..,.0.q.1.+.S 7 7 [ X.o. .n > o l [ 7 > j $.Y.$.I #.#.....+.+.+.+.0.0.0.0.0.0.0.0.,.%.....} @.2.e.6 #.T.",
"@.6 T.U.@.....$.$.&.1.e.w.0.,.,.0.w.w.t.w.w.q.<.$.@.j ! *XH.D 8 5 5 8 * - [ +. .{ S j L #.=.+.....I | S 5 Z R R ! R F < j { , & : , , p p u p p p p p g k k k g g g g a p a k k z z F F z z z k k k k z z D D D D D D z z z z D z z z z z A z D J S D z z z z z z F z k g F ! I I I D z A F F D J S S S D l l g p p k z z z z D D D F z F D I I D z z F F D D D z D D D D I F z z z D D D I I I I ..} I ^ ! A k A ! A F z @.#.w } %.:.$.$.%.j l ..%.,.%.&.%.$.$.&.l o , j L :.U.%.5 5 ' 3.r.u.%.k ~ g       yXyXyXyXyXyXyXyXyXyXyXyXyXyXyXyXyXyXyXyXyXyXyXyXyXyXyXyXyXyXyXyXyXyXyXyXyXyXyXyXyXyXyXyXyXyXyXyXyXyXyXyXyXyXyXyXyXyXyXyXyXyXyXyXyXyXyXyXyXyXyXyXyXyXyXyXyXyXyXyXyXyXyXyXyXyXyXyXyXyXyXyXyXyXyXyXyXyXyXyXyXyXyXyXyXyXyXyXyXyXyXyXyXyXR x } <.;.+.w * 5 0.u.,.} S 5 = @.*.%.<.e.q.q.%.%...l l @.%.%.&.:.%.j #.*.k k ~ *.! U F I I I U ! U I F D F D D L L L I } ..%.#.I F ! ! ! ..%.%.#...I I ! ! ^ ! I I U I #.^ U U ! @.#.#.@.@.I F U #.^ @.I U U I @.@.@.%.#.! k k z F I D J } @.I D A U U F z z z A z z F F A A F F z g g l D F A k z F ! ! I I I I z k z R z k k z z z A A z k k k a a a a x a i g ! D < l @.%.;.%.l l | %.%.%.%.%...{ 7 5  .+. .X.n > . w { 8 > g $.Y.$.I } @...+.%.+.+.#.,.,.0.0.0.0.0.0.%.%.#...@.@.2.U.8 #.#X",
"Y 6 T.U.@.@...#.%.&.1.e.e.w.q.w.w.w.w.w.w.w.<.:.$.@.z ~ *XH.J w > > 7 * - [ +.+.+.} j F #... .........S > l ! ~ ! A F g 5 { l u u u u g k k A k k k k z A z k k R R x x R R ! R ^ ^ ! ! ! ! ! ! ! ! ! D D } } } L F F ! ! ! ! ! ~ ~ ^ ^ ! U I @.#.#.@.@.@.@.#.#.#.#.#.I L #.;.:.:.&.@.} %.:.;.#.....+.+...} } U F ! ^ $.^ ! @.%.,.&.#.@.@.;.<.<.&.%.&.;.<.&.%.#.@.#.@.%.;.:.:.%.@.#.%.;.;.;.,.1.<.<.<.q.2.$.#.~ ^ ~ ~ ! F #...8 } %.:.$.$.#.8 w ..,.0.,.%.%.#.$.&.l o > j L <.T.%.5 5 [ +.w.t.&.k ~ g       yXyXyXyXyXyXyXyXyXyXyXyXyXyXyXyXyXyXyXyXyXyXyXyXyXyXyXyXyXyXyXyXyXyXyXyXyXyXyXyXyXyXyXyXyXyXyXyXyXyXyXyXyXyXyXyXyXyXyXyXyXyXyXyXyXyXyXyXyXyXyXyXyXyXyXyXyXyXyXyXyXyXyXyXyXyXyXyXyXyXyXyXyXyXyXyXyXyXyXyXyXyXyXyXyXyXyXyXyXyXyXyXyXyXE x ..,.;. .8 * 5 0.u.,.@.S 5 > @.$.%.;.1.0.<.&.%...l l @.&.&.&.&.#.8 J #.! R ^ :.:.$.%.%.:.:.;.;.:.<.;.%.%.%.%.&.%.&.;.,.q.q.<.$.$.$.$.&.<.q.q.<.,.%.;.:.:.<.:.;.%.%.;.:.^ ^ #.%.&.;.;.<.%.@.@.#.:.;.$.%.%.%.%.%.$.:.<.$.^ R ~ ^ *.^ ^ ^ @.%.#.^ @.@.^ ! A ! ^ ! ! ! ! ! ! U ~ ^ ! A A F ! ! ! A A ! #.%.%.%.%.@.F ! ~ ~ A k k A F F F ! ! ! ! k k a k k a p p z ! l < D } @.@.@.j l ..%.%.%.....%.{ 8 7  .+.o.X.S > . w [ w > g $.J.$.I } %.%.,.0.,.%.%.,.0.0.0.0.0.0.0.%.,.%.#.@.! <.q.6 #.#X",
"U 6 T.H.@.@.! #.&.,.0.w.w.w.w.w.w.0.r.w.r.w.,.%.! L l ! *XH.J w 5 > 5 # # [ +.,.,...l z ....{ ..%.%...S > j ! ~ ! A F j 5 J J u p i p p k x R k k k k a k k k z R R R R ~ R A ! ^ ! F z F ! R k R R F A F @.@.@.L z x R R k k R ~ ~ R R R F ! @.#.%.! ! ! #.$.$.$.*.$.#.@.#.;.<.q.<.#.@.;.<.;.....+.%.%.%.....! ! ~ / :.~ ! %.,.0.<.%.@.! 1.e.e.<.<.q.<.<.:.:.:.:.&.#.&.<.2.H.<.#.#.&.<.<.q.q.e.e.1.q.T.U.:.;.$.~ ~ R R ! %.I 6 J @.%.#.%.#.8 w +.0.0.0.,.%.#.#.&.l o > j J <.T.%.5 5 [ +.t.t.&.k ~ g       yXyXyXyXyXyXyXyXyXyXyXyXyXyXyXyXyXyXyXyXyXyXyXyXyXyXyXyXyXyXyXyXyXyXyXyXyXyXyXyXyXyXyXyXyXyXyXyXyXyXyXyXyXyXyXyXyXyXyXyXyXyXyXyXyXyXyXyXyXyXyXyXyXyXyXyXyXyXyXyXyXyXyXyXyXyXyXyXyXyXyXyXyXyXyXyXyXyXyXyXyXyXyXyXyXyXyXyXyXyXyXyXyXyX~ R #.,.%.[ w * 5 0.T.,.} S 5 > #.$.%.;.,.,.1.%.%...w l #.;.&.%.%...8 S #.! R ~ $.<.<.<.2.2.2.<.:.2.2.2.<.:.:.<.:.:.<.<.2.e.e.<.$.$.$.$.;.<.2.2.<.;.;.2.2.$.$.:.$.$.$.$.$.^ ^ $.$.:.:.;.$.! ! #.$.$.$.#.^ ;.<.%.#.#.$.$.~ R R R E ~ ~ ^ ^ #.$.~ ^ ^ ! ! A k R ~ R R R R ~ ~ R R R R k z ! ! ! ! R R ! ! ^ $.$.$.! z x R x k k z ! ! z k k z ~ ! k k a a i p p g F ! j 6 J J D I I j l ..%.,.%.+.%.%.{ 8 7  .o.o. .S 5 # q [ w > g *.H.#.L } %.,.0.0.0.%.%.0.0.5.5.0.0.0.0.,.,.%.%.@.! :.q.8 #.R.",
"U 6 U.F.! } I &.<.q.0.0.0.0.0.w.0.r.r.w.r.w.,.%.I L z ! *XH.D 8 5 > 7 # * [ +.,.,...l z I { { ..#.%...S 5 Z ! ~ ! ! ! z , l L u u u u p p k A k k k a i i a x k z z z R R k k R ~ ! A F ! ~ R R R R R R ! @.#.#.! A A R x a a R ~ E s a x k A ! ! ! R ! ^ ~ ~ ^ ^ ^ *.*.^ ! #.;.:.@.I ^ %.;.%.@...#.....} } I ! R R R ~ ~ R @.;.;.%.@.! U %.:.<.:.:.:.%.#.#.$.$.$.#.! #.#.$.<.$.^ ! #.<.2.<.2.q.2.;.<.2.2.:.$./ R R R R ~ #.l 6 S I I @.%...w w +.0.0.0.0.,.#.#.&.l o > j J <.U.%.5 5 S +.w.e.#.a ~ g       yXyXyXyXyXyXyXyXyXyXyXyXyXyXyXyXyXyXyXyXyXyXyXyXyXyXyXyXyXyXyXyXyXyXyXyXyXyXyXyXyXyXyXyXyXyXyXyXyXyXyXyXyXyXyXyXyXyXyXyXyXyXyXyXyXyXyXyXyXyXyXyXyXyXyXyXyXyXyXyXyXyXyXyXyXyXyXyXyXyXyXyXyXyXyXyXyXyXyXyXyXyXyXyXyXyXyXyXyXyXyXyXyXyXg.~ #.,.+.[ w * 5 q.#X<.I D 5 > #.&.$.:.q.0.,.%.%. .w l ..&.%.%.....8 w @.#.! ! ~ ~ *.$.$.;.;.;.#.$.;.$.$.$.#.#.$.;.:.<.<.<.<.;./ ~ ~ ~ $.;.;.:.:.;.:.2.:.^ ~ / $.$.$./ ^ ~ ~ ~ $.<.<.;.~ R ! *.$.$.*.^ ^ $.>.$.#.$.#.*.~ ~ R R R ~ ~ ~ *.^ ^ ~ ^ ~ R R R k x R E W ~ ~ / / E R R x x z z z R R ~ R R ! ^ $.$.$.! k k s s x x R ~ R k a k A ~ ! k x a a i i a A ! A 5 8 J D z F ! j l } %.,.,.0.q.%.S 7 7 [  . . .S 5 # q S 7 > g *.G.#.L @.%.,.,.,.,.,.0.0.0.5.0.r.0.0.0.0.,...@.@.! <.q.6 #.R.",
"U 6 U.<.@.} I ;.q.e.w.w.0.0.,.0.0.w.w.y.w.w.w.;.@.L z R E.Z.l 7 5 5 7 # * [ +.+.+.{ j z I { { } I P S S 5 Z ^ ~ ! ! A z , 6 J j p p p u u g z z z k k k k k x s s s s R R s k R ~ ~ R R ! ~ ~ ~ ~ R R R ! @.@.#.^ U F A z z z ! ~ R R x R k k F ! ! R ! ^ ~ ^ ~ ~ ^ ^ ^ ^ ^ #.^ ^ I I ^ #.#.#.@.@.I J D D D F z z k k R R R ! @.@.@.L F U %.%.&.%.#.@.I ! ! ! ! F ! ! F F ! ^ ^ U ! ^ #.#.@.@.:.;.%.;.;.:.$.~ ~ R A z ! $.#.g 6 J J I ..%...8 8  .=.5.0.0.0.%.#.%.l o > j J &.e.%.5 5 w o.,.0.#.x g.k       yXyXyXyXyXyXyXyXyXyXyXyXyXyXyXyXyXyXyXyXyXyXyXyXyXyXyXyXyXyXyXyXyXyXyXyXyXyXyXyXyXyXyXyXyXyXyXyXyXyXyXyXyXyXyXyXyXyXyXyXyXyXyXyXyXyXyXyXyXyXyXyXyXyXyXyXyXyXyXyXyXyXyXyXyXyXyXyXyXyXyXyXyXyXyXyXyXyXyXyXyXyXyXyXyXyXyXyXyXyXyXyXyXyXZ.~ %.,.%.[ w * 5 q.&Xq.} J 6 , #.:.$.:.<.;.&.#.#.{ w l #.,.%.%.#.+.8 5 I *.^ R F ! ~ ~ ! ! ^ #.#.#.#.#.#.#.^ U $.;.;.;.<.<.<.:.$.^ ~ ^ #.#.$.;.:.$.@.%.$.*.*.$.*.*.$./ ^ *.~ ! ^ #.$.#.^ R ! ^ *.*.#.^ ! ^ #.#.#.#.#.#.#.^ ! ! ! ^ *.#.#.@.^ #.#.~ R R R R R R R / / ~ ~ ~ R A A F F F D z z ! ! z z F ! #.%.%.^ F A k k A R R R R A A A A ! ! R A k g p p k F F g , 8 J J F ! ! j l J } #.,.w.<.@.S 5 7 [  . .[ S 5 # q S 7 > j *.G.^ F @.%.%.%.+.%.,.0.0.0.r.r.r.0.0.0.0.,...@.@.#.2.q.6 @.U.",
"I 6 q.<.@.} @.,.,.0.0.w.w.0.,.0.w.w.w.w.w.w.e.,.@.L k ! E.Z.l 7 > > 7 # * [  . .[ S j F } } } L D A S S 5 S / ^ ! ! F D j 6 J I z j j < 6 8 j j l j g g g k g a a a a k k a k z z z k k k z A D z k g j l l l j j j j 6 6 j j j j g j g g < < j l j j l l z l l l S l j l z l l l S D J D D D D l l j j l l l l j k k z A F F D S l l l D P I } I J D z F z l g g j z l g j A D z A F F D D D I @.@.@.! ! ! I F A D D I ! z 6 j { } @.#.%...8 8  .+.5.0.0.w.%.@.%.l o > j z %.e.%.5 5 l o.,.0.#.x g.k       yXyXyXyXyXyXyXyXyXyXyXyXyXyXyXyXyXyXyXyXyXyXyXyXyXyXyXyXyXyXyXyXyXyXyXyXyXyXyXyXyXyXyXyXyXyXyXyXyXyXyXyXyXyXyXyXyXyXyXyXyXyXyXyXyXyXyXyXyXyXyXyXyXyXyXyXyXyXyXyXyXyXyXyXyXyXyXyXyXyXyXyXyXyXyXyXyXyXyXyXyXyXyXyXyXyXyXyXyXyXyXyXyXyXZ.~ %.0.,.X.w * , <.$Xq.@.D 5 * #.<.$.&.&.#.@.@.%.} 8 l %.<.,.,.%.#.l 7 P #.! F l D D z l l D I I D D D D D l Z D D D D D P P I F z l z S S D J J S 8 j l l l l l l l l l l j j j j l j l j j j j j j j 8 8 8 8 j j j 8 6 5 5 , , < 6 6 , , , 5 6 g g g g u < < , < < < < < , 6 6 6 j 6 6 6 6 g 6 , , , 6 6 6 8 g < , , , , , , , , , , , , , < < , , , ; , < 6 < , 5 8 { } @.! U j j S P } %.,.&.} S 7 7  . . . .w 5 # w S 7 > g *.G.#.F @.@.@.@.#.%.,.,.0.w.r.r.0.0.0.0.0.,...@.@.#.2.U.g @.U.",
"I 6 q.;.@.#.%.%.,.0.0.w.w.0.,.0.t.t.w.w.w.w.w.<.@.L z ~ E.V.l 7 > > 7 # > [ o.X.[ S l L @...@.@.L U P { 5 l $.~ ! F D D j = < j , ; o o o o o o o o o . . . . o o o o o o o % o o o % * * * * * = = = * * = * o o % o o o o % * * # o o o . o o o . o o o o o o # # # # * o o * * * * * * * * = = = = = = % % % % & : : = = , ; * * % * * * * * * * = = = % % = = , = = = = = , ; ; ; ; , , , , , , , , ; ; , , , > ; , = = , l { ..%.%.%...8 w  .o.5.w.w.w.%.@.%.l o > 8 l &.e.%.5 5 S +.0.w.@.a ~ k       yXyXyXyXyXyXyXyXyXyXyXyXyXyXyXyXyXyXyXyXyXyXyXyXyXyXyXyXyXyXyXyXyXyXyXyXyXyXyXyXyXyXyXyXyXyXyXyXyXyXyXyXyXyXyXyXyXyXyXyXyXyXyXyXyXyXyXyXyXyXyXyXyXyXyXyXyXyXyXyXyXyXyXyXyXyXyXyXyXyXyXyXyXyXyXyXyXyXyXyXyXyXyXyXyXyXyXyXyXyXyXyXyXyXV.~ +.%.,.X.w * , ;.#X<.@.l , = #.<.$.%.%.@.#.%.:.#.8 l &.<.<.q.%...w > 8 j , ; # > = * * * * * * * * * * * * > > > > > > > > > > > > 5 5 > > * * o o * * % o o # * * * > * * * * * * o # # # * * * # # # # # # # # o % o o # # . . + o o o o . + + o o o o o o o o # o o o o o o o o o o o o . . . + . . . . + o + + o + # . + O + . . o o o o o o % # + . + + # o 5 l ..#.%.@.U j 8 S P { ..%.%.@.J 8 w  .o.o. .w 5 # w S 7 > < ^ F.#.D } @.! I #.,.,.+.+.,.0.0.0.0.0.0.0.1.;.#.#.#.F.U.g @.H.",
"l 8 q.&...#.%.%.%.%.0.w.0.0.,.0.w.y.y.w.0.,.,.%.@.I z ~ J.V.j 7 5 > 5 # > S X.O. .S j L @.#.^ ! ! R A A 8 z ~ ~ ! ! L z j % . o . . . . o o o o # . . . . . . . o # # # # # # # # # # # # # * * * * * * * * * * * ; ; * - # > > > * * * * # # # # # # * * > > > > > > > > > > * 5 5 5 5 5 > 5 5 5 > > > > = * * > ; > > > > 5 > > > > > > > > > > > > 5 5 > > - > 5 5 5 5 > > > * > 5 5 7 7 7 5 5 5 7 5 5 5 5 5 5 5 > # # * 5 l { } ....%...8 w  .O.5.r.w.,.%.#.&.l o 5 6 l &.U.%.5 5 S %.,.,.@.a E p       yXyXyXyXyXyXyXyXyXyXyXyXyXyXyXyXyXyXyXyXyXyXyXyXyXyXyXyXyXyXyXyXyXyXyXyXyXyXyXyXyXyXyXyXyXyXyXyXyXyXyXyXyXyXyXyXyXyXyXyXyXyXyXyXyXyXyXyXyXyXyXyXyXyXyXyXyXyXyXyXyXyXyXyXyXyXyXyXyXyXyXyXyXyXyXyXyXyXyXyXyXyXyXyXyXyXyXyXyXyXyXyXyXz g.~ ..,.,.O.w > > &.R.&.J 8 ; = @.:.%.#.#.#.&.&.%...8 S ,.,.0.,.,. .w * # # # # 5 - - > > 5 5 > > 5 5 5 5 5 5 5 5 5 5 6 7 8 8 7 7 7 7 7 7 5 5 5 5 5 5 5 5 5 > > 5 5 5 5 5 > 5 5 5 5 5 > > 5 5 5 5 5 5 5 5 5 5 5 7 5 5 5 5 5 5 5 5 5 5 5 > > > > * 5 5 5 5 5 5 5 5 5 5 5 > > > 5 5 > > > > > > > * * > > = * > > > > > > > > > > > > > > > > > , 5 > > ; ; > * # # # > 8 @.$.:.$.! j j S P T } ..#.@.J 8 l ..+.o. .n 5 # q S 7 * , ^ F.^ D I L I } #.,.;.#...,.0.5.0.0.,.%.,.;.#.#.@.^ >.F.< @.I.",
"l j 2.;...#.#.@.@.%.,.,.0.0.0.w.w.y.w.w.,.%.%.#.! L l ~ J.Z.l 7 5 > 5 # # n O.O. .S j ! #.@.! x v R R F 6 l ^ ~ ! @.I l l ; o % * * * > > > > 5 > > > > > > > > , 5 5 5 5 5 5 5 5 5 5 5 5 5 5 5 5 5 7 8 8 8 8 6 5 5 , , 5 5 8 8 8 5 5 5 5 5 5 5 5 5 5 7 7 7 8 8 8 w 8 8 8 8 8 8 8 8 8 j j j j j w 8 8 8 6 6 6 8 8 8 8 8 w l l w 8 8 8 8 8 8 8 8 w w w w w 8 7 7 7 7 q w w w 8 7 7 8 l l l l l l l l l l l l l w w w w w 7 5 5 l } } ....%...8 w  .+.5.5.0.,.%.%.&.l o 5 6 z ,.e.%.5 > l ..%.%.! a E u     yXyXyXyXyXyXyXyXyXyXyXyXyXyXyXyXyXyXyXyXyXyXyXyXyXyXyXyXyXyXyXyXyXyXyXyXyXyXyXyXyXyXyXyXyXyXyXyXyXyXyXyXyXyXyXyXyXyXyXyXyXyXyXyXyXyXyXyXyXyXyXyXyXyXyXyXyXyXyXyXyXyXyXyXyXyXyXyXyXyXyXyXyXyXyXyXyXyXyXyXyXyXyXyXyXyXyXyXyXyXyXyXyXyXz g.R %.0.,.o.w * > &.T.#.D j ; = @.:.%.#.*.*.$.#.#...8 l ,.,.q.,.,.{ 8 * # * > 5 q 7 7 q w w w w l w w w l l S S l l S S T S S l S l l l l S l l l l l l w w 8 8 w w w w w l l w l w w 8 6 8 8 8 8 w w w w w w w w w 7 7 7 7 8 w 7 7 8 8 7 7 8 8 6 8 8 j j j j j j j 8 8 8 7 7 5 5 5 5 5 5 5 5 5 5 5 6 6 6 6 5 6 5 5 5 5 5 5 5 5 5 5 5 5 5 5 6 8 8 8 6 5 5 5 5 > > > 5 8 @.%.%.#.! j j S { ..#.#.#.@.J 8 w  . .o. .n 5 o 7 l 5 * , ^ F.#.D I @.#.%.,.,.,.%.%.,.0.0.0.0.%.%.&.%.@.@.@.^ >.F.< ..U.",
"z j 2.;.} @.} ! #.&.,.,.0.w.w.r.r.r.w.w.1.,.;.#.! F j ~ J.Z.l 7 5 > 5 . # [ +.+. .S j ^ @.^ v x v x x z 5 l ^ ! @.%.#.J j ; % * = ; ; ; > > 5 5 5 , , , , , , , , , , , , < , , , , 5 , , > , , 5 5 5 5 5 5 5 5 5 5 , > , , 6 6 6 5 , , , , , , , , 5 5 5 5 6 8 8 8 < , , 5 5 , 6 6 6 6 6 j j 8 8 8 6 5 5 5 6 6 6 6 6 8 8 j l 8 8 8 8 5 5 8 8 8 8 8 8 w 8 8 6 5 6 8 8 8 8 8 8 8 8 8 j l l l l l l l l l l l l w w w 8 8 8 5 5 l ..} ....%...8 l  .+.=.=.,.,.%.#.%.l o 5 6 l ,.u.,.5 > j J ..%.@.i R u     yXyXyXyXyXyXyXyXyXyXyXyXyXyXyXyXyXyXyXyXyXyXyXyXyXyXyXyXyXyXyXyXyXyXyXyXyXyXyXyXyXyXyXyXyXyXyXyXyXyXyXyXyXyXyXyXyXyXyXyXyXyXyXyXyXyXyXyXyXyXyXyXyXyXyXyXyXyXyXyXyXyXyXyXyXyXyXyXyXyXyXyXyXyXyXyXyXyXyXyXyXyXyXyXyXyXyXyXyXyXyXyXyXyXz g.~ &.q.,.O.w > > ,.T.&.J l , = @.:.%.#.*.~ $.*.#.} 8 l ;.<.q.,.&.J 6 ; > > 5 5 8 7 w l l l l l l w w w l l l l l l l l l l l l l l l l l l l j j j j j j 8 8 8 8 8 8 8 8 8 8 8 8 8 8 5 5 5 5 5 5 8 8 8 8 8 8 8 8 8 5 5 5 5 5 5 5 5 5 5 5 > > > , 5 , , < < 6 5 , , , , , > > , > > > , , , > > > , , , , , , , , , > > , > > , , , , , , 6 6 6 5 , , 5 > > > > = > 5 8 } @.@.I I j j S } %.;.&.@.} J 8 7 [  . . .w 5 # 7 w 5 * 6 #.H.*.D } %.,.0.0.,.=.,.,.,.0.0.0.0.,.%.%.%.%.@.@.#.F.H.< ..e.",
"D g 2.&.} } } @.#.;.1.0.0.0.0.r.r.r.w.e.q.q.2.$.! D j ~ J.Z.l 7 5 > > o # [ +.+. .S l F ! ! ! ! R x z l 5 S ! ! I %.&.P 6 % o % % % * * * * > > ; ; = = = = = % = ; ; ; ; , ; > > > > > > ; ; , , , > , > > = = > > * * = = , , , ; = = = = ; > > > > , , , , , , , , ; > > > > > > , , , , , , , > , , > > > , > > > > > 5 5 > > > > > > > > > , 5 5 , , , , > , , > > , , , , , , 5 5 5 , 5 5 6 6 8 8 8 8 8 6 5 5 5 5 , 5 8 j ....#.@.#.@.8 l { ..+.=.,.,.%.#.:.l # 5 8 D ,.u.,.7 5 j l } #.@.a R u     yXyXyXyXyXyXyXyXyXyXyXyXyXyXyXyXyXyXyXyXyXyXyXyXyXyXyXyXyXyXyXyXyXyXyXyXyXyXyXyXyXyXyXyXyXyXyXyXyXyXyXyXyXyXyXyXyXyXyXyXyXyXyXyXyXyXyXyXyXyXyXyXyXyXyXyXyXyXyXyXyXyXyXyXyXyXyXyXyXyXyXyXyXyXyXyXyXyXyXyXyXyXyXyXyXyXyXyXyXyXyXyXyXyXz g.~ &.,.,.X.w > > <.$X;.J l , = #.:.$.#.*.^ ~ ~ ^ L 8 l ;.<.<.&.&.J < , = = > * > , 6 6 6 6 8 8 6 6 5 5 5 8 8 8 8 8 8 8 8 8 6 5 5 < < 6 6 5 5 < < < < < , , , , , , , , , , , , 5 , , , , , 5 5 , , , , , , , 5 5 5 , 5 5 > > > > > > > > ; > > , > , , , , , , , , , , , , , , , , , , ; ; % % % = ; = = = = = = = = = = * * ; > ; > > * > 5 > > > ; * * * * * ; 8 8 8 { #.@.@.I 8 8 S #.:.:.#.! I J 5 5 [ [  .[ w > # 7 l 7 > 8 %.H.*.L #.,.0.0.0.0.,.,.,.,.,.0.0.,.,.0.q.<.%.#.@.#.H.H.p @.T.",
"F j q.&.I } } #.%.;.1.0.0.5.0.r.r.0.w.w.e.q.:.#.I F z ~ J.Z.l 7 5 > 5 # # S  . .{ J j A F I @.@.! A z j 5 S ~ ~ #.:.:.D 8 > o $ % * = = > > 5 5 , , , , , , , 5 5 6 6 6 6 6 6 5 5 5 5 5 5 < < < < < 6 < 6 5 , 5 5 , , , , , , < < , , , , 5 5 5 5 5 < 6 6 < < < < < , , , 5 5 5 5 5 5 5 , > , 5 6 5 , 5 5 5 5 , > , 5 , , 5 , , , < , , , , , , , 5 5 , < < , , , , , , , , , , , , 5 5 5 , 5 6 8 8 8 6 6 8 6 6 6 6 6 , , j J l } @.%.#.#.} g j J { +.,.,.,.&.$.:.l + 5 j P q.T.,.5 > j S } #.@.a E u     yXyXyXyXyXyXyXyXyXyXyXyXyXyXyXyXyXyXyXyXyXyXyXyXyXyXyXyXyXyXyXyXyXyXyXyXyXyXyXyXyXyXyXyXyXyXyXyXyXyXyXyXyXyXyXyXyXyXyXyXyXyXyXyXyXyXyXyXyXyXyXyXyXyXyXyXyXyXyXyXyXyXyXyXyXyXyXyXyXyXyXyXyXyXyXyXyXyXyXyXyXyXyXyXyXyXyXyXyXyXyXyXyXyXz g.E %.,.%.X.w > > <.qX<.{ l , % @.:.&.%.#.^ ^ ~ ! L 8 l ;.;.&.&.&.I g k , % , , , < 6 6 6 6 6 8 8 8 6 6 8 8 8 8 8 8 j j j j j 8 8 8 8 j j 8 8 8 < < 8 < < < 6 < < 8 j j 8 < < 8 8 j 8 8 j j j j j < < < < 6 6 6 8 8 8 j j j 6 < < , , , < , , , < 6 6 6 6 6 6 6 g 6 6 6 j 6 < u u u < < < , , , , , , < < < < < < < , , , > > , , > > , , 5 5 5 6 6 , , , , > ; 8 S j 6 } %.%.&...8 6 l @.$.#.! ! ! L 5 5 S [ [ [ w > # q S 8 > 6 %.H.$.I #.0.0.0.0.5.=.=.,.,.,.0.0.,.1.0.q.,.%.#.@.#.H.Y.g #.T.",
"J j q.&.{ } } %.;.,.,.,.0.0.0.0.0.0.0.w.e.,.%.#.! I z ~ J.V.j 7 > > 5 # * l J J J z j z F I ..%.@.U l j 5 S ~ / :.F.$.j l l , % = , , g j j z l g g g g l l A S S S S l l l l l l j l l j l l j j j l z l S S S l j j l D l j j j l g g j k z l l l l S S l j l j j j j j j j j l j j j j 8 8 j l l l l l S l l j j l j l l l z z z l l Z S S S l l S l z z z l l l l l l l l l S S S S S S S S J J J J D D D D z z l j j I &.S P @.;.$.$.@.6 j D I #.;.,.,.&.$.&.l . > 8 J <.T.,.5 > l S I #.! a E u     yXyXyXyXyXyXyXyXyXyXyXyXyXyXyXyXyXyXyXyXyXyXyXyXyXyXyXyXyXyXyXyXyXyXyXyXyXyXyXyXyXyXyXyXyXyXyXyXyXyXyXyXyXyXyXyXyXyXyXyXyXyXyXyXyXyXyXyXyXyXyXyXyXyXyXyXyXyXyXyXyXyXyXyXyXyXyXyXyXyXyXyXyXyXyXyXyXyXyXyXyXyXyXyXyXyXyXyXyXyXyXyXyX. l g.R #.;.%.O.7 > > <.qX<.{ l > = } ;.%.%.&.#.@.! F J 8 l ;.&.%.%.;.P z ~ A u g j g z z z D S S S S D D l l S J P P P I I I I D P { P S D I P P J S J J J S J D D D D I } } F A z D P J S z z D D z l z z A z l S S D D F D A z z z z z D D D z z z z z z z z z L D D D D F D z z z g g g g j j j l g g z l l l l g g j j j g j j j g j j l j j g z z k g g u < < l } j < I %.%.%.@.j 6 l F ! ^ ! ! ! L 5 5 [ [ [ n 7 * # 7 S 7 > 6 #.H.$.I @.,.,.,.,.,.,...,.0.,.,.,.,.0.0.0.;.#.#.@.#.H.U.j #.U.",
"l 8 q.%.{ { { %.;.,.,.%.,.0.0.0.0.0.w.e.w.0.,.&.@.I l ~ J.$.j 7 > > 5 # ; l z l z l g z F L ..%.#.I l j 5 S ~ / / / ! p z ..l < , p g k z R R R x k k A ! ! ^ %.@.I D D D D ! ! F F ! ! ! @.@.L F F L ! ....,.,.} J L @.#.! F z z ! z k x R ! ! U I @.@.@.@.I I P F F D D D U I ^ @.I U D D I } ..%.#.....%.%.! F F F F F ! ! @.@.! ! ! ^ %.%.%.........@.@.@.@.@.I I @.%.%.@.#.%.%.%.%.%.&.&.%.%.%.<.:.:.:.:.$.$.^ ! U F %.&.l D @.<.$.$.} 6 g D I %.;.,.&.#.#.%.l . 5 , j %.T.,.7 5 l S I @.! a E u     yXyXyXyXyXyXyXyXyXyXyXyXyXyXyXyXyXyXyXyXyXyXyXyXyXyXyXyXyXyXyXyXyXyXyXyXyXyXyXyXyXyXyXyXyXyXyXyXyXyXyXyXyXyXyXyXyXyXyXyXyXyXyXyXyXyXyXyXyXyXyXyXyXyXyXyXyXyXyXyXyXyXyXyXyXyXyXyXyXyXyXyXyXyXyXyXyXyXyXyXyXyXyXyXyXyXyXyXyXyXyXyXyX. 6 / E :.<.%.[ 7 > > <.&X,.J l > * } &.%.%.,.%.%.! F D 8 l ;.&.%.%.,.T l ~ ~ z g z F ! @.@.@.@.%.%.;.:.%.@.} } @.&.<.<.:.$.$.:.<.<.<.;.@.%.:.<.1.;.,.;.;.;.,.;.%.%.@.%.:.<.<.:.#.^ #.;.,.%.@.! I ! U U ! #.%.%.#.%.;.;.:.$.^ ! #.$.*.#.#.%.$.#.^ ! ^ ^ ^ ! R ! #.$.%.#.#.#.#.^ ! ^ ! F F F U I F ! ! F F ^ ^ @.} I D z D F ! F z F ! z z F ! A k k R R x x z k p p z ! g , I %.#.#.I j j z z ! ^ ^ ^ ^ L 5 5 [ S S w 5 # . 5 8 5 * < #.J.$.I } ..%.%.+.,.,...+.,.,.,.,.,.0.0.0.,.#.#.#.#.F.H.j #.T.",
"l 8 <.&.L J { } #.%.@.@.+.0.0.w.0.+.,.q.0.0.0.,.#.{ l ~ J.$.j 5 > > 5 # * 8 J J I l j z z P  .+...P P S 5 S ~ E R F U j > S } l u h k k z ! ! x x R R x A ! ^ #.#.@.D A ! R R / ~ R ~ ^ ^ $.$.^ ! ! ! ^ $.<.2.:.@.! ! ! @.! A z z R R v x R R ! ! #.#.#.#.#.#.! F ! ! ! ! ! ! *.$.#.#.#.#.@.@.%.,.;.%.#.^ *.$./ ~ R ! ! I @.#.#.#.^ ! ^ #.q.,.,.;.&.%.$.<.$.$.$.*.#.#.:.<.;.%.;.<.q.1.,.,.q.q.q.,.,.e.U.U.2.F.<.;.$.^ #.^ $.@.j D ! ~ ~ ~ ! u g F ! ^ $.#.#.#.#.%.l + = 6 j #.e.%.5 , l D { ..L i ~ p     yXyXyXyXyXyXyXyXyXyXyXyXyXyXyXyXyXyXyXyXyXyXyXyXyXyXyXyXyXyXyXyXyXyXyXyXyXyXyXyXyXyXyXyXyXyXyXyXyXyXyXyXyXyXyXyXyXyXyXyXyXyXyXyXyXyXyXyXyXyXyXyXyXyXyXyXyXyXyXyXyXyXyXyXyXyXyXyXyXyXyXyXyXyXyXyXyXyXyXyXyXyXyXyXyXyXyXyXyXyXyXyXyX  p E R &.:.%.{ w * 5 <.Y.%.J l > % { &.@.%.;.q.<.! D D 6 l ;.<.%.%.&.| 8 k ^ ! k k ! ^ ^ #.^ ^ $.F.U.F.:.$.#.#.;.U.R.U.:.;.<.H.U.R.R.2.;.<.U.U.q.<.q.e.e.e.e.q.q.<.;.;.<.q.2.Z.$.#.&.q.e.e.%.^ ^ ~ ~ ! ^ <.<.;.;.2.H.2.F.<.$.^ $.:.$.$.<.<.$.~ ~ ~ ~ ~ ~ ~ ! ! *.<.%.#.^ ^ ^ ~ ~ $.^ U ! @.@.! ^ #.^ F U @.@.#.@.L z z ! ! ! z z z z ! z z R R R x x x R x h p p g z ! g < I I I @.I j j z A ^ ~ ~ ~ ^ ! g 6 l j 8 5 5 # + > 8 > > < $.Y.:.! I ..%.%.%.,.;.P ..%.,.0.&.%.,.,.,.;.,.%.#.@.:.<.j %.U.",
"j 8 <.&.L J J I @.#.@.@.%.,.0.0.,.%.%.q.q.0.q.,.%.} l ^ J.$.j 5 > * 5 # # w { ..@.l j z D ....+.....Y T 7 S ~ R R A F j > l I z p p h z v R R R R R x x R R ~ #.^ I A A ! R R R R R R ~ ^ $.$.~ ! ^ ^ #.$.&.&.%.#.^ ! ! ! F R x x x x x x x x ! ^ #.^ ! ! #.*.^ F ! ^ ! ! ! ^ *.*.^ ^ #.#.#.#.&.<.<.$.#.^ ~ ~ / ~ E R R ! ^ $.$.#.^ ^ ^ $.<.<.,.;.:.:.<.$.$.$.$.$.#.#.:.<.:.&.:.q.q.<.<.q.q.q.q.<.<.U.U.H.F.G.F.Z./ ^ ^ #.:.} j D U ! ! ~ ! u g F ! ~ ~ #.%.*.#.%.l . * 6 J ,.T.,.5 , l J #.%.! a Q p     yXyXyXyXyXyXyXyXyXyXyXyXyXyXyXyXyXyXyXyXyXyXyXyXyXyXyXyXyXyXyXyXyXyXyXyXyXyXyXyXyXyXyXyXyXyXyXyXyXyXyXyXyXyXyXyXyXyXyXyXyXyXyXyXyXyXyXyXyXyXyXyXyXyXyXyXyXyXyXyXyXyXyXyXyXyXyXyXyXyXyXyXyXyXyXyXyXyXyXyXyXyXyXyXyXyXyXyXyXyXyXyXyX  p / R $.:.;.o.8 * > ;.R.%.J l > % { &.#.%.&.q.q.#.! L j l %.;.%.#.%.{ 8 g ! ^ R x R ^ ~ ~ ^ ^ $.Z.H.Z.$.$.#.#.$.F.U.F.<.<.F.U.U.R.U.<.:.F.U.U.2.2.2.q.e.e.q.q.2.:.;.:.2.2.<./ *.#.%.&.<.<.%.#.^ ^ R ! ^ $.$.*.$.F.H.F.H.H.:.$.$.$.$.$.:.:.$.~ / / ~ ~ ~ R R ~ ~ $.*.^ ~ ~ ~ ~ R ~ R A ! ! ! ! ~ ~ ! A F ! ! ! ! F z z ! R R x x x x x x k k k x x k k x k k k u u z ~ l < D D L I I j j D F ^ ^ ^ *.#.@.g 6 J S l w 5 # + > w > ; < $.J.$.! @.%.%.&.;.&.%.@.#.%.%.,.%.@.%.,.1.1.;.%.#.@.;.<.g #.U.",
"j 8 <.;.} } } ! ^ ^ ! ! #.;.0.,.+.%.#.;.<.,.<.&.@.P l ^ E.<.j 5 * * 5 # # w  ...@.D j z F .... .{ } I { 7 S ~ R R D D l > , S D g u u g k k a a k x a a a R R ! F A z z R R R R R R R R ~ ^ ^ ~ ! ! ^ #.#.#.#.#.#.^ ! ! z z k x v R v x k s a x ^ ^ ! F ! ^ *.^ ! ! ~ R x R ~ ~ ^ ! ! ^ #.@.#.%.&.%.#.^ ^ ^ ~ R E R R x R R #.#.^ ! ! ! #.%.&.&.&.;.:.$.#.#.*.*.*.#.^ #.%.#.#.$.:.:.%.%.%.;.:.:.:.:.:.:.$./ / / / / R R *.<.D g J I I ! ! I g j F R ~ ~ *.$.$.#.%.S . > j } q.T.%.5 5 l { %.&.L i Q p     yXyXyXyXyXyXyXyXyXyXyXyXyXyXyXyXyXyXyXyXyXyXyXyXyXyXyXyXyXyXyXyXyXyXyXyXyXyXyXyXyXyXyXyXyXyXyXyXyXyXyXyXyXyXyXyXyXyXyXyXyXyXyXyXyXyXyXyXyXyXyXyXyXyXyXyXyXyXyXyXyXyXyXyXyXyXyXyXyXyXyXyXyXyXyXyXyXyXyXyXyXyXyXyXyXyXyXyXyXyXyXyX    j / R $.;.;.+.8 * 5 &.U.#.S l , % } ;.%.&.%.,.<.@.I L j l #.%.@.#.%.{ 7 8 F ^ ! x R ~ / / / / $.Z.Z.$.$.*.#.#.$.<.<.:.;.;.<.2.F.F.<.$.$.<.F.<.:.<.:.:.<.:.&.%.%.%.%.;.<.;.#.^ ^ #.#.#.#.#.#.^ ^ ~ ! ! ^ *.^ ~ ~ / :.$.$.$.$.$.*.#.#.$.$.$.~ / / ~ R R R R R R ~ ~ ~ ~ R R R R R R x k k A z R R R R R R ! R ! ! A z z R R x k k k x k a a k z x x k k a i k k p k A ^ g u F D I } P 8 l J L ! @.@.*.*.} 6 5 { ..{ S 7 # O > l 5 ; j $.H.$.! &.;.%.;.:.#.@.#.%.%.....! U I %.,.,.;.%.#.! ;.F.g #.U.",
"l 8 <.&.@.@.@.! ! ! ! F ^ %.;.....%.@.:.<.%.#.#.! L l @.*X<.j 5 * * 5 > # w  .....D j z L ..{ { P I U S 5 l ! R A D I S > * j D j u u p k k k k k k a a k R ~ ! A z k A R R R R R R ~ ~ ^ ^ ! ! ! ! ! ^ #.@.^ ! ! ! A z z k k k x R R x k k a k ! ! A A F ! ! ! F R R R z R ^ ^ ! ! F ! ! ^ @.%.%.#.#.#.^ ^ ! R ~ ~ ! ! F U @.@.@.! ! ^ ^ @.%.%.%.:.:.#.^ #.#.^ #.#.@.^ ^ @.@.#.%.%.@.@.@.#.&.:.&.%.*.~ ^ ~ ~ ~ / ~ ! ! $.:.l 6 S } #.#.%.} 6 j F ! R ! #.;.$.#.%.l . > j @.q.T.%.5 > l J ..#.F a ~ p     yXyXyXyXyXyXyXyXyXyXyXyXyXyXyXyXyXyXyXyXyXyXyXyXyXyXyXyXyXyXyXyXyXyXyXyXyXyXyXyXyXyXyXyXyXyXyXyXyXyXyXyXyXyXyXyXyXyXyXyXyXyXyXyXyXyXyXyXyXyXyXyXyXyXyXyXyXyXyXyXyXyXyXyXyXyXyXyXyXyXyXyXyXyXyXyXyXyXyXyXyXyXyXyXyXyXyXyXyXyXyXyX    g $.R %.,.1.o.8 > 5 <.R.&.J l , = @.:.&.;.,.,.&.I L D j l @.@.#.#...{ 7 6 J @.^ R R ~ ~ *.~ $.$.:.:.#.#.#.#.#.#.%.:.;.$.:.:.:.:.:.%.#.%.;.;.$.$.;.;.&.&.%.#.@.@.@.#.:.<.%.! ^ #.#.#.! ! I ! ! ! ! ! ! ^ #.^ ^ ^ $.$.$.$.#.#.$.$.@.^ #.$.#.#.#.^ ^ ! R A A R ! ! ! ! ! F ! ! ! R R z z z k z z R A F ! F F F F F A A A A z z z z A A A z z z z A A z z k k k z z F F z u p I I I } J 8 j S D L @.*.$.#.L 5 5 { ....S 7 o . > l 5 ; < *.H.$.! %.1.;.:.%.! ! #.%.%...I A A F %.,.;.%.#.} I ;.F.6 #.T.",
"l 8 <.&.! @.I ! R ~ ! ! ! @.#...%.%.%.2.F.&.#.^ ! L l @.E.$.j 5 > * 5 > # w  .{ { D j z L } { { } I F S 5 j R R F I { S 5 * 8 l j , , , u j g g g g p p p k A z g g g j k k z z z z F ! ! ! L F F F z D D D D D A l l j j j j j g g g k g g g g z j z z l l l z z z z z z F I I I I D S l S J I I D z D z l l l D D l l l l z z D l l l A S J J { { } D D D D D D D S S D S D D J J J S l S P } P J D D D D L U U ! F I #.%.l j { ..%.&.&.} 8 6 F ! ! ^ #.$.$.#.%.l o ; 8 L <.e.%.5 > j l P ..! s f.p     yXyXyXyXyXyXyXyXyXyXyXyXyXyXyXyXyXyXyXyXyXyXyXyXyXyXyXyXyXyXyXyXyXyXyXyXyXyXyXyXyXyXyXyXyXyXyXyXyXyXyXyXyXyXyXyXyXyXyXyXyXyXyXyXyXyXyXyXyXyXyXyXyXyXyXyXyXyXyXyXyXyXyXyXyXyXyXyXyXyXyXyXyXyXyXyXyXyXyXyXyXyXyXyXyXyXyXyXyXyXyXyXyX  j $.! %.0.,. .8 > 5 <.$X<.} l , % } <.&.,.,.,.%.....I j l @.#.%.%.%.{ 7 7 J @.@.F g z D D D D I I I L F F F F J J P P I } } } P J D l D D z J J D J J J D S l l l S J I D z z l l l l j j j l l j g l g j j j j l z z z l l z z j j j j j j j j j 6 6 < < 6 6 6 6 8 6 < 6 6 6 < < < , , , , , , , < 6 6 , < 5 , , , , , , , , < 6 6 6 < < < < u u j < , 6 g g j j 6 , , g ! I I I J 8 j S l J @.$.*.! J 5 5 [ { S l 5 o   * w 5 = < ^ H.$.! #.,.:.:.#.! ! #.#.....I A F @.,.1.,.%...} ! :.F.6 #.U.",
"l j <.%.L F z A ! #.#.@.I } ..%.%.%.%.:.<.:.$.#.! L l ^ E.$.j 5 > * > # # w  .[ P z j z L I { } } ! F S 5 j ! R ! } { S , * , 5 > % o % % % % % = % % % % % = ; % = = % = = ; > , , , 6 < 6 6 , , , = ; > , , > ; ; = = ; ; * = = * = = = = = = , > , > > > > , , , , 5 , 5 6 6 8 8 5 > > > 5 5 > ; = = * = = > > > > > > > * * * * * * % ; > > 5 5 5 > > > > > > > > > > > > 5 5 5 5 5 > > 5 5 > 5 5 5 5 > > , , , , 6 j j , 8 ..%.%.....{ 8 j I } @.%.&.%.$.#.%.l . ; 6 z $.U.,.5 > 8 l J @.! x g.p     yXyXyXyXyXyXyXyXyXyXyXyXyXyXyXyXyXyXyXyXyXyXyXyXyXyXyXyXyXyXyXyXyXyXyXyXyXyXyXyXyXyXyXyXyXyXyXyXyXyXyXyXyXyXyXyXyXyXyXyXyXyXyXyXyXyXyXyXyXyXyXyXyXyXyXyXyXyXyXyXyXyXyXyXyXyXyXyXyXyXyXyXyXyXyXyXyXyXyXyXyXyXyXyXyXyXyXyXyXyXyXyXyX  u ~ ! 0.0.,.[ 8 * 5 <.$X2.#.l > % } <.&.,.0.,.,.%.%.} j l @.;.<.,.%.{ 7 5 l S S 8 > > > > > 5 5 5 5 5 5 5 , , , , 5 > > 5 5 > > > > = = = * * > * * > > > > > > > > > > > > > * * = > * = = = ; ; * * * * * * * * * % % % % * * * % * = = = * * % * * * * * * * * * * * * * # o % * # # # # o o o * % o o o o o o % # o o o o * * * % % % % * * * * % o o * * % % o + = l } L I I I 8 j S S I @.*.*.! L 6 5 S S l w 5 .   * 8 , * , ! H.$.! @.;.:.;.#.F U I } { { L A I &.q.q.,.%.#.#.@.<.U.6 @.I.",
"l j <.#.F F l z F ! ! J l l { ..%.%.%.%.%.:.&.#.! L z ^ Y.$.j 5 5 * * . # w  .{ { D z F ! } ....@.F F S 5 j ! ^ #.%...S , % % o + o o o # # # # * * * # # # # * * * * % * * > * * ; > > > > > > * > * > > > > > > > * * > 5 > * * * * * * > > > > * 5 5 5 5 5 5 5 5 5 5 5 5 5 7 7 7 7 5 5 5 5 5 > > > > > > > > > > > > > > 5 5 * # # # * > > 5 5 5 5 5 5 5 5 5 5 5 5 5 5 5 5 5 5 5 5 5 5 5 5 5 5 5 5 7 7 5 5 5 5 5 > 5 > > > j ......| ..{ 5 j } ..,.1.,.#.@.@.&.l o > g z $.R.,.5 > j j L @.^ x ~ p     yXyXyXyXyXyXyXyXyXyXyXyXyXyXyXyXyXyXyXyXyXyXyXyXyXyXyXyXyXyXyXyXyXyXyXyXyXyXyXyXyXyXyXyXyXyXyXyXyXyXyXyXyXyXyXyXyXyXyXyXyXyXyXyXyXyXyXyXyXyXyXyXyXyXyXyXyXyXyXyXyXyXyXyXyXyXyXyXyXyXyXyXyXyXyXyXyXyXyXyXyXyXyXyXyXyXyXyXyXyXyXyXyX  g $.@.0.0.+.` 8 * > &.Y.<...l > % } <.,.0.w.0.0.%...{ j l %.2.q.q.,.{ 5 > > > > > 5 5 5 5 5 5 7 7 7 7 7 7 7 7 7 7 5 7 5 5 5 5 5 5 5 5 5 5 5 5 5 5 5 5 5 5 5 5 5 5 5 5 5 5 5 5 5 5 5 5 5 5 5 > 5 5 5 > > 5 > > > > * * * * > > > 5 > > > 5 , > ; ; > > > > > > > 5 5 5 > > > > * > > > > > > > * > > * * > > > > > > > > > > > > > > > > > > > 5 5 5 > > > > > > # o # * J } I ! ^ ! 8 j J } @.#.#.^ ^ L , > l S S w 5 .   # 8 > # , ^ H.$.! #.%.@.#.@.F D J P [ { D z D ..%.,.;.%...#.@.<.U.g @.2.",
"j l :.@.F D D Z l J D j l l l { ....@.^ @.<.:.#.I I D ~ E.:.j 7 5 # * . # l ......L k ! @.@.I I ! ! z l 5 j ^ $.$.%. .l 5 * o o o # * * * > 5 5 , 5 5 , , , > 5 > 5 5 > > 5 7 5 5 7 6 7 7 7 7 7 7 8 8 8 w j 8 8 8 5 6 8 8 8 8 6 5 5 5 7 8 8 8 8 8 5 7 7 q w w w w l l l S l w l S l l l w w w w w 7 7 7 5 5 5 7 8 7 7 7 7 7 8 7 5 5 5 > , 7 7 7 7 7 w w w w l w 8 8 7 8 8 q q 7 w w 8 w w w w w w w l l l w w w l w w w w 8 5 l .... . ...{ 6 j ....,.0.0.%.#.#.%.l # > 8 L <.T.<.7 5 j g F @.R s ~ g   yXyXyXyXyXyXyXyXyXyXyXyXyXyXyXyXyXyXyXyXyXyXyXyXyXyXyXyXyXyXyXyXyXyXyXyXyXyXyXyXyXyXyXyXyXyXyXyXyXyXyXyXyXyXyXyXyXyXyXyXyXyXyXyXyXyXyXyXyXyXyXyXyXyXyXyXyXyXyXyXyXyXyXyXyXyXyXyXyXyXyXyXyXyXyXyXyXyXyXyXyXyXyXyXyXyXyXyXyXyXyXyXyXyX  g $.#.,.3.O.w 8 * > &.R.:.} 8 > * ..:.;.0.w.0.0.+. .S j l &.q.q.0.%.[ 8 > > > 5 6 w l l w l l S S S l S S S S S S S S l l S S w w w 8 8 w l w w w w w w l l l w w w w w w w w w w w w w 8 7 7 8 8 7 7 8 q q 7 8 8 7 7 7 7 7 8 7 7 7 8 w 8 8 8 8 8 8 8 7 5 7 7 8 8 7 7 8 8 7 5 5 7 5 5 5 5 6 6 5 5 5 5 5 5 8 6 6 6 6 5 5 5 5 6 8 8 8 7 7 5 8 8 8 w 7 7 7 5 7 6 5 5 > * , l ..} @.@.! 8 8 T { #.%.@.! R F , > l { P S 5 X   * 8 > # , @.H.$.I @.%.#.%.#.J S l S l l j j j z ..@.@.@...#.#.<.H.p ! <.",
"l l &.! z z l l l l l j j j j S { ..^ ! #.,.,.&.@.} D ~ E.:.j 7 5 * * # # l +.%.%.} k ! @.@.} } I F D l 5 j ! ^ @... .l , % . o # # # * * * > 5 5 > > > > > > > > 5 5 > > 5 5 5 5 8 8 6 6 7 7 7 7 6 8 8 j j 8 8 6 8 6 5 5 5 5 > > 5 > 5 5 8 8 8 8 7 7 7 7 8 8 8 w w l l l l l l l w w l w w w 8 8 5 5 5 5 5 5 5 5 5 5 7 7 5 7 5 5 5 5 > > 7 7 7 7 8 8 8 8 8 j 8 8 8 8 8 8 8 8 8 8 j 8 w w w w w w l S l l w w l l S S l l 8 8 l  .+.+.+...{ 5 8 | ..=.0.q.,.#.#.#.S # > j @.F.$X<.5 > j z L @.R i R <   yXyXyXyXyXyXyXyXyXyXyXyXyXyXyXyXyXyXyXyXyXyXyXyXyXyXyXyXyXyXyXyXyXyXyXyXyXyXyXyXyXyXyXyXyXyXyXyXyXyXyXyXyXyXyXyXyXyXyXyXyXyXyXyXyXyXyXyXyXyXyXyXyXyXyXyXyXyXyXyXyXyXyXyXyXyXyXyXyXyXyXyXyXyXyXyXyXyXyXyXyXyXyXyXyXyXyXyXyXyXyXyXyXyX  j *.^ %.3.+.S 5 * 5 ;.R.%.{ 8 > * ..<.,.w.r.0.0.+. .[ j l &.,.,.%.+.{ 8 5 5 6 5 7 8 8 w w S S S S S l S S S S S S S S S S S S l l l w w w l l w 8 w w l l l l 8 8 8 w w w w w 8 8 7 8 8 8 5 8 8 5 7 5 5 w w 8 8 8 7 7 7 7 8 8 8 8 8 8 8 8 8 8 8 8 8 8 5 5 5 8 8 8 8 7 8 7 5 5 5 5 8 5 5 5 5 5 5 5 5 5 5 5 5 5 5 5 5 5 5 5 5 5 5 5 5 5 5 > 5 5 5 5 5 5 5 > 5 5 > > ; = , j @.#.%.@.I 6 8 T  .%.,.&.! ! F , > S { { S 7 .   # 7 > # , #.H.$.F } %.#.%...} J l l l 5 5 j j j l z I @.#.%.#.F.H.p @.F.",
"l l &.@.D J l S j 6 > > > = = > 5 l I I %.0.0.q.,.#.J ^ E.:.j 7 5 * > # # w ..%.%.} z ! @.#.....I D D j , j I D J { | S ; o . . . . . . o o * * * * * % * o o % % * * * % % % % % * = * * * * * * * = = = = = % % = = % * % * % % * % * > > 5 5 > > ; ; ; > > > , > 5 5 5 5 5 5 5 5 5 5 5 5 5 > > * * * * * = = * = = = > ; = * * > * # # = > > > , , > , , , , , , > > ; > > > , , , , , , , 5 5 6 6 5 5 5 5 5 , 5 5 > > , 8 l { ,.1.,.%.{ 5 j ..+.%.,.0.q.&.#.%.l # 5 l #.F.$X<.> > j F ! ^ x i R <   yXyXyXyXyXyXyXyXyXyXyXyXyXyXyXyXyXyXyXyXyXyXyXyXyXyXyXyXyXyXyXyXyXyXyXyXyXyXyXyXyXyXyXyXyXyXyXyXyXyXyXyXyXyXyXyXyXyXyXyXyXyXyXyXyXyXyXyXyXyXyXyXyXyXyXyXyXyXyXyXyXyXyXyXyXyXyXyXyXyXyXyXyXyXyXyXyXyXyXyXyXyXyXyXyXyXyXyXyXyXyXyXyXyX  g ^ ! &.3.+.[ 5 * 5 ;.U.#.S j > * #.2.<.0.w.0.0.5.+. .l S &.;.#...%.{ 8 5 > 5 > > 5 > 5 5 5 7 7 5 5 5 5 5 5 5 5 5 , , 5 5 5 , , > ; ; ; = * * * > > > 5 , , , > > > > > > > , > > > > = ; > > > > > > > > > > > > > * = = ; ; ; ; ; > > > > , , , , , = = = * = * = = = = % % % % = = = % % % % * * % % = = = % % % % % % = = = * * * * * = = = > = * * * o o o o % , j g I %.#.#.L 6 8 [  .,.0.,.#.! J 5 5 S  .{ S 5 O   # 8 > # , #.H.*.D } %.#.%.#.#.I l 6 > o o % = * = , z @.#.%.#.<.2.g @.2.",
"l l &.@.L J J D 6 o . . o . .   . > I I %.0.e.e.,.%.J ! *XZ.j 5 > * > # # w { { ..J z F ....+.+...D l j , l I D J ..| j , = $ $ . o % % = = = = = = = , , ; = , = ; , , , , , , , , , , , , , , , , , , , , , , < < , , , , , = = ; = = = = , = ; > , , , , , , , , , , < < < , < , , , , , , , , , , , , , , , , = , , , ; , = = = % % * % = , , < < , , , , : , , , , % & , , , = = = = = = , , , , , , , , , , ; = ; = 6 S S { ;.<.,.%.{ 5 8 ..%.,.,.,.q.<.&.#.l # > l #.<.$X;.> > j z v ^ x a R u   yXyXyXyXyXyXyXyXyXyXyXyXyXyXyXyXyXyXyXyXyXyXyXyXyXyXyXyXyXyXyXyXyXyXyXyXyXyXyXyXyXyXyXyXyXyXyXyXyXyXyXyXyXyXyXyXyXyXyXyXyXyXyXyXyXyXyXyXyXyXyXyXyXyXyXyXyXyXyXyXyXyXyXyXyXyXyXyXyXyXyXyXyXyXyXyXyXyXyXyXyXyXyXyXyXyXyXyXyXyXyXyXyXyX  < ! z #.%.3.[ 5 * 5 &.F.@.l j > * @.<.;.0.r.0.r.0.0.+.w l :.<.#...%.{ 8 , = % * = ; ; ; > > > > > > , , , , , , , , , , < , , , , , , , , , , , ; ; ; ; ; , ; ; = = ; ; ; ; , = = ; = % % = = ; = = ; % % = = % = = = % % ; ; % % , , , = = = , & & = % % = = = = , = = = % % % % & = , , , , , , , , = , , , , , , , , , , , , , , = & = & , , , , , = = = = = % = j l < L @.L ! L 6 8 {  .+.,.%.#.@.J 5 5 [  .[ S 5 O   # 8 5 o , #.Y.$.L #.%.%.#.} I I l % . . . . . .   . < D I @.! ;.<.j #.I.",
"l l &.} D D l l , . . * , , , o   * J L #.0.w.0.%.+.S ! *XZ.j 5 > * > o # 8 S [ { S l D } +.+.+...T l j 5 j I I I ..Y j j l < & & = , u u u u p p p p g j j g j g j g j g g k z z z z l l D z l g g g z z k k A F z l l z z z g g g u u u g k g g j k k z z l j j j g j A F A A A A A A D D z j j j j j l l l A z z l l l l z j g g g g g k g g l z D D z k k k g j j g g g j g g g g j j g j j j j z z l l l l l j j j j J #.S S @.%.%.%.{ 5 8 } %.%.+.%.,.<.%.#.l # > l #.F.Y.%.> > j g k ! x a R u   yXyXyXyXyXyXyXyXyXyXyXyXyXyXyXyXyXyXyXyXyXyXyXyXyXyXyXyXyXyXyXyXyXyXyXyXyXyXyXyXyXyXyXyXyXyXyXyXyXyXyXyXyXyXyXyXyXyXyXyXyXyXyXyXyXyXyXyXyXyXyXyXyXyXyXyXyXyXyXyXyXyXyXyXyXyXyXyXyXyXyXyXyXyXyXyXyXyXyXyXyXyXyXyXyXyXyXyXyXyXyXyXyXyX  , ! k #.%.%.{ 7 * > #.<.I S j > * @.<.;.0.w.0.0.0.0.+.w l &.<.#.....{ j z p , , p j z z z z z z z z A z k k z z A l j g l l j j l l g g g j j j j l j j j j j j j j j j j j j j j j j j j j j j j u j p j j 8 8 j j j j j j j j j g l j j j u g g p p u u h g z z z k g g h u g p p g g g p g g g g g g j j z z z g g k k g j g g g p p p k k k g p u u g u , , , g I D < L @.D I J 6 j [  ...+.+.%.#.P 5 5 S [ S l 5 O   # 7 > o , #.Y.$.! &.&.%.#.J D D g o . o , , > .   . , l D L F %.:.j #.q.",
"j l #.D j j 8 j , . o 8 Z A j * . o J J #.,.,.%.....J ! *XZ.j 7 * o > o # 7 S {  .S l J } +.+.+. .T l l , j ! ! F D U j j ..D u u u p p a i k k k k k k A ! A F z z z A A ! R R A A A F F ! F A k k z A ! ! ! ! ! ! ! ! ^ ^ ^ ! ! ! ! A z z ! ! R ! ! ! ! ! ! U U ! A A ! ^ ^ ^ ~ ^ ^ $.;.;.^ ! ! ! ! U ! ^ @.^ ! ! ! ^ @.@.! ! F z z ! R ! ! ! ! ^ @.@.^ ! R R F U I I ! ^ ! A ! ^ @.! I I } @.@.@.^ ^ ! ! ^ ^ ^ ! z l l @.%.l l I @.@.%...6 8 P ......%.,.;.#.@.l o * l #.I.$X%.> > j j k ! x a R <   yXyXyXyXyXyXyXyXyXyXyXyXyXyXyXyXyXyXyXyXyXyXyXyXyXyXyXyXyXyXyXyXyXyXyXyXyXyXyXyXyXyXyXyXyXyXyXyXyXyXyXyXyXyXyXyXyXyXyXyXyXyXyXyXyXyXyXyXyXyXyXyXyXyXyXyXyXyXyXyXyXyXyXyXyXyXyXyXyXyXyXyXyXyXyXyXyXyXyXyXyXyXyXyXyXyXyXyXyXyXyXyXyXyX  , ! k #.%.%. .8 * * #.<.@.J j > * @.<.:.q.w.0.0.0.%. .8 l $.&.@.} ..S l $.~ a p z ! ^ ! ! #.#.#.#.@.#./ ^ ! ^ #.$.^ U F I I I U ! ! A A A U ! I I ! I I ! I I @.@.I F D U ! I F D D I I P I I ! F z ! ! D l l D J D D D D A A A F F F F F z z z A z k z z z ! ^ *.! A z z z z z z z z k k k z z z z z z z z F ! ! z k z A A F F z k z z k R R z k k k k k k p u , g I l , I #.@.#.{ 6 8 T | | ..%.;.%.{ 5 > l l l w 5 O   # 5 > # , %.Y.:.@.&.;.%.#.D l z p o   * l Z 8 #   . , j l D z #.<.j %.U.",
"j l @.z g g 6 j , . o 8 p a p % + o z z @.&.&.#.#.#.J ! Y.:.j 7 * o * o # 7 { ..+.P j J } o.+.+.+.| P l , j ^ ~ F A U l j } @.z u i i k k k R R R R k g F ^ ! ! F F ! ! ^ / $.~ R A R ! ^ ^ ! ! ! ! ! ! ~ $.$.^ ! *.$.$.$.$.$.#.^ $.$.#.! ! ^ ^ ! ! ~ ^ ^ #.#.#.$.$.$.^ ! #.:.:.$.$.;.2.U.U.:.#.$.$.#.#.%.:.2.$.#.^ ;.<.:.:.%.%.! F ! ~ ~ ^ ^ ^ $.;.<.<.:.~ ! ! ^ %.$.$.;.<.$.~ $.<.:.:.%.@.%.&.&.$.$.#.$.:.<.<.%.~ R z D #.#.8 l I #.#.%.} 6 8 P { ..%.,.1.<.#.@.j o * j ! F.$X&.> 5 8 j F ! R a R g   yXyXyXyXyXyXyXyXyXyXyXyXyXyXyXyXyXyXyXyXyXyXyXyXyXyXyXyXyXyXyXyXyXyXyXyXyXyXyXyXyXyXyXyXyXyXyXyXyXyXyXyXyXyXyXyXyXyXyXyXyXyXyXyXyXyXyXyXyXyXyXyXyXyXyXyXyXyXyXyXyXyXyXyXyXyXyXyXyXyXyXyXyXyXyXyXyXyXyXyXyXyXyXyXyXyXyXyXyXyXyXyXyXyX  , ! k #.%.%. .8 * > %.F.@.S j > * @.<.:.q.0.%.,.%.+.{ 8 l %.%.@.@...S 8 #.$.F z ! #.#.%.#.#.%.;.<.<.2.<.#.^ $.2.U.<.#.^ #.%.%.#.$.^ ! ! ^ $.$.;.;.$.#.#.#.%.;.;.&.%.! ! ^ $.$.#.I I @.%.%.%.#.#.! ! ~ $.^ U D @.%.@...@.! U U ! ^ ^ ^ @.^ F z z R R R R R R ^ $.Z.^ ! z z ! ! ! R R R z k k ! ^ ~ ! R F F F ! ^ ! A k R R ~ ! ! z k R R R R R R x x x R x k i u u g I j 5 } &.<.,...8 8 J P P } %.<.%.P 5 > l l l 8 > +   # > * * , #.Y.$.I %.,.%.@.z g g u o   % p p < %   . < l l z D #.<.j %.U.",
"j l @.z u g 6 g , . o , p e , o . % z z @.#.%.%.%.@.A ^ Y.$.j 5 * o * o . 5 J ..%.{ l P .. . .X. .....P 5 j #.^ ~ ! ! l 6 S @.L g p i k R R R R R ! z k ! ^ ! F ! ! ~ ~ ~ / Z./ R a R ~ *.~ ~ ~ ~ ~ ~ / $.Z.Z.^ ^ :.F.<.&.$.$.#.*.<.F.;.#.! #.#.! ! $.^ ^ #.:.2.<.<.<.$.@.$.F.F.<.:.<.T.#XT.q.:.<.:.:.&.<.q.q.:.$.:.2.U.q.<.,.;.@.! #.$.~ ^ #.#.:.2.F.U.F.$.! ! $.<.<.:.:.<.$.$.<.F.I.<.&.%.;.<.<.&.&.&.<.q.U.2.:.^ ~ F I %...8 S I I ^ @.I 8 j P | %.%.&.<.&.#.#.8 . > g z $.R.%.> > j l F #.R s ~ j   yXyXyXyXyXyXyXyXyXyXyXyXyXyXyXyXyXyXyXyXyXyXyXyXyXyXyXyXyXyXyXyXyXyXyXyXyXyXyXyXyXyXyXyXyXyXyXyXyXyXyXyXyXyXyXyXyXyXyXyXyXyXyXyXyXyXyXyXyXyXyXyXyXyXyXyXyXyXyXyXyXyXyXyXyXyXyXyXyXyXyXyXyXyXyXyXyXyXyXyXyXyXyXyXyXyXyXyXyXyXyXyXyXyX  , ! k ^ %.%.{ 5 # > &.U.#.z j > = @.:.%.;.,.,.,.....P 8 l #.%.#.@.%.T 6 I %.! ! #.#.#.%.%.%.%.,.q.q.q.2.:.%.;.2.I.2.;.%.%.%.:.<.<.$.^ ! ^ $.<.F.F.$.^ #.:.<.<.<.:.%.^ ! ~ $.:.$.! I %.:.;.%.%.#.^ ^ ~ *.%.@...%.;.,.;.%.@.@.@.#.#.#.#.$.%.! F ! R ! ! ~ ! ! ^ $.:.$.! A A ! #.#.R R R R k z ~ ~ ~ R R A ! ! ^ ^ ~ z k x R ~ ^ R x k x R R R R R R R R E v x a u u z I 8 < } &.:.;.#.8 8 D I F F @.%.#.I 6 > l T l 8 > +   o 5 > * , #.G.$.! @.%...} D g g u o . o : : : $     , l z D F %.<.j @.q.",
"j l @.z u , 6 < , . o : : : , o . * D z L #.%.;.&.#.z ~ Y.$.j 7 * * * # # 6 P } ..{ l I .... .[ { { ..J 5 j #.~ ^ ! F l 6 w } ! z k a x ~ R R R R R x R ~ ~ ~ ! ! ~ ~ R R ~ g./ R R ~ ~ ~ ~ ~ ~ ~ ~ ~ ~ / Z.Z.*.^ <.F.<.<.$.$.$.$.<.F.$.^ ^ #.#.^ *.*.! ! #.<.2.:.:.<.$.#.<.U.U.F.:.:.e.T.U.2.<.<.:.:.$.:.<.<.:.;.;.<.<.:.%.;.:.#.#.#.*.~ ~ ^ #.$.;.<.2.F.$.! ^ $.<.$.$.:.:.$.$.Z.F.I.q.;.&.<.q.2.<.<.<.<.q.q.2.:.$.^ ! ! ;...8 D F F F F D 6 j { ..%.%...@.#.@.#.w . > g z $.R.%.> 5 j z I *.R s ~ p   yXyXyXyXyXyXyXyXyXyXyXyXyXyXyXyXyXyXyXyXyXyXyXyXyXyXyXyXyXyXyXyXyXyXyXyXyXyXyXyXyXyXyXyXyXyXyXyXyXyXyXyXyXyXyXyXyXyXyXyXyXyXyXyXyXyXyXyXyXyXyXyXyXyXyXyXyXyXyXyXyXyXyXyXyXyXyXyXyXyXyXyXyXyXyXyXyXyXyXyXyXyXyXyXyXyXyXyXyXyXyXyXyXyXyX, R k ! %.%.P 5 # > ;.T.%.L l > = @.$.#.&.,.,.,.....{ 8 l @.$.#.#.%.S 5 S %.! ! *.&.$.;.&.&.;.,.q.q.q.<.:.:.:.:.:.:.:.;.%.;.<.2.<.%.^ ! ^ #.;.<.<.#.@.#.:.2.2.<.%.@.^ ! ^ ~ $.$.@.@.%.<.<.;.%.#.#.^ ^ ~ #.#.@.#.;.:.;.%.@.@.#.#.#.^ @.%.#.^ ! ^ ~ ~ ! ! ~ ^ ~ *.*.$.^ A A ! #.#.~ R x R x R ~ ~ ~ R A R ~ ^ ^ ^ R x k x R ~ ~ R x x x x x x x R R R R R x k a p g F ! 6 < I %.:.&...6 8 D U F A F ! ^ L 8 , S { l 8 > +   * 5 5 * , #.G.$.@.@.....} L z g p o . o % & & $   . , l D J D #.&.j @.2.",
"j z @.z u , , < , . o % & & & %   * l z } %.%.;.%.@.z ^ Y.$.j 7 * % * # . 8 J P { J l ! @.....{ { J J S > j #.~ ^ ! F l 5 6 S P D k a k R R A x R R R ! ~ ! A R A R R R R R ~ R R R R ~ ~ ~ ~ ~ R ~ ~ ~ ~ / $.$.*.$.:.:.$.$.#.#.#.$.$.$.$.*.*.*.*.$.~ ^ #.$.<.:.$.;.;.$.$.:.F.H.F.<.:.2.<.<.<.:.;.:.$.$.$.$.$.$.$.$.^ #.#.#.%.%.#.@.^ ^ ^ *.~ #.#.#.$.;.;.$.#.#.#.$.$.#.$.$.$.:.<.<.<.,.,.&.&.:.<.<.2.2.<.<.<.:.:.;.*.#.#.:.I g z F F z z z g j { ..,.%.} I ! ! #.j . > j ! $.U...> 5 l D @.$.~ a E g   yXyXyXyXyXyXyXyXyXyXyXyXyXyXyXyXyXyXyXyXyXyXyXyXyXyXyXyXyXyXyXyXyXyXyXyXyXyXyXyXyXyXyXyXyXyXyXyXyXyXyXyXyXyXyXyXyXyXyXyXyXyXyXyXyXyXyXyXyXyXyXyXyXyXyXyXyXyXyXyXyXyXyXyXyXyXyXyXyXyXyXyXyXyXyXyXyXyXyXyXyXyXyXyXyXyXyXyXyXyXyXyXyXyXyX, z k ^ %.%.l 5 * > ;.T.&.L S , = ! $.#.;.0.0.,.+...{ j l @.#.^ ! @.S 5 l ..@.@.%.&.:.<.<.<.<.q.q.q.q.<.<.2.2.<.:.;.<.;.&.&.;.<.<.%.@.@.#.%.%.:.$.%.#.#.&.,.<.,.%.#.@.I ! ^ #.%.@.#.%.;.,.;.#.@.@.^ ! ^ #.#.#.@.#.#.#.#.#.#.#.$.$.#.^ ^ #.#.^ *.*.^ R ! ~ ^ ~ ~ ^ ~ ^ ! F ! ! ! ! R R R R R ~ ~ ~ ~ R R ~ ^ ^ ^ ! ! x k x R ! ! R x z k k k k x x k k a x a a a z ! ^ 6 < D @.#.#.P 5 8 D I F F F ! ! F j 5 S [ l w 5 . . * 5 5 * , #.H.$.} #. .....L l l j o . # % & & $   . , z z l l F @.< @.2.",
"j z ! z u , , u = . o % & & = % . * S J } %.,.&.#.@.F #.Y.$.j 5 # o * # . 8 I P { S l ! ! } { ..} I z l > j #.^ ^ ! I l 5 5 w S J l g g k k j l z z F F D z j j g g z z z z z A A z z z l z z z l z A F F ! ! ! ^ ! ! ! ^ ! I U F D D F F F A A D F F F F I } I I L I I I I I I @.! ! @.I I @.! ^ @.#.#.! ! ! ! ! U U U I I I ..Y D D D D F F D D D I ! @.@.@.@.I I @.@.} } } @.@.} } ....} } { } @.I } } } P I } Y ! ! @.%.J j L I @.! I D 6 j P %.,.%.%.#.! ! #.j o > j L $.U...> * j z ^ *.R a ~ g   yXyXyXyXyXyXyXyXyXyXyXyXyXyXyXyXyXyXyXyXyXyXyXyXyXyXyXyXyXyXyXyXyXyXyXyXyXyXyXyXyXyXyXyXyXyXyXyXyXyXyXyXyXyXyXyXyXyXyXyXyXyXyXyXyXyXyXyXyXyXyXyXyXyXyXyXyXyXyXyXyXyXyXyXyXyXyXyXyXyXyXyXyXyXyXyXyXyXyXyXyXyXyXyXyXyXyXyXyXyXyXyXyXyXyX, z a ! @.} j 5 # > %.T.&.} D , = ! $.%.,.w.0.0.%.+...l l @.@.! I J l 5 l ......P J } @.@...........................%.%...|  .| } { J J P } } ..#.#...{ { | ....{ { I J D P P { { { { T S P S D D D D D D I I P D J J D D D F F F D A D D D D D D l z A F U U F F F A z j l z l l z z k j z z F F D z l D D D J z z z l g z z F F D z z l z l l j j u < k j l z U #.^ 6 6 z D J J S 5 8 D F ! ! ! ! ! D g 5 l { S w 5 + . * 5 > # , #.Z.#.I ..+.+...J l z j o + % % : : %   . , j j j g D I < #.2.",
"j l ! k u u , u % . o % : u : o   * S J %.<.<.&.@.I F #.Y.#.j 5 o + o + O 5 P } } J l U I } ......P z l > l #.#.^ ! ! D 8 5 7 8 6 > > * = ; > > , , , > > = * * * * = = = = % = = = * * * * * * * * * * = = = , , ; ; , , , , , * = = * = * % * * o = = = = * * * = * , , , , , < , > , > > > > , , 6 6 , , , < , , > ; > > > > > * * * > = * * * * > > 5 , 5 , , , , 5 , > > > > > > 5 , > > > > > , , > > > ; ; ; , , 6 j j j ..#.&.&.%.{ 5 8 P ..,.,.;.:.#.! #.j o > 6 z @.2.| * * g l F @.! a ~ g   yXyXyXyXyXyXyXyXyXyXyXyXyXyXyXyXyXyXyXyXyXyXyXyXyXyXyXyXyXyXyXyXyXyXyXyXyXyXyXyXyXyXyXyXyXyXyXyXyXyXyXyXyXyXyXyXyXyXyXyXyXyXyXyXyXyXyXyXyXyXyXyXyXyXyXyXyXyXyXyXyXyXyXyXyXyXyXyXyXyXyXyXyXyXyXyXyXyXyXyXyXyXyXyXyXyXyXyXyXyXyXyXyXyXyX, z a F @.} j 5 # > %.U.&.I S , = @.<.%.,.0.0.w.0.,...l l @.%.%.%.} l 7 l [ T w > = = ; ; > > > > > , > ; ; > > 5 > 5 > > > > * * * * * * = * > > 5 > > 5 5 5 5 > > > > > > > > > > * # # # * % * * * * * * * * * * o o % % % o o o o o o # o * * % % * * * * * * * * * % o * * # * * # # # # * * * * # * * * * * * * * % * > > > > > > > = * * * # . o = * , 5 8 l l 6 l I D Z D S 5 8 S L I @.@.! ! z 6 5 S .. .n > O   # 5 > # , ! Z.#.P ..+.%...z j j g o + % & e i %   . , g j j g F @.< #.2.",
"j l F k p h g u = . . & i i : o . * J J #.&.&.%.@.I F #.U.#.8 5 o . . O O 5 J ....S l I @...+.+...T l l , j #.#.^ ^ ! P 8 > * # . . . . . . . . o o + + o o o + + + . . . . . . . . . + . . . . . . . . o o o o o . o o o o o o o o o o o o o # # . o o o . . . . o * * = * * * * * * # o # # # # * * * # # # o o o o . # . . o . + + o * # # # # # # # o o o o * * * * o o o o o o o o o * * * * * * * * # # o o # o % # * * j { ..%.%.%.{ 5 8 { ..+.,.,.;.#.! #.j o > 6 j @.<...> * 8 l z ! x a ~ g   yXyXyXyXyXyXyXyXyXyXyXyXyXyXyXyXyXyXyXyXyXyXyXyXyXyXyXyXyXyXyXyXyXyXyXyXyXyXyXyXyXyXyXyXyXyXyXyXyXyXyXyXyXyXyXyXyXyXyXyXyXyXyXyXyXyXyXyXyXyXyXyXyXyXyXyXyXyXyXyXyXyXyXyXyXyXyXyXyXyXyXyXyXyXyXyXyXyXyXyXyXyXyXyXyXyXyXyXyXyXyXyXyXyXyX, z p F #...S 5 # > %.U.%.J l 5 = @.:.%.%.0.0.0.0.,...8 j @.%.;.&.#.P 8 5 5 > * # o % % % % % % % % % % o o o o + o o o o o o o o o o o o o o o o o o o * % o % % o o o o # * * * o o o o # o o o o o o # # # # o o . o o o o . . . + o . . . . o o o o + + + + + . + . . . . . . . . . . . . . . . . # . . + + + O O O . . . . . . . . . . . + . + + + . . . . . . . * j } F F D D , 5 l J } #.#.! F l 5 5 S %. .w > O   # 5 > # , ! Z.#.J { %...P l j j , . + % : y a &   . < j j j g F @.< #.<.",
"j l F k k k h u = . . & i a : o   * L F @.#.#.%.#.^ F #.U.@.8 7 o + o # O 5 { .. .[ l I @.%.%...{ S z l 5 j #.#.#.#.#.I 6 o o o o % * * = ; = = * * * * * = * * * * * * * * > * * * = = > > > > > > > * * * > > * = = > > > > > 5 5 > > > > > > > > > > > > > > > > > 5 > > 5 5 5 5 5 5 > 5 5 5 5 5 5 5 5 5 5 > > > > > 5 5 > > > > > > 5 5 5 5 5 5 5 5 5 5 5 5 7 7 5 5 5 5 5 > > > 5 5 5 8 8 8 8 8 5 5 5 5 5 5 5 5 5 5 5 > > 8 { } ..#.%.{ 5 8 S [ +.,.,.,.@.I #.l o > 6 l @.q.#.5 * 6 l z ! R a ~ g   yXyXyXyXyXyXyXyXyXyXyXyXyXyXyXyXyXyXyXyXyXyXyXyXyXyXyXyXyXyXyXyXyXyXyXyXyXyXyXyXyXyXyXyXyXyXyXyXyXyXyXyXyXyXyXyXyXyXyXyXyXyXyXyXyXyXyXyXyXyXyXyXyXyXyXyXyXyXyXyXyXyXyXyXyXyXyXyXyXyXyXyXyXyXyXyXyXyXyXyXyXyXyXyXyXyXyXyXyXyXyXyXyXyXyX, k p F %...S 7 # > %.U.#.D l , = ! $.%.,.,.,.0.,.%.{ 8 j #.&.&.%.#.P 5 # * * > > 5 5 5 5 5 5 5 5 5 5 5 5 5 5 5 5 5 5 5 , 5 5 5 5 > > > > > > 5 5 5 5 5 5 5 , 5 5 5 5 5 5 > 5 5 5 5 > , 5 > > > > > 5 5 5 5 5 5 5 5 5 > , , > > > * 5 5 > > > > , , > > * * * * * = = > > * * * * = = * * * > > > > > > > = ; ; = = * * * % * * * * % % * * * * = * * = * * * * o . . % j I F ! F z , 5 j S } %.%...D l 5 5 l { [ l > +   * 5 > # , ! Z.#.J S { J D l j j , . . % e M y : . . < j l z g F @.u %.%.",
"j l F k k k h g ; . o : a a : o . * L F F ! @.*.*.#.F *.Y.@.8 7 # . o # O 7 { .. .[ l L @.@.} } { D z l , j @.^ ^ #.#.D 6 % % * * * = = ; > > , > > > > > = * = * * = * = = > > * * = = = * * * * * * * * * > > * > > > > > > > > > > > > > > > > > > > > > > > > > > 5 , 5 5 5 5 6 5 5 5 5 5 5 5 5 5 5 5 5 5 5 5 > > > > 5 5 5 5 5 > > > 7 5 5 5 5 5 5 5 5 5 7 5 5 5 5 5 5 5 5 > 5 5 7 8 8 8 8 8 8 8 8 7 7 5 5 5 5 5 7 q 5 5 w } } } #...J 5 8 S [ +.,.,.,.#.} %.l # > 8 l %.U.%.5 * 6 l z ! R a R g . yXyXyXyXyXyXyXyXyXyXyXyXyXyXyXyXyXyXyXyXyXyXyXyXyXyXyXyXyXyXyXyXyXyXyXyXyXyXyXyXyXyXyXyXyXyXyXyXyXyXyXyXyXyXyXyXyXyXyXyXyXyXyXyXyXyXyXyXyXyXyXyXyXyXyXyXyXyXyXyXyXyXyXyXyXyXyXyXyXyXyXyXyXyXyXyXyXyXyXyXyXyXyXyXyXyXyXyXyXyXyXyXyXyXyX, g p I %...w 7 * > %.q.#.S l > % L $.&.<.,.,.,.+.%.{ 8 l #.&.&.&.#.S , > > 5 5 8 8 7 8 8 8 8 8 8 6 8 7 7 7 7 7 7 7 7 7 7 5 5 5 5 5 5 5 5 5 5 5 5 7 5 5 5 5 , , 5 5 5 5 > > > > > > > > > > > > > > > > > 5 > > 5 5 > 5 5 > > > * * * > * > > > , , , > = * * * * * = = * = = = * * = * * * * * * * > > ; ; ; ; ; ; > * * * = ; ; ; = = = ; ; ; > ; ; = = = * > * * * , j D F F F k , 5 l S { %.%.%.I l 5 5 l S S S 5 +   * 8 > # , #.F.#.D l z z z l j j , . . % i y y % . . < j l z g F ..< @.@.",
"8 j F g k k h j , . o : M t : % . * J F A A ! #.*.*.z $.Y.#.8 5 # . o # O 5 { } { S l } ! ! ! ..@.I z z , j @.L F #.@.l g , % % # # # # * * = = > * > > * * * % * * * % % % # # * * * * % % * * % o o o o o * * % * * * * * * * * * * * * * * * * * * # # * * * * * * > > > > 5 5 , > > * * * * > > > > > > > * = * * * * * # * * * * * * 5 2 5 5 5 5 5 * * > > > > > > > > > * * * * > 5 5 5 5 6 5 5 > > > > > * 5 5 > 5 > 8 l } } } } } S 5 8 S | ..,.,.1.&...%.8 # 5 8 S %.e...5 # 6 l z ! z a R p . yXyXyXyXyXyXyXyXyXyXyXyXyXyXyXyXyXyXyXyXyXyXyXyXyXyXyXyXyXyXyXyXyXyXyXyXyXyXyXyXyXyXyXyXyXyXyXyXyXyXyXyXyXyXyXyXyXyXyXyXyXyXyXyXyXyXyXyXyXyXyXyXyXyXyXyXyXyXyXyXyXyXyXyXyXyXyXyXyXyXyXyXyXyXyXyXyXyXyXyXyXyXyXyXyXyXyXyXyXyXyXyXyXyXyX, p p ! @.{ w 6 * > %.U.#.z 7 * % F :.:.q.q.,.%.....{ 8 l %.%.#.#...j < > > > 5 > 5 , 5 5 5 5 5 , , 5 5 5 5 > > > > * > 5 > > > > > * * * * * * > > > > > > ; > * * * * * # * # # * * * * > * * * * * * * * * * * * * * * * * * o o # # # * * * * * * * % % o o * # # # # # * * * o * * o * o o # * * * * * * * * * # # o o # # * * * * * * * * * # # * # * * * * * * j 8 D F k k g , 6 S D P } #.%.! l 5 5 l S S S 5 +   > 8 > o , @.<.I l l z D D z j j ,   . % i y e % . . , g j j g F @.g ^ #.",
"8 l D h u h h j , o o u y e , % . * J z F ^ ^ ^ ^ *.z *.U.@.8 5 # + o + . 5 J J J l l } @.! @.#.#.! D z , j } D F #.@.z F j % $ % # # # * = ; ; ; ; ; ; ; = = = = = = = % = * ; ; ; , , = , , , = = = % * * * > * * > > > * * * > > * = > , , > , , , = = ; ; = = > > > , , , , 5 5 , , > > > ; ; > > , , , , , = = = = = = * * = = = = > * * * > > > * * * > > > > ; = = = = * * * * * > , > , 6 6 5 , * > , > * > > * * > l l } #.@.I I J 5 8 S ....+.,.1.;.#.%.8 # 5 l J %.q...> # 8 j z ! v i R g   yXyXyXyXyXyXyXyXyXyXyXyXyXyXyXyXyXyXyXyXyXyXyXyXyXyXyXyXyXyXyXyXyXyXyXyXyXyXyXyXyXyXyXyXyXyXyXyXyXyXyXyXyXyXyXyXyXyXyXyXyXyXyXyXyXyXyXyXyXyXyXyXyXyXyXyXyXyXyXyXyXyXyXyXyXyXyXyXyXyXyXyXyXyXyXyXyXyXyXyXyXyXyXyXyXyXyXyXyXyXyXyXyXyXyX= p i ! @.{ j 5 * > &.U.@.z 5 * % I :.&.2.q.0.%.....{ 8 l #.%.@.#.#.l j 6 = * > * , > > > > > , , , > = = = ; ; = * % * * = ; = = = = = * * * = = ; , , > > > > ; ; ; = = = = * = ; ; > ; , = = = = = * * > > > * = = = = = = * % * * * * * = = = = * * * * * % % = = = = = = = * * = = * = * * = ; > ; ; ; > , > = * % % * * * = = = = = = = = = * * * % * % % o * , j j D F j l g , j D D J I } @.I l 5 5 l S S w > .   * 6 > o , ! $.U l z F F F z j j , +   % e t a :   + < g g g g F @.g @.#.",
"8 j J j < g g j , % o : t t u % . * z z ! *.*.^ ^ #.z *.H.! 8 5 # + o # . , l z l l l } @.! #.&.%.! F l , j } D L %.#.l ! z , & % ; , , , < < g u j g g g u u g g u u < u j j j g p p g g l l l g j j < < < j j j 6 j j j j j 8 j j 6 j g j j j g g j j g j j j j j j j j j j j l l l l j 8 8 8 8 8 6 g j j j g u < 6 j j 8 j g 6 , < u j g 6 8 8 j 8 8 8 8 j 6 6 j j j j 6 6 8 8 8 j j j j j l l j j g 6 6 6 6 < 6 6 6 , j P j L #.#.I I J 6 8 J ..%.%.%.,.&.%.&.8 # 5 l } #.I.} * * 6 k x ~ v i E p   yXyXyXyXyXyXyXyXyXyXyXyXyXyXyXyXyXyXyXyXyXyXyXyXyXyXyXyXyXyXyXyXyXyXyXyXyXyXyXyXyXyXyXyXyXyXyXyXyXyXyXyXyXyXyXyXyXyXyXyXyXyXyXyXyXyXyXyXyXyXyXyXyXyXyXyXyXyXyXyXyXyXyXyXyXyXyXyXyXyXyXyXyXyXyXyXyXyXyXyXyXyXyXyXyXyXyXyXyXyXyXyXyXyXyX% p i ! @.} S 5 * = @.2.} l 8 * % I $.%.&.<.<.;.%.%.{ 8 S %.:.%.%.<.J D F < , < < j j j 8 j j l j j j 8 < 8 j j j j j j j j j p j j u 6 8 j j j j j l l j j j j j j j < 6 j j j j j j j j g g g u j j j l l j j j j j j j j j 6 g j j 6 < < 6 j j j j j j j j g g j g j j l j j j j j j 6 6 6 j j j j j j j j j j g < < < < 6 6 6 < < , < , , , , , , < , , , = = = 6 l 6 D ! U I z , 6 D D D I I ! F l 5 > l S T w 5 .   * 6 > # , ! $.! z L ! I L z j j , +   % e y W , . + , u < g p F @.g @.$.",
"8 j P l j j g g , o o : M N u o + % l z ! $.$.*.^ ^ z *.U.@.8 5 # + o o . , l l l l 8 } @.! #.#.#.I F l , j } P Y &.@.j F ! g , , u p h g g k k z z k k z z z k k k g g k z D D z k g z z z A A A A F z z z ! F ! F z F F F F z z ! F L z z F ! F F ! F F F D L I } I D F F I ! @.@.@.@.......%.#.P z z I ! ! z z z F } @...@.I F z F F ! L ! @.I I I @.@.F A F I U F F F D D I I } @.} I @.@.#.@.F F F F A z z z F z l j I @.6 A ! #.! ! J 6 8 J #.%.%.%.%.%.#.&.8 o 5 l J @.I...* * < k R ~ v r E g     yXyXyXyXyXyXyXyXyXyXyXyXyXyXyXyXyXyXyXyXyXyXyXyXyXyXyXyXyXyXyXyXyXyXyXyXyXyXyXyXyXyXyXyXyXyXyXyXyXyXyXyXyXyXyXyXyXyXyXyXyXyXyXyXyXyXyXyXyXyXyXyXyXyXyXyXyXyXyXyXyXyXyXyXyXyXyXyXyXyXyXyXyXyXyXyXyXyXyXyXyXyXyXyXyXyXyXyXyXyXyXyXyXyX& p i x ! } D 5 = = @.2.@.l 8 * = ! $.#.#.&.;.<.&.%.T 6 S <.<.&.#.,.l z $.F j g A I I @.@.@.%.$.%.@.#.^ I @.#.%.%.#.@.@.! I ^ ! ! ! F F I @.@.@.@.@.@.@.@.I ..P I F F A F I ^ I D F ! @.I ! ! F A F ^ @.#...I L I ! ! ! ! ! F F ! ^ ^ ! U F U U U F L I I F F ! ! F z F @.@.I I ! F ! F z z F F F D z z A z z D D z g z z z l l z z z k g k p p g g g z z k g < , < j S 6 z @.%.#.D , 6 l D F I I F F D 5 5 w l S w 5 .   o 5 > # = ^ :.! F @.! @.} l j j , O . % : C W : . . , u g j g F @.g #.$.",
"8 j P l l j j j , o o : Q Q : o + o l z U %.:.#.! ! z $.Y.! 8 5 # + * o . 5 l z l l 8 } @.! @.#.@.F F l < j } } @.%.@.6 l #.! p p k k z z z x x R R k k R ~ ~ R R x k k A ! F ! ! ! ! ! ! ! R R ! ! ~ ~ ~ ~ ~ ~ *.~ ^ ~ ^ ~ ~ ~ ~ $.$.$.^ ^ $.$.#.! / ~ *.#.%.:.<.<.;.#.#.$.<.<.:.:.<.2.<.q.e.e.e.<.@.#.$.:.$.~ ~ ^ $.2.q.e.q.2.&.$.$.:.:.:.2.2.2.:.:.2.<.#.#.;.<.$.#.#.#.@.@.:.2.2.:.%.%.:.2.U.F.;.$.Z.<.:.;.$.#.^ F z z #.#.6 A F ! ! ! J 6 j S ..%.%.&.:.%.#.&.l # > l l @.U.#.> * 6 a R ~ v r E g     yXyXyXyXyXyXyXyXyXyXyXyXyXyXyXyXyXyXyXyXyXyXyXyXyXyXyXyXyXyXyXyXyXyXyXyXyXyXyXyXyXyXyXyXyXyXyXyXyXyXyXyXyXyXyXyXyXyXyXyXyXyXyXyXyXyXyXyXyXyXyXyXyXyXyXyXyXyXyXyXyXyXyXyXyXyXyXyXyXyXyXyXyXyXyXyXyXyXyXyXyXyXyXyXyXyXyXyXyXyXyXyXyXyX& p u z ! } D > * ; %.H.@.l 8 * = I $.#.#.&.&.&.%.} l 5 { <.<.&...%.l j #.*.z k ! #.%.$.&.<.2.F.2.<.H.<.:.:.2.2.<.<.:.:.$.%.:.Z.Z.$.#.#.$.$.&.:.:.:.:.;.<.<.,.&.#.#.^ ^ $.$.<.$.*.#.$.<.$.:.$.*.~ ^ $.:.:.%.@.@.*.$.$.$.$.$.$.$.;.;.$.$.^ #.$.$.^ ^ #.*.*.^ ^ *.$.~ ! ^ $.#.^ #.*.$.$.~ ~ ^ *.$.#.! ! ! ! ! ! ! ! F F R ! ! ! z k z R R R R R x k k x R v z h u < j P J , z @.#.@.z , 6 l D D F F F F D 5 > w l l w 5 .   * 6 > # = ^ V.! F @.@.#.} l g j , O + $ e Q m % . . = u g j g F @.g #.$.",
"8 j { l j j j z , o o e Q N u % . o l D I %.%.@.@.! z *.U.I 6 5 # + * # + 5 J J J l 8 @.#.#.@.#.} I L z 6 j } } @.%.#.6 8 @.#.z k k k x z z R R R R k a R ~ ~ ~ E R R R ! ^ ! ^ #.^ ~ ^ ~ ~ ~ R ~ ~ ^ ^ ~ / ~ R ~ *.*.*.~ ^ ~ ~ *.Z.Z.$.^ ^ $.$.*.^ / ~ ~ $.:.q.e.e.;.#.%.<.F.F.:.:.<.<.q.q.e.e.e.,.#.@.$.*.^ ~ ! ^ $.2.U.e.q.<.&.$.$.$.$.q.U.T.U.q.q.q.<.$.$.<.F.<.$.$.$.#.$.2.U.U.2.:.:.<.2.U.U.<.:.F.F.F.F.<.$.~ ! F F %...8 A F F F ! L 8 8 S { ..%.%.%.@.@.<.l * > 5 8 #.U.%.> # 6 k x x s s g.k     yXyXyXyXyXyXyXyXyXyXyXyXyXyXyXyXyXyXyXyXyXyXyXyXyXyXyXyXyXyXyXyXyXyXyXyXyXyXyXyXyXyXyXyXyXyXyXyXyXyXyXyXyXyXyXyXyXyXyXyXyXyXyXyXyXyXyXyXyXyXyXyXyXyXyXyXyXyXyXyXyXyXyXyXyXyXyXyXyXyXyXyXyXyXyXyXyXyXyXyXyXyXyXyXyXyXyXyXyXyXyXyXyXyX& p i v ! } S > * , %.U.%.l 8 * % I %.#.%.%.%.&.#.} l 5 S &.$.&...,.T j ! $.! z F ^ #.#.$.&.:.:.:.<.H.<.<.:.2.2.<.:.2.<.:.%.;.:.:.$.^ #.%.%.:.<.q.<.;.;.q.e.e.<.%.#.~ ~ $.:.<.<.$.#.$.<.<.F.:.$.~ ~ $.<.;.%.#.*.$.V.$.$.$.$.$.:.;.$.$.~ ^ ^ $.$.$.#.*.*.^ ~ ~ ~ ~ / R ~ ~ ^ ! #.V.V.$.~ ~ V.V.Z.$.^ ! ^ $.#.^ ! ! ! ^ ~ ~ ~ R R k x x R x R ~ R x x v x x k p u u j ! l , D I I I l , 8 S D D D z z z z 5 5 l l l l 5 + . > 8 > # = ^ Z.! D } #.#.} l j l 8 o + $ i N i % . o , u g l g A @.g #.$.",
"g j } l j j z z ; o % : N N p %   % J D I %.%.#.} @.z #.F.F 6 5 # . * # O 5 { } } S l @.#.#.@.#.@.I P S 6 j } #.%.%.%.8 5 J #.! k k k z A A R R R R a a x ~ ~ E R R x k R ~ ! ~ ! R R R R R R R R R ~ ~ / / ~ A ! *.*.*.~ R ~ ~ ~ $.$.$.! R ! ~ ~ ~ R ~ ! #.:.q.q.,.%.I ! $.<.<.:.<.<.<.<.q.q.q.,.%...@.#.^ ~ ~ ! ~ #.:.2.q.1.;.%.#.*.$.^ 2.q.q.q.<.<.:.$.$.^ *.;.$.$.$.$.#.$.<.2.<.:.:.;.;.:.<.2.:.$.$.:.<.Z.$.#.^ ! F ! %.P 8 D F F F ! I 8 8 S | #.%.#.@.! @.<.l % * , 8 #.T.%.> # 6 j k x x s g.z . yXyXyXyXyXyXyXyXyXyXyXyXyXyXyXyXyXyXyXyXyXyXyXyXyXyXyXyXyXyXyXyXyXyXyXyXyXyXyXyXyXyXyXyXyXyXyXyXyXyXyXyXyXyXyXyXyXyXyXyXyXyXyXyXyXyXyXyXyXyXyXyXyXyXyXyXyXyXyXyXyXyXyXyXyXyXyXyXyXyXyXyXyXyXyXyXyXyXyXyXyXyXyXyXyXyXyXyXyXyXyXyXyXyXyX& a i ! @.} S 5 * , %.U.&.S j , % L %.@.%.%.%.&.#.@.S 8 l #.#.&.%.,.[ 8 D $.^ A z ! @.#.$.$.%.%.;.<.<.:.;.;.:.<.<.<.<.<.;.#.#.$.~ ^ ^ #.#.%.&.<.q.<.%.%.1.e.q.<.%.^ ~ ~ ^ ~ $.$.^ ! ^ $.$.;.$.~ ~ ~ *.$.$.#.*.~ ~ ~ ~ / ~ ~ ~ $.$.#.#.^ ! ! ! #.#.^ ! ! R ~ ~ ~ ~ / R R ~ ! ! ^ / / ~ R E / g.$./ ~ R ~ ~ ^ ! A A ! ~ R R R R R R x s a a x R x a s x x k a p p h z ! j , J L D D D 6 8 S D D D z z z z 5 5 [ { { w 5 . . > w 5 # , ^ Z.! z L ....} S l S 8 o . % i y e = + o , u g g p A ! g #.$.",
"g j } z k z z z , o o : a N a % . * L D I %.%.%...I k *.H.! 8 5 # . o . O 5 { } } { l } %.^ ! @.@.I P J 6 j ..%.%.%...l 5 j ! ^ R k k k z k k x x x k k x R R R R x x a R R R R A k x R R R R A k k R R ~ ~ ~ R R ^ *.^ R R R ~ ~ ~ ~ ^ ! A A ! ! ! R ! ! ^ @.#.%.@.@.I @.#.$.$.$.&.;.:.:.:.:.;.&.%.@.I I ! ! R ! ! #.%.%.&.%.%.@.^ #.*.$.$.&.$.;.:.;.%.$.$.^ ^ ^ ^ #.#.#.#.#.$.$.$.$.%.%.%.%.$.:.:.$.#.^ $.$.#.^ ! ! ! I #.A g D I ! ! ! I j j J ..#.#.#.! ! ^ <.l o * 6 j #.T.%.> * 6 z x ! R v z.a   yXyXyXyXyXyXyXyXyXyXyXyXyXyXyXyXyXyXyXyXyXyXyXyXyXyXyXyXyXyXyXyXyXyXyXyXyXyXyXyXyXyXyXyXyXyXyXyXyXyXyXyXyXyXyXyXyXyXyXyXyXyXyXyXyXyXyXyXyXyXyXyXyXyXyXyXyXyXyXyXyXyXyXyXyXyXyXyXyXyXyXyXyXyXyXyXyXyXyXyXyXyXyXyXyXyXyXyXyXyXyXyXyXyXyX% k a ! #.I Z > * ; %.U.%.[ j > % D %.@.%.,.,.,.....{ l S @.&.<.%.%.[ 7 l @.^ A z ! @.#.%.%.%.$.$.;.;.:.$.#.#.#.#.:.;.%.%.%.$.~ ^ ^ ^ ^ #.#.$.:.:.;.%.#.%.;.;.%.@.! R R ~ ~ ~ ~ R R R ~ ~ ^ ^ ~ R ! ~ ! ! ^ ~ ~ ~ ~ R ~ R R ! #.#.^ ^ ^ ! U U ^ ^ ^ ! ! R R R ~ ~ ~ ~ R R R R R R E E E E E E E R R R R R R R A R R R R R R R R R R x x x x x s a a a x k k i i k R ~ 5 5 l D F I L 6 j D D D I I F z z 5 5 [ ..{ w 5 .   > w , * , ^ Z.^ z J I } } J J D j o   % : t a : . . : u k p u z ! p ^ $.",
"g l } z k z z z , o . & N Q A % . * J J P %.#.#...I z $.H.! 8 5 o . o . O 7 { } } { l @.#.! I @.#.^ @.J < l @.#.&.&.#.j 5 j I ! z g g g g g p g k k k k k k k k k k k k k k z z l g g j j j j g g g j l z z k j z D D A z z z z z z z z z j j z z l z z z z D D S D S l l D D D D J J P P { { { P S l l l l l l l l l S S S J S l l l A D J J J P ..} P I I D D S S S D D U I I I I I P J D D J J D D D D D D D D F D F L I j 8 U @.%.#.#.} j j { #.#.#.#.^ ^ ^ :.j o = 6 l #.T...> * 6 z ^ #.#.v h.a   yXyXyXyXyXyXyXyXyXyXyXyXyXyXyXyXyXyXyXyXyXyXyXyXyXyXyXyXyXyXyXyXyXyXyXyXyXyXyXyXyXyXyXyXyXyXyXyXyXyXyXyXyXyXyXyXyXyXyXyXyXyXyXyXyXyXyXyXyXyXyXyXyXyXyXyXyXyXyXyXyXyXyXyXyXyXyXyXyXyXyXyXyXyXyXyXyXyXyXyXyXyXyXyXyXyXyXyXyXyXyXyXyXyXyX= z k ! #.@.D 5 * ; %.U.#.l 8 = % D %.#.&.,.,.,.....{ l J #.&.:.%.+.[ 7 j P I F D D J P P P P S J J L L L J J J J I J S S S S z l j l l l l D D S S l l l S S S l j g g j j j j g g j g g g j j k l l j j j j j g j j j j g l l l l l l l l j j j j j j j l z A A D z l j j j j g g a a a a a g g g g g k j g g j j k k j k z k k k k k k z z z k g g k g g g g z z z > 6 z F F I L g j J D F I @.! ! D 5 5 S { S w 5 .   > 8 > * , ^ Z.*.F I P } } { J J j o . % : y m , . . : u g p u A I u ! $.",
"g l } z k z z l , o . e R Q p o . % S D P #.....@.@.A $.U.@.8 5 # . o . + 7 } } } { l @.#.^ ! ! @.@.@.L < l #.@.@.@.I j 5 8 8 < % % % % = % % % = = = = % % % % & = = = % % = = = * % % % % % * * * * * % % % % = * % % = = = = = = = ; ; ; * = = % = ; ; ; ; ; ; ; = = ; > = * * * > > > > > > > > * * * * % * * * * * * * * * * * % * * * * * > > > > > ; > * * * * * ; ; > > , , > > ; = * * * * * * = = > > , , , , 6 5 > 8 I %.&.$.%.@.j j } #.@.#.#.*.^ ! :.8 . * 6 S %.e...> * 8 S @.;.#.x h.a   yXyXyXyXyXyXyXyXyXyXyXyXyXyXyXyXyXyXyXyXyXyXyXyXyXyXyXyXyXyXyXyXyXyXyXyXyXyXyXyXyXyXyXyXyXyXyXyXyXyXyXyXyXyXyXyXyXyXyXyXyXyXyXyXyXyXyXyXyXyXyXyXyXyXyXyXyXyXyXyXyXyXyXyXyXyXyXyXyXyXyXyXyXyXyXyXyXyXyXyXyXyXyXyXyXyXyXyXyXyXyXyXyXyXyX, x k ! #.%.I 5 * = %.U.@.l 8 = % D %.%.,.0.0.0.%...{ 8 J #.&.:.%.+.[ w w S j 5 , > > > > > * # # * * * * * * * * = * # # # # o o # * * % * * * * * * * * * # # * % % % * % o % % % % o o o % % % * * # # # # # o o o o o % * % # # * * * % % o o o o o # * * * * * * * * o o . o % % % % % % % % % * * % % % % * = % % % % = = % = = % % % * = = = = * = = = = ; , ; * j L ! ! ! F g j J L L @.@.#.! D 5 5 l S S w > .   > 8 > # , ^ G.$.L ........J J S j o . $ : N A , . . , u p p p F } u ! ;.",
"u l ..D k k j g , o . p W N : . . o l z P #.#.%.%.@.D $.U.@.8 5 # . # o + 5 { { { J l } #.^ ! ! ! ^ #.F , l @.L F F D j , * # o . . o . o # o o o o o o o o o o o o % % o o * * * o o o o o o * * o o o o % * * * # o # # * * * * * * * * * # # # # # # # * * * * > > * * * * # * * * > > > > > > * * * * # # # # # # * * * * * * * # # # * * * * * # # * * * # # # # * * > > > > > > > > > > > > > > > > > * * * * * * * o . 5 I ! @.#.#.} 8 j } ..@.@.#.$.^ ! %.8 . * 6 S %.e. .> * 8 J #.%.#.x z.a   yXyXyXyXyXyXyXyXyXyXyXyXyXyXyXyXyXyXyXyXyXyXyXyXyXyXyXyXyXyXyXyXyXyXyXyXyXyXyXyXyXyXyXyXyXyXyXyXyXyXyXyXyXyXyXyXyXyXyXyXyXyXyXyXyXyXyXyXyXyXyXyXyXyXyXyXyXyXyXyXyXyXyXyXyXyXyXyXyXyXyXyXyXyXyXyXyXyXyXyXyXyXyXyXyXyXyXyXyXyXyXyXyXyXyX, x k ! #.#.P 5 * , $.U.#.l j * % D %.%.,.e.w.q.%...T 8 l #.&.&.%.+.S 7 5 > * # # # > > > > # # # > * * > * * * * * * # # # # # # # * * * # # * * * * * # # # # # # * # # # # # # # # # # # # # # # # - - # # * # # # # # * * * # # * * * # # # # # * * * * * * * * # # o o o o o o o o % o o o o o o . . . . o # # # o # # # # # # # o o o o o o o o o o o o o o o . % l I ! @.! F 6 g l D D L @.! ! D 5 5 l J J 8 * +   > 8 > # , ^ H.$.F } %.@.} D l l j o . $ u N a % . . , u p p p I } u F $.",
"u l ..z j g g g = . . u N y : . . o l z F #.%.&.%.#.D $.U.#.l 7 # o * # + 5 S l l S l L ^ ! ^ #.#.^ ! z , l } F z z z j , % . # % * * * > > > > > > > > > > > 5 > > > > > > > > > > > > > > , > > > > > > > 5 5 5 5 5 5 5 7 7 5 5 5 6 6 7 5 5 5 5 5 5 5 5 5 5 5 5 5 5 5 5 5 5 5 7 5 5 7 5 5 5 5 5 7 7 5 5 5 5 5 5 5 5 5 5 5 7 7 7 5 5 5 5 5 5 7 5 5 5 7 7 7 7 7 7 5 5 7 7 7 7 7 7 5 5 7 7 7 7 5 5 7 7 7 7 7 7 7 5 5 5 5 5 * > 7 z A D L @.} 8 8 J } } ..#.#.@.! &.8 . * 6 S %.e...> * 8 J @.%.@.v z.k   yXyXyXyXyXyXyXyXyXyXyXyXyXyXyXyXyXyXyXyXyXyXyXyXyXyXyXyXyXyXyXyXyXyXyXyXyXyXyXyXyXyXyXyXyXyXyXyXyXyXyXyXyXyXyXyXyXyXyXyXyXyXyXyXyXyXyXyXyXyXyXyXyXyXyXyXyXyXyXyXyXyXyXyXyXyXyXyXyXyXyXyXyXyXyXyXyXyXyXyXyXyXyXyXyXyXyXyXyXyXyXyXyXyXyX, z a ! @.} l 7 * , &.U.%.S 8 * % D ;.%.;.q.q.q.%...S 7 l #.&.#...+.S 5 # - > 5 5 7 q 7 q 7 7 7 7 7 8 8 8 5 5 5 5 5 5 5 5 5 5 5 5 5 5 7 5 5 5 5 5 5 5 5 > > > > > > > 5 5 5 > > 5 5 5 5 > > > > > > > > > > > > > > > > > > > > > > > > > > > > > > > > > > > > > > > > > > = = > = = = = = * > > > > > > > > 5 > > > > > > > > > > > > > > > > > > > > > > ; > = * * = 6 z F ! ! U 6 6 j l z D I ! F l 5 5 S { P 8 * .   > 8 > # , ^ H.*.D P #.@.F z g j g o . % e t : % . . , u p g p F } u I $.",
"u l @.z h p p g * . . : N N i % . o l z z ! *.;.$.#.A *.H.@.l 7 * o * o + 5 S S S S l I ! F ^ $.#.! ! A , l ..I F F F z j ; % * % % * % * * * # * * * * * * * * * * * * * > > > * > > > > > > = * * * * * * > > ; > ; > > > > > > > > > > > > > > * > > > > * * * > > > > > > > > > > > > > > > > > > > > > > > > > > > > > > > > > > > > > > > > > > > 5 5 5 > > > > > > > > * * * > > > > > > > > > > > > 5 5 5 5 , 5 , , 8 8 z z A F I I 8 8 [ } ....%.#.@.! &.j o * 6 D #.U...> * 6 J ! #.^ v z.a   yXyXyXyXyXyXyXyXyXyXyXyXyXyXyXyXyXyXyXyXyXyXyXyXyXyXyXyXyXyXyXyXyXyXyXyXyXyXyXyXyXyXyXyXyXyXyXyXyXyXyXyXyXyXyXyXyXyXyXyXyXyXyXyXyXyXyXyXyXyXyXyXyXyXyXyXyXyXyXyXyXyXyXyXyXyXyXyXyXyXyXyXyXyXyXyXyXyXyXyXyXyXyXyXyXyXyXyXyXyXyXyXyXyXyX, k a ! #...S 8 * , :.U.%.S l > % F ;.%.;.,.,.0.,.%.{ 8 l %.%.......S 6 > > > 5 5 > > 5 5 5 > > > > > > > > * * * * > * * * * * > > > > * * > > > * * * * * * * * * * * * * * * > > > > > * * * * * * # * * * * * * # # * * # # * % % * # * * # # # * * * % * * * * * * * * % o * * % % % % o o o o o o # # # o o o # # o o * * * * * * * % * * * * * = > = > > = = = , < l F ! ! F 6 6 j l D F L F F l 5 5 { } I 8 * O   > 8 5 # , ^ H.#.l T ! F z k g g u o . % e e : ; . + , u g h u D } g ! $.",
"g l } l h p g g = . . & W l.R % . # z k g ! ^ $.$.#.z ^ G.#.l 0 * o % o . 5 [  ...{ l @.#.! ^ #.^ ! ! A < l @.@.! ^ #.F j , % % % % % % % % % % % % * * % o o o o % % # % * * * % * % o % * * * o o o * o % * % % % % % * * % * * * * * * * * * * o % % * * * * * o o * * * * * * * * % % % % * * * * * * % % % % * * * * * # # # * * * * * * * * * * # * = * * * * * * * * * * * * * * * * * * * * * = * * * * * * * * * , S l A ! ! F F D 8 l [  .+.%.,.%.#.@.&.j . * 8 J %.T.%.5 * 8 L ! #.#.E A.a   yXyXyXyXyXyXyXyXyXyXyXyXyXyXyXyXyXyXyXyXyXyXyXyXyXyXyXyXyXyXyXyXyXyXyXyXyXyXyXyXyXyXyXyXyXyXyXyXyXyXyXyXyXyXyXyXyXyXyXyXyXyXyXyXyXyXyXyXyXyXyXyXyXyXyXyXyXyXyXyXyXyXyXyXyXyXyXyXyXyXyXyXyXyXyXyXyXyXyXyXyXyXyXyXyXyXyXyXyXyXyXyXyXyXyX= k k @.&.%.{ w > > :.U.%.S l > % I <.:.;.;.,.,.,.%.{ 8 { ,.&.%.%...J l 8 ; * * * * * * * % o o o o o % o o o o * % % * * * * % * * * % % * * * % # * * # o % o o % % o % % % * * * * * = * * % % % % * o o o o o o o o % * o o * % % o o % % o # # * % o o o o o o o o % o o o % o o o o o . o o o o o o o % % % % o % o o o % % % o % o % % * % % o o % % % % % % = j j I #.*.#.U < 5 l L ! I L F F D 5 5 { @.L j * O   > 7 > o , ^ H.^ l S I L F k g g u o   % e y m < . . , p k g u S } g ! $.",
"u j } l g g g j % + o : V j.m % + = l g k L @.#.$.I A #.Z.#.l 7 * o o . . 7 [  ...J l #.#.^ ^ @.! ! ^ F < l ..! ^ #.@.D S 8 % % o % % = , , , , , , , , , , , , % , , , , , , , < , , , = , , = % , , ; = % % ; , , , , , , , , , , , ; , , , ; , , , , , , , , , ; = ; , , 5 , , , , , , < 6 < < , , , , = = , , , , , , , , , , , , > , 5 5 , , , , , , , , , , , , , 5 , , , , , , , > > > > > * > > > > ; = * > * = = j } j j D F J } I j l {  .+.0.,.,.#.@.&.8 . * 5 S ,.T.%.5 # 5 D @.$.#.~ z.x   yXyXyXyXyXyXyXyXyXyXyXyXyXyXyXyXyXyXyXyXyXyXyXyXyXyXyXyXyXyXyXyXyXyXyXyXyXyXyXyXyXyXyXyXyXyXyXyXyXyXyXyXyXyXyXyXyXyXyXyXyXyXyXyXyXyXyXyXyXyXyXyXyXyXyXyXyXyXyXyXyXyXyXyXyXyXyXyXyXyXyXyXyXyXyXyXyXyXyXyXyXyXyXyXyXyXyXyXyXyXyXyXyXyXyX= x a } %.&.o.l > * &.R.%.{ 8 5 * } 2.:.<.%.%.,.0.,. .j { ,.<.%...#.S j D , % = ; ; , , > > 5 , , , > > , , , , = ; = > > > = , , > = , , , , < < , , > , = = = = % % = % % = = , , , , , , , , = , , * , , * * = % % = = = % = = = = = = = = % = , > = = = = , , ; , , = = = = % % = % % % = = % % ; , = = > ; = = = % % = = = = = = ; = ; ; , , , = % * = = = = = p I , D %.#.#.! 6 8 D J @.%.@.F F z 6 6 J } L 8 * +   * 5 * o , #.H.^ l { ..@.@.z g u < %   % e N N i . o , j j j j D } j F ;.",
"u j P l z z z l ; . . e V V i $ o * j k F #.%.#.@.J z #.H.#.l 0 * o % . O 5 [  ...J l ^ ^ ^ #.@.! ! ! U < l I F F ! I l S l , ; & , , , , u u j p g g g g g g g p u u u u < g j j j j j g j j j g g j j j j j g j j l l l l j j j j j j l l j l l j j l l l l l l l j l l z S l l l l S S S l S S l l l j j g g g g g l l l l l l j j j l S S l l j l l l j l l l l l l l l j j j j j j j w w j j j j j j j j 8 8 8 6 6 6 S @.l l ! %...%.#.j S ..+.=.0.0.,...} &.8 + o 8 J &.T.%.5 > 8 I %.:.%.~ z.s   yXyXyXyXyXyXyXyXyXyXyXyXyXyXyXyXyXyXyXyXyXyXyXyXyXyXyXyXyXyXyXyXyXyXyXyXyXyXyXyXyXyXyXyXyXyXyXyXyXyXyXyXyXyXyXyXyXyXyXyXyXyXyXyXyXyXyXyXyXyXyXyXyXyXyXyXyXyXyXyXyXyXyXyXyXyXyXyXyXyXyXyXyXyXyXyXyXyXyXyXyXyXyXyXyXyXyXyXyXyXyXyXyXyXyX, R k } ,.&. .w > , &.R.%.[ w 5 * } 2.:.%.,.,.0.0.0. .j J %.%.....#.S j I l , g j l l l j l l l l j j j j j j j j j < 6 j j j j j j j j j l l l l j l l j j j j l j j p j j j u u g u g j j j j g g 8 6 6 6 8 8 j j g g j j j g j j g g 6 < 6 g u u 6 u u u u j j j j g g j j g u u u , , < g j g u g g g 6 6 j j g g u u u u u g < , < , < j g g g u < , , , , , < D I , l I I ! ! 6 8 D D @.$.%.F z S 8 8 S } L 8 * O   * 5 = # , #.H.^ l { ....#.L z j u o + % e B Q u . o , j l z D I } g F $.",
"g j P l z F z g , . . i V N e % o = j k ! &.&.@.} D A #.F.#.l q > o * . . 5 [ ....J j ^ ^ #.#.@.! ! ! U < l @.! U U F j l { j , u p p i k k z A R k a k z ! ! ! x k k k z z F z z z F z z F ! A z z F F ! ! F z D @.#.#.@.! ! ! ! @.@.@.@.I I @.@.I ! #.#.@.@.@.#.#.I I @.@.%.%.#.#.#.@.} ..%.%.%.+. .{ I I F ^ ! ! ! @.#.#.....@.@...} ..%.%.#...} } } } I I ! ^ @.@.%.&.%.#.@.@.@.@.} @.....| | ....I I I I I U D z j j I @.g l %.1.,.,.%.l S +.+.0.0.0.,.} I #.8 + % 8 z @.F.} > > 8 } %.:.#.R g.a O yXyXyXyXyXyXyXyXyXyXyXyXyXyXyXyXyXyXyXyXyXyXyXyXyXyXyXyXyXyXyXyXyXyXyXyXyXyXyXyXyXyXyXyXyXyXyXyXyXyXyXyXyXyXyXyXyXyXyXyXyXyXyXyXyXyXyXyXyXyXyXyXyXyXyXyXyXyXyXyXyXyXyXyXyXyXyXyXyXyXyXyXyXyXyXyXyXyXyXyXyXyXyXyXyXyXyXyXyXyXyXyXyXyXyX6 ~ R #.,.,.[ 7 * 5 ;.R.%.[ l 5 * ..q.;.%.0.w.w.r.0.o.l J #.#.@.@.#.S 8 ! ! k z F ! ! ! I } #.#.@.} ..} I L D D D z z z F L F F z F F z A ! @.%.@.P P ....I I I ! ! F F F ! ! z A F z l D @.@.@.! F L L I P S J P I F D L ! I D z J F F z z D F A z z z k k k F ! @.L l z F ! z z k k k k k z z z z z z z z z F ! z k k k k k k z z k k a z z z z k k k p p p p u g I D , j F F I I 6 8 S D @.#.@.F z l 8 5 j S l 8 # +   # 5 * # , #.H.#.l { ..%.#.L z g u . + % t B B , . o , j J I L I ..g F $.",
"j j } l z z g j , . o i N N e % o * g j ! %.%.@...P Z @.F.%.l q * * * . O 7 [ { P l j ^ ^ ^ #.@.! ! ! F , l %.%.#.^ F < 6 } z u i i i a k x R ~ R k i k R ~ ~ ~ x x k ! ^ ^ ~ F F ! ! z R ^ ~ R x k z ! ^ ^ ! z D @.&.:.$.#.! ! ! #.$.%.#.I I #.$.#.*.*.*.#.@.#.%.$.@.! @.@.%.;.<.<.%.@.@.%.<.q.q.,.....#.#.^ ^ ^ ~ ! @.%.%.%.%.;.:.:.;.;.<.<.:.:.&.%.#.#.#.#.#.#.#.$.<.2.:.:.:.:.%.#.%.:.;.%.....%.#.^ ! ^ #.^ ! F z z l I I j l ..0.0.,...l S  .+.,.0.,.,...I #.8 + % 6 j F <.I > > 8 I #.;.@.k s.a O yXyXyXyXyXyXyXyXyXyXyXyXyXyXyXyXyXyXyXyXyXyXyXyXyXyXyXyXyXyXyXyXyXyXyXyXyXyXyXyXyXyXyXyXyXyXyXyXyXyXyXyXyXyXyXyXyXyXyXyXyXyXyXyXyXyXyXyXyXyXyXyXyXyXyXyXyXyXyXyXyXyXyXyXyXyXyXyXyXyXyXyXyXyXyXyXyXyXyXyXyXyXyXyXyXyXyXyXyXyXyXyXyXyXyXj g.~ %.0.%.[ 7 * > <.#X,.[ S 5 o { <.,.,.w.w.w.0.0.o.l J #.#.@.} } l 6 I #.F z ! @.^ #.#.%.:.<.:.;.&.%.#.#.#.^ ! ! ! ! ! ^ ^ ^ ~ ! ! ! ! ! $.2.:.....&.&.@.@.#.^ ^ ~ ! ! ^ ~ ~ ~ ! ! F L $.$.#.^ ! @.#.:.%.I P ..@.! ! #.#.! F F L ! ! F z F ! ! ! ! x k k R ^ #.&.@.D F ! ~ R x x a a k z z x k k z z z z ! ^ ! k x x R x a a z F z k a k x k k k k a a i p p h z @.j , l L F I F , 6 D P I ! F F I J 6 , 8 l j 8 # +   # 5 * # , #.H.#.D { ,.%.} z j g g o . % a B f % . o , g z J D I @.g ! $.",
"g j { l j g u j , . o : y y : o + * j g I ....#.#.{ Z ^ F.$.S q * % * . O 5 S S l l l ^ ^ ^ ^ @.@.! I D , g %.$.%.! A , ; l D k p i i i a x x R k k a a k R ~ R x a k x ~ ^ R A F F z k k ! R k a a k R ^ ~ ~ A z I %.%.$.#.! ! ~ ^ #.$.#.I F ^ *.^ ~ ^ ! ! @.#.%.#.! ! ! U @.;.:.&.%.@.@.#.:.<.,.%.} ..#.@.! R R R R ! %.%.&.#.@.%.%.%.%.&.&.%.%.$.#.! #.$.:.*.! ! $.<.:.$.$.;.$.#.^ $.;.;.@.Y @.%.^ ! ! ! ^ ! ! F z z l I D g l { %.,.%.{ j S { ..%.%.%.,.%.! #.8 . % 5 g F <.I > > 7 J @.;.#.x s.a   yXyXyXyXyXyXyXyXyXyXyXyXyXyXyXyXyXyXyXyXyXyXyXyXyXyXyXyXyXyXyXyXyXyXyXyXyXyXyXyXyXyXyXyXyXyXyXyXyXyXyXyXyXyXyXyXyXyXyXyXyXyXyXyXyXyXyXyXyXyXyXyXyXyXyXyXyXyXyXyXyXyXyXyXyXyXyXyXyXyXyXyXyXyXyXyXyXyXyXyXyXyXyXyXyXyXyXyXyXyXyXyXyXyX  g g.~ +.,.+.n 7 * > <.&X<. .S 5 # { <.,.0.w.w.w.0.0. .l J $.#.@.I J l , D #.! ! ! ! ! ^ #.#.%.&.%.%.@.@.^ ^ ^ ! ! ^ ~ ! ! ! ^ ~ ~ R z R ! ! #.:.;.@.@.%.%.#.#.! ! ! ! ~ ^ ^ ~ ! ! ! F ! ! ^ ! ! ! ! ! #.:.%.I J } @.^ ! ^ ! F F ! ! ^ ~ z k z A ! R R x a x ! ^ ^ %.@.L F ! R R a a i a a k z x a a x R z A ! ! z k a k k a a a z F z k i i i i a k k a i u u u h D I 6 , l L F F z , 5 S D A A F ! @.I 6 , S S j 8 % .   # 5 * # , #.Y.$.D { ....I z z g < o   % a B t $   . , < j j k I #.g @.<.",
"g j P j g g u j , + o & y N , o + % p g J ..%.%.#.{ l ! H.$.S 7 * o * . + 5 S D z l l @.^ ! } #.%...I D , j #.#.! A k , * 8 z z p i i i a k k a a k k k k k R R k k k k x z A ! ! F z z z z k a a a k R ~ ~ ~ ! F F ! ^ ! ! ~ ~ ~ ~ ^ ^ ! U F ! ^ ~ ~ R A ! ! #.#.^ ! A F A ! #.#.#.#.^ ^ #.#.%.%.@.@.@.#.^ ! R R R R ^ %.$.<.#.@.#.%.#.#.#.#.#.#.#.^ ! ^ :.Z.~ R ! #.$.$.%.#.$.$.^ ^ $.%.#.^ ^ @.@.! ! ! ! ! ! F A z z D Y l 6 j T } } ..P 8 l { { ..%.%.,.%.@.%.8 . * 5 g L <.J > > 8 J #.<.%.R g.i   yXyXyXyXyXyXyXyXyXyXyXyXyXyXyXyXyXyXyXyXyXyXyXyXyXyXyXyXyXyXyXyXyXyXyXyXyXyXyXyXyXyXyXyXyXyXyXyXyXyXyXyXyXyXyXyXyXyXyXyXyXyXyXyXyXyXyXyXyXyXyXyXyXyXyXyXyXyXyXyXyXyXyXyXyXyXyXyXyXyXyXyXyXyXyXyXyXyXyXyXyXyXyXyXyXyXyXyXyXyXyXyXyXyX  g g.! ..,.,. .w * > <.%X<...S 5 o { <.1.q.t.w.,.+.+.{ j z $.$.#.I L D 6 l @.! F z F I ^ @.@.#.@.#.#.^ ! ^ ^ ^ ^ ! ~ ~ ! F F ! ~ ! A z R R A ! ^ @.@.@.@.@.^ ! A z k x R ^ ~ ! R z z z ! ! ! x x R R ! ^ #.^ L L I ^ ! ! ! ! A A ! ! ! ! z z z A ! R k k x R ! ! ! ! I D D F R x a i i a k z z k i p z A z A A z k k k a a a k k z z z k a p i p i k k k p u , u g D D > ; l J D D D , 5 D D l z ! @.%.} 6 5 S D l 8 % .   # 5 # # , *.Y.$.D { Y I ! F z g < o   o u y t % . . ; , 6 g g F #.g *.<.",
"g j P j j j p g = o + : Q / p o + % u g P %.%.&.&.@.l ! Z.%.l 7 # % * . O 5 P @.@.z l @.@.Y ..%.,...P S , l ^ ! A z z j > , D I k u p a z z z k x x z z A A A k k R x k k k z R ! F z k k k k k a k k A ! ! ! ! ! F F F F ! ! R R R R R F F A A R R R A k A ! ! ! ! A k z z ! ! ^ #.! ~ ! ! ! ! ! ! ! @.^ ! A R R R R ~ #.#.$.^ ^ #.#.@.! ! ! ! ! R R R ^ ^ ~ ~ ~ ~ ! #.#.#.^ ^ ^ ! ! ! ! ! ^ ^ ! ! F ! ! ! A A A F z ! I ..j 6 w P I J I I j l } } } #.;.<.%.@.%.8 . * 6 j L :.S > 5 l #.:.2.%.R s.i   yXyXyXyXyXyXyXyXyXyXyXyXyXyXyXyXyXyXyXyXyXyXyXyXyXyXyXyXyXyXyXyXyXyXyXyXyXyXyXyXyXyXyXyXyXyXyXyXyXyXyXyXyXyXyXyXyXyXyXyXyXyXyXyXyXyXyXyXyXyXyXyXyXyXyXyXyXyXyXyXyXyXyXyXyXyXyXyXyXyXyXyXyXyXyXyXyXyXyXyXyXyXyXyXyXyXyXyXyXyXyXyXyXyX  j / !  .0.0.+.w > , <.$X:...S 5 o } <.<.e.u.0.,.....J j k @.#.#.#.@...j l } ! ! j z P U I I I I ! ! ! ! R ! ! ! A R ! ! F F ! ! ! ! A x R R A F U ! I I ! ! F F z k k x F F F F z z z R R ! z k z z z A F ! L I I U ! ! ! ! A A ! ! ! A A z z A A k k z x x F F L F F D z z z z k a p p g j j k g p k A A A D z z z k k k k z z z F F A k p u u p k k h p u u u z I j * ; l D D L D , 8 J L l z ^ #.@.{ j 5 l D D 8 * .   # 5 o o , $.Y.*.z { I ^ #.! z g j o . # & e m < . + = , g h g F #.g $.F.",
"j 6 @.z j j j j % . . e Q ) p o . * j j J %.,.&.#.@.S U :.#.j 5 * * * + + , I $.&.L g ! ^ %...%.%...| T 5 l ^ R A F U D 6 5 l j 5 , , , < 6 6 6 g g j j 6 6 j 6 g 6 6 , , , 5 5 5 5 5 , , 5 5 5 6 8 8 j j j 8 8 8 6 6 6 6 6 6 6 6 , , > , , , , , , , , , , , , , , , , , , 5 5 5 5 5 5 5 5 5 8 6 5 5 6 5 5 8 8 8 8 8 8 8 8 8 8 8 6 5 5 , 8 8 5 5 6 6 6 8 8 8 8 8 8 8 8 j j j j j j 8 6 5 6 6 6 6 6 6 6 6 5 , , 5 8 8 l S l , 5 S S P I #.#.j j { #.I ! @.#.#.^ #.j . * j g ! :.J * > w %.q.q.%.x Q i   yXyXyXyXyXyXyXyXyXyXyXyXyXyXyXyXyXyXyXyXyXyXyXyXyXyXyXyXyXyXyXyXyXyXyXyXyXyXyXyXyXyXyXyXyXyXyXyXyXyXyXyXyXyXyXyXyXyXyXyXyXyXyXyXyXyXyXyXyXyXyXyXyXyXyXyXyXyXyXyXyXyXyXyXyXyXyXyXyXyXyXyXyXyXyXyXyXyXyXyXyXyXyXyXyXyXyXyXyXyXyXyXyXyX  j / R ..q.q.+.w * > <.Y.&.} l 7 o } <.:.<.0.,.0.+...P j g ! #.#.%.%...S l S l 8 5 > 5 5 5 5 5 > > > > > > > > , , , , , , 5 5 8 8 8 5 5 5 5 6 6 5 5 5 , , 5 5 , > > > > > > > > > > > , 5 > > > , , , , 5 5 5 6 5 5 5 5 6 6 5 5 5 , , > > > > > ; , , , 5 5 5 5 5 , 5 , , , , , , , , , , , , , , 5 5 5 5 5 8 7 8 6 5 5 5 5 6 5 5 5 5 6 6 , , 5 5 * * * > 5 5 5 7 5 5 > > j J I I I 5 8 I I A l F ! @.P 6 6 S I D 8 * .   # > * % , *.J.*.z J @.! ! ! z z j o   . & a W i . . ; < g j p F #.g *.<.",
"l 6 @.z j j j j ; . + u Q W , o O o j j z } &.#.#.@.l F $.#.l 7 * o * . + 5 I &.&.L l ! ^ %.+.,.%...| { 6 S ^ R ! ! ! D < % # o . . . . . . . . . o o o . . . . . . . . . . . . . . . . . . . . . . . . . . . . . . . . . . . . . . . . . . . . . . . . . . + . . . . . . . . . o o o o o o o o o o + + + + . o o o o o o o o o o o + + . + + + . . . . o o o . o o o o o o o o o o o o o . . . . o o o o o + + . . . o o o o 5 } } @.#.*.#.j l ..%...I } @.#.#.%.l + * j j ! :.P > > w +.<.q.&.x Q i   yXyXyXyXyXyXyXyXyXyXyXyXyXyXyXyXyXyXyXyXyXyXyXyXyXyXyXyXyXyXyXyXyXyXyXyXyXyXyXyXyXyXyXyXyXyXyXyXyXyXyXyXyXyXyXyXyXyXyXyXyXyXyXyXyXyXyXyXyXyXyXyXyXyXyXyXyXyXyXyXyXyXyXyXyXyXyXyXyXyXyXyXyXyXyXyXyXyXyXyXyXyXyXyXyXyXyXyXyXyXyXyXyXyX  g g.~ %.0.,. .w # > :.R.&.{ l 5 o { 2.:.1.0.0.0.=.+...l l ! #.%.&.&...l * * * o % + o o o o o + + . . . . . . . . . . . . . . . . + . . . o o o o + + + . . . o o . . + . . . + . . . . o . . . . . . . . o o o o o . o o o o o . . . . . . . . . . . . . + + + + . . . . . . . . . . . . . . . . . . . . . . . o . . . . . o o + o . . . . o o o . . . . o . + o . . ; , l L I I I 5 8 I ..I D J I } P 8 8 S P D 8 * .   # > * o , *.G.~ z J @.I ! F z z j * . . ; a R u . . ; u g j p A @.u ^ $.",
"l g @.z j j g g > + + < a i & o . . j z z J I ! #.@.l I <.%.l 5 # o o + + 5 J @.#.J l ^ @.%.+.,.,.+... .7 l ! R ! ! A g , . . . . o o o o o o o * * * % % # o o % % % o o % # # # o o o o o o o o * % # # * * * * # # # * * * * * * * * * * * * * * * * * * * * # * > > > > > > > > 5 5 > > > > > > 5 5 > > * > > > * * * * > > > > > * * * * * * * * * * * * > > > > > > > > > > > > > > > > > > > > > > > * # # * * o o o o 8 @.@.%.#.$.^ j l  .........%.;.:.%.l + * g j ^ :.{ > > w  .<.q.&.k Q i   yXyXyXyXyXyXyXyXyXyXyXyXyXyXyXyXyXyXyXyXyXyXyXyXyXyXyXyXyXyXyXyXyXyXyXyXyXyXyXyXyXyXyXyXyXyXyXyXyXyXyXyXyXyXyXyXyXyXyXyXyXyXyXyXyXyXyXyXyXyXyXyXyXyXyXyXyXyXyXyXyXyXyXyXyXyXyXyXyXyXyXyXyXyXyXyXyXyXyXyXyXyXyXyXyXyXyXyXyXyXyXyXyXyX. g / ~ ..,.%.[ w * > :.R.%.{ l 5 . { 2.<.0.w.w.w.5.=...l l @.#.#.#.#.P j * # * > > > 5 > > > > > > > > > * # # # # * * * * * * % # # # * * * * * * * * * * * * * * * * # # # * * * * * * * > > * * * * > > > > > > > * > > > > > > * * * * * * * * % * * * * * * * # # o o o o o o o o o o o o o $ % # o o o o # # % % % % % * * * # * % % % % = * * * o % * o o o . . = 6 D I I I P 5 8 J ......{ } ..P 8 5 j l j 8 * .   # > * o , *.G.^ z J ..} } L J S j # . . ; p p ; . . , j g g p A ! , ! $.",
"l 6 } l j j j j , + + , e e < % . . l D z z ! ! ! } D @.F.#.l 5 o o # + + 8 { { { l D #.%.%.+.0.0.,...| 7 l ! z z z k , , * o # * * * = = * * * ; > > > > > # > > > * = * * > > * * # # * # # * * * * * > ; > > > > > * > > > > * * * > > > > > > > > > > > > > * > > > > > > > > > > > > > > > > > 5 5 > > > > 5 > > > > > 5 5 5 5 5 > > > 5 > > > > > > > > > > > > > > > > > > > > > > > > > > > > > > > > > > > > > 5 5 > 8 L ! @.^ *.^ j l { ..+.+.%.;.<.<.%.j . * g l #.<.{ > 5 w  .0.q.%.z Q i   yXyXyXyXyXyXyXyXyXyXyXyXyXyXyXyXyXyXyXyXyXyXyXyXyXyXyXyXyXyXyXyXyXyXyXyXyXyXyXyXyXyXyXyXyXyXyXyXyXyXyXyXyXyXyXyXyXyXyXyXyXyXyXyXyXyXyXyXyXyXyXyXyXyXyXyXyXyXyXyXyXyXyXyXyXyXyXyXyXyXyXyXyXyXyXyXyXyXyXyXyXyXyXyXyXyXyXyXyXyXyXyXyXyX  u / ! ..,.%.[ w * > :.U.%.P j > + { q.q.w.u.u.u.5.5.+.l l @.@.} I I l < 5 > > > > 5 5 > > > 5 > > > > > > > > > > > > 5 5 > > > > > > > > > > > > * * > * * * > > > > * * * * * > > > > * * * * * * * - > > > > > > > > > > > > > > > > > > > > > * > * > = * * * * * * * * * % * * * * * * * * = = = > * > > > > > = = = > > > > > > > ; ; > , > > > > > > * = * % * , 8 D I I I D 5 8 S { ..+.+.+...S 8 5 8 l l 8 * .   o * * o , *.G.^ D P #...#.} { l 8 o   . , p : % . . ; j g g g A I , ! $.",
"j < L l j j j g , . o p N N A % . o l F F ! *.@.#.@.D #.U.%.8 5 o o * . + 8 | ..} S S @.#.,.,.0.0.%...| 7 l ! z k k A p < < % % * * * % % = = = % ; = = * * % * * = * * % % % * % o o o o o o o o o o o o o % % % % o o % % % % % % % o % % % % % % o % o o o o o o o % * * * % # # * * * * * * * * * % * * # * * * # o % # * * * * * * * % * * * * * * * * * * * * * # # * % % o # * * * * * * * * * * * * * * * * > ; > , 8 j z F ! ! *.@.j l  .+.=.=.+.%.,.&.%.8 . * j z #.<.P > 5 S +.0.0.%.z E i yXyXyXyXyXyXyXyXyXyXyXyXyXyXyXyXyXyXyXyXyXyXyXyXyXyXyXyXyXyXyXyXyXyXyXyXyXyXyXyXyXyXyXyXyXyXyXyXyXyXyXyXyXyXyXyXyXyXyXyXyXyXyXyXyXyXyXyXyXyXyXyXyXyXyXyXyXyXyXyXyXyXyXyXyXyXyXyXyXyXyXyXyXyXyXyXyXyXyXyXyXyXyXyXyXyXyXyXyXyXyXyXyXyXyX  u / R ..,.,.X.l > > %.U.%.P l > + [ q.q.t.u.u.y.8.5.+.l l @.@.P J L j j l , = = * * * * * # # # # % % % o o o o o # # # o o % * * * % % # o o o # # o o o o o % % o o o o o o o o o o o o # # % o o o # o # % % % * % % # % # # # # % % % % % # o o * * % % % * * o o o o o o o o o o o o o o % % % % % % % * = = * = = = = * * * * % * % * * * * * * * * * * * * * , j j D I I I D 6 j S S [ ..,.%...l 5 5 l } P 8 % .   o * * # , #.G.~ D P %.%.%.%...S w o   o j A A , + . ; j g j g D @., ! ;.",
"j < P l j j j j ; + o A j.j.R % . o l F F #.$.*.^ I z #.H.#.8 > o o * . + 7 | +.+.S j ! @.,.,.0.,.%.....7 l ! ! A A I j g D , % = % & & & : , , : , , : , , = , , , , , : , = % = * = = % % = % % % % % % % % % % % % % % = = = % % % % % % % % % % % % % = = = = % % = = = % % * * = = = = = = = = ; ; % = = ; = * = = = = = = , ; , ; ; = = = = = * * * * * = ; ; ; ; ; = = * = % = = ; > > > ; = = ; ; ; ; > > ; ; = = , S S j F I ! $.@.j l  .+.=.0.,.%.&.#.#.l + * 6 l @.<.P > 5 [ +.0.w.%.z E i yXyXyXyXyXyXyXyXyXyXyXyXyXyXyXyXyXyXyXyXyXyXyXyXyXyXyXyXyXyXyXyXyXyXyXyXyXyXyXyXyXyXyXyXyXyXyXyXyXyXyXyXyXyXyXyXyXyXyXyXyXyXyXyXyXyXyXyXyXyXyXyXyXyXyXyXyXyXyXyXyXyXyXyXyXyXyXyXyXyXyXyXyXyXyXyXyXyXyXyXyXyXyXyXyXyXyXyXyXyXyXyXyXyXyX  u / R ..,.,.X.l > > %.U.%.{ l > O J q.q.w.w.w.u.r.5.+.l l @.#.I P I l g I < & & , < , , , , , , , , , , , , ; ; ; * > > > > ; ; ; = = ; ; ; ; ; ; ; ; ; ; % = , , ; ; = = = > > , > > > > ; > , ; ; ; ; ; ; ; ; ; ; ; ; ; = % % % % % % % ; = = = = = = % % % = = % % % % % o o % % % % % % % % % % % % % = = = = = = = = = = = = = % % % % % % % = = = * * * = % ; j } j z } F I D 6 j S S T ..%.%.} l 5 6 l I J 5 o .   o * * o , ^ G.~ D J %...%.+...[ j # . % A W / k + . ; < g j g D @., ! &.",
"l 6 I l j j l l * . o a i.s.R % . # l F F #.*.^ ! F z #.J.#.j > o o * + . 8 {  . .l j @.#.%.+.,.,.%... .5 j ^ ^ ! ! #.g p #.g & & : , u i p g g a k k p p g g g g u u u p g u p u 6 < < < u g u u u u u u p p g j j j g g g g g h g u j p p j j j j p p p j j j j g g g g j p p j j j j j j j j j g g p g j j j j j j l l l l l z z z l l l l l l l j j l l l j j j 8 8 j j j j j j j l l l l l j j g g l l l j j j < < , j %.I j I @.@.$.@.j l +.0.0.0.0.%.#.! @.l + # 5 g ! :.{ 5 5 S +.w.e.%.z E i yXyXyXyXyXyXyXyXyXyXyXyXyXyXyXyXyXyXyXyXyXyXyXyXyXyXyXyXyXyXyXyXyXyXyXyXyXyXyXyXyXyXyXyXyXyXyXyXyXyXyXyXyXyXyXyXyXyXyXyXyXyXyXyXyXyXyXyXyXyXyXyXyXyXyXyXyXyXyXyXyXyXyXyXyXyXyXyXyXyXyXyXyXyXyXyXyXyXyXyXyXyXyXyXyXyXyXyXyXyXyXyXyXyXyX  p g.~ ..,.%.X.w > > %.U.%.} l > . S <.;.,.0.0.u.w.0.+.l l @.%...I I g j #.A p p g D A D D D D D D l k z A A A D D S S P P S l j l j j j j j j j S S S l l l l l l l l l j l l l l l l l l j j l l j g g j l j l l j j j j j j j 8 8 p p j j j j j j j j j j j j j j j 8 6 < , , 6 < < < < < 6 u u u u u j j j j g g g g p j l j j j < < , < u p p j u < 5 5 < < , < D %.8 l I D I L 6 j S T { ..%...} l < < l D l 5 o     # > * o , ^ Z.^ z S ..| .... .S l o . % a N Q a . . ; p j j j D @., I &.",
"l 6 I l j l l j = . . i Q i.a o . # l D L #.#.^ ! L l ~ J.$.j > o o * + + 5 S S S l j @...+.+.+.+... .[ , j ! ! ~ ! ! g , ^ ~ i e i a a k k z z R x k k A ! R U z g g k z A A ! F z g k z z z z z z z F F F ! ! ! ! ! ! U F ! ! A F F I ! U A z A R A A F ! ! ....@.@.! ! ! ! ! I ^ #.#.^ Y #.;.$.^ ~ ~ ~ ! #.#.@.@.#.@.#.#.%.#.#.#.#.^ ^ #.#.^ @.@.#...%.#.#.#.@.I ! ^ ^ ! ! ! ^ ....#...+.....^ ^ ! ^ ^ ^ @.@.I I I D l ! <.U j D #.#.#.@.j S o.0.0.0.0.%...D @.l + o > j @.<.[ 5 5 S +.t.e.%.D R i yXyXyXyXyXyXyXyXyXyXyXyXyXyXyXyXyXyXyXyXyXyXyXyXyXyXyXyXyXyXyXyXyXyXyXyXyXyXyXyXyXyXyXyXyXyXyXyXyXyXyXyXyXyXyXyXyXyXyXyXyXyXyXyXyXyXyXyXyXyXyXyXyXyXyXyXyXyXyXyXyXyXyXyXyXyXyXyXyXyXyXyXyXyXyXyXyXyXyXyXyXyXyXyXyXyXyXyXyXyXyXyXyXyXyX  j g.R ..,.%.[ q > > @.U.%.J 8 * + S <.,.,.0.5.0.w.r.+.w l #.#.} } L g j ;.$.R A ! #.@.#.#.%.%.%.@.^ #.#.#.%.%.%.#.%.%.%.%.%.@.I ! ! ! R z D ....@.%.@.@.@.^ ! ^ ^ ^ @.#.#.@.#.@.#.....I ! ....^ ! ! U U @.%.%...I ! ^ ~ ~ U I ....} I ! @.@.@.Y ! I I I ! R R ! ! ! ! U A A A x R R R R ! ! I ! R R A A ! ! ! ! ! R R R R ~ #.#.^ U z k x R R R R R R R A R A p , j @...6 j F z F z 6 8 S { { } } I I l , 6 l l l 5 #     # > * # = ! $.! j S { { ..{ { S l # . , i a R u . . = g j g g z I , L $.",
"l 6 I l j l j j > + o p R N u o . # S D L #.#.@.! I g *.Y.$.8 * o o * + O 5 S S S l j I ..%.+.+.+...[ [ 5 j ! ! ! R F < & R $.R a k k x R R ~ ! E R a k ! ~ / ^ U F A R ! ^ F.F.$.F z R ~ ^ ^ ! A ! ! ^ $.<.;.#.^ $.:.$.$.$./ ~ ^ ^ $.2.<.%.@.#.$./ :.$.$.$.:.<.e.2.<.$.;.;.:.:.<.2.2.<.;.:.q.R.U.;./ / / $.:.:.;.:.<.2.H.U.H.<.:.<.F.Z.F.<.<.:.:.<.1.<.<.<.q.q.;.#./ F.F.:.:.<.<.<.<.<.q.q.q.<.;.:.H.H.F.:.$.$.%.%.#.%.#.<.F.F j j ! #.#.! j l  .+.5.0.0.0...I @.l . o , j #.2.{ 5 5 w o.w.e.%.D R i yXyXyXyXyXyXyXyXyXyXyXyXyXyXyXyXyXyXyXyXyXyXyXyXyXyXyXyXyXyXyXyXyXyXyXyXyXyXyXyXyXyXyXyXyXyXyXyXyXyXyXyXyXyXyXyXyXyXyXyXyXyXyXyXyXyXyXyXyXyXyXyXyXyXyXyXyXyXyXyXyXyXyXyXyXyXyXyXyXyXyXyXyXyXyXyXyXyXyXyXyXyXyXyXyXyXyXyXyXyXyXyXyXyXyX  u g.R #.0.+.[ w > > @.F.@.S 8 * + S <.,.0.0.0.0.0.0.+.l l #.#.I I F g g @.<./ / *.$.<.<.<.q.q.q.<.:.H.H.<.<.2.2.<.e.q.<.<.,.;.%.$.$./ / ~ #.;.<.<.<.<.q.2.;.;.;.<.<.2.U.T.2.;.<.q.q.<.:.;.<.<.<.:.$./ :.2.q.<.&.&.:.F.Z.Z.:.<.q.q.<.:.;.<.2.<.;.#.@.#.$.*.~ ~ ~ / ~ ~ ~ / / / Q g./ / ~ $.:.<.:./ ~ ~ ~ ~ ^ ^ ^ ^ ^ / R / / ;.;.#.^ ! ~ ~ / / / / ~ ~ ~ ~ ~ ^ A z ^ ;.| < g z k z z 6 8 S P P J D D I l , 6 l D S 5 o     # > * # = F $.! j l } } } { J S l # . , k a p %   . > j j g p z ! , I $.",
"j 6 } l j j g 6 5 + O # % & $ . O o D U I #.#.$.@.L g $.Y.$.8 * . o o . O 5 S S S l j I #.%.%.,.+. .[ T 8 j @.! ! z l 6 = k / / ~ ^ ! ~ *.Z.$./ g.E R R ~ ~ / ^ ^ $.~ ~ ~ / S.F.$.! A ~ ~ $.#.^ ^ ^ ^ $.<.H.<.#.#.:.>.>.:.:.:.~ ^ $.<.H.<.#.%.:.:.:.>.:.:.;.:.2.e.R.2.;.<.H.<.<.q.e.q.:.:.<.q.T.F.$.~ / $.$.$.2.2.2.2.U.U.U.<.;.%.<.H.H.>.:.<.2.2.2.q.q.q.q.e.q.<.;.;.H.G.:.:.F.F.2.2.U.T.#X#XU.F.G.J.Y.H.:.$.$.$.$.$.<.F.U.<.l g u z @.*.! g S  .+.5.0.0.0.%.@.#.j + # 6 z #.q.P > 5 S  .0.q.%.k B i yXyXyXyXyXyXyXyXyXyXyXyXyXyXyXyXyXyXyXyXyXyXyXyXyXyXyXyXyXyXyXyXyXyXyXyXyXyXyXyXyXyXyXyXyXyXyXyXyXyXyXyXyXyXyXyXyXyXyXyXyXyXyXyXyXyXyXyXyXyXyXyXyXyXyXyXyXyXyXyXyXyXyXyXyXyXyXyXyXyXyXyXyXyXyXyXyXyXyXyXyXyXyXyXyXyXyXyXyXyXyXyXyXyXyX  u s.E %.,...[ w > = I $.D l 8 > + J <.<.0.0.0.0.0.=.+.l j @.@.D L F g , J Z.G.Z.Z.F.F.2.q.e.#XOXU.<.H.H.<.<.H.2.q.U.e.q.q.q.q.H.G.Z.Z.Z.Z.:.<.q.q.e.e.u.u.e.<.q.T.T.T.OXR.q.;.q.u.u.e.q.<.2.2.F.:./ / :.H.2.:.;.:.F.F.F.Z.:.<.T.T.2.:.;.<.2.2.;.#.@.%.$.$./ E ~ / / ~ / F.F./ / g./ R R $.F.F.Z.~ / ~ ~ ~ *.$.$.$.$.$.~ ~ $.:.;.;.#.^ ^ ~ / Z.Z.$.$.*.$.$.$.*.^ #.$.$.S < g z k z l 6 8 T ....{ J D I l , 5 l D S 5 #     . > # o = ! $.! g S #.#.} J J J j #   o = % $ .   . * 6 j p u z @., } &.",
"j 6 } l 8 j j 8 , * # o . o . o # * S F I %.%.&.@.L g *.Y.#.6 * . o o . O 5 J { S l j L } ..%.,.,.+. .[ 8 l @.U z z S l 6 p R ~ ! I F ! ^ / / ~ / / ~ R ~ ! R ^ ^ / ^ ~ ~ / / / ! A F ! ^ ^ ^ ^ ^ ^ ! ^ $.;.#.^ #.$.:./ $.$./ ^ ! ^ $.#.^ ^ #.$.$.! ^ ^ #.#.#.%.<.:.%.#.<.<.;.#.;.;.%.%.#.%.;.;.$.^ ~ / / ~ ^ ;.<.;.$.$.#.^ #.^ #.<.<.:.$.#.$.;.;.;.:.;.%.;.;.;.%.@.#.~ ~ ~ ~ ^ #.#.%.:.2.q.U.2.:.:.Z.Z.$.~ ! ! ! ! ! #.<.<.! g g g z ^ $.! g S | +.0.0.0.0.,.@.%.l + * 8 z #.I.{ > 5 { ..%.,.#.A d.N yXyXyXyXyXyXyXyXyXyXyXyXyXyXyXyXyXyXyXyXyXyXyXyXyXyXyXyXyXyXyXyXyXyXyXyXyXyXyXyXyXyXyXyXyXyXyXyXyXyXyXyXyXyXyXyXyXyXyXyXyXyXyXyXyXyXyXyXyXyXyXyXyXyXyXyXyXyXyXyXyXyXyXyXyXyXyXyXyXyXyXyXyXyXyXyXyXyXyXyXyXyXyXyXyXyXyXyXyXyXyXyXyXyXyX  k z.Q %.,...[ w > * I <.L j 8 > + J :.:.0.0.0.0.0.,...8 j @.@.A F F p , j ^ $.$.$.$.^ Y #.;.<.<.$.^ ^ ^ ~ ^ #.#.#.$.%.%.%.;.;.;./ / / / / $.%.%.%.%.,.1.0.,.%.;.;.;.;.%.#.#.%.;.,.,.,.&.%.%.%.#.^ ~ ~ ~ #.#.@.^ #.$.$.~ / ^ #.$.$.#.^ ^ #.;.;.#...I P ! ~ R R R R R R R ^ ~ R N R R R R ! ^ #.~ ! ! ^ $.$.^ ^ ^ #.*.^ ~ ~ ! #.%.;.%.@.U F ~ ^ ^ ! F D D F F F F ! ^ F g u g k k F D 8 l { ........I I l 5 , 8 j j > +     . > # o ; #.G.*.z J #.%.#.J D l j > # o + + . + o * ; , < < u F @., } :.",
"j 6 } l 8 j j g j j 8 5 5 5 5 6 w 6 D F I %.,.&.@.I g *.Y.#.6 > . o o X O 5 J { [ l j L J { +.+.+.+. .[ w l #.F l l l l j p a k l l j z A U A A R R R A A A k z F A A A A A R A A k z A k z z z ! F z F F U ! ! ! ! ! F U ! ! R R ! ! ! F F I ! ! k A F F ! ! ! I ! ! ! ! ! ! I I I U U U ! U F F ! F A A A A ! ! ! ! ! ! F ! F ! ^ #.! ! ! ! ! ! ! ! ! L L L L L F F A z x z A F U I ! @.%.%.%.#.^ ~ ~ ! A z z l z A ! ! ! k g j z F ! $.@.l S | +.0.0.w.0.&.@.%.l . * 8 l @.q.} > 8 ....,.,...R M.s.yXyXyXyXyXyXyXyXyXyXyXyXyXyXyXyXyXyXyXyXyXyXyXyXyXyXyXyXyXyXyXyXyXyXyXyXyXyXyXyXyXyXyXyXyXyXyXyXyXyXyXyXyXyXyXyXyXyXyXyXyXyXyXyXyXyXyXyXyXyXyXyXyXyXyXyXyXyXyXyXyXyXyXyXyXyXyXyXyXyXyXyXyXyXyXyXyXyXyXyXyXyXyXyXyXyXyXyXyXyXyXyXyXyXyX  R P.s.@.,.%.[ l > ; #.Y.&.z j > + J :.&.<.0.0.0.0.,...8 j @.! F ! z g , 8 l A A z z g j l D } I F z k k k z F F F A A A A F F A A A x R R ! I F F I } ....P P P P D F F F F I I I I I I I L U U ! ! ! U A A D F I U A A F F F F F F z z F L J D D D D A z k k k k k z k k A k a k z A A A A z z A F F U U A A D F F F F A F P { ....P D A A F F A z l l p g k k z z j g u k z F ! J j l { | ......} I l 5 , 8 8 8 , o     . > # . ; #.H.*.D I #.%.#.J l j j < 8 q 5 5 > > 5 8 6 < < u j F #., } <.",
"j g } l 8 j j j l z J S l l j j { D F F #.,.,.&.@.I l $.Y.^ 6 5 o # # X O 5 S { S j j L J {  .+.+.+. .[ l l } J j j l l S z z l l l l z A A A D F z z z l l l z z z A A F A z z l l l l l l l z z z z z z D D D D D z z z z A F F F A A z z z F F z F z z z F D D D F F z z D J z l l l z z z z z l j j j j l z z g g g z z z z z z z z z z z z z z z z z z l l l z z z z z z z l l l z D J S J P D F D z z z z j z z z z k g j j L I @.$.@.D {  .+.,.0.0.0.%.@.%.l . * 6 l @.q...> 5 { ..%.0...E B.s.yXyXyXyXyXyXyXyXyXyXyXyXyXyXyXyXyXyXyXyXyXyXyXyXyXyXyXyXyXyXyXyXyXyXyXyXyXyXyXyXyXyXyXyXyXyXyXyXyXyXyXyXyXyXyXyXyXyXyXyXyXyXyXyXyXyXyXyXyXyXyXyXyXyXyXyXyXyXyXyXyXyXyXyXyXyXyXyXyXyXyXyXyXyXyXyXyXyXyXyXyXyXyXyXyXyXyXyXyXyXyXyXyXyXyX  A K.Q ..,.,. .l > > %.$X2.J j > + S $.$.,.0.0.0.,.+.+.S l I L F ! F z g l l l g g j j g j j j j j g g g j g g j j p g g l l l j j l j z F D D z z D D S S S l l l l z z z z z z l z S S S S D D D D D z z l l A D A l l z z l l l l l z z l l l l l l l l z z z z j z l j l l z l l l l l l l l l l l l D l l l l l z D D D S S S S S l l z l l l l l l p u g g j j j j g z F L @.J j S { | ..+...} I l , 5 l j j 5 o O   . > # . ; #.H.$.F } #.#.#.L l l z S S [ l w w w l l l j g g j F @., } <.",
"j 6 @.l j l l l D } } ..P S S S ..@.F ! &.,.,.%.@.I j $.Y.! 5 5 o * # . O 5 S S S 8 j L } {  .+.+.......S 6 J L l g D P J z g j 6 6 g j j j j j j 6 < < < , , 6 6 j j j j j u < < , , , < 6 6 6 6 6 6 5 6 8 8 8 8 8 8 8 j j j g g j j j j j 8 8 8 j 6 g < p j 8 6 j < < 6 6 6 8 8 8 6 , 5 6 6 6 6 6 5 , ; > , 5 , , , , , 5 , , < 6 6 6 6 8 5 , < 6 6 6 6 6 6 , , 6 6 6 6 < g 6 6 8 6 6 6 6 6 8 8 8 8 6 6 6 6 g g g g g g g j g z I @.%.%.} J %.%.,.,.0.0.,.%.@.%.l . * 6 j @.q...> 5 { } %.0.%.R M.a.yXyXyXyXyXyXyXyXyXyXyXyXyXyXyXyXyXyXyXyXyXyXyXyXyXyXyXyXyXyXyXyXyXyXyXyXyXyXyXyXyXyXyXyXyXyXyXyXyXyXyXyXyXyXyXyXyXyXyXyXyXyXyXyXyXyXyXyXyXyXyXyXyXyXyXyXyXyXyXyXyXyXyXyXyXyXyXyXyXyXyXyXyXyXyXyXyXyXyXyXyXyXyXyXyXyXyXyXyXyXyXyXyXyXyX  k z.Q @.q.q.+.l > > %.$X:.{ l 5 + l %.%.<.w.w.0.+.+.+.[ l D F F ! F A D S j < < , 6 5 , , , , > , , , , , , , > > ; , , 5 5 5 , 5 5 5 5 6 6 6 5 6 5 5 5 5 5 , 5 6 < < , < < 6 6 6 6 6 7 7 8 8 8 8 8 j j 8 8 8 8 8 < < 5 5 6 , , , , < 6 5 5 5 5 , , 5 6 < < < < 5 < , , 5 5 , , , , , , , , , , , , 5 5 5 5 5 5 5 5 6 6 6 6 6 6 5 5 5 5 5 j g < 6 6 6 , < , , u u g u g j D I I I l l P  .|  ... .{ J j > 5 S S S 8 o     . > # . , #.G.*.F } ....%.@.I D F } [  .[ S S S { J z z k g g F @., } :.",
"8 6 #.D l l l D L #.%.%.%.} ....;.%.@.! %.;.,.&.@.L z *.Y.! 5 > o # * . + 5 l l l 8 j L }  .+.+.%.%.+.+. .8 j J D z D D l g , , , , , , 6 , , , , , ; ; ; > * * > > > ; ; ; % ; ; * * * % * = > = = = = * > ; > > > > > > 5 5 5 5 5 5 5 , 5 5 > > , > ; ; > > > > > > > > > > > 5 5 5 , , , 5 , 5 5 5 5 > > 5 , > > 5 , 5 5 > > > 5 5 5 5 7 > > 5 6 5 5 5 5 5 5 5 5 5 5 , , , 6 5 5 5 6 6 5 5 5 6 5 5 , < 6 g g g u u g j g j g J ..%.%...J } ,.,.,.,.,.,.&.@.@.%.l + * , j } <.{ > , S } %.0.+.R M.s.yXyXyXyXyXyXyXyXyXyXyXyXyXyXyXyXyXyXyXyXyXyXyXyXyXyXyXyXyXyXyXyXyXyXyXyXyXyXyXyXyXyXyXyXyXyXyXyXyXyXyXyXyXyXyXyXyXyXyXyXyXyXyXyXyXyXyXyXyXyXyXyXyXyXyXyXyXyXyXyXyXyXyXyXyXyXyXyXyXyXyXyXyXyXyXyXyXyXyXyXyXyXyXyXyXyXyXyXyXyXyXyXyXyXyX  z A.~ #.e.w.o.l 5 > %.U.%.J l 5 o l #.#.:.0.0.0.=.+.+.o.[ S l l } I I P l < , 6 6 6 5 5 5 5 , > > > > > > > > > > > , , > 5 , * > > > > , > > > > > > 5 > > > > > > , > > > > > > > , 5 5 5 5 5 , , , , > , , > > > = * * = = = = = = ; > > > > ; ; > > , , , , > ; > > > > * * * % % * * % % % * * > > > > > > > > > , ; , , > > > , , , , , , , , , , , , , < < 6 6 8 l P P S l l S  . . . . .[ { J j > 5 S P S , .     . > # . = ^ G.*.z L ....%.#.@.I I | |  ...| [ { } I F z z k h F @., } <.",
"8 , #.J l l l F @.;.,.,.%.#.%.%.,.&.&.@.%.&.%.%.@.F z *.Y.@.6 > o o * . + , l S l j g ! } +.,.,.%.%.+.+.+.S 8 j l l j j j l j j j j j l l l j j l l j 8 j j 8 8 j l l j j j j j l w w 8 , 5 8 j j j j j j 8 j l l l j l l l S S S S S S S S S S l l l l l S S S S S S S S S S S S l l l l l l l l l l l l S S l j j l l l l l l S S [ { S [ S S P P J S [ [ [ S S S [ [ l j l z S S S J S S l l S l j l z J F D D D z D I I I } %.%.%.} S S ..,.0.1.,.;.;.#.! ! #.l o * 5 j } <.{ > > S ..%.0...R N.s.yXyXyXyXyXyXyXyXyXyXyXyXyXyXyXyXyXyXyXyXyXyXyXyXyXyXyXyXyXyXyXyXyXyXyXyXyXyXyXyXyXyXyXyXyXyXyXyXyXyXyXyXyXyXyXyXyXyXyXyXyXyXyXyXyXyXyXyXyXyXyXyXyXyXyXyXyXyXyXyXyXyXyXyXyXyXyXyXyXyXyXyXyXyXyXyXyXyXyXyXyXyXyXyXyXyXyXyXyXyXyXyXyXyXyX  z A.~ #.q.,.X.l 5 > %.U.#.z l 5 o j @.#.;.0.r.w.0.=.+.+. .[ w 8 l J P P S j l J { { { { { S l l l l l l l l l l j l l l l l l l l l l S S l l l l l l l l l l l l l l l l l l l l l l S S l l l l l l l l S S l l l l j j j l l l j g j l S S S D S l l l z z l j j l l j j j j 8 8 j l l 8 6 6 8 8 8 8 j j 8 j j j j j j j l l S S S l j < g j g l l l j j l l l l l l l l l j j l  . . . . ... . .{ l , 5 j l j > +     . > * . = ^ Z.~ z J @.%.,.%.@.@...............+.%.@.~ R z z p ! @., } <.",
"j , %.J l z z F ! ,.1.0.,.,.,.,.0.,.0.,.,.%.%.%.@.D z $.Y.#.8 5 o o * . + , D I } z j @.@.%.,.+.........+. .l 8 8 j j j l l l l l l l l z z l z z z g g j j g j z F F z l g l Z S S S j u j j l l S S l j j l l J l l l J J P P P J J P T S S S J J z z z L I J J D D S l S l l S S j j Z l j j j j j j j j j l g j l l l l l l l S J J J S S S l J J S { { [ T T P { ..J z D L L J J z l l l l l j 8 j l J J D S l l S S S S J { { J S { %.,.0.0.0.,.,.%.#.I U ! l o # 5 j } q.} > > S %.,.w.+.x N.s.yXyXyXyXyXyXyXyXyXyXyXyXyXyXyXyXyXyXyXyXyXyXyXyXyXyXyXyXyXyXyXyXyXyXyXyXyXyXyXyXyXyXyXyXyXyXyXyXyXyXyXyXyXyXyXyXyXyXyXyXyXyXyXyXyXyXyXyXyXyXyXyXyXyXyXyXyXyXyXyXyXyXyXyXyXyXyXyXyXyXyXyXyXyXyXyXyXyXyXyXyXyXyXyXyXyXyXyXyXyXyXyXyXyXyX  z A.^ ..,.+.X.l 5 > %.Y.%.l w 5 + j %.%.;.w.u.u.w.,.=.+.+. .S l l 8 8 8 5 < g j l S S S S l j j j 8 j j j j l l j j l j 8 8 8 j j j j l z l l l S S S S S S J } J J I } J l l l l l l l l D l l D D D D T S S S T T T P J S J } I J D z D D D D z F A z z A F A l z z l l l z z j j z F F l j j j j j j j l l l l j j j j j l l S S l j j g g g g j j j 6 j l l l l j l 8 j j j l {  . . .[ [  . .....l , , 8 j j > +     . > * o ; ^ Z.~ z I %.,.,.%.@.#.%.+.+.....+.,.,.,.#.R x k k p ! #., } <.",
"j 6 %.D j l z A F %.,.e.e.0.1.0.0.,.e.w.0.0.,.%.} D l #.$X#.8 5 o o * . + , D } ..J k @.%... .| .......... .[ S j 8 j j l j j j l l j j l l z D z j g u u h g g k g g g p u u 8 j l j u u p g g l l l j j j l S S S S l l l l D S l l S S S l l j l j g g z z l j j l l l l l l S S j j S T S S S S l l S D Z l j j l l j j j j l l l l l l j j l l S S l S S S l j l z l g g k z z l p j 8 8 w l 8 8 8 l l l l l j j l S S S S l S { | %.,.,.0.0.w.0.,.%.%.#.@.%.S o # 5 j @.q...> * l ..,.w.%.x N.E yXyXyXyXyXyXyXyXyXyXyXyXyXyXyXyXyXyXyXyXyXyXyXyXyXyXyXyXyXyXyXyXyXyXyXyXyXyXyXyXyXyXyXyXyXyXyXyXyXyXyXyXyXyXyXyXyXyXyXyXyXyXyXyXyXyXyXyXyXyXyXyXyXyXyXyXyXyXyXyXyXyXyXyXyXyXyXyXyXyXyXyXyXyXyXyXyXyXyXyXyXyXyXyXyXyXyXyXyXyXyXyXyXyXyXyXz Z.^ +.,.+.X.w 5 > %.$X%.S 8 5 . l <.:.1.u.u.w.0.0.0.5.+.o.o. .S w 7 6 8 j 8 j l l l l j 6 5 5 5 5 6 6 6 g j j 6 < 8 8 6 5 5 5 5 5 6 6 g j 8 6 6 6 6 6 8 8 j l j j l S l 8 l j j j j l l l j j j S S S S w w l S l S S l l l l S l l g j l l j j g g j p g l j j l j j p u p h g g p k z j j j 8 8 l S l S S S l j l l l l l l l l l j j l l l l j j g j g g j j j j l l l D L P } ...... .{ T { ..#.S , < j j j > +     o > * . > #.H.$.F ..:.,.%...@.%.,.1.,.+.+.+.,.0.q.#.~ k k g p ! @., } &.",
"j 6 %.D z z z R ! @.,.e.q.q.0.1.,.+.w.t.t.w.0.%.} D z %.R.#.8 5 * * 5 o # 5 S P { J z I %...| | ,.,.,.+. . . . .S l l l z z z D D J J J L I P P L I I D z j z L z j j l D l j g l S l g p k z F J J D l S D T  . .|  . .{ { { |  .} { P { { T S J J I D D D I I P P P {  .o.o.o.o. .{ {  . .X.X.X.X. . .{ { { { T S T T S S ..|  . . . .....J D @.#...| { { | { P S Z l D F z z F I F A D J { |  .{ | |  .............+.%.,.,.+.%.+...+.,.,.,.0.w.w.0.=.=.%.;.:.:.J . # 5 j #.q.#.> * l { +.0.%.k k.E yXyXyXyXyXyXyXyXyXyXyXyXyXyXyXyXyXyXyXyXyXyXyXyXyXyXyXyXyXyXyXyXyXyXyXyXyXyXyXyXyXyXyXyXyXyXyXyXyXyXyXyXyXyXyXyXyXyXyXyXyXyXyXyXyXyXyXyXyXyXyXyXyXyXyXyXyXyXyXyXyXyXyXyXyXyXyXyXyXyXyXyXyXyXyXyXyXyXyXyXyXyXyXyXyXyXyXyXyXyXyXyXyXyXyXyXl Z.^ +.0.%.O.w 5 > %.$X$.S 8 5 . J I.<.1.e.w.0.5.5.0.0.=.+.+. .X.[ [ [ ......} %.&.%...| [ [ [ [ T S S S S S S l l S [ T S S w S S l l l S S j j j j l j l l l l j l l S S P { { { [ [ {  .[ [ [  . . .[ S S [ [ [ [ { { { { S S { J l S { | { S D J z l D P { { { { J D l l z { S l D } }  .{ T [  .o.o.+...| S S { ..| { { { { P P J P P ..| { } ..#.@.I D J I } } } I L L D J P  ...%.%...{ T } #.D , < l D S > + O   # 5 * # , $.J.$.F } &.&.%.%.@.%.,.0.,.+.+.%.,.0.q.%.^ R z z k ! @., } <.",
"j 6 %.L z F F ^ #.&.,.,.%.,.1.1.,.+.0.e.t.0.,.%.} F z #.U.! 6 5 * * > o . 5 S S S l l z ......%.,.,.%... .+. .| { ..I z z F F z l S S D I I D S D P Y D Z j j F z j j l J J D l l S S l p g j z J J S l Z D P |  .X. . . . . . . ...{ J {  .| { { } ....T P { ..| P P |  .o.o.o.o.o.o. . .o.o.O.O.O.O.o. . . . . .X.X.|  . .....+.+.+.+.+...T P %.%. . . ... . .| P S D I @.I D I ..I Y } ....+.+. ...+.%.%.,.,.%.+.%.,.%.,.,.,.,.+.+.,.,.0.0.w.w.0.,.=.,.,.;.$.$.S . # 5 j I <..., = j [  .%.@.k z.Q yXyXyXyXyXyXyXyXyXyXyXyXyXyXyXyXyXyXyXyXyXyXyXyXyXyXyXyXyXyXyXyXyXyXyXyXyXyXyXyXyXyXyXyXyXyXyXyXyXyXyXyXyXyXyXyXyXyXyXyXyXyXyXyXyXyXyXyXyXyXyXyXyXyXyXyXyXyXyXyXyXyXyXyXyXyXyXyXyXyXyXyXyXyXyXyXyXyXyXyXyXyXyXyXyXyXyXyXyXyXyXyXyXyXyXyXl / ^ %.w.,.o.w 5 > %.$X$.J w > o J :.%.%.0.0.0.0.5.0.w.0.=.+.+.+. . ...+...} I @.%..... . .o. . . . . . . . .{ T [ {  . . . .[ [ S S S S P T J D D J J J J J P P D D J P { [ { |  . .X. .o. . . .o.o.o. . .[  . . . . .....| { { { P Z P  . .| P D J D S J { {  .{ { { J S S {  .[ S { } .. .{  . .o.+.+.o. .| [ S  ... .| { { { P P J P  . ... . ...;.%.#...@...} } P D D P P P { {  ...%.%...{ } @.l , < S J S > +     # 6 > o , $.J.$.D J @.@.%.%.@.! @.,.,.,.%.,.,.,.0.;.$.! z z k ! %., } <.",
"j j :.! z A R ! #.<.,.,.+.,.q.0.1.,.0.0.0.,.,.%.@.F k ^ U.! 8 5 * * > # + , l S { S l z J { ..%.%.+.....+.%.+.+.....I F F F F z D D l z F L D S J I ..P Z j k A A z l D D D z D D P S l l j j A P P D l z L .... .o.o.+... . . .....{ P ..................| ......} ....+.+.+.+.+.+.+. . .+.+.+.+.+.+.+.[  ...+.+.+.+. . ...+.+.+.+.+.+.+.+. .+.,.,.+.+.+.+.+.+.+...Y } ........| ........+.%.+.+. . .,.,.,.0.0.,.=.,.,.+.+.,.1.,.=.=.,.0.0.0.0.0.,.,.,.,.,.:.#.! l o # > < z &.} , ; l { +.%.@.a m.z.yXyXyXyXyXyXyXyXyXyXyXyXyXyXyXyXyXyXyXyXyXyXyXyXyXyXyXyXyXyXyXyXyXyXyXyXyXyXyXyXyXyXyXyXyXyXyXyXyXyXyXyXyXyXyXyXyXyXyXyXyXyXyXyXyXyXyXyXyXyXyXyXyXyXyXyXyXyXyXyXyXyXyXyXyXyXyXyXyXyXyXyXyXyXyXyXyXyXyXyXyXyXyXyXyXyXyXyXyXyXyXyXyXyXyXyXl $.^ ,.w.%.o.w 5 > %.Y.$.J j > % J #.! #.0.0.w.w.0.w.w.0.0.5.5.0.+.+...+.%.....@.%.....+.+.+.+.+.+.+.+.+.+.+.+. . .o.o.o.o.o. .[ [ S S { } { J D P { | } { { | ..{ P J { } ........ . .+.o. . .+.+.+.+....... ...+. . . . . .{ J J D D ....+. .{ D D D D J } .. .{ { { J S P .. . .{ { { } } } .. .o.+.+... . . . . ...+.+...{ { ..} { | +.,.,.+.+.+.,.&.%.%.#...} } P D D I .... ...{ { } ..#...I z < , 6 l S j > +     # 5 * o , *.G.*.z J ^ @.%.%.^ U I %.,.,.,.,.,.,.,.,.;.! z z z ! #.> I <.",
"j j :.! z z F ! @.,.0.0.0.0.w.0.q.,.0.0.,.,.,.&.@.F k ^ Y.^ 8 5 * * > # + > l T  .[ l J J {  ..... ...+.,.,.,.,.....@.@.^ ! F D U I z z z F z l J P ..T D z z z F D D D D z j D Y P S S S D D D I I D z z F I .. .o.+.+.+...{ ....} I } ..+.+.+...%.%.%.........#.......+.,.,.,.=.=.+... .+.+.+.+.+.%.+.{ | +.+.%.%.+..... .+.%.,.,.,.%.+.=.+.=.,.=.+.+.=.=.=.0.,.,.%.%...........+.+.....+.,.+...| ..,.0.0.0.,.,.0.w.0.+.+.,.q.0.0.,.0.w.w.0.,.,.,.0.0.0.0.:.! I l * o , < D :.@., ; l } ,.<.@.k [.D.yXyXyXyXyXyXyXyXyXyXyXyXyXyXyXyXyXyXyXyXyXyXyXyXyXyXyXyXyXyXyXyXyXyXyXyXyXyXyXyXyXyXyXyXyXyXyXyXyXyXyXyXyXyXyXyXyXyXyXyXyXyXyXyXyXyXyXyXyXyXyXyXyXyXyXyXyXyXyXyXyXyXyXyXyXyXyXyXyXyXyXyXyXyXyXyXyXyXyXyXyXyXyXyXyXyXyXyXyXyXyXyXyXyXyXyXl V.^ ,.0.%.o.w 5 > %.Y.$.J j 5 * D ! I %.0.w.0.0.0.w.w.0.0.0.0.0.,.,.,.=.+...#.%.%.%.+.=.5.5.5.5.,.0.0.,.+.+.+.+.+.+.+.+.+.+. . .{ S J L L J L I } ................P P I P #.%.%.....+.+... ...%.%.%...+.+.+.+.+.+.+. . . ...} J J D D } ..+.+...I D D U I I } ..I I I J S P .. .....} D D I } ....+.=.+......... . . .+.%... .} } ....| +.,.,.+.+.%.,.;.;.%...........} P } %.%.+.+...{ [ | ....I g , , , j l j * +     # 5 * o , #.G.*.F } #.%.%.%.#.^ @.,.,.0.q.,.;.;.0.0.;.! z z z ! @., I $.",
"j < ;.! z z I @.%.0.w.w.w.w.w.w.0.1.0.w.0.,.%.#.! F k ^ Y.#.8 5 > * 5 # o > l [ o. .l J l l [ +.,.+.%.,.,.,.,...{ ..@.#.#.! F F I } ! A k A A l l S D G S D z z D J S J D j z F F A D P S [ P J A z z z F A D P | o.+.+. . .P D D D D I ..+.+...#.@.%...........} ........+.=.,.=.+... . .+.+.+.+.+.+.+. . .+.+.+.+.+.+.+. ...+.%.%.%.=.+.=.=.+.=.=.=.+.+.+.,.,.=.,.0.,.+.......+.+.+...%.%.,.+.....+.,.0.w.0.,.,.0.0.0.,.=.1.e.w.0.0.w.w.w.0.,.0.0.0.w.w.0.:.@.@.S o o , g } q.#.> > l @.%.,...x K.Z.. yXyXyXyXyXyXyXyXyXyXyXyXyXyXyXyXyXyXyXyXyXyXyXyXyXyXyXyXyXyXyXyXyXyXyXyXyXyXyXyXyXyXyXyXyXyXyXyXyXyXyXyXyXyXyXyXyXyXyXyXyXyXyXyXyXyXyXyXyXyXyXyXyXyXyXyXyXyXyXyXyXyXyXyXyXyXyXyXyXyXyXyXyXyXyXyXyXyXyXyXyXyXyXyXyXyXyXyXyXyXyXyXyXyXyXj V.~ ,.=.+. .l 5 > %.Y.$.D w 5 * S ....&.0.w.w.0.0.0.0.0.0.0.w.w.=.=.,.,.,.,.%.,.%.%.,.0.5.5.8.5.=.0.0.0.0.,.+.+.+.+.+.+.+.+.....[ S z l j l D I I I ....+.+.%...{ J I I D ! @.@...| +.+.+...+.+.#.....+.+.+.+.+.=.+. .| { I z j z D I I { | ....| D D D F A D D A F P { { |  .......! z A I I I } ..........+.+... . ...%.......I } ..+.0.=.+.+...#.%.<.;.%.{ { ..%.%...{ ..%.+. . ...| [  .....l g < u , g j 6 * O .   # 5 * o ; ^ G.$.F @.%.%.+.+.&.&.,.,.0.q.q.&...;.0.0.%.@.D z z @.%., I $.",
"j < %.F z F I #.,.w.0.w.t.w.w.w.0.0.w.w.0.,...@.! ! k ^ Y.$.j 7 > * 5 o o > l { +.{ l l S S S  .,.,.,.,.,.,...{ { ..%.%.%.@.I I I ..@.! z z z z l l S D J L F F A D J I A j R z z l D P { [ { J g g z D F A F D J { ....{ } I D z z F ! } ......^ F D ....+.+........... . .+.+.+.+. .{ ..+.+.+. .+.+.+.+.+.+.+.+. .o.%.,.+...%.#.....+.,.+.+.+.+.+.+.+.+...+.+.+.0.0.,.+.} ....{ ..,.&.%...%...%.@.%.,.,.,.,.,.=.0.0.w.0.1.0.w.w.w.w.w.w.0.,.=.=.5.0.0.0.1.%.! %.{ * * , g @.U.%.> > l ..%.,...x K.l.. yXyXyXyXyXyXyXyXyXyXyXyXyXyXyXyXyXyXyXyXyXyXyXyXyXyXyXyXyXyXyXyXyXyXyXyXyXyXyXyXyXyXyXyXyXyXyXyXyXyXyXyXyXyXyXyXyXyXyXyXyXyXyXyXyXyXyXyXyXyXyXyXyXyXyXyXyXyXyXyXyXyXyXyXyXyXyXyXyXyXyXyXyXyXyXyXyXyXyXyXyXyXyXyXyXyXyXyXyXyXyXyXyXyXyXyXV.~ ,.,.+.[ l > > %.Y.$.J 7 5 = S #.@.%.0.w.w.0.5.5.5.0.0.0.0.5.=.=.=.5.0.0.,.%.#.#.%.,.0.r.y.r.5.4.0.0.,.+.+.+.+.+.+.X.X..... .{ S l g g j D F D J { ..+.,.%.{ S { ..} J F F U I P { %.%.+.+...} {  .%..... ...+.%...P P D D D D F ! I } } ....} D D F F z k z A D J {  ...+.+.{ J z z F I A z A U I I ....+.+.+...{ } ......I I ..+.=.,.+.| ....@.@.%.%.#.{ ....%.%.%.....+... . .{ {  .+...J j j g g j j l j * + .   # 5 > o , #.G.$.F I %.,.,.%.,.,.,.,.0.q.0.%...,.0.0.,.#.I D z ^ #., I :.",
"j < %.F z I P @.,.w.w.w.t.w.w.w.0.0.w.w.0.,.%.#.@.! k ! Y.$.l 7 > = > o + > l J } J l l P { { { ..%.%.%.,.,.........%.%.#.@.} } ..%.#.^ ! ! ! ! D l D L I L z z k z D F A a x x z z z J } | | D z z F I ! ! F F A D I I } @.! F z F ! ! ! I I ^ U k l I %.%.....} @.@...} { ......{ J J I @.........%.%.%...|  .{ { ..#.#.} ! @.! I I ....+.+.%.+.......%.%.#...%.1.,.#.} } #.} P ..;.:.#.^ %.%.;.%.%.;.;.,.,.1.,.,.,.0.0.0.0.1.0.0.0.0.0.,.+.=.+.=.,.,.,.%.@.! %.{ * % , j @.U...> > l { %.,.@.x D.( . yXyXyXyXyXyXyXyXyXyXyXyXyXyXyXyXyXyXyXyXyXyXyXyXyXyXyXyXyXyXyXyXyXyXyXyXyXyXyXyXyXyXyXyXyXyXyXyXyXyXyXyXyXyXyXyXyXyXyXyXyXyXyXyXyXyXyXyXyXyXyXyXyXyXyXyXyXyXyXyXyXyXyXyXyXyXyXyXyXyXyXyXyXyXyXyXyXyXyXyXyXyXyXyXyXyXyXyXyXyXyXyXyXyXyXyXA.~ ;.,.%.[ 8 > > %.Y.#.l 7 5 = S %.@.@.,.0.0.,.=.0.0.0.0.0.0.=.=.=.5.0.0.0.,.#...@.@...=.0.w.w.5.%.%.%.......%.+.+. .[ { ....P D D F A z F ! ! F F I ......{ J P ..#.....R A A F F I ..%...#.@.L J } @...{ P | ....} I D L ! I F F ! ! I } I D z z F ! ! z k z F D D P ......I D z k z ! ! k x z A F I I ....+.,...P P } I F F I ..,.,.%.| P } @.@.@.@.#.#.....%.%.%.%.%.%.%... . .+.....{ S l j j j l l l l l * + .   # 8 > o , #.H.$.A I %.,.0.+.,.,.5.,.0.0.0.0.0.0.w.0.,.%.I A z ^ #., } :.",
"j < %.I D D G } %.0.w.t.t.w.w.0.0.0.0.w.w.0.q.<.#.! k ! Y.$.j 5 > ; > . + > j l z l l J P { {  .} { ....................{ { { { ....Y U F F F F z j l D D A g a a p p k k a a a R z k z U P D z x z A D I ! A A z A A z S D D z z F L ! F D D U U A z U ^ ^ Y U I ! ! U I I I I F D A z z F F I I @.@.#.#.I D S D D I ! z k ! ! R ! ! U I %.@.@.} I I @.#.@.! I @.%.@.J J I ! I D ..%.#.^ ^ %.%.#.#.%.%.;.<.<.q.1.,.1.1.0.0.q.,.,.0.0.0.,.,.,.,.,.&.%.#.! F F I #.S o * 6 j @.q...5 > 8 S %.,.@.x K.( . yXyXyXyXyXyXyXyXyXyXyXyXyXyXyXyXyXyXyXyXyXyXyXyXyXyXyXyXyXyXyXyXyXyXyXyXyXyXyXyXyXyXyXyXyXyXyXyXyXyXyXyXyXyXyXyXyXyXyXyXyXyXyXyXyXyXyXyXyXyXyXyXyXyXyXyXyXyXyXyXyXyXyXyXyXyXyXyXyXyXyXyXyXyXyXyXyXyXyXyXyXyXyXyXyXyXyXyXyXyXyXyXyXyXyXyXD./ %.,.,.[ 8 > > %.U.@.j 8 5 * j %.#.I ..%.%.%.%.%.,.,.0.0.0.,.,.,.0.0.0.%.%.&.%.@.#.@.#.,.,.,.+.#.@.I I I I } } I P J D D F z z z x z k z z x x A F F J D A z L } I I I ! ! F F U I I I I I I ! F F I P P P P { I D F F ! ! F z A F U I U D l g j k A k k k z A z A D U U U F z k k k R A a x z A F U I I I ..#.^ F F F A z z F ..%.,...P D D I I F I @.#.%.%...........#..... . . ...{ l j l l l l l l l l j o + O   > 8 > o , #.G.~ z I %.,.0.0.,.,.5.0.0.0.0.w.w.0.0.0.,...D z z ^ #., } <.",
"j 6 %.I z D S } ..,.w.w.w.w.w.w.0.w.0.w.w.w.q.<.%.I k I U.#.j 5 > * > . O > l j z z z ! } ..|  .{ } { { S S S T T T J S S S S l l l j l l l l l Z j Z S D A j k z k g k k k k k z A A A A D l l z z g j z l l l S D D l J D D F F L L ! L D P I ..@.I ! ! I I I ..! ! I ! @.@.I I I ! ! A A F F U I I ! I U D D U I ! ! F z ! ! ! ! ! U U L D D z z D L F F D F F I D l D I U D D D D D U D Y P I U } I @.@.#.%.%.%.%.%.%.%.,.%.%.............#.@.@.L z z z F @...5 o , j g @.<...> > 7 S +.,.#.x K.Z..   yXyXyXyXyXyXyXyXyXyXyXyXyXyXyXyXyXyXyXyXyXyXyXyXyXyXyXyXyXyXyXyXyXyXyXyXyXyXyXyXyXyXyXyXyXyXyXyXyXyXyXyXyXyXyXyXyXyXyXyXyXyXyXyXyXyXyXyXyXyXyXyXyXyXyXyXyXyXyXyXyXyXyXyXyXyXyXyXyXyXyXyXyXyXyXyXyXyXyXyXyXyXyXyXyXyXyXyXyXyXyXyXyXyXyXA./ %.0.0. .8 > > #.F.! l l j * = l #.@.D D F P P { P {  . .{ { {  .[ [ S l l L I D A F I ..} } I I L F F L L L F D D L F z z z z z z k k k k k k z z D D D A j l D F D D ! ! L L } I P F D U ! ! L D P P P { { } { J L ! @.@.L F F U I I I I D D D A A A A A U ! F F U I ! I ! F z k k A z z A F L I I I D l D F F z z z R A F F I ......P l l l l j l z J P J S S S S S S S S S S l l l l l S D D J J z j j 6 o + + . > 8 > o , $.J.$.z I %.,.,.,.,.,.0.0.w.0.0.0.0.0.0.0.+.{ S l z @.#., ..2.",
"l , %.@.z z J @.&.,.0.0.0.0.w.w.w.w.r.y.w.0.%.+.} L j I U.$.j 5 > * 5 # . > j j z z z ! @.#...[ { }  .{ T S S { [ S D S S S S l l l l S j 5 5 5 5 5 7 8 8 8 6 8 8 8 8 8 8 8 j 8 6 8 j j 8 8 8 8 5 5 , 5 6 6 5 5 5 6 8 6 8 8 j j 8 8 j j 8 6 8 8 w 8 8 8 8 8 8 8 8 8 8 8 8 8 8 7 8 j j j j 6 8 8 6 6 8 8 8 6 6 8 j j j j j j j 6 6 6 6 5 5 5 5 6 6 6 6 8 6 6 6 8 6 8 6 5 8 j j j j 8 5 , , 5 7 5 5 , 6 j j g g l l D S S S S P S l l l l D D S J L F z z z F } { l * * j k z @.:.{ > # 7  .0.1.#.v K.( .   yXyXyXyXyXyXyXyXyXyXyXyXyXyXyXyXyXyXyXyXyXyXyXyXyXyXyXyXyXyXyXyXyXyXyXyXyXyXyXyXyXyXyXyXyXyXyXyXyXyXyXyXyXyXyXyXyXyXyXyXyXyXyXyXyXyXyXyXyXyXyXyXyXyXyXyXyXyXyXyXyXyXyXyXyXyXyXyXyXyXyXyXyXyXyXyXyXyXyXyXyXyXyXyXyXyXyXyXyXyXyXyXyXyXyXyX~ ..,.1.o.w 5 > @.F.#.! L j 6 = , S } I I D J { ..{ [ S S l l l l l l l l l j j j l D P J j j j l l l l l l l j l l l j j 8 j j j 8 8 8 8 8 6 6 6 8 j j j 8 5 6 8 j j 8 6 6 6 8 8 5 5 5 5 8 8 8 8 7 6 5 8 8 8 8 8 6 8 8 j j 8 8 8 j j 8 8 8 8 8 8 8 8 j j j j j j j j j j l j 6 < < < , 6 6 8 8 8 8 j 8 6 6 8 8 j j j g 6 6 6 6 8 8 8 l j 8 5 5 6 l j j j j j l l S S l l l l l l l l j D P D D D J } z j j 6 o + O   > 8 > o , $.Y.Z.F L %.%.%...%.,.0.r.r.w.0.0.0.0.0.0.%...L z z @.%., @.q.",
"l , %.@.z z L #.:.,.,.,.0.0.w.w.e.w.r.u.y.0.+...I L l ! U.$.j 5 * > 5 # # > j j k k k v ! @... ...{ { .. .{  .+.+.{ I } { ..} { l l J l > +   O O O + + + + + + O O . . O . + + + + + o o o o . .   O + o + . . . . . . . o o o . + o o o . . # . + # + + . # o # # . # . O O O # + # o o o o o . . o o + + o . . o # o o o o . o o + O O . . . . . o + o . + o + + + + . o o o o o o . o + # O + o > j l j j z D J J J J P } { P D D D I } I @.@.^ ! F U @.} l > * , j z F #.<.} > # w ,.w.0.#.x A./ .   yXyXyXyXyXyXyXyXyXyXyXyXyXyXyXyXyXyXyXyXyXyXyXyXyXyXyXyXyXyXyXyXyXyXyXyXyXyXyXyXyXyXyXyXyXyXyXyXyXyXyXyXyXyXyXyXyXyXyXyXyXyXyXyXyXyXyXyXyXyXyXyXyXyXyXyXyXyXyXyXyXyXyXyXyXyXyXyXyXyXyXyXyXyXyXyXyXyXyXyXyXyXyXyXyXyXyXyXyXyXyXyXyXyXyXyXR ..,.,.o.w 5 > #.Y.Z.&.@.k j 6 = 5 J #.#.} } %.,.,.+...{ {  . .{ { J I } } D z J S } } l , * = * * * * # * * o * * o o o o . o o o o o # o o o o o o o + + . o o o o + . . + o + . . . X # + + + O + + . . . o . . . + . o . . . o o o # # . + # # o o o o o * # # # # # * # + + o . . . . o o . . o o o o o o o * % o o o o o o . . + o o . o * 6 l l l j l S {  .{ { S S S S { { J S J U D D z F @.F j j 6 o + .   * 8 > o , $.E.G.! F #.%.%.} #.,.0.0.0.0.0.w.w.0.0.0.0.%.@.D z ! %., @.q.",
"l < &.@.k A ! *.$.<.0.0.0.0.w.w.y.y.u.u.w.w.,.,...J l F Y.$.j 5 * * > # o , j g k k k x ! @.@.#... . .+.+. . .=.+.{ P .. .....{ l l j > + O # O O O O O . O O + + + . . . . O . . . . . . O O O O O O O # # . . . . . . X # # . O . # # # # # # # # # # # # # # # # # # # # # # # # # # # # # # # # # # # # # # # # # # # * * # # # # # o o # # o # # o # # # # # o o # # # # # # # # o o o . . + . . > j J J { ..+.+.......%.+.%. .| ........%.%.%.%.....{ 8 * % , g z ! ! &.q...* # w +.%.,.@.x V.R .   yXyXyXyXyXyXyXyXyXyXyXyXyXyXyXyXyXyXyXyXyXyXyXyXyXyXyXyXyXyXyXyXyXyXyXyXyXyXyXyXyXyXyXyXyXyXyXyXyXyXyXyXyXyXyXyXyXyXyXyXyXyXyXyXyXyXyXyXyXyXyXyXyXyXyXyXyXyXyXyXyXyXyXyXyXyXyXyXyXyXyXyXyXyXyXyXyXyXyXyXyXyXyXyXyXyXyXyXyXyXyXyXyXyXyXyXk @.w.0.o.l 5 > %.+XY.$.^ z z j 6 > 5 S #.%.%.,.0.0.0.0.+. .+.0.+. . .} { I P J } | { w > * * * * * * o o o # # # # # # # # # # # # # # # # # # # # # # # # # # # # # # . # # # # . . @ # # # # # # # # o # o # # # # # # # # # # # # # # # # # # # # # # # # # # # # # - # # # # # # # # # # # # # . . # # # # o o o o # # . . + + + . + o % . o o 5 S I S l S  .o.o...| S S J  ...| S J I U F z ! ! z j g , . + O   * 8 * # , $.Y.Z.! F #.&.:.;.%.,.0.0.0.0.0.0.0.0.0.w.0.%.I A k ! #., #.q.",
"z , &.#.z F ! ! #.<.e.w.w.w.e.w.w.u.u.u.y.w.0.,...J l I U.$.j 5 * * > # o > j g k k h x x ! ! ^ ..} +.+.+. . .+.+.{ J ......} P l l , o O # o o o # # # # # # o # * * # # # # # # # # # # # # o o . . # # # o o # # # o # # # # # # # * * # o o * * * * # > > > > * > > > > * * # # # * * * > > > 5 5 5 5 5 5 > > > , > > , 5 > > > > > > * * * * > > > > > > > > > * * > > > > > > > > , 3 > > > * o o = j J ....+.%.,.%...+.,.0.0.,.....,.%...@.%.%.%.} 8 o o = < g z ! #.2.e...> o 5 { ..&.@.a g.A .   yXyXyXyXyXyXyXyXyXyXyXyXyXyXyXyXyXyXyXyXyXyXyXyXyXyXyXyXyXyXyXyXyXyXyXyXyXyXyXyXyXyXyXyXyXyXyXyXyXyXyXyXyXyXyXyXyXyXyXyXyXyXyXyXyXyXyXyXyXyXyXyXyXyXyXyXyXyXyXyXyXyXyXyXyXyXyXyXyXyXyXyXyXyXyXyXyXyXyXyXyXyXyXyXyXyXyXyXyXyXyXyXyXyXyXyXk } 0.5.o.l 5 > %.+XY.$.#.@.L z j 6 * , J &.%.,.w.0.0.0.5.+.+.0.0.+...{ { { P } ..{ 8 * * 5 5 > * > , > = = * ; > > > > > * * * * * * * * * > > > > > # # # # * # # # # # # # # # # o # # # # # # * * # # # # # * # # # # # # # # * * * * * > # # * * * # # # * * * > > > > > * # # o # # # # # * # # # # # # # # * * * * * # # * * # # * * = = o . . , S } { [  .+.+.+. .P S J { +...S z ! ! ! ! z z g h g , # + O   * l > o < $.J.*.z F #.:.:.;.,.0.w.0.0.0.0.0.5.0.0.0.0.%.J z z ^ #., #.q.",
"A , %.#.A ! ! ! %.q.t.u.u.u.w.%.0.u.w.y.u.w.w.0...P l F U.$.j 5 * # > o . > j j k k k a k k x ! I ..=.=.+.o.o.+.+...I ....%...I l 5 o . . o o # ; ; , , ; = = % = ; ; ; ; > , , , , , , , , , , , ; ; ; , = = = ; ; = ; > ; = = = = = % % = = = ; , ; = ; ; ; , , , > > > > > = ; ; ; , ; = , , , , , 5 5 , , , , < < , , < < < < < < , < , , , , < 6 < , , , < 6 6 , 6 6 , 6 8 j 8 8 j l z D S S l 6 % . % 6 S ..,.%.,.%.+.,.w.w.w.w.+.%.1.,.I I @.&.%.l * o = < p k ! ^ $.2.e...> o 5 S } &.@.a ~ k . yXyXyXyXyXyXyXyXyXyXyXyXyXyXyXyXyXyXyXyXyXyXyXyXyXyXyXyXyXyXyXyXyXyXyXyXyXyXyXyXyXyXyXyXyXyXyXyXyXyXyXyXyXyXyXyXyXyXyXyXyXyXyXyXyXyXyXyXyXyXyXyXyXyXyXyXyXyXyXyXyXyXyXyXyXyXyXyXyXyXyXyXyXyXyXyXyXyXyXyXyXyXyXyXyXyXyXyXyXyXyXyXyXyXyXyXyXk I 0.0.o.w 5 > @.Y.F.#.$.&.#.F D z < = , S %.,.w.0.r.0.0.3.+.0.0.0.=.+.+...} ..{ j > * 5 > * * , 6 j g < < , , , , < 6 < < < < < < , , , 6 6 < < , > > > > > > > > , , , ; > > > > * = = = = = = = = = * * * * > ; > > > > > * = ; ; > , , ; ; > ; > ; = ; > ; ; ; , , , , ; ; = = = = = ; = = , , , , , , , , , , , , < , , , , > > ; , > * * % . . o > S {  .+.0.0.+. .{ { {  . .| S l F ! ~ ! k k u u g , o . O . * l 5 o , $.H.*.z L #.&.:.,.0.w.0.,.+.=.0.0.0.r.w.w.,.%.I z z ^ #., #.q.",
"A , ;.#.A ! ! *.&.q.t.u.u.u.0.+.,.u.w.w.u.w.w.0.+.{ l F U.$.j 5 * o > # . > 8 u h k k a i h k z L ..+.=.+.o.o.+.+...} } { @.I D , o . + o o > j A z z g g h g k z z z A F A F F z F F F ! ! I F F F F F ! ! A A A A A F F F F z z F F F F F F U U F U F F ! ! ! ^ ^ ! I I I I F z A A z A ! ! ! ! ! ! ! I F D U I ! ! ! ! ! ^ ~ ~ ~ ^ ^ @.I I ! ! ! ! ~ ^ ^ ^ ^ ! ! U I I I ! @.@.@.@.%.:.<.$.#.@.L l < = % % 6 J %.%.,.%.,.w.t.y.w.w.0.,.0.,.@.@.@.&.{ > o ; , j l F ^ #.&.q.e...> % 5 [ ..%.@.i E p   yXyXyXyXyXyXyXyXyXyXyXyXyXyXyXyXyXyXyXyXyXyXyXyXyXyXyXyXyXyXyXyXyXyXyXyXyXyXyXyXyXyXyXyXyXyXyXyXyXyXyXyXyXyXyXyXyXyXyXyXyXyXyXyXyXyXyXyXyXyXyXyXyXyXyXyXyXyXyXyXyXyXyXyXyXyXyXyXyXyXyXyXyXyXyXyXyXyXyXyXyXyXyXyXyXyXyXyXyXyXyXyXyXyXyXyXyXk J ,.+.[ w 5 > } Y.F.%.:.<.&.} L F g , % > { ,.0.r.w.0.5.+.=.0.0.0.0.,.+. .....l * % * > * ; j S I I U F A A z k k z F F F F F ! A x ! F ! ! z z z z z A F D D D A A A A z z D D l l D z z D D D D F F D D D D D D F J J L ! ! F A A D F F z z z A D D D D D F F U ! I F A z z z z z z A R k k z A F F ! F F F ! ! ! ! ! F ! F D l S D D S j 6 > = * o o 5 S  .+.0.,.+. . . . . .{ S J D z ! ~ x a p u u j , o . + . * w 5 o , #.H.$.F J @.%.;.,.w.w.w.0.+.+.0.r.r.r.w.w.,.%.! F z ^ #., @.2.",
"F , ;.#.A ^ $.:.:.,.w.w.u.w.w.0.w.w.w.r.r.0.0.0.+.P l I Y.$.j 5 * o > # + * j j k k p p h k z F F { +.,.,...+.+.............D < o + + * > 5 j } #.! ! A z z F ! A A F ! ! ! ! F F ! R R R F F A A z z k k x k k a k A ! ! ! F F F ! ^ ^ #.#.#.#.#.! ^ ! ! ^ #.*.*.~ ^ #.%.%.%.#.^ #.#.^ ^ :.F.:.$.$.$.$.#.^ ! @.@.@.! ! ! ! ~ ~ R R ~ ! ^ #.^ ! ! ! ! ~ ~ ~ ~ ~ ! ! ! @.#.@.%.%.;.%.;.<.H.F.;.#.@.I z j 6 = $ % 5 J #.,.,.0.e.e.u.w.0.0.1.1.;.@.%.;...8 % = , < g I $.&.&.<.U.U...> o 5 { ..%.L i R p   yXyXyXyXyXyXyXyXyXyXyXyXyXyXyXyXyXyXyXyXyXyXyXyXyXyXyXyXyXyXyXyXyXyXyXyXyXyXyXyXyXyXyXyXyXyXyXyXyXyXyXyXyXyXyXyXyXyXyXyXyXyXyXyXyXyXyXyXyXyXyXyXyXyXyXyXyXyXyXyXyXyXyXyXyXyXyXyXyXyXyXyXyXyXyXyXyXyXyXyXyXyXyXyXyXyXyXyXyXyXyXyXyXyXyXyXyXa J %.+.S w 5 * I $XH.<.,.<.,.#.L z g 6 % % 8 +.0.w.w.0.=.+.+.+.,.0.w.0.,.%...l * o * * * , l Y @.@.! ! U F F U A z F I I I I ! ! z z ! ! R x x R ! R z R ! ! U F ! R R R R A F I I L I I I ! @.@.@.^ ! @.@.@.@.! ! ^ @.@.#.*.~ R R ! ! ! U F A F F F F F F F A F ! ^ ^ ! A x x x x R R R R x k k z R R ! R z R ! ^ ! ^ ~ ^ ^ ^ U F U U U @...l j j 5 > o % 6 { %.,.%.+. .|  ...{ { P I I F F A k g p u g j , o . + . # 8 > # , #.J.:.L J ..%.%.0.w.w.w.w.0.=.0.r.r.r.0.,.%.#.! ! z ^ #., ..<.",
"F , ;.%.A ^ $.$.&.,.0.0.w.w.w.w.w.w.w.r.r.0.0.,...P l ! Y.$.8 5 * o * # + * j l z z j u j z F F D D { ..+..... .| | | ..} S , % . + * 5 S P D J Y I U U l l l D z z z D L I D z z z z k k z J D D A z k k k z k k z F I I J J D D J J F ! ! F D D D F F F F ! ^ ! ! ! #.%.%.%.%.#.#...I I #.%.#.#.#.%.#...} } ....@.U z k z F F ! F I ..%.%...{ J D F I ! ^ ^ ! F U #.%.@.@.@.#.%.%.;.2.J.S.$.%.;.%.! z l 8 = % % , l ..%.,.q.q.w.,.,.1.1.,.;.@.%.%.j * = , < j D #.<.%.%.,.U.e...> * 5 S { ..L i R u   yXyXyXyXyXyXyXyXyXyXyXyXyXyXyXyXyXyXyXyXyXyXyXyXyXyXyXyXyXyXyXyXyXyXyXyXyXyXyXyXyXyXyXyXyXyXyXyXyXyXyXyXyXyXyXyXyXyXyXyXyXyXyXyXyXyXyXyXyXyXyXyXyXyXyXyXyXyXyXyXyXyXyXyXyXyXyXyXyXyXyXyXyXyXyXyXyXyXyXyXyXyXyXyXyXyXyXyXyXyXyXyXyXyXyXyXyXa D %.5.[ q 5 # P Y.2.,.,.0.0.&.@.z k g , % * l %.,.+.+. . . . .+.%.0.1.,.%.S * + o * > 5 S ..T ....@.%.#.P { ! D S J } } P { I z k k z z k k k ! F k k z D L I I F z k a k z D { { S l S J D D D I ! @.........I D D P { } ! z k k A D S j l l l l l l l j k i p g z z k p i a i a k x k a p p g k k k z z k z U #.! I I ! @...I I @./ ^ @...J j j l j * o % 6 { %.%.........} J P I I L F A z k g g g j j , o . . . # 8 > o , #.H.$.F J ..%.,.0.w.w.w.w.0.0.0.r.0.0.0.,.%.@.! z z ^ %., } :.",
"U , ;.%.z ! @.#.#.,.0.r.w.w.w.w.w.r.y.y.y.w.w.0.%.I z F H.*.6 5 * o # o o * g j j j j j l l l A D z l S { | { T S [ T { l > . o o * 8 S P D I Y T ..;.1...S S { { { { { ..%.} { } @.} J D J { { { J D z z D L F z D I .. . . .} } { { } #.@.F D I ..I Y P I @.#.! z @.%.,.=.=.,.+.+.%.%.%.#.#.%.%.%.%.%.%.%.+.+.%.#.I z z z J } } } ..,.w.w.+.o. .....#...%.%.@.I ..,.:.&.%.#.#.%.%.<.OX'.D.$.%.%.@.@.I } J 6 % % = ; 8 J ..%...} S S G T ..P ..| S > . = 6 g l @.$.:.%.%.%.<.q.{ 5 * 5 l S } L i x u   yXyXyXyXyXyXyXyXyXyXyXyXyXyXyXyXyXyXyXyXyXyXyXyXyXyXyXyXyXyXyXyXyXyXyXyXyXyXyXyXyXyXyXyXyXyXyXyXyXyXyXyXyXyXyXyXyXyXyXyXyXyXyXyXyXyXyXyXyXyXyXyXyXyXyXyXyXyXyXyXyXyXyXyXyXyXyXyXyXyXyXyXyXyXyXyXyXyXyXyXyXyXyXyXyXyXyXyXyXyXyXyXyXyXyXyXyXa J 0.0. .w 5 * P R.<.,.0.0.0.,.#.@.z g j = . > 8 w w w w l w 8 l T  ... .S * . * > * 5 l  .........<.U.q.,...#.Y P ..%.%.%.#.#.L z z ! ! F F ! ^ L z D I } ..+.%.#.D z z U I { +...[ P } } } I I I #.%.+.0.5.+...{ |  .+.%.#.F z F I { [ S S [ [  .[ [ S z D k a k z z z k k k g k z ! z k k z L L L I ! ! L D ..,.%.| ....%.....%.<.J.>.#.Y ..P D l l g * $ % , S [ { P J J l l D D D D z z j j g g g u < ; o + . . # 8 > % , *.F.#.z J ..+.,.0.0.0.0.0.r.r.r.r.0.0.0.0.,.@.z k k ^ %., I :.",
"S , :.$.z ^ *.$.$.&.,.0.0.w.w.w.w.w.r.w.w.y.r.0.+.{ l ! J.$.6 > # o o o . > # o o o * * * > 5 6 6 6 , , 6 6 , , , 5 5 , % o $ $ % 5 S P D P ..@./ :.F.;. .[ { ..+.+.....+.%...P { ....{ J { { { { I D z z z L } D D | +...+.+. .....} { } I F F } ..%.......%.%.{ ..#.%.,.,.+.+.=.0.w.0.,.,.,.,.,.,.,.,.0.0.0.0.%.%.%.I D D { ....+.%.0.w.w.5.+.5.+.+.%.%.%.%.%.%.%.,.,.,.%.%.,.0.0.0.U. X X).<.,.%.#.@.@.@.D 6 * * = > > 5 6 g , , , , , , 6 8 6 % $ & , g z F #.%.0.0.%.%.<.<.{ > * 5 l S  .{ h x g   yXyXyXyXyXyXyXyXyXyXyXyXyXyXyXyXyXyXyXyXyXyXyXyXyXyXyXyXyXyXyXyXyXyXyXyXyXyXyXyXyXyXyXyXyXyXyXyXyXyXyXyXyXyXyXyXyXyXyXyXyXyXyXyXyXyXyXyXyXyXyXyXyXyXyXyXyXyXyXyXyXyXyXyXyXyXyXyXyXyXyXyXyXyXyXyXyXyXyXyXyXyXyXyXyXyXyXyXyXyXyXyXyXyXyXyXyXa L +.3.X.w 5 * J q.;.+.0.1.0.,.%.#.F z k u = o o o # = , = = ; ; ; > > = % . o > , 8 S } ........:._.@XOX1.........%.%.+.....+...} } @.@.} @.#.@.} J @.%.+.+.+.+...{ P {  . .o.+.o. .o...%.@.} ..%.+.,.5.5.0.=.+. . .+.+.%.%.P D P { {  . . . . . . . .{ J D j k z z z z D z z z z F F z z D P  . . .....I {  .,.,.+... .+.+.%.%.;.+X XD.) ..{ } Y A l l 8 * . o * > , , = = = , , , , , * * , , > * > = % % o o +   * 8 > o = ! Z.~ D { ,.+.+.,.,.,.0.0.r.0.0.r.r.0.0.,.%.@.! U z @.%., P <.",
"S , :.#.R ~ *.*.#.&.0.0.0.w.w.r.r.w.r.r.w.w.w.,.#.} l ! J.$.6 > . . o o % 5 > . . . . . . . o o o . o o o o o o o o + o o % o * 6 l S P ....#.#.Z.l.:.;... ...%.+.+.+.+.%.+.............{ { } ....I D z z F } ..} P ..+.+.+.+. . .} } } I U F I @.%.%.+.%.%.%.%.%.%.,.+.=.=.=.=.0.0.w.0.0.0.0.0.0.0.,.0.0.0.0.0.%.;.&...I ..%.%.,.,.0.w.t.w.0.0.0.,.%.&.,.,.%.%.,.,.,.1.0.,.,.0.w.w.w.q._.XXXX_.<.,.,.%.@.@.@.D j , * * > > , > > > > = * * * % % % % , g D I @.;.,.0.0.,.,.q.q...> % 5 l { +.} h x g   yXyXyXyXyXyXyXyXyXyXyXyXyXyXyXyXyXyXyXyXyXyXyXyXyXyXyXyXyXyXyXyXyXyXyXyXyXyXyXyXyXyXyXyXyXyXyXyXyXyXyXyXyXyXyXyXyXyXyXyXyXyXyXyXyXyXyXyXyXyXyXyXyXyXyXyXyXyXyXyXyXyXyXyXyXyXyXyXyXyXyXyXyXyXyXyXyXyXyXyXyXyXyXyXyXyXyXyXyXyXyXyXyXyXyXyXyXi z +.+.X.w 5 * J 2.;.,.0.0.w.0.%.%.} F z z , o . . o * * = = * = * * * * o . * 5 j J ....+.,.,.<._.-X'.>.+.+.......+.+.+.+.+.=.+...} @.#...+.+.......+.%.+.+.+.+.+...#...+.+.+.+.+.+.+.+.+...} ..+.=.,.0.0.0.5.=.+.=.=.=.+.+...} | |  .+.+.o. . .o.+.o.{ D z z z z A F D J L D z D F F D D P .. . .+.+.......+.,.,.%.+.+.+.+.,.,.,.U.].).>.#.....T Y D S S j = o # # * * * % o o o o o o o o o % % o o o o = 6 7 * + * 5 * . ; ^ Z.#.J ..0.0.0.0.0.,.0.0.0.0.0.0.0.0.,.,.%.@.^ ! F #.%., I :.",
"S , :.#.z ^ ^ #.%.,.0.0.r.r.r.y.y.w.w.w.w.w.,.%.@.I l ! J.$.6 > . . o * > j 5 + . + . + + . o . o o + + o o o o o o o # . o * 8 S Z S { +.%.;.:.c.x.) #...+.%.+.....+.%.%. ...+.+.o.+.+.........} L D z L I ........+.=.=.5.=.+.| } @.@.I I I I ..%.%.+.,.,.%.%.,.,.,.=.=.5.0.0.5.0.r.0.0.0.w.w.0.0.0.0.0.0.0.0.,.,.,.#...;.0.0.0.0.w.w.t.w.r.r.w.,.%.;.0.0.,.,.,.,.0.,.0.0.0.0.w.w.r.w.H.).XX+Xe.1.,.1.;.@.^ ^ ! j 8 5 5 5 5 5 , , > 5 5 5 > ; > , 6 j L @.@.%.<.q.0.0.<.<.I.U...> % 5 S #.%.} p x u   yXyXyXyXyXyXyXyXyXyXyXyXyXyXyXyXyXyXyXyXyXyXyXyXyXyXyXyXyXyXyXyXyXyXyXyXyXyXyXyXyXyXyXyXyXyXyXyXyXyXyXyXyXyXyXyXyXyXyXyXyXyXyXyXyXyXyXyXyXyXyXyXyXyXyXyXyXyXyXyXyXyXyXyXyXyXyXyXyXyXyXyXyXyXyXyXyXyXyXyXyXyXyXyXyXyXyXyXyXyXyXyXyXyXyXyXyXi F ,.,. .w 5 # S 2.;.,.0.r.y.r.0.%.%.! F D g , = * * ; > > , , , , 5 5 , ; ; 6 l I I ....+.0.w.OX-X}.D.:...=.,.+.+.+.+.+.+.5.5.=... ...+.+.+.+.+.+.=.=.+.3.3.+.%.#.@.%.,.=.=.5.0.5.5.5.=.,.+...+.+.,.,.5.5.5.5.0.0.=.5.=.+.+.%.%.+.+.+.+.5.+.+.+.o.+.+.{ z z ! ! z z D J { } J J J P J D S | .. .+.+.+.+.+.+.=.,.,.%.%.%.%.,.,.,.,.<.c.).).>.;.%...#.I J D D j , > # # * % % o o o o o o o o o % o o o + o * 6 5 * . > 5 * . , #.Z.#.J ..,.,.5.0.0.0.0.0.0.0.0.,.,.,.%.%.%.#.^ ! F #.%., I <.",
"S , :.#.z ! F @.;.q.w.r.r.r.r.y.y.w.w.w.w.0.,.%.@.I z ! J.$.6 > . . o * ; 6 > o o % o * * * * * * * * * 5 > > > > > > 5 > , j D D l J ..+.+.%.:.c.D.S.;...+.+.+.+.....%.+...+.+.+.+.+.+.o.+.+.} J J J L } .. .+.....+.=.5.5.5.+.....@.#.@.@.#.....%.=.=.0.0.,.%.,.,.,.=.=.5.0.0.0.r.r.r.0.0.w.0.r.0.0.0.0.0.0.0.0.0.0.%.%.0.r.w.r.w.w.w.w.r.w.t.w.,.%.;.w.0.,.%.%.,.,.,.,.0.0.0.w.w.0.0.S.`.'.OXe.,.0.0.,.%.@.! ! I U D L I } P P D D D P P J I J I I ! $.$.#.@.;.<.<.<.&.&.q.I.} * o 5 l } ..L p x ,   yXyXyXyXyXyXyXyXyXyXyXyXyXyXyXyXyXyXyXyXyXyXyXyXyXyXyXyXyXyXyXyXyXyXyXyXyXyXyXyXyXyXyXyXyXyXyXyXyXyXyXyXyXyXyXyXyXyXyXyXyXyXyXyXyXyXyXyXyXyXyXyXyXyXyXyXyXyXyXyXyXyXyXyXyXyXyXyXyXyXyXyXyXyXyXyXyXyXyXyXyXyXyXyXyXyXyXyXyXyXyXyXyXyXyXyXyXi F ,.0. .w 5 # S 2.;.,.0.w.y.w.0.,.%.@.L F ! F F D S S D J J D D D J D z z z D I ! I | +.0.0.0.U.`.}.D.:.,.5.0.0.0.=.+.+.+.0.5.+.+.+.%.+.+.+.=.+.+.5.5.5.5.0.,.%.+.} ..5.5.5.5.5.5.5.5.5.0.,.+.+.+.,.+.+.5.5.5.5.5.5.5.5.+.+.+.%.,.,.+.=.0.5.5.+.+.+.+.{ F ! ! v z z D { ....{ { { { { { {  . .+.+.+.+.+.+.5.5.=.+.+.+.+.%.,.,.0.,.,.S.`.'.S.<.,.,.@...I D z j g l j j j 6 6 6 8 8 8 5 > > > , , > , , > * > > * o . > 8 > # , %.F.#.D { ..+.+.0.0.0.w.5.0.0.0.0.,.%.&.&.#.@.! F F #.$., } 2.",
"J , $.#.z F F @.;.q.w.r.r.r.r.r.r.r.w.w.w.0.<.&.@.U j ! J.$.6 > . . o # o = , 5 8 j l l l l l l l j j S } } J D S J J D D D z z j l P  .+.,.%.#.( S.S.;...+.+.,.%...} { ..%.+.+.+.+.+.o.o.+...{ P } ........+.+.+... .+.=.=.5.+.+.#.#.@.#.%.%.%.+.%.0.,.0.0.,.%.%.,.0.5.0.0.0.0.r.r.y.r.r.0.0.r.r.r.0.0.0.0.0.0.0.0.0.,.,.w.w.w.w.w.w.w.0.r.w.t.w.,.%.,.w.w.0.+.+.,.,.,.,.,.0.0.w.w.0.w.+X@XOXe.0.0.0.=.,.,.@.U ! U U ! ! ! @.@.@.I F U ^ #.^ #.#.#.#.$.<.<.#.#.&.<.%.&.&.$.&.<.J * # > j l J z i x ,   yXyXyXyXyXyXyXyXyXyXyXyXyXyXyXyXyXyXyXyXyXyXyXyXyXyXyXyXyXyXyXyXyXyXyXyXyXyXyXyXyXyXyXyXyXyXyXyXyXyXyXyXyXyXyXyXyXyXyXyXyXyXyXyXyXyXyXyXyXyXyXyXyXyXyXyXyXyXyXyXyXyXyXyXyXyXyXyXyXyXyXyXyXyXyXyXyXyXyXyXyXyXyXyXyXyXyXyXyXyXyXyXyXyXyXyXyXi F ,.0.{ w > # J 2.:.,.0.0.0.%.+.%.,.#.@.@.#.@.@.! ^ @.@.@.I D A F I F A F U ! I I ..+.0.0.5.5.1.H.}.}.H.0.8.0.0.0.0.=.+.+.0.0.+.+.%.%.+.+.3.0.5.+.5.5.5.0.0.%.%.+...%.5.5.5.5.5.5.5.5.5.0.0.0.0.5.,.+.+.5.5.5.5.5.0.5.5.0.+.+.%.,.0.,.+.0.0.5.+.+.+.+.P z v F F z F I ..+. .{  ...+...+. . . .+.+.+.+.5.5.0.0.+.+...+.+.,.,.,.0.=.,.H.@X_.:.,.,. .......I D z z F F z z z z A I ....D l S D D D S D J l l l 5 * # # * 5 # . , #.F.#.z S |  .+.0.w.0.0.0.0.0.0.0.,.,.<.:.#.^ ! F A #.:., @.q.",
"J , &.#.z L I @.;.0.w.r.r.r.r.r.0.0.w.w.w.w.q.%.! F g ! J.$.8 5 # o o o # > 8 j j l g j j l l l l j g z I I I L L I } L I F z k z J } ..+.,.%...#.;.;...+.+.+.,.#.} P P ..%.+.5.=.+.+.+.+.o. .{ ..#.%.+.....+.+.+... .+.+.=.5.+.%.%.#.@.%.,.0.0.,.,.,.,.,.,.,.,.%.,.0.0.0.r.0.0.y.y.r.r.r.r.0.0.r.r.r.0.5.5.0.0.0.0.0.0.0.w.w.w.w.w.w.w.w.w.w.e.e.0.0.0.w.0.0.,.,.0.4.,.,.,.0.0.w.0.w.e.&XOXw.0.0.0.0.0.0.,...Y @.Y @.! I I I I I A z F ^ #.#.@.@.%.%.%.%.%.:.<.,.,.,.&.%.#.$.<.J # # > 8 g l z i x ,   yXyXyXyXyXyXyXyXyXyXyXyXyXyXyXyXyXyXyXyXyXyXyXyXyXyXyXyXyXyXyXyXyXyXyXyXyXyXyXyXyXyXyXyXyXyXyXyXyXyXyXyXyXyXyXyXyXyXyXyXyXyXyXyXyXyXyXyXyXyXyXyXyXyXyXyXyXyXyXyXyXyXyXyXyXyXyXyXyXyXyXyXyXyXyXyXyXyXyXyXyXyXyXyXyXyXyXyXyXyXyXyXyXyXyXyXyXyXF ,.0.{ q > * J F.:.%.,.%.,.+.+.,.,.+...%.#.J l J ..+.+...{ S l D D D D D I } } ..%.5.5.5.0.0.0.<.OX@XOXw.5.0.0.0.0.5.=.+.0.0.+.%.%.+.o.+.5.5.3.3.+.=.0.0.+.+.%.%.%.0.5.5.5.+.=.5.5.5.5.5.5.5.0.=.=.0.0.5.5.5.5.0.0.5.0.0.,.+.,.0.,.%.+.0.0.0.,.%.+...I J L J L F I ....o.[  .o.+.+.+.+.+.+.+.+.+.+.=.0.0.=.,.+.+.+.+.=.0.0.0.0.+.0.OXOX<.%.%.,. .+.......} P D F k g g g z z A F U z g g j j g g j j g 6 8 > * # # # > # . , #.G.*.z l { ..%.0.0.,.,.0.0.0.0.0.0.0.q.,.#.! ! F F %.:.6 #.e.",
"D , :.#.z F L @.%.,.0.0.r.r.w.r.0.0.w.w.r.0.,.%.! F j ! Y.:.j 5 # o # # # > 5 5 < u u u u p g z z z g z F ! ! ! ! } ..#.} F D z z @.%.%... .+.%.+.....+.+.+.%.+...P I ....+.+.0.5.+.+.=.+.+. .....%.%.+...{  .+.....+.=.=.5.5.0.0.%.....,.0.5.0.0.+.+.,.,.,.,.0.,.,.0.w.w.r.r.w.y.r.0.0.0.0.0.0.r.r.r.0.5.5.+.,.,.,.0.0.w.w.w.w.w.w.w.w.w.w.w.w.w.w.w.w.0.0.0.5.0.0.0.0.0.0.0.0.w.0.0.e.e.w.5.8.r.0.0.0.0.0.=.%...%.%.%.#.@.#.%.#.} P ..%.%.#.%.;.<.q.<.%.%.q.q.0.w.0.;.#.@.&.2.P # o 5 j j l z a x ,   yXyXyXyXyXyXyXyXyXyXyXyXyXyXyXyXyXyXyXyXyXyXyXyXyXyXyXyXyXyXyXyXyXyXyXyXyXyXyXyXyXyXyXyXyXyXyXyXyXyXyXyXyXyXyXyXyXyXyXyXyXyXyXyXyXyXyXyXyXyXyXyXyXyXyXyXyXyXyXyXyXyXyXyXyXyXyXyXyXyXyXyXyXyXyXyXyXyXyXyXyXyXyXyXyXyXyXyXyXyXyXyXyXyXyXyXyXyXF 0.0.[ 7 > * P I.:.%.+.%.0.0.w.r.0.+.+.,.%.{ { ..+.0.0.5.+.[ { { { { { { ..+.+.+.+.0.r.0.0.,.8.0.q.OXe.0.0.0.0.0.0.5.5.,.0.5.0.,.=.+.+.=.5.5.5.5.=.5.5.,.+.+.%.,.0.0.5.0.0.=.+.5.5.5.5.5.5.=.0.,.3.0.w.0.5.5.0.0.5.+.=.,.+.+.,.0.,.+.+.0.0.=.,.%...} L } ....} I D {  . . .+.+.+.+.+.+.+.+.%...+.,.0.0.=.+.+.,.,.,.=.5.0.0.0.0.+.e.e.1.%.%.%.+.=.+.+...+.....#.! z g j z D D F L ! z z z z g g p p u , , 6 * * * # > 5 # . , $.H.*.z z D ..,.0.0.+.,.0.0.w.w.0.0.0.0.&...I ! F z %.<.5 ..e.",
"D , :.%.z z L #.*.#.%.,.w.r.r.r.0.0.0.e.w.0.%.#.! z k ~ E.<.j > # o o * o 5 5 , g p g p h j S J P { P D S J ..%.%.+.+.+.+.#.L D I .... . . .+.+.+.+.+.+.+.+.+.+. . .+.+.+.%.,.=.-.5.+.+.+.+.+.............I } +.+.+.5.5.+. .%.0.0.5.=.=.0.0.0.,.,.=.,.0.5.0.0.0.0.0.0.0.0.,.5.r.r.r.r.0.r.r.0.0.w.w.0.5.5.0.0.%.,.,.0.w.w.u.y.y.w.w.y.y.u.u.0.+.0.w.r.y.y.y.r.8.r.r.5.5.5.0.0.0.0.0.5.0.0.0.5.8.r.5.0.0.0.0.5.=.,.5.0.0.+.+.+.+.+.=.,.,.,.,.,.5.0.w.w.0.5.0.r.r.r.r.0.,.#.@.<.q.{ * * 5 j l { z a s u . yXyXyXyXyXyXyXyXyXyXyXyXyXyXyXyXyXyXyXyXyXyXyXyXyXyXyXyXyXyXyXyXyXyXyXyXyXyXyXyXyXyXyXyXyXyXyXyXyXyXyXyXyXyXyXyXyXyXyXyXyXyXyXyXyXyXyXyXyXyXyXyXyXyXyXyXyXyXyXyXyXyXyXyXyXyXyXyXyXyXyXyXyXyXyXyXyXyXyXyXyXyXyXyXyXyXyXyXyXyXyXyXyXyXyXyXyXyXL %.%.[ q > % L U.:.%.%.,.,.0.w.w.r.5.5.5.5.+.+.3.0.0.5.5.5.+.+.+.=.+.+.+.+.5.=.5.5.0.0.0.0.0.r.0.r.r.0.r.r.5.8.5.5.0.5.=.0.0.0.0.5.5.0.0.5.5.7.5.5.0.0.0.0.5.5.5.5.+.0.0.0.5.=.=.=.5.5.5.5.0.5.5.5.5.5.5.6.5.5.5.5.5.=.+.5.0.0.0.+.P P ,.0.5.=.+. .{ ..%.+.+.+. . .+.+.o.+.+.+.+.+.+.+.+.0.,. . .,.0.0.+.o.+.,.5.5.0.0.0.,.,.,.=.0.,.,.,.,.,.,.,.+.+.+.+...+.+.#.L D I I } } } I I P J D z z z k k p u = 6 * * * . > 5 > # 5 %.U.$.z z ! ! #.;.,.,.5.0.0.0.0.0.,.0.q.%.@.! ! F z %.<.6 @.U.",
"D , ;.#.l z L #.#.%.%.,.0.r.r.r.0.0.0.w.w.,.%.@.! z g ^ E.<.j > # o o * o 5 5 5 g g j g g j D P { { { { P { ..%.+.+.,.%.%...} L J P P { | ...... . . . ...+.+... ...%...{ ..%.+.3.5.+. . .+.+.+.+.+... .| }  .+.+.=.5.=... .+.,.0.0.0.0.0.5.5.5.0.=.%.0.w.w.0.w.0.0.0.0.0.0.5.0.r.r.0.r.r.r.r.0.0.r.0.r.r.0.5.+.%.%.1.w.y.y.y.u.u.u.u.u.u.u.w.0.w.u.y.y.r.r.8.8.y.r.0.5.5.0.0.0.0.0.5.0.5.5.5.r.r.r.w.w.r.0.5.5.0.r.w.0.+.+.,.0.0.0.0.0.,.,.,.0.w.w.w.r.r.r.r.r.r.r.0.,.#.@.<.q.[ # o 5 l { %.@.s E u   yXyXyXyXyXyXyXyXyXyXyXyXyXyXyXyXyXyXyXyXyXyXyXyXyXyXyXyXyXyXyXyXyXyXyXyXyXyXyXyXyXyXyXyXyXyXyXyXyXyXyXyXyXyXyXyXyXyXyXyXyXyXyXyXyXyXyXyXyXyXyXyXyXyXyXyXyXyXyXyXyXyXyXyXyXyXyXyXyXyXyXyXyXyXyXyXyXyXyXyXyXyXyXyXyXyXyXyXyXyXyXyXyXyXyXyXyXyX! ,.%.[ q > * L F.$.%.%.+.+.5.0.r.r.r.r.0.0.5.5.5.0.0.5.5.5.5.5.5.5.5.0.+.0.0.5.0.0.0.w.0.0.0.w.w.r.r.0.r.r.8.8.r.r.r.0.5.0.,.0.0.0.5.5.5.5.5.5.8.5.5.5.5.5.5.0.0.0.5.0.0.0.5.5.5.5.5.5.5.0.0.0.5.5.5.5.6.5.5.0.0.0.0.5.5.0.0.0.0.+. ...%.0.3.5.,.+.+.+.+.+.+.+.+.+.+.=.+.+.+.+.+.+.+.+.=.,.+. ...,.5.5.=.=.=.=.5.5.5.0.+.+.+.,.5.5.0.,.0.,.,.,.=.%.....+.+.....#.} I @.@.} } @.I P P J I I F z z k h u , g * * # . > 7 > o 5 #.H.*.z z ! L I ..%.0.0.0.0.0.,.0.0.w.q.%.@.! ! L A %.<.6 @.q.",
"D , $.#.z D I #.%.;.,.0.0.0.5.0.0.w.0.0.,.%.%.@.! z g ~ E.<.8 > o o % * * 5 5 5 g p g k k z J } ..| ........+.,.,.%.%.%...#.....} ..{ { | ......|  . . . ...%.....%...P D U ..+.5.5.+. . .+.+.+.+.+.+... . . .+.=.5.5.=.+.+.+.,.,.,.0.w.0.=.5.5.5.=. .,.w.w.0.0.0.0.0.0.0.0.0.r.r.r.r.r.y.y.r.r.0.r.r.r.r.r.0.0.=.,.0.w.u.y.y.u.u.u.u.u.y.5Xw.w.u.u.y.y.w.r.r.r.y.r.0.0.5.r.r.r.r.r.0.0.5.5.5.0.r.r.r.r.0.0.0.w.w.w.w.0.=.+.5.0.r.0.0.0.=.=.,.r.w.w.w.w.w.w.w.w.w.r.0.,.#.#.<.<.[ # o 5 S %.0.#.k R u   yXyXyXyXyXyXyXyXyXyXyXyXyXyXyXyXyXyXyXyXyXyXyXyXyXyXyXyXyXyXyXyXyXyXyXyXyXyXyXyXyXyXyXyXyXyXyXyXyXyXyXyXyXyXyXyXyXyXyXyXyXyXyXyXyXyXyXyXyXyXyXyXyXyXyXyXyXyXyXyXyXyXyXyXyXyXyXyXyXyXyXyXyXyXyXyXyXyXyXyXyXyXyXyXyXyXyXyXyXyXyXyXyXyXyXyXyXyX! %.%.[ 7 > * J F.%...%.+.+.+.5.0.r.y.r.r.r.r.0.0.0.5.8.5.5.5.0.0.0.0.0.,.0.w.w.w.r.w.w.0.0.0.r.w.w.w.r.r.r.8.r.r.r.r.r.5.+.+.+.0.0.0.5.5.5.5.8.8.5.5.5.5.5.5.0.0.0.5.r.r.r.0.5.5.0.0.0.0.0.r.0.5.5.5.8.5.5.5.0.0.0.0.0.5.5.0.0.0.5.+.=.=.5.5.5.,.=.+.+.+.o.o.+.5.5.5.5.5.+.+.+.+.+...%.,.=.=.+.=.5.5.5.5.5.=.=.5.5.0.5.+.+.0.0.5.5.0.0.0.0.5.=.=.%.....+.......%.#...} ..@.@.@.} { } ..#.} F z z z k u , j * * # . > 7 > * , @.Z.~ z z L } ..+.,.0.0.0.0.,.%.,.0.w.,.#.! ! ! ! F ;.<.6 } q.",
"P , $.#.z F ! %.&.,.0.w.r.0.5.0.0.w.0.0.0.,.%.^ F z j *.*X<.6 * o o % * o 5 5 5 g u h k z D I } ........+.+.+.,.,.%.#.....%.%.%.%.+... ...+.+.+.....+.+.......+.+.+...{ P @.+.5.5.5.+...+.+.=.=.+.+.=.+.....+.+.5.5.=.=.=.+.=.,.,.%.%.%.+...+.+.+.+. .=.0.w.0.0.0.0.0.r.w.w.r.r.r.r.r.y.y.y.y.r.r.y.y.r.y.r.r.w.0.0.r.w.u.y.u.u.w.w.u.5X5X5Xy.y.y.y.y.y.w.0.0.r.8.8.0.0.r.r.r.r.r.r.0.0.5.5.3.5.5.5.5.5.5.5.0.0.w.w.0.5.5.5.5.r.r.r.0.0.=.+.0.r.y.y.y.r.y.y.y.w.w.0.=.+.#.#.&.,.S # o 5 S 0.w.%.k R u   yXyXyXyXyXyXyXyXyXyXyXyXyXyXyXyXyXyXyXyXyXyXyXyXyXyXyXyXyXyXyXyXyXyXyXyXyXyXyXyXyXyXyXyXyXyXyXyXyXyXyXyXyXyXyXyXyXyXyXyXyXyXyXyXyXyXyXyXyXyXyXyXyXyXyXyXyXyXyXyXyXyXyXyXyXyXyXyXyXyXyXyXyXyXyXyXyXyXyXyXyXyXyXyXyXyXyXyXyXyXyXyXyXyXyXyXyXyX! &.+.[ 7 > # J F.%.} +.+.5.5.5.0.r.r.r.r.r.r.0.0.0.r.5.8.8.0.0.0.0.0.0.+.=.r.w.w.r.w.w.r.0.r.r.r.w.r.r.r.r.r.y.r.r.r.r.0.+. .+.0.0.r.5.5.+.5.r.r.5.5.5.5.5.5.r.r.r.r.r.y.y.r.r.0.0.r.0.0.0.r.0.5.5.8.8.8.5.0.0.0.0.0.0.5.5.5.5.5.5.5.5.5.5.5.0.=.+.+.+.+.+.+.5.0.5.5.5.=.+.+.+.+.+...} +.=.=.=.5.5.5.5.5.5.5.5.5.5.5.=.+.5.0.r.5.5.5.5.5.5.5.=.=.+...........%.%.%...} } ..@.} { ..%.%.%.I z z z z k u , j > * o . > 8 > % , ! Z.^ k k } %.%.%.5.0.0.0.,.+.%.,.0.0.,.#.@.I ! ! F ;.<.6 } q.",
"I , $.%.A F @.&.,.,.0.w.w.0.0.0.0.w.w.w.w.0.&.! A z j *.E.$.5 * o o % * o 5 5 5 g u h z F I P { { |  .+.%.%.%.%.+...} } %.,.%.%.,.0.=.+.+.+.+.+...+.,.,.+.....5.5.5.+.+.+.%.+.0.5.5.+.+.+.+.+.=.=.+.+.......+.+.=.=.+.=.,.,.,.,.,.%.......@.Y Y @.#.,.,.0.0.0.w.0.0.0.r.r.r.0.0.0.r.r.y.y.y.y.y.u.y.y.y.y.y.r.y.w.w.w.w.u.u.u.u.r.r.u.5X5X5Xu.y.y.y.y.u.,.,.0.y.8.5.0.0.r.r.r.r.r.5.5.0.0.5.5.3.5.0.r.8.5.5.5.=.5.3.5.5.0.5.5.r.r.r.r.0.5.5.w.w.y.y.y.r.r.r.r.r.0.+.+.+.#.#.:.<.S # # 5 S ,.0...k R u . yXyXyXyXyXyXyXyXyXyXyXyXyXyXyXyXyXyXyXyXyXyXyXyXyXyXyXyXyXyXyXyXyXyXyXyXyXyXyXyXyXyXyXyXyXyXyXyXyXyXyXyXyXyXyXyXyXyXyXyXyXyXyXyXyXyXyXyXyXyXyXyXyXyXyXyXyXyXyXyXyXyXyXyXyXyXyXyXyXyXyXyXyXyXyXyXyXyXyXyXyXyXyXyXyXyXyXyXyXyXyXyXyXyXyXyXyXyX! %.+.S q # # P U.%.} +.0.0.0.0.0.0.5.r.r.r.r.5.0.0.r.r.r.r.r.5.5.5.0.0.+.+.0.r.r.r.r.r.r.r.y.w.w.y.y.w.r.r.r.y.r.r.r.r.0.+.+.5.0.r.r.r.0.0.0.r.r.0.5.5.8.r.5.5.r.r.r.r.y.y.y.r.r.r.0.0.0.0.0.r.r.r.r.r.r.0.0.0.0.0.0.5.5.5.5.5.5.5.5.5.5.5.+.+.+.+.+.5.0.=.,.0.0.0.0.5.+.=.+.+.+.+...P  .+.=.=.5.5.5.0.5.5.5.5.5.5.5.=.+.5.5.5.5.5.5.5.5.5.0.5.5.,.+.+.+.....+.+.+.+.+.....I P P ..%.%...J l j k z k u , 6 * o . + 5 8 > % , ! Z.~ z z #.%.%.+.+.,.0.,.,.%.0.0.,.,.0.;.%.@.! ! F :.q.< } q.",
"I , ;.$.D F @.:.1.0.0.0.0.0.0.,.,.w.w.w.w.0.&.! F z g ~ J.$.5 * o o % * o > 5 , g g j D L } ..|  . ...+.,.,.,.,.%...} ..,.0.,.+.%.0.0.+.+.+.+.o.+.0.0.0.=.+...5.5.5.5.=.+.+.+.0.5.+. .+.+.+.+.+.+...} F I #.%.+.+.+.+.+.,.,.,.,.,.%.....@.! R A U %.1.0.0.0.0.w.0.0.0.r.r.0.5.,.0.0.r.r.w.y.y.y.y.y.y.r.y.y.y.r.w.y.w.w.y.y.y.u.r.r.u.5X5X7X5Xy.y.y.u.t.,.,.0.r.8.8.5.r.r.r.r.r.r.5.5.0.0.0.0.5.5.r.8.8.5.5.5.=.=.+.5.0.0.r.r.r.w.r.r.0.5.5.w.w.w.w.r.w.r.r.r.r.0.+.+.+.%.&.2.q.{ # # 5 l  .+. .k R u .   yXyXyXyXyXyXyXyXyXyXyXyXyXyXyXyXyXyXyXyXyXyXyXyXyXyXyXyXyXyXyXyXyXyXyXyXyXyXyXyXyXyXyXyXyXyXyXyXyXyXyXyXyXyXyXyXyXyXyXyXyXyXyXyXyXyXyXyXyXyXyXyXyXyXyXyXyXyXyXyXyXyXyXyXyXyXyXyXyXyXyXyXyXyXyXyXyXyXyXyXyXyXyXyXyXyXyXyXyXyXyXyXyXyXyXyXyXF #. .l q > # P U.$...=.0.0.0.r.0.0.5.0.r.r.r.0.0.0.0.r.y.y.y.r.0.r.0.w.0.0.0.5.r.r.y.y.y.y.y.u.y.y.y.y.r.0.r.r.r.r.r.r.r.0.0.r.r.r.r.r.r.r.r.r.0.0.0.0.r.r.0.0.r.r.r.r.y.r.r.r.r.r.0.0.0.0.0.0.r.r.r.r.0.0.0.5.5.5.0.0.5.=.+.5.5.5.5.5.5.+.o. .+.+.=.5.0.+.,.0.0.0.5.0.=.0.0.=.+.+...{ +.+.=.=.5.5.0.0.5.=.5.0.5.+.+.=.5.5.5.5.0.0.5.5.5.5.0.0.0.,.,.+.+.+.+.+.+.+.+.,.%...I } I } ....} P z k k k k u , 6 * o + O 5 8 5 * = ! F.*.z z I ..+.+.+.%.%.%.%.0.0.0.,.%.0.,.:.#.@.! ! :.q.< } q.",
".., $.$.F F ! %.,.0.0.5.0.0.q.,.%.w.w.w.0.0.%.@.! z p R J.$.6 * o o o * o > 5 > g g z D I ....+.%.+.+.+.%.+.+.%.,.#.%.,.%.+.,.+...%.%...........=.5.0.5.=.+...+.+.+.+.+.+.+.+.=.=.+.+.%.0.0.+.+.+.#.L z ! #.#.+.+.+.+.+.%.,.,.,.,.,.%.,.&.^ z k ! :.,.0.0.0.0.w.0.0.0.0.r.0.0.,.0.0.0.w.w.y.y.y.y.y.r.r.r.r.r.y.y.y.y.y.y.w.y.u.w.w.u.5X5X7X5Xy.y.u.u.e.;.0.w.r.8.5.0.0.r.r.r.r.r.r.0.5.r.r.r.5.0.0.r.5.5.5.5.5.5.5.0.0.0.r.w.r.r.r.r.0.5.=.0.w.r.0.0.0.w.w.r.w.w.0.=.,.#.@.&.q.{ * * 5 8 [ +.{ a W i .   yXyXyXyXyXyXyXyXyXyXyXyXyXyXyXyXyXyXyXyXyXyXyXyXyXyXyXyXyXyXyXyXyXyXyXyXyXyXyXyXyXyXyXyXyXyXyXyXyXyXyXyXyXyXyXyXyXyXyXyXyXyXyXyXyXyXyXyXyXyXyXyXyXyXyXyXyXyXyXyXyXyXyXyXyXyXyXyXyXyXyXyXyXyXyXyXyXyXyXyXyXyXyXyXyXyXyXyXyXyXyXyXyXyXyXyXyXF #. .S q > # P H.%...5.0.0.5.r.0.0.5.5.0.0.0.0.0.5.5.r.y.r.y.w.r.r.r.w.0.w.w.r.r.r.y.y.y.5X5Xu.u.y.y.w.0.0.r.r.0.5.r.r.r.w.y.y.y.r.r.r.r.r.0.0.0.0.0.0.r.r.r.0.0.0.0.w.r.r.r.w.r.w.w.w.0.0.0.0.0.r.r.0.0.0.5.5.+.=.,.0.0.+.+.0.0.5.5.5.0.%.+...+.+.5.0.,.+...%.0.5.3.+.,.0.0.0.=.=.,.%.%.0.5.+.5.5.5.+.+.5.5.5.5.+.+.=.=.5.5.0.0.0.0.+.+.+.=.0.0.+.=.+.+.+.0.0.0.=.=.0.,...I %.@.P ......I D z z k k u , g * o + + 5 8 > * = F Z.*.z J { } +.%.,.+...} %.0.0.0.,.#.%.,.;.@.@.! ! ;.q., } q.",
"I > ;.$.F I I @.%.,.,.0.0.0.w.0.=.0.r.w.0.5.%.#.! z u R J.<.8 * o . % o o * > > g g z J {  .+.,.,.%.....P { ..%.,.%.%.%...%.+.+.....} } } ....+.,.0.5.5.+.+.+...+.+.....%.} ..+.5.3.+.,.,.%.+.+.+...@.@.@.#.#.....+.%.%.#.#.+.%.&.#.#.%.,.&.#...%.;.0.0.0.0.,.,.,.,.0.0.0.0.0.0.0.0.0.0.0.0.0.r.y.r.r.0.r.y.r.y.y.y.y.r.w.w.w.y.u.u.u.5X5Xu.u.u.u.u.w.r.0.0.w.0.r.8.8.8.8.r.r.r.r.8.r.8.0.0.0.=.5.0.0.0.5.5.5.5.5.3.5.0.0.0.0.r.0.0.0.0.0.0.0.r.w.0.0.0.0.r.w.r.0.0.0.%.%.@.%.:.J * * > w +.,. .g s.V e o yXyXyXyXyXyXyXyXyXyXyXyXyXyXyXyXyXyXyXyXyXyXyXyXyXyXyXyXyXyXyXyXyXyXyXyXyXyXyXyXyXyXyXyXyXyXyXyXyXyXyXyXyXyXyXyXyXyXyXyXyXyXyXyXyXyXyXyXyXyXyXyXyXyXyXyXyXyXyXyXyXyXyXyXyXyXyXyXyXyXyXyXyXyXyXyXyXyXyXyXyXyXyXyXyXyXyXyXyXyXyXyXyXyXyXyXyXF %.+.S q > % P 2.%.%.0.0.0.5.5.5.5.5.5.0.0.0.0.0.5.0.r.w.r.r.w.w.r.0.0.0.r.r.r.r.r.r.y.y.y.u.5Xy.r.y.y.r.0.w.w.r.0.r.w.y.y.y.r.r.r.w.w.r.0.0.+.+.0.w.r.r.r.r.w.0.0.5.w.r.r.w.w.r.0.w.w.0.0.0.0.r.r.0.0.0.+.+.0.5.5.=.0.0.0.=.5.0.0.0.0.0.5.4.%.+.+.+.,.%.{ | +.,.,.+.+.,.3.0.0.=.=.,.=.,.+.+.=.5.5.+.+.+.5.5.5.=.+.+.+.=.0.=.+.+.+.,.=.+.+.........%.,.+.+.5.0.0.,.+.%.%...#.&.#.I ..@.....I D z k k , , j = o + O 5 8 > o = L <.^ z J } +.+.+.=.+.+.} %.,.0.,.%.#.%.%.%.@.! ! ! :.2.< L 2.",
"I > ;.$.F } L ! #.,.0.0.0.0.w.w.,.0.w.w.r.0.%.@.! z p R Y.<.j * o o * o o > 5 > < g l J {  .+.+.+.+.........%.=.=.+.%.%.%.%.%.+.......} } ..+.+.,.,.+.+.+.+.+.+.+.+.......} I +.,.5.+.+...%.+.+.....#.%.%.%.......%.....#...%.&.#.@.....%.;.,.,.,.,.0.0.w.0.,.+.#.%.,.0.0.0.0.5.0.0.0.0.5.5.0.w.y.w.0.0.r.r.r.w.y.y.y.y.r.w.t.w.y.u.u.u.u.y.y.y.u.u.w.w.w.w.r.r.r.r.8.8.r.r.r.5.5.5.5.5.0.0.=.+.+.5.0.0.5.5.5.5.5.5.5.0.r.0.5.5.0.0.0.0.r.r.r.y.y.r.0.0.0.0.0.0.5.5.0.+.%.#.:.:.J * * 5 [ ,.0.+.z x.j.a o yXyXyXyXyXyXyXyXyXyXyXyXyXyXyXyXyXyXyXyXyXyXyXyXyXyXyXyXyXyXyXyXyXyXyXyXyXyXyXyXyXyXyXyXyXyXyXyXyXyXyXyXyXyXyXyXyXyXyXyXyXyXyXyXyXyXyXyXyXyXyXyXyXyXyXyXyXyXyXyXyXyXyXyXyXyXyXyXyXyXyXyXyXyXyXyXyXyXyXyXyXyXyXyXyXyXyXyXyXyXyXyXyXyXyXyXyXL &.+.T 7 * o P 2.;.,.0.0.0.5.5.5.5.0.0.w.r.0.r.r.0.0.0.r.r.r.r.r.r.r.0.8.r.r.r.r.r.r.y.y.y.y.5Xy.y.y.y.y.w.u.w.w.r.r.w.w.y.r.5.5.0.0.r.r.0.0.,.,.0.w.0.r.r.w.0.0.0.0.0.r.r.r.r.r.0.0.0.0.0.r.r.r.0.0.0.0.0.0.0.0.0.0.0.0.5.5.5.5.+.+.%.0.0.0.+.+.+.+.%...S  ...%.%.+.+.+.+.0.0.5.=.=.=.+.+.+.+.5.5.+.+.=.5.=.+.+.+.+.+.+.+.+.+.+.+.0.,.=.+. .....%.+.=.=.=.0.0.0.+.+.......%.,.+......... .| P D j g , , j * o + . 5 8 > * = F Z.#.z D } +.=.5.=.,.=.%.+.+.,.%.....%.,.&.#.^ ! ! :.<.< L I.",
"F > ;.$.I { F @.%.,.0.0.0.0.r.w.0.=.0.w.r.0.%.@.! F g R Y.F.j * o o * o o > 5 , g g l D { +.+.+.=.,.%.%.%.,.,.,.=.=.%.%.%.,.,.,.%.%.+.......+.+.+.+.+.+.+.=.,.5.=.=.+.+.+. .I %.,.,.+...} ..........%.5.=.%... .%.%.} I } ..%.%.@.I I #.#.%.&.,.;.%.+.1.0.+.....#.+.5.0.r.0.5.5.0.0.0.0.0.5.0.r.r.0.0.0.w.r.r.w.r.r.y.w.r.w.w.0.0.w.u.5Xy.y.y.y.y.y.y.w.u.u.r.r.r.0.r.r.w.w.0.5.5.5.5.8.0.0.5.5.5.5.5.0.5.5.5.5.5.r.0.0.0.0.5.5.5.r.r.r.r.r.r.y.r.0.0.r.r.5.0.0.5.5.0.%.%.&.<.<.J * o 5 ..,.0.+.A z.j.k . yXyXyXyXyXyXyXyXyXyXyXyXyXyXyXyXyXyXyXyXyXyXyXyXyXyXyXyXyXyXyXyXyXyXyXyXyXyXyXyXyXyXyXyXyXyXyXyXyXyXyXyXyXyXyXyXyXyXyXyXyXyXyXyXyXyXyXyXyXyXyXyXyXyXyXyXyXyXyXyXyXyXyXyXyXyXyXyXyXyXyXyXyXyXyXyXyXyXyXyXyXyXyXyXyXyXyXyXyXyXyXyXyXyXyXyXk @.,.%.S 7 o % } e.1.0.0.5.5.5.0.0.r.0.r.r.r.0.r.w.w.0.5.5.r.r.0.0.0.r.r.r.r.r.r.r.r.y.y.y.y.u.u.y.y.y.y.y.y.u.w.r.r.w.w.0.r.5.5.0.0.5.5.0.0.w.w.w.0.0.0.0.0.0.,.0.w.w.w.0.0.r.r.0.0.0.0.0.r.r.r.r.r.r.r.w.w.w.0.5.5.0.0.5.+.+.5.5.+.+...%.%.%...{ | ......| } ......+.%.o.+.,.0.,.=.=.=.+.+.+.=.0.0.,.=.=.5.+.+.+.+.+.+.+.+.+.+.=.5.5.5.=.+.+.....+.+.=.=.=.0.5.5.,.+. ...+.,.0.,.+.+.,.=... .{ J j g = = 6 * + O   > 8 > * = F F.#.z D } ..=.5.=.=.5.0.%.+.+.+...%.,.,.;.%.^ ! ! :.<.6 L q.",
"F > ;.$.D J D #.&.0.0.0.0.0.r.r.0.5.5.w.r.,.%.@.! F g ! J.F.j * o o * o o > 5 6 j j j l { ..+.=.,.,.,.,.+.,.,.,.=.,.,.=.=.,.,.+.+.,.,.+.+.+.+.+.+.+.=.5.5.5.=.5.=.%.%.%.+.+...+.,.0.+.+.......,.#.I #.+.+.........@.I D I ..I I F F @.;.%...} ....} ..%.%.....%.,.0.0.w.w.r.5.5.r.r.r.r.r.r.r.0.0.0.w.w.w.w.w.r.0.r.w.r.r.w.w.0.0.w.u.5Xy.5Xy.y.w.w.r.w.u.y.r.r.0.0.5.0.w.0.+.+.=.0.0.r.8.r.r.r.5.5.5.5.5.5.5.5.r.5.5.5.5.0.5.0.5.5.r.r.r.r.r.y.r.r.0.0.r.r.0.0.5.0.0.%.%.%.<.2.S o o 5 { %.,...z l.W , yXyXyXyXyXyXyXyXyXyXyXyXyXyXyXyXyXyXyXyXyXyXyXyXyXyXyXyXyXyXyXyXyXyXyXyXyXyXyXyXyXyXyXyXyXyXyXyXyXyXyXyXyXyXyXyXyXyXyXyXyXyXyXyXyXyXyXyXyXyXyXyXyXyXyXyXyXyXyXyXyXyXyXyXyXyXyXyXyXyXyXyXyXyXyXyXyXyXyXyXyXyXyXyXyXyXyXyXyXyXyXyXyXyXyXyXyXk @.%.+.l 5 # * ..e.0.,.5.5.5.0.r.0.r.r.r.0.0.0.r.r.r.0.0.0.y.r.0.5.5.r.r.r.r.r.r.r.r.y.y.y.y.y.y.y.y.y.y.y.y.w.0.5.0.w.w.0.0.0.5.0.0.0.0.0.w.0.w.0.0.0.0.,.,.,.,.,.0.w.w.w.0.w.r.0.0.0.0.r.r.r.r.r.r.r.r.r.r.0.5.5.5.0.0.0.=.=.5.5.0.+.{ } ..#...P ..#.......P P {  .+.+.o.%.%.+.+.=.,.=.+.+.5.0.,.,.+.+.+.=.+.+.+.+.+.+.+.+.=.5.5.5.5.5.=.=.=.=.,.0.0.0.0.,.,.+.=.0.+.+.+.0.0.0.r.0.5.=.,.=.+. .S l j , , j * + .   > 8 > * = I F.*.z L } ..+.5.5.5.5.0.w.,.+.+.,.0.,.;.&.#.! ! F &.<.6 L e.",
"F > &.#.D S D @.&.,.0.0.0.r.r.r.r.5.r.w.0.,.,.#.I D g R J.F.j > o o * o o * > 6 j j j l J  .+.=.=.+.+.+.+.,.,.=.=.0.0.5.=.=.+...+.,.,.=.+.=.,.,.+.+.=.5.5.+.+.=.+...J } %.+.0.5.3.3.+.+.+.+.,.0.} z ! @.#.........I I L L I L F z ! %.,.%...{ | ....@.} #.&.,.,.0.w.w.0.0.0.5.5.0.r.r.r.y.y.y.r.0.w.w.w.0.w.w.0.0.w.w.w.r.w.u.u.w.u.u.u.5X5Xy.y.w.r.0.w.y.y.r.r.0.0.5.0.0.0.=.+.5.0.0.5.5.8.r.0.5.5.5.5.5.5.5.5.0.5.5.5.5.5.5.0.0.r.r.r.r.r.r.r.r.r.0.0.r.r.0.0.0.0.0.+...#.<.2.S o o > l ..,...z Q m % yXyXyXyXyXyXyXyXyXyXyXyXyXyXyXyXyXyXyXyXyXyXyXyXyXyXyXyXyXyXyXyXyXyXyXyXyXyXyXyXyXyXyXyXyXyXyXyXyXyXyXyXyXyXyXyXyXyXyXyXyXyXyXyXyXyXyXyXyXyXyXyXyXyXyXyXyXyXyXyXyXyXyXyXyXyXyXyXyXyXyXyXyXyXyXyXyXyXyXyXyXyXyXyXyXyXyXyXyXyXyXyXyXyXyXyXyXk ! %. .l 5 # * ..e.0.,.%.%.0.0.0.0.r.r.r.0.0.0.0.0.0.0.0.r.y.r.0.5.5.0.r.r.r.r.r.r.r.r.r.y.y.y.5Xy.w.r.r.y.y.w.0.0.w.w.0.0.w.w.r.5.5.r.w.0.0.0.0.0.0.0.0.,...,.1.,.%.,.0.w.w.w.0.0.0.w.r.r.0.r.r.r.r.r.r.r.r.0.5.5.0.0.0.0.0.=.5.0.0.+.| ....#.#.} @.! L J {  .{  .+.+.+.+.%.+.o.+.=.0.,.0.3.5.5.+.+.|  .+.=.=.+.+.o.+.+.=.=.=.5.5.5.5.5.=.+.=.=.,.0.0.0.+.+.+.=.=.=.+.+.=.0.5.5.r.r.5.=.+.+...{ S l j , , j % . O . 5 w 5 * ; ! F.*.D I } ..+.5.0.0.0.0.w.0.%.%.0.0.,.,.#.@.U F ! :.q.6 I e.",
"F > %.#.D [ L @.#.,.0.0.w.0.0.r.r.r.r.r.0.0.,.%.} D j ! Y.H.l > o o * o o * > 6 l j j z J { ..+.+... . .+.,.+.+.+.,.0.5.=.+.......,.,.+.+.=.0.,.0.5.5.5.+.+.+.=.+...D P %.%.0.5.+.+.+.%.#.%.,.,...z L #.%.%.+.+.......#...} { I I } %.0.0.+.+.+.+.,.&.....%.%.,.1.w.,.%.,.0.0.5.0.0.8.r.y.y.w.w.w.y.y.r.0.0.0.0.w.w.w.r.w.w.y.y.u.y.y.u.5X5Xy.y.u.w.r.w.w.r.r.r.r.0.0.0.0.w.0.0.0.0.5.5.5.5.5.0.0.=.,.+.+.=.0.0.0.5.r.0.5.5.5.0.0.0.0.0.0.r.r.r.r.0.0.0.0.5.0.0.0.0.,.+...#.:.<.S o o * 8 { %...z W i + yXyXyXyXyXyXyXyXyXyXyXyXyXyXyXyXyXyXyXyXyXyXyXyXyXyXyXyXyXyXyXyXyXyXyXyXyXyXyXyXyXyXyXyXyXyXyXyXyXyXyXyXyXyXyXyXyXyXyXyXyXyXyXyXyXyXyXyXyXyXyXyXyXyXyXyXyXyXyXyXyXyXyXyXyXyXyXyXyXyXyXyXyXyXyXyXyXyXyXyXyXyXyXyXyXyXyXyXyXyXyXyXyXyXyXyXyXa ! %. .l 5 o * ..e.q.,.&.%.%.0.0.5.r.r.0.0.0.0.=.+.=.0.0.r.y.r.0.0.5.0.0.r.r.r.r.r.r.r.r.r.y.y.5Xy.0.0.,.w.w.w.w.w.w.w.0.0.0.w.w.r.r.r.0.+.+.0.0.r.r.0.0.,.+.,.0.,.+...1.0.w.w.0.0.w.y.r.r.r.r.r.r.r.r.r.r.w.r.0.0.0.0.0.0.0.=.5.0.+.o.+.0.0.,.%.} L z z } #.+.+.+.5.=.+.+.=.+.+.+.=.0.0.0.5.5.5.=.+. .+.=.5.=.+.+.o.o.=.,.,.=.5.5.5.5.5.=.+.+.=.=.0.0.,. . .+.,.=.,.+.+.=.0.5.5.5.0.=.+. ...} J D l l , , j % + + O 5 l 5 % ; ! F.*.A I #.+.+.5.0.0.5.0.0.,.%.%.,.0.0.+...} I U ! :.2.< I e.",
"I * %.#.D { } @.@.%.,.0.0.0.0.0.r.r.r.5.0.0.0.%.} J j ! Y.U.S > o o > * o * > , j j j z J { ..+.+.+.....%.,... ...,.0.5.=.+...I ..%.,.=.+.5.=.+.5.5.5.5.=.+.+.+.+.+...| ..+.%.+.+.%.%.@.I #.%.=.+.| ..%.+.=.=.=.=.+.+.+.+.+...%.#...+.5.5.5.5.5.,.=.0.,.%.#.#.%.&.0.,.+.%.,.0.0.0.r.8.8.y.w.w.w.y.y.y.y.0.0.0.w.w.0.0.w.u.w.y.y.y.y.y.u.u.5X5Xu.u.w.0.w.w.w.r.r.r.0.0.0.0.w.r.0.0.0.=.0.5.5.5.0.0.,.%.+.+.+.0.0.5.5.8.r.0.0.0.0.0.0.0.5.5.0.r.y.r.5.5.0.0.0.0.,.,.,.+. . .#.<.<.J * + * j } %.} g R e   yXyXyXyXyXyXyXyXyXyXyXyXyXyXyXyXyXyXyXyXyXyXyXyXyXyXyXyXyXyXyXyXyXyXyXyXyXyXyXyXyXyXyXyXyXyXyXyXyXyXyXyXyXyXyXyXyXyXyXyXyXyXyXyXyXyXyXyXyXyXyXyXyXyXyXyXyXyXyXyXyXyXyXyXyXyXyXyXyXyXyXyXyXyXyXyXyXyXyXyXyXyXyXyXyXyXyXyXyXyXyXyXyXyXyXyXyXi ! &...S 5 . * ..q.<.;.$.@...=.0.5.8.0.0.0.0.=.+.+.,.0.0.r.r.r.r.0.0.0.0.r.r.r.r.r.r.r.r.r.r.y.y.y.w.+.+.,.0.e.t.w.w.0.0.0.5.5.r.y.y.r.0.+.0.w.w.r.r.r.0.,.0.0.0.0.,...,.,.w.0.5.0.w.y.y.r.r.r.r.r.r.y.r.w.y.w.r.0.0.0.0.0.0.0.0.=.+.+.0.0.0.5.5.o.{ D D ..%.5.=.+.+.5.5.+.+.+.+.+.5.0.0.0.5.=.5.=.+.+.+.+.5.+.+.+.+.+.+.+.+.+.5.5.5.5.5.=.=.=.=.+.+.%.%.....+.=.5.=.+.+.=.,.,.=.=.=.=.+...} J D l l j , , 6 % + . . 5 l 5 * ; ! G.$.A D #.,.0.5.0.0.0.0.0.,...#.,.0.0.0.%...I F U :.2.< I U.",
"U * %.#.D } } #.$.%.%.,.0.,.,.,.w.w.5.5.0.0.0.+.| S j ! Y.U.S 5 o % > * o > 5 > g u g l J ....+.+.+.,.,.,.+. . ...+.5.5.5.+...Y ..+.=.=.=.=.+.o.+.+.5.5.5.+.+.+.+.=.+... .......+.#.@.I F @...+.=.+.+.+.5.5.5.5.5.5.=.+.5.5.=.=.+...+.5.5.5.5.5.0.0.5.0.0.,.%.#.#.w.0.,.+.,.0.0.w.w.r.8.r.r.w.w.w.y.y.y.y.w.w.w.w.0.w.w.y.y.y.u.u.y.y.y.u.5Xy.y.u.w.w.w.w.r.r.r.0.w.0.,.q.w.r.0.5.+.+.5.5.5.5.0.0.0.+. .+.,.,.o.+.5.5.0.r.r.0.5.5.5.0.0.5.5.5.r.5.+.+.0.0.0.0.%.+.+...{ { #.<.<.J * + * j J #.} g R u . yXyXyXyXyXyXyXyXyXyXyXyXyXyXyXyXyXyXyXyXyXyXyXyXyXyXyXyXyXyXyXyXyXyXyXyXyXyXyXyXyXyXyXyXyXyXyXyXyXyXyXyXyXyXyXyXyXyXyXyXyXyXyXyXyXyXyXyXyXyXyXyXyXyXyXyXyXyXyXyXyXyXyXyXyXyXyXyXyXyXyXyXyXyXyXyXyXyXyXyXyXyXyXyXyXyXyXyXyXyXyXyXyXyXyXyXk p } &...S 5 o *  .q.&.$.*.^ @.%.,.0.r.0.0.0.0.+.+.0.0.0.5.5.5.r.r.w.0.0.0.w.w.+.0.w.0.0.0.0.r.y.y.y.w.0.....;.q.0.,.,.0.w.r.0.+.5.r.y.w.0.0.r.w.r.r.r.r.0.0.0.w.w.w.0.0.0.0.0.r.0.0.r.y.y.r.r.r.w.r.w.r.w.u.w.r.r.0.0.0.0.0.0.0.0.5.5.5.0.0.5.5.5.+.+. .{ +.5.5.5.+.+.+.5.3.=.+.=.5.0.0.%.,.=.5.5.5.+.+.+.3.5.+.+.+.+.+. . ...+.+.5.5.5.5.5.5.0.0.+.+.+.,.=.+.+.+.,.+.+.+.=.=.,.,.=.=.,.+...I D D l z g = = 6 % o . . 5 l 5 * ; ! G.$.z L %.,.0.0.5.0.0.5.w.,.I #.0.0.5.0.,...I F F $.<.< } U.",
"U * %.#.F } } %.$.%.%.0.w.1.%.%.0.w.0.0.0.r.0.,...S j ! J.R.S 5 o o > * o > 5 * , u g S { ..+.+.+.=.0.0.5.=.+.+.+.+.=.+.+.........=.=.=.=.=.+.+.+.+.=.5.=.+.o.+.+.+.+.+..... .+.+.....I } ....+.+.+.+.=.5.5.3.5.5.5.+.+.=.5.0.0.+.+.%.0.0.0.5.5.0.0.0.0.0.0.0.%.%.w.w.w.,.,.0.0.r.r.r.r.r.r.r.w.w.y.y.y.y.w.w.w.w.w.w.w.y.y.w.y.u.y.y.y.u.u.y.w.w.u.u.w.w.r.r.r.0.0.,.%.1.e.0.0.+.+.5.5.8.5.5.0.6.5.5.+.,.,. .[ +.5.5.0.0.0.0.5.5.=.0.0.0.5.5.5.5.+.=.0.0.0.,.%.....#.....#.<.<.J % . * j S } J p k u . yXyXyXyXyXyXyXyXyXyXyXyXyXyXyXyXyXyXyXyXyXyXyXyXyXyXyXyXyXyXyXyXyXyXyXyXyXyXyXyXyXyXyXyXyXyXyXyXyXyXyXyXyXyXyXyXyXyXyXyXyXyXyXyXyXyXyXyXyXyXyXyXyXyXyXyXyXyXyXyXyXyXyXyXyXyXyXyXyXyXyXyXyXyXyXyXyXyXyXyXyXyXyXyXyXyXyXyXyXyXyXyXyXyXyXyXk p } %...[ 5 o *  .q.$.*./ *.$.;.,.0.0.0.0.w.0.+.=.0.0.5.5.5.5.r.r.r.0.5.5.0.0.[ %.w.0.+.+.0.r.y.y.r.w.w.+. .%.1.,...%.0.w.w.0.+.5.r.y.w.w.r.r.r.r.r.r.r.r.0.0.0.0.0.0.0.r.r.r.r.r.r.0.y.y.r.r.r.w.r.0.0.w.w.w.r.r.r.r.0.5.5.0.0.0.0.0.0.5.0.0.0.3.=.=.+.o.+.5.5.5.=.+.=.5.5.5.=.5.5.0.%...%.=.5.5.5.5.=.5.5.5.5.=.5.5.+. . .+.+.+.0.5.5.5.5.5.0.0.+.+.+.=.,.=.,.,.,.,.=.5.0.0.0.0.=.=.,.+.%.} D D z z h & = 6 * o . + 5 l 5 * , ^ G.$.z L #.%.0.0.5.0.0.5.0.,...%.0.0.5.0.,...I F F $.<.6 } U.",
"U * %.#.F } } &.$.%.,.w.u.w.%.%.0.w.0.w.w.w.w.,...S j F Y.U.S 5 # o > o o > 5 > 6 g g L } ....+.+.=.5.5.5.5.=.+.+.%.....{ ..+.5.=.,.,.=.=.+.5.3.+.+.+.=.=.+. .o.+.+.+.+.+. .o.+.3.+.+...+.....+.+.+.+.+.+.+.+.5.5.=.+.+.+.0.0.0.,.+.+.0.0.0.0.=.+.,.0.0.0.w.0.,.%.0.w.w.0.0.0.0.0.r.r.w.w.r.0.0.r.y.y.y.y.w.w.y.r.0.0.w.w.y.w.w.y.y.y.5X5Xu.y.r.r.y.u.u.w.r.r.r.0.0.+...,.w.0.0.3.5.r.r.r.5.5.0.r.r.0.0.0.+.[ X.0.0.5.5.5.5.0.0.5.+.5.0.0.=.,.5.5.0.0.0.0.0.,.#.I I I I I @.<.<.J o . * j P } J p z < . yXyXyXyXyXyXyXyXyXyXyXyXyXyXyXyXyXyXyXyXyXyXyXyXyXyXyXyXyXyXyXyXyXyXyXyXyXyXyXyXyXyXyXyXyXyXyXyXyXyXyXyXyXyXyXyXyXyXyXyXyXyXyXyXyXyXyXyXyXyXyXyXyXyXyXyXyXyXyXyXyXyXyXyXyXyXyXyXyXyXyXyXyXyXyXyXyXyXyXyXyXyXyXyXyXyXyXyXyXyXyXyXyXyXyXyXa i z { [ l 5 o *  .<.#.@.*.$.:.<.,.,.0.0.0.w.w.+.+.0.0.5.5.0.0.0.0.0.5.5.5.0.5.X.+.w.0.+.+.5.r.y.r.r.w.w.0.,.0.w.0.,.,.0.w.r.w.0.0.r.r.r.w.r.r.r.r.r.r.r.r.r.0.0.0.0.r.r.r.r.r.r.r.0.0.r.r.r.r.r.w.0.0.r.r.0.0.w.r.8.8.r.5.5.0.=.=.0.0.0.5.5.0.0.5.=.5.=.+.=.5.5.5.5.=.5.5.5.=.5.5.0.0.+.{ +.=.=.5.5.5.5.5.5.5.5.5.5.5.5.+.+.+.+.+.0.5.=.+.=.=.=.,.=.,.%.+.,.,.,.+.+.,.0.0.0.0.5.5.=.=.=.+.....D k k k u % , g * o + . > w 5 * , ^ G.$.z L ....+.+.0.0.0.0.0.%...%.0.0.0.0.%...F D F $.2.6 } U.",
"U * %.%.! @.@.$.%.%.0.w.u.w.,.&.,.0.0.w.0.0.0.%...S j F Y.U.S > # o 5 o o > 7 , 6 h g F D J {  .+.0.0.5.5.5.+.+.+.+.....I ..%.0.0.,.=.=.5.5.5.5.5.+.+.+.=.=.+.+.+.+.+.o.o.o.+.5.5.+.+.+.+.+. . .o.,.5.+.+.+.+.+.=.=.+.+.+.=.=.5.0.0.0.,.,.,.=.+...+.0.0.0.0.0.,.,.=.,.,.0.0.0.0.0.0.,.%.%.,.r.r.r.w.y.y.y.w.y.y.r.r.r.w.w.w.y.y.y.y.y.5X5X5Xu.w.w.y.u.u.y.w.r.r.w.w.0.,.w.r.r.r.r.r.r.r.r.5.5.0.r.r.r.5.5.+.O.5.0.0.0.0.5.5.5.0.0.5.+.5.+...%.0.0.0.0.0.,.,.%.@.U D A z D ! <.<.J o + * j P } J g k ,   yXyXyXyXyXyXyXyXyXyXyXyXyXyXyXyXyXyXyXyXyXyXyXyXyXyXyXyXyXyXyXyXyXyXyXyXyXyXyXyXyXyXyXyXyXyXyXyXyXyXyXyXyXyXyXyXyXyXyXyXyXyXyXyXyXyXyXyXyXyXyXyXyXyXyXyXyXyXyXyXyXyXyXyXyXyXyXyXyXyXyXyXyXyXyXyXyXyXyXyXyXyXyXyXyXyXyXyXyXyXyXyXyXyXyXp R a z S l w > o *  .<.#.^ #.$.$.#.#.+.5.0.0.0.w.0.=.0.5.5.0.w.0.0.0.r.r.r.5.0.0.5.0.r.r.0.5.0.r.r.r.r.r.0.0.r.u.u.u.u.w.w.w.0.0.0.r.w.0.0.r.r.r.r.r.y.y.r.r.r.r.r.r.r.r.r.r.r.r.r.0.0.,.0.r.r.r.r.w.r.0.r.r.0.0.w.0.0.0.0.w.0.+. .+.0.0.0.=.+.+.+.5.=.5.5.=.5.5.5.5.5.5.5.5.5.5.5.5.5.,.=...+.+.,.0.0.5.=.5.5.5.5.5.5.5.5.+.+.+.+.+.5.5.=.+.+.+.+.,.+.%...+.%.,.+. .[ +.0.0.0.0.=.=.+.+.+.+...} D k h p = % , j * o + . > 8 5 * , ^ G.$.z J I { ..+.,.0.0.0.0.+.+.%.0.0.0.0.&.#.L F F :.2.6 } U.",
"^ * %.;.! @.@.#.#.%.0.w.r.w.q.<.1.0.w.w.w.,.+...J S j F Y.H.S > * * 5 # o > 7 5 g k k z z z ....+.0.0.0.0.=.+.=.+.+.5.+.@.^ @.%.,.,.+.+.5.5.5.5.0.+.o.o.+.....+.+.+.+.o. .o.=.=.+. .|  .+.+.o.o.o.+.+.+.+.+.+.+.+.=.=.,.=.+.+.+.=.5.5.=.+.+.=.=.+...0.0.0.0.0.0.,.+.+.+.0.0.0.0.0.,.%.#.}  .,.w.r.0.0.r.r.w.y.y.r.y.r.r.w.w.w.w.u.u.5X5X5Xy.y.y.y.y.y.y.y.y.w.0.0.w.t.w.r.8.8.r.r.8.8.r.r.8.5.0.r.r.r.5.0.5.5.r.8.r.r.r.r.r.r.r.r.5.5.=.o. .+.0.0.0.0.0.,.+...! @.! D z z I <.2.J o . * 8 S { z g g %   yXyXyXyXyXyXyXyXyXyXyXyXyXyXyXyXyXyXyXyXyXyXyXyXyXyXyXyXyXyXyXyXyXyXyXyXyXyXyXyXyXyXyXyXyXyXyXyXyXyXyXyXyXyXyXyXyXyXyXyXyXyXyXyXyXyXyXyXyXyXyXyXyXyXyXyXyXyXyXyXyXyXyXyXyXyXyXyXyXyXyXyXyXyXyXyXyXyXyXyXyXyXyXyXyXyXyXyXyXyXyXyXyXyXyXi R k J S S w * . o  .q.#.^ #.@.#.@.} +.5.0.0.0.0.0.0.0.5.0.0.5.5.5.5.r.r.r.8.r.r.6.r.6.r.r.r.r.r.0.w.w.0.0.0.r.y.y.y.u.w.5.0.w.r.0.0.r.5.5.r.w.r.5.5.r.w.r.8.y.r.r.r.r.r.r.r.r.8.r.0.0.=.+.0.0.r.r.0.0.r.r.w.w.0.0.0.0.0.,.,.%.{ { ..0.0.0.5.+.+.+.5.5.5.5.5.5.5.5.5.5.5.5.5.5.0.0.5.=.+.+...+.=.0.0.,.+.+.5.5.5.5.5.5.5.5.=.+.+.+.=.0.0.0.=.+.,.,.,.+.{  .+.,.0.,.+. .+.,.,.+...%.%.+.+.=.+.....I z k p = % , 8 * o . . > 8 > * , ! Z.*.z J I I ..%.,.,.,.0.0.,.,.0.,.,.,.%.#.I F F F $.2.6 } U.",
"^ * &.;.! @.! @.#.;.0.r.0.,.<.q.0.0.w.e.e.,.%...J l j F J.H.l > * * 5 # o > 8 , g k g z z I %.%.+.+.=.0.0.=.=.,.=.3.5.0.%.........+. . .+.5.5.+.+.+.+.+. .{ {  ...%.+...o.o.=.,.+.{ {  .+.+.+.+.+. . .o.+.+.+.+.+.+.5.5.5.=.=.=.5.5.5.=.+.+.0.0.,.,.0.0.0.0.0.0.+.,.+.0.0.0.0.+.=.0.0.%...+.+.0.w.0.0.0.w.w.w.y.y.y.y.w.w.w.5.0.w.y.y.y.y.y.y.y.y.r.r.y.y.y.y.0.5.r.y.w.r.r.8.8.5.8.8.r.r.5.5.r.0.8.8.r.0.5.5.8.8.r.8.r.r.r.r.r.5.5.0.0.+.+.+.=.5.0.0.0.+...{ } %.;.#.I L @.<.2.J % . * 6 j l l h p %   yXyXyXyXyXyXyXyXyXyXyXyXyXyXyXyXyXyXyXyXyXyXyXyXyXyXyXyXyXyXyXyXyXyXyXyXyXyXyXyXyXyXyXyXyXyXyXyXyXyXyXyXyXyXyXyXyXyXyXyXyXyXyXyXyXyXyXyXyXyXyXyXyXyXyXyXyXyXyXyXyXyXyXyXyXyXyXyXyXyXyXyXyXyXyXyXyXyXyXyXyXyXyXyXyXyXyXyXyXyXyXyXyXyXyXu a k J S D l * . o { q.&.#.%.%.%.#.%.,.0.w.0.0.0.0.0.0.0.0.5.3.3.5.r.r.8.r.r.r.8.5.5.0.r.8.8.r.0.5.+.=.5.5.0.0.r.y.r.w.5.o.5.0.r.r.r.r.5.5.r.r.r.5.5.0.0.5.5.8.y.r.r.r.r.r.r.r.8.8.r.0.,.+.,.0.0.r.0.0.0.0.r.w.0.=.,.,.;.;...| %.,.,.0.0.0.0.0.,.,.0.5.5.5.0.0.5.5.5.5.5.5.5.5.5.5.0.0.+.+.+.=.=.+.+.+.+.+.5.5.5.5.5.5.5.5.5.5.5.5.0.r.0.0.5.=.=.,.0.+.+.%.0.0.0.0.,.,.,.,.%...P @.#. . .+.....} ! ! z p u % , 6 % o . O > 8 > * , ! Z.*.z J @.} ! @.@.....,.,.0.0.0.0.,.%.@.I F F F F $.<.< L U.",
"^ * &.:.! @.! ^ *.&.0.w.0.;.;.,.0.0.0.e.e.0.,.&.} D < A J.G.l > * * 5 * o > 8 , g k g z L @.......+.+.,.=.+.=.,.+.+.%.0.0.+.+.....=.+...+.+.+.+. .+.=.+.o. . .....} ....+.o.+.5.0.+. .+.+.+.+.5.+.O.X.o.+.+.+.+.+.3.5.5.5.5.=.=.5.5.5.,.=.5.0.0.0.,.0.0.5.5.0.0.+.0.0.0.0.0.0.=.0.w.w.0.5.5.0.0.0.+.%.0.0.0.0.0.r.y.y.y.y.w.0.0.r.y.y.y.r.y.y.y.y.y.y.y.5X5Xu.r.5.r.r.r.r.8.8.8.5.8.8.8.r.r.0.r.r.0.5.r.5.0.r.8.8.8.8.8.8.8.r.r.5.5.5.5.5.5.=.=.5.0.0.0.%.+.{ ..&.;.%.} } #.<.2.J % . * , u j z p i % . yXyXyXyXyXyXyXyXyXyXyXyXyXyXyXyXyXyXyXyXyXyXyXyXyXyXyXyXyXyXyXyXyXyXyXyXyXyXyXyXyXyXyXyXyXyXyXyXyXyXyXyXyXyXyXyXyXyXyXyXyXyXyXyXyXyXyXyXyXyXyXyXyXyXyXyXyXyXyXyXyXyXyXyXyXyXyXyXyXyXyXyXyXyXyXyXyXyXyXyXyXyXyXyXyXyXyXyXyXyXyXyXyXyXyXyXA k l S S j > . o  .q.:.$.&.%...+.,.0.0.0.w.0.0.0.0.0.0.0.0.5.5.0.r.r.6.r.r.5.5.0.5.r.r.8.8.8.5.5.o.=.0.0.0.0.r.y.r.w.0.+.0.r.r.8.r.r.5.5.r.r.r.0.0.0.5.5.5.r.r.r.r.r.0.0.0.r.8.r.y.w.0...%.0.0.r.r.0.0.0.r.0.0.,.0.%.%.&...+.0.0.0.0.5.0.0.0.,.%.0.5.5.5.0.0.5.5.5.5.5.0.5.0.5.5.0.0.0.0.0.0.=.+.+.+.=.5.5.5.5.5.+.5.5.5.5.0.0.0.0.r.5.0.0.0.5.5.0.0.0.0.0.5.5.0.0.0.0.=.+.| P I ..{ ..+...} F D F z k u % , 6 % o . . > 8 > * , ! :.#.z J #.} F F F F @.,.0.0.0.0.w.,.#.@.@.! F z z $.<., L H.",
"} * %.;.^ ! I ^ #.%.1.0.0.&.%.0.0.0.0.w.0.0.q.<.%.P < z J.G.l * * = > o o > w , , g h z } @...| ..+.+.+.+.+.%.+.......,.,.5.=.=.=.,.,.+.+.+.+. .+.=.=.=.+.+.=.%...L J {  ...+.5.5.+.+.+.+.5.5.5.+.+.o.o.+.+.+.+.5.5.5.5.5.5.5.+.=.5.5.0.5.5.0.,.%.%.0.0.5.0.0.0.+.5.0.r.r.0.0.=.0.0.0.r.r.0.0.0.%. .+.,.0.0.5.5.8.y.y.y.y.y.y.y.y.y.y.y.y.5Xy.y.y.y.y.u.5Xy.y.r.r.r.r.r.r.8.8.8.r.8.8.8.r.r.0.r.r.r.r.r.5.r.r.5.8.8.8.5.5.5.8.8.r.0.5.3.5.5.=.5.0.0.0.0.,.%.....#.%.%.} } #.:.2.J o o * , j j l p i & + yXyXyXyXyXyXyXyXyXyXyXyXyXyXyXyXyXyXyXyXyXyXyXyXyXyXyXyXyXyXyXyXyXyXyXyXyXyXyXyXyXyXyXyXyXyXyXyXyXyXyXyXyXyXyXyXyXyXyXyXyXyXyXyXyXyXyXyXyXyXyXyXyXyXyXyXyXyXyXyXyXyXyXyXyXyXyXyXyXyXyXyXyXyXyXyXyXyXyXyXyXyXyXyXyXyXyXyXyXyXyXyXyXyXyXyXR A l l l 8 > + o } q.:.$.%... ...0.0.0.0.0.0.5.5.5.5.0.0.0.0.0.r.r.0.5.r.0.5.5.r.0.r.r.r.r.r.r.5.5.0.0.r.r.0.0.r.r.r.0.0.w.y.r.r.0.r.0.5.0.r.r.r.r.r.r.8.5.r.r.r.r.r.0.0.0.r.r.r.w.w.w.,.0.0.0.r.r.r.0.r.r.0.0.0.w.,.,.,.,.5.5.5.5.0.5.5.0.0.+.+.0.0.0.5.0.0.5.5.5.5.5.0.0.0.5.5.5.0.5.0.0.0.0.=.0.0.0.5.0.0.5.5.5.5.5.0.5.5.0.0.0.0.5.5.5.0.5.5.0.0.0.0.5.5.5.5.0.5.5.5.5.+.........#.#.} I D D D z k u % , 6 % o . O > 8 > * = F $.! l S } F z F L @.%.,.0.0.0.0.0.,.%.%.%.#.! z z $.:., L F.",
"} > %.$.! ! ..#.@.#.:.,.;.,.0.w.w.w.r.w.0.0.0.0.;.P < z J.G.l > * * , * . > 8 , , g h z I ..%.,.,.,.,.%.....%.%.....+.=.=.=.=.,.5.=.=.=.+.+.+.+.=.=.=.+.+.+.+.+...F z S P ..o.+.+. .o.+.+.5.5.5.+.+.+.+.+.+.+.+.5.5.5.5.5.0.0.5.5.=.=.,.5.5.0.%.@.%.0.0.0.0.0.0.5.5.0.0.0.0.5.5.5.0.0.5.5.0.0.0.,.+.,.0.0.0.0.0.r.r.y.y.y.y.y.y.y.y.y.y.y.5Xy.y.y.y.y.y.y.y.y.y.r.y.r.r.r.r.r.r.r.r.8.8.r.r.r.r.0.r.8.8.r.r.0.0.0.0.5.5.5.0.5.5.0.5.5.5.5.0.0.0.0.0.,.0.0.,.%.......#.@.@.@.&.<.S o + * > j g j u a u   yXyXyXyXyXyXyXyXyXyXyXyXyXyXyXyXyXyXyXyXyXyXyXyXyXyXyXyXyXyXyXyXyXyXyXyXyXyXyXyXyXyXyXyXyXyXyXyXyXyXyXyXyXyXyXyXyXyXyXyXyXyXyXyXyXyXyXyXyXyXyXyXyXyXyXyXyXyXyXyXyXyXyXyXyXyXyXyXyXyXyXyXyXyXyXyXyXyXyXyXyXyXyXyXyXyXyXyXyXyXyXyXyXyXyXyXN a l h g , = + # } 2.$.$.&...+...0.0.,.0.=.+.5.5.5.5.0.0.0.0.0.0.0.0.0.5.5.5.5.0.0.0.r.r.r.r.r.r.r.8.8.r.r.r.r.r.r.r.r.r.r.w.r.0.0.r.0.5.5.r.0.0.5.r.r.r.r.r.r.r.r.r.0.0.r.r.0.0.0.0.0.r.r.r.0.0.0.0.0.0.0.0.0.w.w.0.0.0.5.5.5.5.5.0.5.5.5.0.,.,.0.0.0.0.0.5.5.5.5.5.5.0.0.0.5.5.5.0.,.+.%.0.5.5.0.r.8.8.5.5.5.5.5.5.0.0.0.5.5.5.0.5.5.0.0.0.0.0.0.0.0.0.5.5.5.0.0.8.8.5.5.,.=.+.......} P I } I D z j g & , 6 o o # + > 6 > # ; F *.! j l L L } #.%.%.%.0.0.0.0.0.0.0.0.,.%.#.! F z $.2.6 @.<.",
"} > #.%.! ! #.%.#.#.%.%.,.1.w.w.r.0.w.w.w.0.0.,...J 6 A J.G.l * * = 5 * o > j , < j l L } ..%.,.0.0.,.%. ...+.%.+.+.+.+.+.+.+.+.+.+.+.+.+.+.=.=.=.=.=.+.+.+.+.o.{ D D P { ..+. . . .+.+.+.,.=.+.+.+.+.+.+.+.+.o.+.=.=.+.5.0.0.0.+.+.+.,.0.5.+.%.#.%.0.0.0.5.0.0.0.0.0.0.5.0.0.0.0.0.0.5.5.5.0.,.,.0.w.0.0.0.r.r.r.r.r.y.y.y.y.y.y.y.y.y.y.u.y.y.y.y.y.y.y.y.y.y.r.y.r.r.r.r.r.r.r.r.r.r.r.r.r.5.5.0.r.r.r.5.0.0.0.r.0.5.0.r.8.5.=.=.=.5.0.0.5.0.=.=.,.=.=.,.1.;.;.%.;.%.%.@.&.<.l o . % , j g j u Q R . yXyXyXyXyXyXyXyXyXyXyXyXyXyXyXyXyXyXyXyXyXyXyXyXyXyXyXyXyXyXyXyXyXyXyXyXyXyXyXyXyXyXyXyXyXyXyXyXyXyXyXyXyXyXyXyXyXyXyXyXyXyXyXyXyXyXyXyXyXyXyXyXyXyXyXyXyXyXyXyXyXyXyXyXyXyXyXyXyXyXyXyXyXyXyXyXyXyXyXyXyXyXyXyXyXyXyXyXyXyXyXyXyXyXyXyXyXa j u i p , . o } F.:.#.<.q.e.1.q.0.0.=.=.5.=.=.0.0.0.8.r.8.5.r.5.5.0.5.5.5.5.0.5.5.8.r.r.r.r.0.6.8.8.r.r.r.r.r.r.r.r.r.r.r.0.0.0.0.r.r.r.r.r.5.5.r.r.0.0.r.r.8.8.8.0.5.0.0.0.0.0.0.0.y.y.r.0.0.0.0.5.0.0.0.0.w.0.0.0.0.0.0.5.5.5.=.+.=.0.,.,.0.0.0.5.0.0.0.5.5.5.5.5.5.5.5.5.5.5.0.=.+.+.=.=.=.5.5.5.5.5.5.5.5.5.5.0.0.0.5.5.5.0.5.0.0.5.5.0.0.0.0.0.5.5.5.5.0.w.r.r.0.5.=.=.=.%...{ ..........I z g g = , 5 # o # . * 5 > o = F $.^ l l { { ..%.%.=.0.0.0.0.5.0.0.0.,.,.&.#.! ! A $.2.6 } <.",
"} > %.%.! ! %.%.%.,.,.,.0.0.0.r.r.0.r.y.w.w.w.%.} l g A G.G.l * o * > o + * 8 , 6 z D @.} } ..,.,.,.,.+.+.,.,.,.,.,.+.+.+.+.+.+.+.+. .....+.=.+.=.=.=.+.+.+.+.+.{ J } ..+...+.+.+.+.+.+.o.+.+.+.o.o.o.+.+.+.+.o.o.+.+.+.+.+.%.%.+... .%.0.5.+...%.%.0.0.0.0.,.=.=.0.,.0.+.+.+.,.0.0.0.0.3.0.5.+.=.5.0.0.0.0.r.r.0.0.w.r.r.r.r.y.y.y.y.y.y.y.y.y.y.y.y.y.u.u.y.y.y.y.y.y.r.r.r.r.r.r.r.r.r.5.5.5.5.0.r.r.0.5.5.0.r.8.5.5.0.r.0.5.5.5.3.5.0.%.%.%.=.3.3.+.,.e.T.H.2.:.2.<.<.%.&.<.l o % u , u g g p K.W . yXyXyXyXyXyXyXyXyXyXyXyXyXyXyXyXyXyXyXyXyXyXyXyXyXyXyXyXyXyXyXyXyXyXyXyXyXyXyXyXyXyXyXyXyXyXyXyXyXyXyXyXyXyXyXyXyXyXyXyXyXyXyXyXyXyXyXyXyXyXyXyXyXyXyXyXyXyXyXyXyXyXyXyXyXyXyXyXyXyXyXyXyXyXyXyXyXyXyXyXyXyXyXyXyXyXyXyXyXyXyXyXyXyXyXyXyXa 6 u E Q k % o { U.<.#.F.$X$XOXU.<.0.+.=.=.5.=.5.,.,.0.0.5.5.r.5.5.5.5.5.0.0.5.5.5.8.r.r.r.r.0.5.6.8.r.r.r.r.r.r.r.r.5.0.0.0.0.5.5.5.r.r.r.5.5.0.w.r.0.,.0.0.0.5.r.0.0.0.0.0.w.w.0.5.r.r.r.0.0.0.r.5.5.0.0.0.0.0.0.0.0.0.5.=.+.+.+.+.%.,.+.=.0.r.0.3.+.0.0.0.0.5.0.0.5.5.5.5.5.5.+.+.o.+.=.=.=.=.5.5.5.5.5.5.5.5.5.0.0.5.5.5.0.0.=.=.5.5.+.0.0.0.5.5.5.0.w.0.0.0.0.0.0.=.=.,.,.,.....%.,.,.....J l j g = , 5 o o .   # > * o ; F :.*.z S  . .+.5.5.5.0.0.0.0.5.=.%.,.,.%.#.! F z z $.2.6 } :.",
"} > %.%.I I ..+.,.0.0.0.w.0.r.r.r.0.r.w.r.w.w.%.I l g A G.G.l * o % = + . * 8 , j D I @.} ..+.%.,.+.+.+.,.,.,.,.=.,.=.+.+.+.+.+.+... .....+.+.+.+.+.+.=.=.+.+.+.} P ..+.+...{  .+.+.%.+.o.} } ..o.o.o.+.+.+.+.+.+.+.+.,.,.+.%.,.,.+...%.0.5.+.,.,.=.5.=.0.,.,.+.=.+.+.+.+.3.%.%.5.0.0.0.0.0.5.3.5.5.5.0.r.r.r.0.0.0.r.r.0.r.r.r.w.r.r.r.r.y.y.y.y.y.y.y.w.w.r.r.r.w.r.r.y.6.6.r.r.r.r.r.r.5.5.5.5.0.r.r.0.5.5.5.0.5.5.5.0.0.5.5.3.3.,.1.<.<.<.<.1.,.#.;.S.+X+X<.:.;.<.,.<.#.%.;.l o k l.i u h h a [.s.. yXyXyXyXyXyXyXyXyXyXyXyXyXyXyXyXyXyXyXyXyXyXyXyXyXyXyXyXyXyXyXyXyXyXyXyXyXyXyXyXyXyXyXyXyXyXyXyXyXyXyXyXyXyXyXyXyXyXyXyXyXyXyXyXyXyXyXyXyXyXyXyXyXyXyXyXyXyXyXyXyXyXyXyXyXyXyXyXyXyXyXyXyXyXyXyXyXyXyXyXyXyXyXyXyXyXyXyXyXyXyXyXyXyXyXyXyXp , a m.m.A % o { U.<.$.F.F.>.J.'.H.0.,.=.=.=.=.=.,.2.2.e.,.5.0.0.5.5.5.5.5.0.0.5.6.8.r.r.r.r.5.5.5.r.r.r.5.5.8.r.r.r.0.5.5.0.5.0.5.5.0.0.0.0.0.0.w.w.,...+.,.0.0.0.,.+.=.0.w.w.r.0.0.r.r.r.0.0.0.5.0.5.5.0.w.0.0.0.0.0.5.5.+.,.0.0.,...P +.0.r.r.0.0.0.0.0.0.3.0.0.0.0.=.=.5.5.5.=.+.+.+.0.0.=.=.+.5.=.5.5.5.5.=.=.,.=.=.,.0.=.+.+.+.5.=.+.=.0.5.5.5.5.0.0.0.+.=.0.0.0.0.0.0.0.,.,.%.%.%.,...| D l g j = , 5 o . +   # > > o ; ! Z.*.z S  .+.3.9.5.5.0.0.0.0.5.+.+.%.+...} D z z z %.:., } &.",
".., &.&.I I ..+.0.0.0.0.w.0.r.r.r.r.r.w.w.r.0.%.J l g A G.G.D > * * > + . * j , 6 z D I } } +.,.=.+.+.+.,.%.%.+.5.5.,.=.%.+.+.o.....{ ..%.%.+.+.+.+.+.=.,.+.+.....} +.=.o.{ [ ..+.+.,.,.+.I I } +.+.+.+.+.o.+.+.+.+.+.0.0.,.,.,.0.0.=.=.0.0.0.0.0.5.0.=.+.+.,.0.=.,.0.w.w.w.w.0.0.0.0.+.+.+.+.5.0.0.5.5.5.0.0.5.5.0.0.0.5.0.r.w.w.r.r.r.r.w.r.r.r.r.r.r.r.r.r.r.r.r.r.r.r.r.r.w.w.r.8.8.r.r.0.5.5.5.5.r.0.0.5.5.0.0.0.0.0.0.,.+.+.%.<._.'.`.).).S.S.( ).XX`.>.^ #.%.@.! $.$.%.;.w . R ].r : h g a {.s.o yXyXyXyXyXyXyXyXyXyXyXyXyXyXyXyXyXyXyXyXyXyXyXyXyXyXyXyXyXyXyXyXyXyXyXyXyXyXyXyXyXyXyXyXyXyXyXyXyXyXyXyXyXyXyXyXyXyXyXyXyXyXyXyXyXyXyXyXyXyXyXyXyXyXyXyXyXyXyXyXyXyXyXyXyXyXyXyXyXyXyXyXyXyXyXyXyXyXyXyXyXyXyXyXyXyXyXyXyXyXyXyXyXyXyXyXyXu , E {.v.p % * ..U.H.>.Z.:./ c.].J.e.e.1.,.,.,.,.e.+X+XU.1.0.5.5.5.0.0.5.5.5.0.5.r.r.r.r.r.r.5.7.5.8.r.0.5.5.5.r.r.r.0.5.5.0.r.0.5.5.%.0.0.0.,.=.5.5.+.....,.,.,.....| ,.0.0.0.0.0.r.r.r.r.0.0.0.0.0.+.+.,.,.5.5.5.r.r.5.3.3.0.0.r.0.o. .=.r.r.0.r.r.r.0.0.3.3.5.0.0.=.+.+.+.5.0.5.+.+.0.0.0.5.=.=.5.5.5.5.5.5.0.+. . .=.=.+. . . .+.5.=.=.+.=.0.0.0.=.,.,.+.+.0.0.0.0.0.w.0.=.5.0.,...P ..%...P J j j = 5 5 . . . . * 5 > o ; ! Z.#.l S o.+.5.5.5.5.0.0.5.5.5.+.+.+.+...} z k k z #.:., } &.",
"#.5 &.%.F I ..0.0.w.w.0.r.w.r.y.y.r.r.w.y.r.=...P l j A H.J.I 5 o * > o . > l , , j z D P } +.,.+.....%.%.....%.0.0.=.+.+.+.+.....I J } %.%.%.+.=.+.+.+.+.+.+...I ..+.+.o...=.=.=.=.0.0.%...I ..+.+.+.o.|  .+.+.+.+.=.0.0.,.+.,.0.0.0.0.r.r.0.0.5.5.w.,. . .%.0.0.0.0.0.r.0.0.5.0.0.%... .+.+.3.0.0.5.5.5.5.0.0.0.0.0.5.5.0.r.w.w.w.r.r.w.w.0.0.r.w.0.0.0.r.r.r.r.r.r.5.0.w.w.0.0.0.5.8.r.r.5.5.5.5.5.5.0.0.0.5.5.0.0.0.,.,.,.+.%.%.1.2.S.H.H.S.S.S.).XX).( @.@.&.@.R l.K.Z.#.^ w + M v.f p k g a {.j.o yXyXyXyXyXyXyXyXyXyXyXyXyXyXyXyXyXyXyXyXyXyXyXyXyXyXyXyXyXyXyXyXyXyXyXyXyXyXyXyXyXyXyXyXyXyXyXyXyXyXyXyXyXyXyXyXyXyXyXyXyXyXyXyXyXyXyXyXyXyXyXyXyXyXyXyXyXyXyXyXyXyXyXyXyXyXyXyXyXyXyXyXyXyXyXyXyXyXyXyXyXyXyXyXyXyXyXyXyXyXyXyXyXyXyXyXyXu , Q 1Xk.p % > ..R.H.F.D.D.D.c.^.D.H.T.e.1.,.1.<.q.U.H.2.,.5.5.5.=.,.0.5.5.5.5.0.0.r.0.8.r.r.6.5.6.8.r.r.5.5.8.r.r.r.0.5.0.5.5.0.0.+...%.&.#.....+.0.,.=.5.0.0.=. . ...,.0.0.5.0.r.r.8.r.5.0.0.0.,.+.+.....+.5.5.8.8.r.8.5.5.r.0.0.r.0.5.r.0.5.0.r.r.r.r.5.5.5.5.5.+.+.+.+.+.=.5.5.+.+.0.5.5.5.5.5.5.5.=.+.o.=.0.+.o.+.,.+.+... ...+.=.,.+.+.+.=.=.,.,.,.+.+.,.0.0.0.5.5.0.0.,.0.0.,...P ..%.%...P j j = 6 5 + + . O > 5 > o = U <.#.l S  .+.5.5.5.5.,.5.0.0.0.5.+.+.+.+...J z z z #.<.6 } :.",
"#.5 &.%.F } +.0.0.r.r.r.r.w.r.y.r.0.0.w.w.r.5.....J j A J.Y.} 5 o o , * . > l , , j z D I ..%.,.+.....%.%...#.,.0.0.,.+.+.+.+.+.| D S P ..%.%.,.,.=.+.+.+.+.+.I F D { +.+.%.0.=.+.+.5.0.0.%.#...+.+.+. .{  .,.,.+.=.=.0.0.+.+.%.0.0.r.r.r.r.0.5.5.0.0.0.%.....+.=.0.0.0.0.0.5.5.0.0.0.+.+.+.0.0.5.0.0.0.0.0.0.r.r.r.0.0.0.w.y.w.w.w.w.y.y.w.0.5.r.w.r.5.0.r.r.r.y.u.r.5.0.w.e.0.+.+.0.r.r.r.5.5.5.0.0.0.0.0.0.0.5.0.,.,.,.,.,.%.4.+.+.+.......%.%.$.F.S.S.%.%.%.;.#.Q ^.1Xc.^ ! 8 * y k.B a z g a {.j.yXyXyXyXyXyXyXyXyXyXyXyXyXyXyXyXyXyXyXyXyXyXyXyXyXyXyXyXyXyXyXyXyXyXyXyXyXyXyXyXyXyXyXyXyXyXyXyXyXyXyXyXyXyXyXyXyXyXyXyXyXyXyXyXyXyXyXyXyXyXyXyXyXyXyXyXyXyXyXyXyXyXyXyXyXyXyXyXyXyXyXyXyXyXyXyXyXyXyXyXyXyXyXyXyXyXyXyXyXyXyXyXyXyXyXyXyXyXu , Q 1Xk.R = * ..OXH.:.`.D.D.^./.c.;.<.<.;.,.1.<.<.<.;.%.=.5.5.=.=.+.+.+.+.5.5.0.w.0.0.8.r.r.8.r.8.8.r.r.r.0.r.r.r.r.0.0.0.5.5.5.0.+.{ } @.I ....=.0.0.0.r.r.0.5.+.+.0.0.0.0.0.r.r.0.8.r.0.5.=.+.+...%.%...+.0.r.r.8.r.8.r.r.r.r.0.r.8.6.r.r.5.0.5.5.5.r.0.5.5.5.+.o.+.+.+.+.5.5.=.+.+.=.5.5.5.5.5.0.5.0.+. .+.0.=.+.,.,.+.+.%.+.+.+.,.,.+. ...+.+.+.,.,.,.,.,.0.0.0.5.+.+.,.,.0.0.,.%.D U ^ #...J j g = 6 5 . + + . > 5 * # = F Z.#.z S } +.0.5.5.=.+.+.0.0.0.5.+.+.3.5.+.{ F z z #.<.6 @.<.",
"..5 #.#.F J #.,.=.0.0.0.0.0.r.y.r.w.w.w.w.w.0.,.#.J j A G.H.I 5 * % 5 % + > l , , j z D } %.,.,.=.+.+.,.,.%...%.,.,.,... .+.+.+. ...I ......%.,.,.,.+.+.+.+.+.P F F U | +.+.0.=.+.+.=.0.5.0.%.%.%.+.+.+.+.+.......+.,.0.0.+.+.%.0.0.5.r.5.8.8.0.5.5.5.0.0.0.+.....+.,.0.0.0.0.0.0.r.0.5.5.0.0.5.5.5.0.0.0.0.r.r.r.r.y.y.y.y.y.y.y.y.y.y.y.r.r.r.u.7Xu.y.r.r.y.y.y.y.r.r.w.w.w.0.+.5.r.r.8.8.5.5.5.0.=.5.0.0.0.0.0.,. ...0.0.,...+.+.+.o. . .o.+...%...;.;.%.#.%.@./ z.(.(.j.^ ^ < % i k.B a A u a c.yXyXyXyXyXyXyXyXyXyXyXyXyXyXyXyXyXyXyXyXyXyXyXyXyXyXyXyXyXyXyXyXyXyXyXyXyXyXyXyXyXyXyXyXyXyXyXyXyXyXyXyXyXyXyXyXyXyXyXyXyXyXyXyXyXyXyXyXyXyXyXyXyXyXyXyXyXyXyXyXyXyXyXyXyXyXyXyXyXyXyXyXyXyXyXyXyXyXyXyXyXyXyXyXyXyXyXyXyXyXyXyXyXyXyXyXyXyXyXu u Q M.c./ , * ..R.F.:.D./ W j.b.v./ .. . ...+.=.,.,.=.=.5.5.5.5.+.|  .+.,.5.0.0.,.+.5.0.r.r.r.0.0.0.0.r.0.r.0.r.0.0.0.0.5.0.5.5.5.%.D z #.+.+.5.5.5.5.5.8.r.0.5.5.r.r.r.r.r.r.r.8.r.r.r.0.0.+...=.....+.,.0.0.r.r.r.r.5.5.5.r.r.r.r.r.0.r.0.0.5.5.5.5.0.5.5.5.+. ...,.=.+.=.5.5.5.+.+...+.+.0.5.5.5.5.=.+.=.5.5.5.5.5.%.+.+.,.+.+.=.5.=.+.+.+.+.=.....=.,.,.,.0.0.,.=.+.=.,.0.0.0.,.%...I I ! J z h g = 6 , O . . . > 7 > # = ! Z.~ z z L } +.5.5.0.,.5.5.5.5.5.5.5.5.5.=.+.F z z *.2.6 @.F.",
".., #.#.D z } +.,.0.0.0.5.5.r.y.y.r.r.w.r.w.w.0.%.J g z G.H.J 5 * * , o + 5 l , < j z D ..%.%.=.,.,.,.,.0.,.%.+.,.,.=.+.+.+.+.+.......%.%.+.+.+.=.+.+.+.+.+...@.F F I | +.+.0.0.+.+.%.0.5.,.%.#.%.%.+.+.=.,.+.+...+.,.0.0.,.%.0.0.5.5.0.0.5.r.0.5.5.5.0.0.w.0.,.+.+.5.0.0.0.0.0.r.r.0.0.0.0.0.0.0.5.5.0.0.0.r.r.0.r.y.y.y.y.y.y.y.y.y.y.y.u.u.u.u.u.u.u.u.y.r.r.r.r.r.r.r.r.r.r.r.r.r.8.5.5.5.5.5.5.+.+.5.5.0.0.5.+. .+.0.0.=.+.+.+.+... . . .+.+...T ..@.%.#.@.#.! s.(.n.g.^ I < % i j.s k A u u B yXyXyXyXyXyXyXyXyXyXyXyXyXyXyXyXyXyXyXyXyXyXyXyXyXyXyXyXyXyXyXyXyXyXyXyXyXyXyXyXyXyXyXyXyXyXyXyXyXyXyXyXyXyXyXyXyXyXyXyXyXyXyXyXyXyXyXyXyXyXyXyXyXyXyXyXyXyXyXyXyXyXyXyXyXyXyXyXyXyXyXyXyXyXyXyXyXyXyXyXyXyXyXyXyXyXyXyXyXyXyXyXyXyXyXyXyXyXyXe u E v.Q A ; > ..U.F.( c.^ A W k.j.^ |  . . . .+.,.=.+.+.+.5.5.=.=.+.+.+.0.5.5.5.,.0.5.5.r.r.r.r.5.5.0.r.0.0.8.r.r.5.5.5.0.0.0.5.5.1.D D &.,.=.5.5.5.5.5.8.r.5.5.5.r.r.r.0.0.8.r.r.8.r.r.0.0.+.=.0.%.%.,.w.w.r.r.r.r.r.5.5.5.r.r.r.r.r.0.0.0.5.5.5.5.5.0.5.5.5.+. . .,.0.5.0.5.5.0.+.+... .+.5.5.5.5.5.5.0.0.5.5.5.5.5.,. . .+.,.5.=.=.+.+.%.,.=.+.....+.+.+.,.,.0.0.=.=.5.0.0.w.0.,.,.,.%...I D l j g = 6 , + o o . > 8 > # , ^ G.*.z z D } +.5.5.5.0.0.0.0.5.5.5.5.5.5.=.#.F z z *.2., I <.",
".., %.#.D z J ..%.0.0.0.5.0.y.y.y.r.r.w.w.w.w.0.%.S < z G.G.D > * * 5 o + > 8 , < j z L } ..+.+.,.0.0.0.0.0.0.=.=.5.0.,.,.=.+.+.+.+.+.%.%.+.+.,.0.=.+...%.%.%.^ I I ....+.+.0.0.0.0.0.0.5.+...#.#.%.%.,.=.=.0.,.0.0.=.5.0.0.0.0.0.5.5.0.5.5.8.r.0.5.5.5.0.0.0.0.5.5.5.0.r.r.r.0.5.0.0.5.0.0.r.0.5.=.+.=.5.5.r.0.5.0.r.r.y.y.r.y.y.y.y.y.u.u.u.u.w.r.u.u.u.w.0.0.0.r.r.r.r.r.r.r.y.8.8.5.5.5.5.5.5.5.=.+.5.5.0.0.+.5.5.0.0.0.5.3.0.,.,.+. .|  .+.+...P ....%.#.} #./ s.n.n.) U U 8 = e V f k A u u s yXyXyXyXyXyXyXyXyXyXyXyXyXyXyXyXyXyXyXyXyXyXyXyXyXyXyXyXyXyXyXyXyXyXyXyXyXyXyXyXyXyXyXyXyXyXyXyXyXyXyXyXyXyXyXyXyXyXyXyXyXyXyXyXyXyXyXyXyXyXyXyXyXyXyXyXyXyXyXyXyXyXyXyXyXyXyXyXyXyXyXyXyXyXyXyXyXyXyXyXyXyXyXyXyXyXyXyXyXyXyXyXyXyXyXyXyXyXyXe < R E k u = > ..U.:./ x.:.A N j.Q Y  ...+...+.+.,.,.%.+.+.+.+.=.=.=.+.=.5.5.5.5.0.0.5.5.r.r.0.5.5.5.0.0.0.0.r.r.r.5.5.5.0.,.0.0.0.0.I P ,.0.=.3.5.5.5.5.r.0.5.5.5.0.0.0.5.5.5.8.r.5.0.0.0.0.5.0.w.0.,.0.0.r.r.r.r.r.r.r.5.8.r.r.r.r.8.5.5.5.5.5.5.5.0.0.0.5.5.5.+.+.,.5.5.5.5.0.5.+.+.+. .+.=.5.5.5.5.5.0.5.5.5.5.=.=.=.+.+.+.0.0.5.=.+.+.+.+.+.+.+.+.=.5.=.+.%.5.5.5.5.5.0.0.0.0.,.,.0.0.+...J D l g = j 5 . o o + > 8 5 # , ^ G.*.z l F } %.,.5.5.0.,.,.,.5.5.5.5.5.0.%.#.U A A #.<., } <.",
"..5 &.$.F J J ..+.,.0.0.5.0.r.y.y.y.r.w.w.w.0.,.#.J g z G.G.D > * * 5 * + > 8 , , j l J } }  . .=.,.0.5.0.0.0.0.0.0.0.0.0.,.....+.+.+.%.%.+.,.0.0.,.+.....@.! U I ....+.+.5.5.5.5.5.5.0.5.+.........%.0.5.5.5.0.0.0.=.5.5.5.0.0.0.5.5.0.5.0.r.r.0.5.5.5.0.r.5.5.5.5.5.5.8.r.r.5.5.5.0.0.0.r.r.0.0.5.0.5.0.5.0.0.5.0.r.y.r.r.r.r.y.y.y.y.5Xy.y.y.y.y.y.y.w.0.5.0.r.r.r.r.y.r.5.5.r.8.8.5.5.5.5.5.5.5.0.0.0.5.+.5.0.5.0.0.0.0.0.0.0.,.+.....{ { ......P ......@.#./ / Q b.n.l.I I 8 = e V r a k u i yXyXyXyXyXyXyXyXyXyXyXyXyXyXyXyXyXyXyXyXyXyXyXyXyXyXyXyXyXyXyXyXyXyXyXyXyXyXyXyXyXyXyXyXyXyXyXyXyXyXyXyXyXyXyXyXyXyXyXyXyXyXyXyXyXyXyXyXyXyXyXyXyXyXyXyXyXyXyXyXyXyXyXyXyXyXyXyXyXyXyXyXyXyXyXyXyXyXyXyXyXyXyXyXyXyXyXyXyXyXyXyXyXyXyXyXyXyXyXyXe < k R k g = > ..U.:./ z.Z./ V p.V D {  .+.+.+.,.;.;.%.......+.+.+.=.+.=.5.5.5.5.0.0.0.5.5.5.0.5.0.w.w.0.0.0.r.r.0.0.0.,.,.,.0.0.w.,.%...+.+.+.5.5.5.5.0.0.0.0.5.0.5.0.5.5.5.5.5.0.0.5.0.0.5.0.0.0.0.5.5.5.8.r.r.r.r.r.r.8.8.r.r.r.8.8.5.5.5.5.0.0.5.5.0.5.5.5.0.=.=.=.5.5.=.5.5.+.o.+.+.+.+.5.5.5.5.5.5.5.5.5.5.=.+.+.=.0.0.,.=.5.5.,.+. . .+.+.=.5.0.0.5.5.=.+.5.0.r.r.0.0.0.=.,.,.0.0.0.0.+.} J z h , j 6 o o o + 5 8 5 # , ! Z.^ l l F @.%.,.=.5.0.0.%.+.=.5.5.5.0.0.%.#.I F A #.<.6 } <.",
"+.5 :.&.F I } #.#.%.0.0.0.0.r.r.y.y.r.w.w.w.0...I D j z G.G.D > * * 7 > . > 8 , < j j J I  .{  ...+.0.5.5.5.0.0.5.0.,.,.=... ...,.,.+.%.%.%.%.,.,.,.+.+...F z F | ..+.+.+.=.5.5.5.5.5.5.5.0.,.%.....+.0.5.5.5.5.0.5.+.+.=.5.5.5.5.5.5.5.5.0.r.r.0.5.5.5.5.5.5.5.r.=.5.5.8.y.r.5.5.0.0.0.r.r.r.5.0.0.0.0.0.0.0.0.5.r.r.y.r.r.0.0.0.y.5Xy.y.u.y.y.y.y.y.y.r.0.5.0.r.r.r.r.y.r.5.5.0.8.r.0.0.0.8.5.5.5.0.5.0.+.+.=.0.5.0.0.,.0.0.0.,.+. .| ..} P P P Y P ....} Y $.Z.l.Q n.(.l.Y I 8 % i V s i a u u R yXyXyXyXyXyXyXyXyXyXyXyXyXyXyXyXyXyXyXyXyXyXyXyXyXyXyXyXyXyXyXyXyXyXyXyXyXyXyXyXyXyXyXyXyXyXyXyXyXyXyXyXyXyXyXyXyXyXyXyXyXyXyXyXyXyXyXyXyXyXyXyXyXyXyXyXyXyXyXyXyXyXyXyXyXyXyXyXyXyXyXyXyXyXyXyXyXyXyXyXyXyXyXyXyXyXyXyXyXyXyXyXyXyXyXyXyXyXyXu p k x j j * ; ..U.:./ / z.v.b.k.N l [ [  . . .%.;.%.#...{ [  . .o.+.=.=.5.5.5.0.0.5.0.0.5.5.0.w.w.0.,.+.0.0.0.0.0.0.,.+...+.=.0.0.+.,.%.+.+.=.0.0.5.5.5.0.0.5.5.5.5.5.5.5.5.5.5.+.+.5.5.5.5.0.0.5.5.5.5.0.r.8.8.r.r.r.r.8.8.r.8.8.8.8.5.5.5.0.r.0.0.5.0.5.5.5.0.5.5.5.5.5.5.=.+.o.+.+.+.=.=.5.5.5.5.5.5.5.5.5.5.+.+.+.=.%.%.%.+.+.+.=.+.+.+.+.=.5.5.5.5.5.5.=.=.=.0.0.0.5.0.+.+.+.,.0.0.0.+...} J j g = j 6 o o . . 5 8 5 * , ! Z.^ l J A I #.%.,.0.0.0.%.+.+.0.5.5.+.+...@.! ! ! $.<.6 } <.",
"%.5 :.$.F @.#.@.@.+.0.0.0.0.0.0.r.w.w.w.w.r.0.#.I D j A G.G.D 5 > * 5 # o > j , 6 j h l J } }  . .+.+.=.=.5.0.0.+.+.+.+.+. . .+.,.,.+...#.#.#.%.,.,.,.%.#.I z @...=.=.+.+.+.0.0.0.5.5.0.0.0.0.0.,.+.=.5.5.5.5.5.0.0.+.+.=.+.3.5.5.5.5.5.5.r.r.0.0.0.r.8.5.5.5.0.0.=.5.5.r.r.r.0.0.0.0.r.8.5.5.5.0.0.0.0.0.0.r.r.r.r.r.r.r.r.0.5.0.w.u.y.y.u.y.y.y.y.y.y.w.0.0.w.r.r.r.y.y.r.5.5.5.r.0.0.0.0.0.0.5.5.5.5.5.=.+.5.5.0.0.%.,.,.0.0.%. .| | ....Y I U ^ Y @.......#.Z.l.Q 1X1X( Y Y < = a s.s p p u u k yXyXyXyXyXyXyXyXyXyXyXyXyXyXyXyXyXyXyXyXyXyXyXyXyXyXyXyXyXyXyXyXyXyXyXyXyXyXyXyXyXyXyXyXyXyXyXyXyXyXyXyXyXyXyXyXyXyXyXyXyXyXyXyXyXyXyXyXyXyXyXyXyXyXyXyXyXyXyXyXyXyXyXyXyXyXyXyXyXyXyXyXyXyXyXyXyXyXyXyXyXyXyXyXyXyXyXyXyXyXyXyXyXyXyXyXyXyXyXp g k z j j * * } H.:.#./ j.^.b.s.z l [ [ [  . ...%.%.#.+. . .X. . .+.=.,.+.+.+.,.5.5.5.0.0.0.=.%.,.%.....,.0.w.0.0.0.,.+.{ +.,.5.+.+.,.5.0.,.+.,.,.0.5.5.5.5.0.0.0.5.5.0.0.5.0.+.[ { 5.5.0.0.0.0.5.5.5.0.r.0.5.5.8.r.r.r.r.8.8.5.5.5.5.8.8.8.r.0.5.5.5.5.5.5.5.5.5.5.5.5.5.5.5.+.o.+.=.=.5.5.5.5.5.5.5.5.5.5.5.5.5.3.+.+. ...+.+.+.+.=.+.+.+.=.5.5.=.5.5.5.5.0.=.+.=.5.0.0.,.%...%.%.,.,.,.+...{ D j h , j 6 o o + . > 8 5 # , ! Z.#.D J D L ..+.,.0.0.0.+.+.+.0.0.=.+...#.@.! ! ! ;.<.5 } 2.",
"%., &.%.F @.#.@.} ..,.0.w.0.0.0.w.w.w.u.y.w.0.%.@.J g x G.G.D 5 > * > + o * 8 , 6 h g j l } ....+.=.+.+.+.5.0.0.,.+...%.,.+. .+.,.,.%.#.@.@.@.@.,.,.,.%.&.#.#.%.=.=.5.+... .,.0.0.5.5.0.0.8.7.5.=.+.0.r.r.0.5.5.5.0.0.,.=.=.5.5.5.5.0.5.0.5.5.5.0.0.r.r.5.5.0.0.0.0.0.0.r.r.0.0.0.0.r.r.r.r.r.r.r.r.r.r.r.r.r.r.r.w.w.r.r.y.0.0.w.y.y.y.5X5Xu.u.y.y.y.5Xt.w.w.w.w.r.r.y.8.5.5.5.5.5.5.=.5.0.0.0.5.5.8.5.0.5.5.5.5.0.+...#.,.,.,.0.%.....%.#.#.! ^ #.I @...#.| J / / / .X]./ #.#.8 = a B b = , < g x yXyXyXyXyXyXyXyXyXyXyXyXyXyXyXyXyXyXyXyXyXyXyXyXyXyXyXyXyXyXyXyXyXyXyXyXyXyXyXyXyXyXyXyXyXyXyXyXyXyXyXyXyXyXyXyXyXyXyXyXyXyXyXyXyXyXyXyXyXyXyXyXyXyXyXyXyXyXyXyXyXyXyXyXyXyXyXyXyXyXyXyXyXyXyXyXyXyXyXyXyXyXyXyXyXyXyXyXyXyXyXyXyXyXyXyXyXyXyXk z k x A j * * P F.$.%.~ j.b.i.x l w T [ [  . ...@.#.%.%.%.+.+.+.+.o.+.%.+.o.o.+.=.5.5.5.0.0.+.....@.@.%.,.0.,.+.+.,.,.,...,.0.0.+.,.0.5.w.%.....,.0.5.5.5.5.0.0.0.5.5.0.r.r.w.+.S @.0.0.r.0.0.0.r.0.0.0.0.5.5.0.r.r.r.r.8.5.8.5.5.5.5.5.8.5.5.5.5.5.5.5.0.0.5.5.5.5.5.5.5.5.0.0.+.+.+.5.5.5.5.5.5.5.5.5.5.5.5.5.5.5.5. . ...%.+.+.,.,.,.,.,.=.5.5.,.,.=.=.0.0.0.=.=.0.0.0.,.#.#.%.%.+.+.%.%.....J k h = j 5 o + . . > 8 5 # , ^ F.#.D J L I ..%.,.,.0.0.%.+.+.0.0.+.+...@.^ ! ! ! $.<.5 } 2.",
".., %.%.U I @.@.%.,.0.r.r.0.,.%.0.w.r.y.y.w.0.%.} J j z G.H.J 5 # * * o . * 8 5 6 j j j l S { { ..%.+.+.+.=.,.0.+.+.0.5.0.5.5.=.+.+.#.%.#.} ..,.0.0.,.,.,.+...+.+.+.+.+.=.+.+.=.,.,.,.5.5.5.0.0.0.5.5.5.0.5.5.0.5.5.5.5.5.5.5.0.5.0.0.5.0.,.=.=.0.0.r.5.5.5.5.8.5.0.0.0.r.0.5.0.0.5.5.0.0.r.r.0.0.5.5.0.0.0.r.r.y.y.y.y.y.y.y.y.y.y.y.y.y.y.y.y.y.y.y.y.y.w.w.0.0.0.r.r.8.8.8.r.5.5.=...=.5.5.5.5.5.5.5.5.0.0.0.5.,.+.+.+.0.0.5.0.,.....%.+.+.........#...........! ! ! @.%.,.;.j * = % & = 6 g , k yXyXyXyXyXyXyXyXyXyXyXyXyXyXyXyXyXyXyXyXyXyXyXyXyXyXyXyXyXyXyXyXyXyXyXyXyXyXyXyXyXyXyXyXyXyXyXyXyXyXyXyXyXyXyXyXyXyXyXyXyXyXyXyXyXyXyXyXyXyXyXyXyXyXyXyXyXyXyXyXyXyXyXyXyXyXyXyXyXyXyXyXyXyXyXyXyXyXyXyXyXyXyXyXyXyXyXyXyXyXyXyXyXyXyXyXyXyXyXk R k g , * . % ..2.%.%./ ! F D l S S [ |  ...{ ..1.1...+.0.3.+.+.=.5.+...P P  .+.+.+.o.+.=.0.0.%.+.+.,.=.5.5.,.+.%.%.%.%.;.,.0.0.0.0.5.5.=...{ #.%.,.=.=.=.5.5.0.0.0.+.5.0.w.0.+.=.w.0.0.0.0.0.0.0.0.0.0.5.5.0.0.5.5.8.r.5.5.5.5.5.5.5.5.0.5.5.5.5.5.5.0.5.5.0.0.5.5.5.5.5.5.5.9.5.5.5.5.5.5.+.=.=.=.,.0.5.5.5.=.=.+.+.+.+.+.+.+.+.=.5.+.+.+.,.0.5.+.+.+.=.5.5.=.+.,.,.,.,.%.+.+.,.&.J D #.&...} } z j , u 6 o o + + > w > > , ^ F.#.D J D } %.0.+...&.&.&.,.5.5.5.+.+.+...@.L F F %.<., P <.",
"+.5 ;.%.I ....%.,.0.0.0.0.0.;.%.,.w.w.w.w.0.0.,...J j z G.H.J 5 # > > # + * 7 5 6 j l j l {  .{ { { ..+.+.=.=.=.+.=.0.0.0.0.0.0.,.%.} } @.#.%.0.0.,.+.+.%.....+.+.+.+.+.+.=.,.,.=.5.0.0.5.0.0.0.0.0.0.5.5.+.+.5.0.5.5.5.5.5.5.5.5.+.+.5.5.=.+.=.5.5.8.5.5.5.5.0.0.+.5.5.5.5.0.0.5.5.5.0.0.0.0.5.5.5.5.0.w.w.r.r.r.y.y.y.y.y.y.y.y.y.y.y.y.r.y.y.y.y.y.y.w.r.w.0.0.0.0.r.8.8.5.5.5.5.5.,.0.5.5.5.5.5.5.5.5.5.5.5.=.0.0.0.0.0.0.0.+.+.%.......+.,.%...%.;.%...P I I ! U F @.&.<.,.j o o . $ , j j u z g yXyXyXyXyXyXyXyXyXyXyXyXyXyXyXyXyXyXyXyXyXyXyXyXyXyXyXyXyXyXyXyXyXyXyXyXyXyXyXyXyXyXyXyXyXyXyXyXyXyXyXyXyXyXyXyXyXyXyXyXyXyXyXyXyXyXyXyXyXyXyXyXyXyXyXyXyXyXyXyXyXyXyXyXyXyXyXyXyXyXyXyXyXyXyXyXyXyXyXyXyXyXyXyXyXyXyXyXyXyXyXyXyXyXyXyXyXyXk R k h , % . % ..q.;.#.#.D l J {  . .|  .%.%...%.q.q.;.+.+.+.o...+.,.%. . . .+.+.=.+.+.+.=.,.,.0.%.%.%.=.0.0.0.0.0.,.%.%.....,.%.,.,.,.=.,.,.+.+.0.=.5.5.0.0.0.0.0.0.+.0.0.0.5.0.w.0.0.0.0.5.5.5.5.0.0.0.5.5.0.5.0.5.0.0.0.5.5.5.5.=.5.5.0.5.5.5.5.5.5.0.5.0.5.5.+.=.5.0.5.5.5.5.5.5.5.5.5.5.+.=.+.+.+.5.5.5.=.5.+.+.+.+.+.+.+.o.+.=.5.+.+...+.+.+.+. .o.+.+.+.+.,.,.,.,.=.,.+.+.,.%.} ..%.%.....} z k , g 6 * o + + > w > * , ^ H.#.D J I } +.0.,...I @.#.%.5.5.5.5.5.=.,.%.} D F %.q.5 } q.",
"..5 &.%.I ....+.,.,.,.,.,.0.,.%.+.w.w.w.0.0.0.0.+.{ j z G.H.J 5 # 5 5 * + * 8 6 j l z z J }  . . .{  .o.+.+.+.+.5.=.=.=.=.=.=.+.,.%.} P ..%.,.0.,.+.+...} I D  .+.=.=.5.0.0.;.%.+.5.5.0.0.+.,.,.,.=.=.=.0.,.=.0.0.5.5.5.5.5.5.5.5.=.+.5.5.5.5.5.5.8.8.8.5.5.+.+.+.+.5.0.5.8.r.5.5.r.r.0.0.0.0.0.0.5.0.w.w.0.0.r.r.y.y.y.y.y.y.y.y.y.y.y.y.r.r.r.y.y.y.y.r.r.0.0.0.0.0.0.r.0.5.5.5.0.0.0.0.5.5.5.5.5.5.5.5.5.+.=.,.0.0.0.0.,.,.+.+.+.%...Y ..;.;.%.@.#.%.@.I I U U ^ U D @.<.<.:.8 + + o % 8 l j u z j yXyXyXyXyXyXyXyXyXyXyXyXyXyXyXyXyXyXyXyXyXyXyXyXyXyXyXyXyXyXyXyXyXyXyXyXyXyXyXyXyXyXyXyXyXyXyXyXyXyXyXyXyXyXyXyXyXyXyXyXyXyXyXyXyXyXyXyXyXyXyXyXyXyXyXyXyXyXyXyXyXyXyXyXyXyXyXyXyXyXyXyXyXyXyXyXyXyXyXyXyXyXyXyXyXyXyXyXyXyXyXyXyXyXyXyXyXyXR R z j , % . * ..e.<.@.%...} ....+.+...........#.&.:.,.%.+.+.+...{ ..%.+.+.5.5.+.5.5.5.5.0.0.0.%.+.%.%.,.,.,.%.,.0.0.0.%.....#.%.%.%.%.%.,.0.0.5.5.5.=.,.,.0.0.0.0.,.%.0.,.,.0.w.w.5.0.0.5.5.5.5.5.5.0.5.5.5.0.5.5.5.5.5.0.5.5.5.5.5.5.5.0.5.5.5.5.5.0.0.0.0.0.=.+.5.0.5.5.5.5.5.5.=.+.5.5.5.+.=.+.+.+.5.5.5.5.5.5.5.5.5.0.,.+.+.+.5.5.+.+. . .....+. .o.+.+.+.+.%.%.,.+.+.+.,.,.%.+.+.%.,.+.+...L j u = g j * o + . > w > # , @.H.#.D J } ..%.,.,...I @.#.%.=.5.5.5.5.0.0.,...D D ;.q.5 { q.",
"..5 ;.;.} } ..+.%.,.%.%.%.,.,.%.%.0.w.0.,.0.r.r.,. .j z G.J.J > # 5 5 * . * 8 6 j l z z D {  . ...+.+.+.+.=.+.+.5.5.=.=.+.+.+.+.%.%...} %.%.0.0.,.%.%.+.} D z {  .+.=.,.,.=.%.+.+.5.5.0.=.+.+.=.,.,.,.,.0.,.=.=.=.5.5.5.5.5.+.=.5.5.5.0.5.5.5.0.r.8.8.8.5.+.+.+.=.5.5.0.r.r.8.5.8.r.r.r.r.r.0.0.0.0.r.w.r.0.r.r.r.r.y.u.y.y.y.y.y.y.y.y.y.r.r.r.w.w.w.r.0.0.r.r.r.0.0.0.0.0.5.+.5.0.0.0.5.5.5.=.=.=.5.5.5.+.+.+.,.5.5.5.,.,.....%.....#.@.@.%.%.@.@.@.} I I @.F F ! U z } &.&.&.8 + + o > 8 l l u g < . yXyXyXyXyXyXyXyXyXyXyXyXyXyXyXyXyXyXyXyXyXyXyXyXyXyXyXyXyXyXyXyXyXyXyXyXyXyXyXyXyXyXyXyXyXyXyXyXyXyXyXyXyXyXyXyXyXyXyXyXyXyXyXyXyXyXyXyXyXyXyXyXyXyXyXyXyXyXyXyXyXyXyXyXyXyXyXyXyXyXyXyXyXyXyXyXyXyXyXyXyXyXyXyXyXyXyXyXyXyXyXyXyXyXyXyXyXR R z z , * o * ..T.2.#...&.,.#.} ......I J P ..#.@.....+.,.,.0.+.{ I ..+.5.5.5.=.5.5.5.5.5.5.5.%.+.......%.,.%.+.+.5.0.0.%.@.@.@.} } ..%.%.%.,.5.5.,.%.+.%.%.%.%.%.%.%.,.,.,.0.0.0.5.0.0.5.5.0.r.5.5.5.0.r.r.r.r.0.5.5.5.0.0.5.5.5.0.0.0.0.0.r.r.5.5.0.0.0.0.0.=.=.0.0.5.5.5.5.5.5.+.+.5.=.=.5.5.5.=.5.5.5.5.5.5.5.5.5.0.0.0.+.+.3.5.=.+.+. . ....... .+.+.+.+.......+.+.+.+.=.,.+.+.+.,.,.=.%...L g u & g 8 * o + . > l > # , #.H.$.J J } #.%.%.%.%.%.@.#.%.,.5.3.5.5.0.0.%.} J I ;.q.5 } e.",
"#.6 <.<.} L J ..%.%.%.#.#.%.,.,.,.,.0.,.,.w.r.0.+.{ j A H.J.P 5 # > 5 # . * 6 < 6 j j k l J {  .+... ...%.,.,.=.3.5.5.5.=.=.+.+.%.%.%.%.,.,.0.0.0.0.,.%.#.F k D } ..+.+.+. ...+.+.0.0.0.=.=.,.,.,.,.0.0.=.+.=.=.=.5.5.5.=.5.5.5.5.5.=.5.+.+.5.5.r.r.r.8.0.5.5.0.0.r.8.5.r.0.5.5.5.r.r.r.r.r.r.0.0.r.w.r.r.r.r.r.r.r.w.w.w.w.y.y.y.y.y.y.y.w.r.r.r.w.w.0.0.0.r.r.0.5.5.5.5.5.+.+.=.0.0.5.5.5.5.=.+.+.5.5.3.+.+.+.=.5.5.0.+.....%.&.%.....%.%.#.#.....%.#.} } @.U F ! ! z L #.&.&.8 + + o > j S D p p , . yXyXyXyXyXyXyXyXyXyXyXyXyXyXyXyXyXyXyXyXyXyXyXyXyXyXyXyXyXyXyXyXyXyXyXyXyXyXyXyXyXyXyXyXyXyXyXyXyXyXyXyXyXyXyXyXyXyXyXyXyXyXyXyXyXyXyXyXyXyXyXyXyXyXyXyXyXyXyXyXyXyXyXyXyXyXyXyXyXyXyXyXyXyXyXyXyXyXyXyXyXyXyXyXyXyXyXyXyXyXyXyXyXyXyXyXyXx R z l , * o * ..T.U.;.I %.:.@.} @.I U U P { } } } } | +.,.=.0.,.+.@.%.%.+.+.+.=.3.5.5.5.5.5.5.0.,.+...{ +.,.,.+.+.0.0.0.%.%.@.P J } %.%.#...+.=.=.,.%.....%.%.%.%.%.;.,.%.,.,.,.+.+.0.,.,.0.0.0.0.5.5.0.0.0.r.0.0.5.5.5.0.0.0.0.0.0.r.r.r.r.r.r.r.0.0.0.5.3.0.=.=.=.=.5.5.=.5.=.,.+.+.5.5.=.=.5.5.5.5.5.+.5.5.5.5.5.5.0.,.+.+.+.5.5.+.+.+.+.+.+.........+.+...{ ..+.,.,.+.+.,.,.,.+.+.%.,.+.+.} I j h = 6 6 * o + . > l 5 # , #.H.$.D J @.@.I } %.,.,.%.@...,.,.+.3.0.%.+.} } L L :.q.5 ..U.",
"#.6 <.:.L F z ..%.%.@.@.#.+.,.0.0.,.0.0.0.w.0.+.{ S j A H.J.I 5 # > > # . # 6 < < u g k z J { ..+. .S { ..%...,.0.0.5.5.5.=.+.%.%...%.,.0.,.0.5.0.0.0.%.%.I z z I ........ .+.+.+.%.,.,.5.0.,.0.0.0.0.5.5.=.0.0.5.5.5.5.=.=.5.0.5.+.+.+.+.+.=.5.0.0.r.r.r.r.5.0.5.r.5.5.0.5.5.5.0.r.r.r.r.r.8.r.r.r.w.r.r.r.r.y.r.r.r.r.0.0.y.y.y.y.y.y.r.0.r.0.0.0.,.,.0.w.0.0.5.5.=.5.0.5.=.+.+.+.,.=.=.5.5.5.+.+.0.,.+.+.+.+.+.+.0.,.+...%.%.#.#.....+...........,.%...} @.I U ^ ! D I &.:.:.j + + o , j D F i a , . yXyXyXyXyXyXyXyXyXyXyXyXyXyXyXyXyXyXyXyXyXyXyXyXyXyXyXyXyXyXyXyXyXyXyXyXyXyXyXyXyXyXyXyXyXyXyXyXyXyXyXyXyXyXyXyXyXyXyXyXyXyXyXyXyXyXyXyXyXyXyXyXyXyXyXyXyXyXyXyXyXyXyXyXyXyXyXyXyXyXyXyXyXyXyXyXyXyXyXyXyXyXyXyXyXyXyXyXyXyXyXyXyXyXyXyXyXx R z l 5 * + * %.e.T.<.@.#.%.#.@.%.I F U @...{ { { ....+.=.+.5.0.,.&.%...+. .+.+.=.=.5.5.5.5.5.5.0.0.%.+.=.0.,.+.+.0.0.=.=.,.%. . .%.,.+.+.%.%.+.0.0.,.+.%.#.%.%.%.%.,.,.%.+.,.,.+.+.0.,.+.+.=.=.+.5.5.5.5.0.0.0.0.5.5.0.0.0.0.0.0.0.0.r.r.r.r.r.r.0.5.5.3.+.0.5.=.=.=.5.0.0.0.0.%.%.0.5.5.5.5.5.5.5.=.+.+.3.5.5.=.+.+.+.+.+.+.+.=.=.+.+.+.+.+.+.+.%.........{ P +.%.0.0.,.+.+.%.,.%.| | ..#.} P D l h = < 5 o o + . > l 5 # , #.H.$.J { @.I F } %.0.0.%.} | +.,.=.+.+.+...} J J L :.e.5 ..T.",
"#., &.&.L z z } @.#.@.@.&.,.0.w.0.,.0.0.0.0.,.| S l j F H.J.} 7 > * > # X # 6 < , u u a k D } ....| S ..%.I { %.0.0.5.0.5.0.0.,.%.+.+.,.0.,.+.,.0.0.+.+.+...I k F ......%.%.0.,.%.%.%.,.5.0.0.5.5.5.5.5.5.0.0.0.5.5.5.5.=.+.+.=.=.+.+.+.=.0.0.0.0.0.8.5.8.8.5.8.8.8.0.5.=.=.0.5.r.r.r.r.r.r.5.5.5.5.5.r.r.r.r.r.r.r.0.0.0.0.y.y.y.y.y.r.r.0.r.w.0.%.%.&.0.w.0.0.5.5.,.0.0.5.0.0.+.+.,.,.=.5.5.5.=.+.%.+.+.+.0.0.+.0.0.%.+.&.&...! @.%.+.+.+.....| +.,.,. ...%...I ^ ! z I :.2.:.j o + * , l D F a a , . yXyXyXyXyXyXyXyXyXyXyXyXyXyXyXyXyXyXyXyXyXyXyXyXyXyXyXyXyXyXyXyXyXyXyXyXyXyXyXyXyXyXyXyXyXyXyXyXyXyXyXyXyXyXyXyXyXyXyXyXyXyXyXyXyXyXyXyXyXyXyXyXyXyXyXyXyXyXyXyXyXyXyXyXyXyXyXyXyXyXyXyXyXyXyXyXyXyXyXyXyXyXyXyXyXyXyXyXyXyXyXyXyXyXyXyXyXx R ! z 5 * + * %.e.U.<.@.@.#.#.%.&.#.F U @..... ...+.+.+.5.=.5.0.0.%.} ..%... .+.5.5.0.0.0.0.5.5.5.0.0.0.0.0.,.,.%.4.4.0.=.5.=.=.%.,.,.+.,.,.,.4.0.5.5.5.%...@.#.%.%.%.%.,.,.%.,.,.%.0.%.+. .+.+.+.0.0.0.0.5.0.0.5.5.8.8.8.5.5.5.0.5.5.0.0.0.6.6.0.0.5.=.+.=.0.0.5.5.0.0.5.0.0.0.+.4.0.5.0.5.5.5.0.0.=.+.+.5.5.5.+.+.+.+.,.+.....+.+.+.+.+.+.+.+.+...{ [ [ { } ..+.+.+.3.+.+. .+.%.%.P D I I I D D j u = < 5 o o . . > l > # , #.J.$.P } ! ! ! %.,.0.0.,...{ %.0.,.+.=.+...} J J I :.e.6 #.R.",
"&.6 $.$.z z J ! ^ ^ @.&.0.0.5.0.=.+.,.t.w.0.%.%.@.D g z G.J.@.8 5 * * o + o 6 g u u e p z I }  ...o.+.,.;.@.I ..%.0.0.w.0.+...%.0.,.,.%.,.0.0.5.=.,.%.....#...z z } %.....#.0.%...I ..=.5.0.+...+.,.0.5.5.5.0.5.5.5.5.0.0.+.o.+.+.+.5.9.5.5.0.0.0.3.w.0.0.5.5.5.5.5.0.0.0.0.0.0.0.r.8.8.r.r.5.5.5.0.r.r.r.r.0.0.5.0.w.w.0.0.u.w.0.0.0.0.0.r.r.w.r.0.0.0.0.0.0.0.0.0.5.5.5.0.0.0.+.+.+.=.+.,.5.5.+.%.@...+.,.,.,.,.,.%.+.+.,.,.%.! %.,.+.+.+. .[  .&.%.....%.%...#.#.! F ! <.F.:.j . # o j P Y ! s B N . yXyXyXyXyXyXyXyXyXyXyXyXyXyXyXyXyXyXyXyXyXyXyXyXyXyXyXyXyXyXyXyXyXyXyXyXyXyXyXyXyXyXyXyXyXyXyXyXyXyXyXyXyXyXyXyXyXyXyXyXyXyXyXyXyXyXyXyXyXyXyXyXyXyXyXyXyXyXyXyXyXyXyXyXyXyXyXyXyXyXyXyXyXyXyXyXyXyXyXyXyXyXyXyXyXyXyXyXyXyXyXyXyXyXyXyXyX/ :.&.[ 5 * o > ..U.U.%.@.#.%.@.%.&.&.@.D z @.#.....+.%.%.%.,.0.0.,.#.{ ..%.+. .+.+.,.,.0.0.5.5.+.=.5.5.0.0.0.,.%.....%.=.0.,.+.+.+.,.,.5.5.0.0.0.0.5.5.0.&...#.%.+.+.+.5.0.0.,.%.&.,.,.0.0.o.o.+.+.5.5.0.5.=.0.0.5.5.5.5.5.5.5.0.,.=.0.5.0.r.5.0.0.5.5.5.5.0.8.8.5.5.5.5.5.=.0.,.+.,.0.0.0.0.0.0.,.+.+.o. .+.0.0.+.....%.%.+.o.......+.+.+.5.=.+...| | { { { ....o.+.%.+.+.+...{ ..%...{ { } } I D g u & u < % % o . * l 5 * , $.Y.$.F L @.#.&.%.0.w.0.,.{ } &.,.,.,.5.5.+...P L L ;.e.5 #.U.",
"&., $.$.z z L #.@.@.#.%.,.,.0.0.,.+.,.w.w.0.,.%.@.D g A J.J.@.8 > % * o + o 6 8 u , u g z I ......o.+.=.,.%...+.0.0.5.0.+.....%.0.0.%.%.,.5.0.0.0.,.%.+.#.#...F D ..%.%.} @.%.#.I I #.,.0.=.+. .+.,.0.5.5.5.5.5.5.=.5.5.0.=.+.=.5.5.5.5.5.+.+.0.0.+.5.5.5.5.5.5.5.5.0.0.0.5.0.w.0.5.5.5.r.r.5.5.5.5.r.r.r.0.0.5.5.0.0.0.0.0.r.0.0.,.0.0.0.0.0.r.r.w.w.w.0.0.0.0.0.0.0.5.5.5.5.5.+.+.+.+.+.+.5.5.+.+.....+.0.=.+. .+.+.%.,.,.,.%.@.%.+.+.%.%.+.+...} P ....%.&.#.@.@.! F ! $.<.$.j o . o l %.;.$.x s.Q = yXyXyXyXyXyXyXyXyXyXyXyXyXyXyXyXyXyXyXyXyXyXyXyXyXyXyXyXyXyXyXyXyXyXyXyXyXyXyXyXyXyXyXyXyXyXyXyXyXyXyXyXyXyXyXyXyXyXyXyXyXyXyXyXyXyXyXyXyXyXyXyXyXyXyXyXyXyXyXyXyXyXyXyXyXyXyXyXyXyXyXyXyXyXyXyXyXyXyXyXyXyXyXyXyXyXyXyXyXyXyXyXyXyXyXyXyXZ.H.<.{ 8 5 o * %.U.2.#.! %.:.#.%.%.%.#.} D D I } ....%...+.%.,.0.,.%...%.,.,.+.+.+.+.+.0.0.5.5.+.5.5.5.5.0.=.+.+. ...+.%.,.+.+.+.0.,.,.5.5.,.0.0.5.0.0.0.%.+.%.,.%.+.,.0.w.,.%...%.,.0.0.0.0.0.0.0.0.0.5.+.+.5.5.5.5.5.5.5.5.5.0.+.=.0.0.0.r.r.r.0.0.5.5.5.5.0.0.5.5.,.,.+.+.,.0.,.+.,.0.0.0.5.=.+.+.+.+.o.o.3.5.+.....#.%.%... .{ { ..+.+.+.+...................+.+.%.+.o.%.#.P } %.+...{ } #.@.L g u = u , o o o . > l 8 * , *.I.$.D L @.%.,.,.0.0.0.+...%.%.%...+.0.0.,...P D L ;.<.6 #.U.",
"&.6 $.$.z z L #.#.%.,.0.=.,.0.0.0.+.0.w.w.0.,.#.I z g ! G.J.@.5 > o > * O o 8 8 , = u z z L } .. .+.+.+.=.+.=.0.0.5.5.0.+.+.+.+.5.0.4.+.=.=.=.%.+.+.....#.%...! F ..%.%...} &.#.} } #.%.5.=.+.+.+.0.0.5.5.0.5.5.5.=.+.+.5.5.5.=.5.5.5.0.=.+.+.0.0.+.+.5.5.5.5.5.5.5.r.0.0.5.5.5.=.=.5.5.r.r.5.5.5.0.r.r.0.0.0.0.r.r.r.0.0.0.0.0.0.0.,.0.r.w.0.0.0.0.0.,.,.,.0.0.5.5.5.5.5.5.5.=.+.+.+.+.+.+.5.5.=.+...+.=.0.=.+. .+.+.0.0.0.0.,.%.%.+.+.%.......{ I } %.+.,.%.@.@.I F z ! $.$.$.j o # * S ;.<.$.R k.Q = yXyXyXyXyXyXyXyXyXyXyXyXyXyXyXyXyXyXyXyXyXyXyXyXyXyXyXyXyXyXyXyXyXyXyXyXyXyXyXyXyXyXyXyXyXyXyXyXyXyXyXyXyXyXyXyXyXyXyXyXyXyXyXyXyXyXyXyXyXyXyXyXyXyXyXyXyXyXyXyXyXyXyXyXyXyXyXyXyXyXyXyXyXyXyXyXyXyXyXyXyXyXyXyXyXyXyXyXyXyXyXyXyXyXyXyXyXZ.H.;.[ 6 5 o > ..<.%.! ! *.$.^ @.#.%.&.%.I D D } } ......+.%.,.0.0.,.,.,.,.+.+.+.,.+.+.5.0.0.5.5.5.5.5.5.5.+.+.+.+.+.+.+.+.+.+.+.0.,.%.=.0.=.=.=.=.,.,.,.%.+.+.,.,.+.+.0.0.0.%.+.%.%.,.,.,.0.0.+.,.0.5.+.+.5.5.5.5.5.3.3.5.0.0.3.+.+.0.0.0.r.0.5.5.5.5.5.5.5.0.,.+.+.=.+.+. .,.,.+.o.+.0.0.0.5.0.5.=.=.=.+.+.+.3.=.+...! @.@...%.| P ..+.+.=.5.+.....+.%.+.......+. .....o.%.} L P ..=.+. ...#.^ F h u & , 5 # # o . * l 6 > , #.H.%.D I ..%.,.0.0.0.5.,.+.,.,.......0.w.,...D z F $.2.6 #.U.",
"&., $.$.! F ! #.%.,.0.5.=.+.5.r.r.0.0.0.0.0.+.} D l h A G.J.} 5 * * 5 * O o 7 6 , = g z j l S { | ..+.+.=.+.5.0.0.0.0.0.0.,.=.5.5.0.0.+.+.=.+...........#.#...! I @.%.%.%.%.%.%...%.%.,.5.5.,.5.0.0.0.5.5.5.5.5.5.5.+.+.+.5.3.3.5.5.5.5.5.5.0.0.0.+.=.5.5.0.5.5.5.5.r.r.0.5.5.=.=.=.=.5.r.r.5.5.5.5.0.r.0.0.5.r.r.r.r.r.r.0.0.w.w.0.0.0.0.w.w.0.0.0.0.,.%.%.%.,.0.5.5.5.5.5.5.0.5.3.+.+.+.+.+.0.5.+.=.,.,.,.=.+.,.0.0.0.0.0.,.%.;.%.+. .} P P { I @.#.,.=.,.@.U I I D z ! $.Z.$.j o # > S %.<.$.x s.Q % yXyXyXyXyXyXyXyXyXyXyXyXyXyXyXyXyXyXyXyXyXyXyXyXyXyXyXyXyXyXyXyXyXyXyXyXyXyXyXyXyXyXyXyXyXyXyXyXyXyXyXyXyXyXyXyXyXyXyXyXyXyXyXyXyXyXyXyXyXyXyXyXyXyXyXyXyXyXyXyXyXyXyXyXyXyXyXyXyXyXyXyXyXyXyXyXyXyXyXyXyXyXyXyXyXyXyXyXyXyXyXyXyXyXyXyXyX:.<.%.S 5 5 * > ..:.#.! ^ ^ ^ ! @.#.%.%.%.#.I J P #.#.....+.+.%.,.,.,.,.+.+.+.0.0.0.=.+.5.0.0.5.5.5.5.5.5.0.3.5.,.,.%.%.%.%.,.=.3.0.+...%.0.5.5.5.0.,.%.%.0.,.=.=.+.+. .+.,.0.0.,.,.,.%.,.0.0.+.o.+.+.+.=.0.0.5.5.5.5.5.5.5.0.5.+.+.+.0.0.5.5.5.5.5.5.5.5.5.5.0.5.=.=.=.=.=.+.%.+... .+.=.5.5.0.0.5.5.5.5.5.3.+.+.+.+.#.! D D ..;.%.{ P ..%.=.5.,.+. .+.+.+.+.+. ... ..... .} D z } ..+.+...} ! v k p u = , 5 # # .   * w 5 > , #.F.#.S J | +.+.5.0.0.0.0.+.,.+.%.%...,.,.%.I z z z %.<.6 @.H.",
"%., &.$.! F ! #.%.0.0.5.5.+.=.5.0.0.0.0.,.=.+.} D j g z G.J.I 5 * * 8 * O o 7 6 , , g z j l J { } ....+.=.0.0.0.5.=.,.0.0.0.0.0.5.5.0.5.5.=.+...} #.%.%.%...{ I } ........%.+.+.+.=.5.=.=.=.=.5.0.5.0.0.5.=.5.5.5.5.=.+.5.5.5.5.+.+.0.0.5.5.8.r.5.5.0.0.0.5.5.5.5.5.r.r.0.0.0.0.0.,.0.0.5.5.5.5.5.5.5.5.5.5.5.0.r.0.r.r.r.0.w.w.w.0.0.0.0.0.w.0.0.0.w.0.;.%.%.+.0.0.0.0.0.5.5.5.0.5.0.,...+.=.0.0.=.0.0.,.+.o.+.0.0.0.0.+.,.,.+.,.,.=...I I ..%.@.#.@.,.=.+.} D @.#.I D ! C.Z.*.j o # > S %.<.%.x s.Q % yXyXyXyXyXyXyXyXyXyXyXyXyXyXyXyXyXyXyXyXyXyXyXyXyXyXyXyXyXyXyXyXyXyXyXyXyXyXyXyXyXyXyXyXyXyXyXyXyXyXyXyXyXyXyXyXyXyXyXyXyXyXyXyXyXyXyXyXyXyXyXyXyXyXyXyXyXyXyXyXyXyXyXyXyXyXyXyXyXyXyXyXyXyXyXyXyXyXyXyXyXyXyXyXyXyXyXyXyXyXyXyXyXyXyXyXyXF.2.%.S > > * > ..U.H.;.$.^ ! ! #.%.%.%.+.%...P J #.%...+.+.+.+...%.,.,.+.+.+.0.0.0.0.0.5.0.5.5.5.5.5.5.3.3.3.0.0.0.+.%.%.#.%.+.+.0.+...%.0.0.5.5.0.0.%.%.0.0.0.5.,.+. .+.+.0.0.0.0.0.%.%.,.0.0.+.+.,.,.0.0.0.5.5.5.5.0.0.5.+.3.+.,.0.5.0.5.5.5.5.0.0.5.5.5.5.5.5.5.5.5.5.0.1.,. . .+.+.,.5.5.5.5.5.5.5.5.5.0.3.+.+.+.%.@.I J { +.+. .| +.+.+.=.+.o.o.+.+.+.+.=.=.+. .....+.{ l z @.#...+.%.} z k k p u = , 5 o o .   * w 5 * , #.F.#.S S  .+.=.5.0.0.0.,.+.+.+.%.%...%.%...L z z z #.:.6 } F.",
"%.6 &.$.F F L @.&.0.0.0.5.+.+.=.0.0.0.0.=.=.+...J j g z G.J.! 5 * > 8 * O . 5 6 , = g j z D I } } } } ..,.0.0.0.+...+.5.0.0.,.%.+.=.0.0.5.=.+...I #.&.&.%...P ........ .+.+.+.+.5.5.5.+.+.o.+.+.=.5.5.5.=.=.5.5.5.0.,.+.0.5.0.5.+.+.+.0.0.5.8.r.0.5.0.0.5.5.5.+.=.0.r.0.5.5.0.0.0.0.0.5.5.+.+.=.5.5.5.5.5.3.5.5.0.0.0.0.0.0.w.w.0.,.0.0.5.w.w.r.0.0.0.0.,.,.%.%.5.0.0.0.0.5.3.3.0.0.0.%...+.0.0.0.,.5.0.%. . .+.+.0.0.,.+.%.,.%.%.,.,.%.@.@.%.%.%.%...%.....P I %.,.| J ! Z.Z.#.8 . # > l %.1.%.k Q W $ yXyXyXyXyXyXyXyXyXyXyXyXyXyXyXyXyXyXyXyXyXyXyXyXyXyXyXyXyXyXyXyXyXyXyXyXyXyXyXyXyXyXyXyXyXyXyXyXyXyXyXyXyXyXyXyXyXyXyXyXyXyXyXyXyXyXyXyXyXyXyXyXyXyXyXyXyXyXyXyXyXyXyXyXyXyXyXyXyXyXyXyXyXyXyXyXyXyXyXyXyXyXyXyXyXyXyXyXyXyXyXyXyXyXyXyXyXyXU.,.S > > * * ..$XR.<.#.! ! F %.&.%.%.+.....J J ..#.....+.+. .{ ..+.+.+.+.=.5.5.0.0.0.5.5.5.5.5.5.5.+.+.+.5.0.0.+.+...} I @.+.=.0.%.+.+.0.0.0.r.0.0.0.,.0.0.0.5.5.%.+.%.,.5.5.5.0.0.%...+.0.0.0.0.0.0.5.5.5.+.+.+.=.5.5.+.+.+.=.0.=.+.5.5.5.5.5.0.0.5.5.5.5.5.5.0.0.+.+.,.0.=. .+.,.,.=.+.+.+.+.+.+.5.5.5.+.+.+.+.+.%.,.%...| ..+.+.+.+.+.+.+.o.o.+.5.+.+.=.0.w.+. ...+.+...P } #.+...+.%.} z k h u u = , , . . . . > l 5 * , #.F.%.S S ..+.+.+.+.=.0.,...+.+.%.%...%.%.#.I D z A #.:., L <.",
"%.6 #.#.z F L @.#.%.0.0.0.=.+.=.,.5.5.=.=.=.=.%.} l g z G.J.! 6 * > 8 % O + 5 6 , = u j z I P P I I ....+.=.0.0.%...+.0.0.=.+.o.+.+.,.3.5.5.%.#.I } ..#.%.#.#.+.+.=.+.+.+.+.+.3.0.5.3.+. . .+.+.=.=.=.+.+.=.5.5.5.5.=.+.+.=.5.=.+.+.....+.5.0.0.5.=.0.0.0.5.3.3.0.5.0.0.5.5.0.5.5.5.5.5.+.+.+.=.5.5.5.0.0.5.5.5.0.0.0.0.0.0.w.0.=.,.0.0.0.0.w.r.0.0.0.0.%.,.,.0.0.0.0.5.5.0.0.5.0.5.+.....%.0.5.=.0.5.0.%.....+.+.0.0.0.%.%.,.%.%.0.,...I @.#.| ..&.........} ..,.,. .J I $.$.#.j . # > S %.1.%.k Q W % yXyXyXyXyXyXyXyXyXyXyXyXyXyXyXyXyXyXyXyXyXyXyXyXyXyXyXyXyXyXyXyXyXyXyXyXyXyXyXyXyXyXyXyXyXyXyXyXyXyXyXyXyXyXyXyXyXyXyXyXyXyXyXyXyXyXyXyXyXyXyXyXyXyXyXyXyXyXyXyXyXyXyXyXyXyXyXyXyXyXyXyXyXyXyXyXyXyXyXyXyXyXyXyXyXyXyXyXyXyXyXyXyXyXyXyXyXyXT.,.[ 6 * * * ..U.2.#.#.! z A #.&.%.+.+...} P P { { {  .+.%...} @.+...+.+.=.=.=.5.5.5.5.5.5.5.5.5.0.+.+.+.0.0.=.o...#.@.! %.,.0.0.%.+.+.,.,.0.0.0.0.,.,.,.,.5.5.5.0.0.%.,.=.5.5.5.5.%...+.5.5.0.0.0.5.5.5.0.+...+.+.+.+.+.+.+.=.0.+.+.5.5.+.5.5.5.0.5.5.5.0.5.5.0.%.......=.+.+.+.,.=.+.+.+.,.0.=.+.+.+.=.+. . ... . .+.+.+.+.=.=.=.5.=.+.+.+.o.o.5.5.5.+.=.0.0.=.....+.+.+....... . .+.+...I k g u , % , , o o o . > l 5 * , #.2.#.S S | ..+.+.+.+.,.;.....+.%.......%.%.@.D z A #.:., J :.",
"} < #.@.z F L ! #.#.+.+.=.=.+.%.%.+.+.+.=.5.5.%...S 6 z G.J.} 5 > > 5 #   . 5 6 = = , j D I D D I ..+.+...+.,.0.0.0.5.5.5.+.5.5.=.=.+.+.+.+...........+.+.%.%...+.+.+.+... . .+.%.=.+.+.+... . .+.,.%.+.+.+.=.0.0.+.+...+.=.=.5.5.+.o...+.5.0.0.+...+.0.5.5.0.0.+.+.=.0.0.0.0.5.+.+.5.0.5.+.,.0.5.5.5.5.5.5.5.0.0.0.5.0.0.0.r.0.0.,.0.0.0.0.0.r.0.0.0.0.,.,.0.0.0.0.,.,.0.0.5.5.=.+.| ..%.%.,.+.%.,.5.5.,.+.%.%.+.5.0.,.%...#.%.%.,.%.I I I } | ..%.....%.#.} } %.%.{ J D @.#.! j o # > S ,.1.%.a E R . yXyXyXyXyXyXyXyXyXyXyXyXyXyXyXyXyXyXyXyXyXyXyXyXyXyXyXyXyXyXyXyXyXyXyXyXyXyXyXyXyXyXyXyXyXyXyXyXyXyXyXyXyXyXyXyXyXyXyXyXyXyXyXyXyXyXyXyXyXyXyXyXyXyXyXyXyXyXyXyXyXyXyXyXyXyXyXyXyXyXyXyXyXyXyXyXyXyXyXyXyXyXyXyXyXyXyXyXyXyXyXyXyXyXyXyXyXyX2.,.[ 6 * * # T <.;.@...@.F z U #.%.......} { } P D D P ..+...+.%.+.+.+.+.,.,.+.+.=.5.0.0.=.+.+.=.+.+.+.5.3.5.0.=.+.+.%.%.0.0.0.0.,.+.+.,.+.+.=.,.0.0.,.,.+.+.,.,.+.%.,.+.+.5.5.5.5...+.+.=.=.=.,.,.+.=.0.0.0.5.3.5.3.+.=.+.+.+.+. .o.5.5.5.5.5.3.5.5.5.5.5.5.5.5.+.+.+.+.%.+.+.+.+.=.+.+.=.0.0.0.0.=.+.+.+.+.+.+.o. .+.+.+.+.,.5.+.3.5.5.3.+.o.o.%.=.=.+.+.+.+.+. . ...%.%.%.%...[ | +.+...| S l j j = ; , o o o + > w 5 # , @.<.#.l l P { +.=.+.#.#.#.! } ..%.%.} } #.#.@.D z z #.:., D ;.",
"} , #.*.z F U ! ^ @...+.,.=.%.%.#...+.0.=.+.4.%...l g z G.H.} 5 * * > o   . 5 6 = , , j l D D L ..%.%.%.+.+.,.0.0.0.5.5.5.+.0.5.5.5.=.+.+.+.....+.%.,.=.=.+.+...+.+.+.+...| | ..+.+.=.=.=.+...o.+.+.+.+.o. .+.0.0.+.+.+.3.5.5.5.5.5.5.%.+.0.0.5.+. .+.=.+.5.5.5.+.+.+.+.+.,.0.0.0.0.0.0.0.0.5.5.5.5.5.5.5.5.=.5.5.5.0.w.0.0.r.0.0.,.0.0.5.0.0.r.r.0.0.0.0.0.0.0.0.0.,.,.,.0.5.=.+.+.....%.0.0.+.+.+.5.5.,.+.%.%.+.0.,.%.@.Y ....%.#...I } } } ..%.%.I P ..#.} P } } J J L @.#.^ j . # 5 S ,.,...i R R . yXyXyXyXyXyXyXyXyXyXyXyXyXyXyXyXyXyXyXyXyXyXyXyXyXyXyXyXyXyXyXyXyXyXyXyXyXyXyXyXyXyXyXyXyXyXyXyXyXyXyXyXyXyXyXyXyXyXyXyXyXyXyXyXyXyXyXyXyXyXyXyXyXyXyXyXyXyXyXyXyXyXyXyXyXyXyXyXyXyXyXyXyXyXyXyXyXyXyXyXyXyXyXyXyXyXyXyXyXyXyXyXyXyXyXyXyXyX;.| S 5 = o o T 1.<.@.} ..} D L ................} P D J { ..+.+.=.,.+.+.+.,.,.+.+.=.0.0.+.+.+.+.=.=.=.5.5.5.5.0.5.+.+.0.0.5.5.5.0.=.+.0.0.+.+.=.0.0.0.0.0.%.+.%.,.+.+.+.+.=.5.5.5.5.+.+.+.%.,.=.+.,.,.+.+.5.0.0.5.5.5.5.=.=.+.+. .X.+.5.5.5.5.5.5.5.5.5.5.5.5.5.5.5.5.5.=.,.+.+.+.+.+.+.+.=.0.5.5.0.=.+.+.+.=.5.5.5.+.3.=.+.o.+.=.3.5.3.+.+.+.o.o.o.+.=.+.+.+.+.=.+. ...+.+.+... .[ | ..+... .J S l l , , , o o o . * 8 > # , @.<.@.j l P { +.=.,.&.@.! ! @.#.....} } @.@.! D z z #.:., J ;.",
"} , &.#.F L L ! ! @.%.%.%.+.%...I ..,.0.,.%.&.#.L l u z G.J.@.5 * * > o O + 5 6 , , 6 l l D I } ..%.,.,.+.+.+.%.%.,.+.+.+.%.+.5.5.5.5.5.=.+.+.=.=.,.,.,.,.+. ...+.5.5.+... . ...+.+.5.5.=.+.+.+.+.+.+.+.o.o.+.5.0.5.+.+.0.0.5.5.5.0.0.=.5.5.r.5.=.+.=.=.5.5.5.5.5.=.=.+.o.+.0.0.0.0.0.0.0.0.=.=.5.0.5.+.+.+.+.5.5.5.0.w.0.0.w.0.,.,.0.0.5.r.0.r.r.0.0.0.w.0.=.0.0.0.,.,.0.5.5.=.+.+.%.,.0.0.0.3.+.+.,.,.+.+.+.%.+.%.%.#.@.@.@.I I I P P } ..{ ....#.} P | ....P I I D J L @.#.! j . # 5 S ..+.} i x k $ yXyXyXyXyXyXyXyXyXyXyXyXyXyXyXyXyXyXyXyXyXyXyXyXyXyXyXyXyXyXyXyXyXyXyXyXyXyXyXyXyXyXyXyXyXyXyXyXyXyXyXyXyXyXyXyXyXyXyXyXyXyXyXyXyXyXyXyXyXyXyXyXyXyXyXyXyXyXyXyXyXyXyXyXyXyXyXyXyXyXyXyXyXyXyXyXyXyXyXyXyXyXyXyXyXyXyXyXyXyXyXyXyXyXyXyXyXyX^ { S 5 = % o [ q.q.%.{ ..} } } ....+.+.+...........} { | +.+.+.+.5.,.+.+.+.+...+.+.0.5.+.+.+.+.=.5.5.5.5.5.5.5.5.0.0.,.=.+.5.5.,.+.+.+.%.0.0.0.0.0.0.0.0.0.5.+.+.0.+...+.0.0.5.5.5.5.5.5.0.0.0.0.,.,.+.+.+.+.0.0.0.=.+.=.=.+.o.o.+.=.5.5.5.5.5.5.5.5.5.5.5.5.5.5.0.0.,.,.=.+.+.+.+.+.+.+.+.+.+.3.5.5.+.+.+.+.0.5.5.5.5.5.+.o.o.+.5.5.5.+.+.=.+.+.+.O.+.+.+.+.+.+.+. . .+.%.+.+.o.o...........{ J j j , , , o o +   * 8 > # , ! &.I j l } } +.+.,.,.} D I %.%.#.@.@.! ! ! ! z z z #.<.< L :.",
"} , %.#.D L L F ! #.%.,.+.+.%.#.I ..,.0.&.#.@.! F j u z G.J.I 5 * * > *   o 5 j , g j l z J } } } ....+.+.+.+.%.%.%.%...+.+.+.+.5.5.3.+.+.+.+.+.5.5.5.0.,.+.....+.5.0.+...o.o.+.+.=.5.5.=.5.=.+.+.+.+.+.+.+.+.0.0.0.0.0.0.0.0.5.5.5.+.+.=.5.5.5.0.0.0.=.5.0.5.5.5.5.0.+.o.o.+.5.+.0.0.0.5.=.=.=.=.,.+.+.+.+.+.+.5.5.0.0.0.5.0.+.+.0.0.0.r.w.0.0.r.r.w.0.0.0.5.0.0.0.,.0.0.0.0.=.+.+.+.+.%.,.5.+.+.+.%.+.....+.%.+.%.%.%.%.%.#.} ! L D P ........} @.@.......@.@.@.I I D D @.#.^ j o # 5 l P { J p a u o yXyXyXyXyXyXyXyXyXyXyXyXyXyXyXyXyXyXyXyXyXyXyXyXyXyXyXyXyXyXyXyXyXyXyXyXyXyXyXyXyXyXyXyXyXyXyXyXyXyXyXyXyXyXyXyXyXyXyXyXyXyXyXyXyXyXyXyXyXyXyXyXyXyXyXyXyXyXyXyXyXyXyXyXyXyXyXyXyXyXyXyXyXyXyXyXyXyXyXyXyXyXyXyXyXyXyXyXyXyXyXyXyXyXyXyXyXyX! { S < = % o [ q.q.%.{ { } ......+.%.+.+... . . .+.+...+.+.+.+.+.=.,.+.+.+... . ...%.0.0.0.=.5.0.0.5.5.5.3.3.3.5.0.0.+.+.+.+.=.%.+.....+.0.0.0.0.0.r.r.r.0.0.3.5.0.+...%.0.0.5.5.5.0.5.5.0.0.0.0.%.+.+.+.+.+.+.+.3.+.+.o.+.+.+.+.+.=.=.5.5.5.5.5.5.5.5.5.5.5.5.5.0.=.+.,.5.+.+.+.+.+.+. . .+.=.5.5.5.+.+.+.+.+.+.5.5.5.5.5.+.+.=.5.5.5.=.+.+.+.+.+.+.+.;.:.>.;.%... . . .+.+.+.+.+.+.+.+.+. . .} l j , , > o o o   * 8 5 # , ! $.! j l } ..+.+.,.,.%.#.....#.%.#.#.! ! ! ! z z z #.:.6 } :.",
".., #.@.z z F F I ..,.0.0.=.+.#.#.%.+.%.#.! ! ! z k < z Z.G.L 5 * * , = + o 5 j , j j j l J ........ ...+.+.+.%.;.%.:.1.+.+.+.+.=.3.5.=.=.=.+.+.5.5.5.0.0.,.%...%.0.+.....+.+.,.=.+.+.+.+.3.5.+.+.+.+.+.+.3.+.=.=.0.+.+.3.5.5.=.5.,.%.=.=.5.5.5.0.0.0.=.0.0.5.5.5.5.0.,.o. .+.=.+.,.,.,.+.+.,.,.=.+. . ...+.+.%.5.0.0.4.0.5.0.%.,.0.0.0.r.r.0.0.0.0.0.0.+.0.0.0.,.+.%.,.0.,.,.+.+.+.+.#.%.+.+........... . .+.%.+.%.%.......%.%.#.! L I } } @.@.I ! ! @...} @.@.#.@.L z J %.$.*.l o # 5 l ....J u i : o yXyXyXyXyXyXyXyXyXyXyXyXyXyXyXyXyXyXyXyXyXyXyXyXyXyXyXyXyXyXyXyXyXyXyXyXyXyXyXyXyXyXyXyXyXyXyXyXyXyXyXyXyXyXyXyXyXyXyXyXyXyXyXyXyXyXyXyXyXyXyXyXyXyXyXyXyXyXyXyXyXyXyXyXyXyXyXyXyXyXyXyXyXyXyXyXyXyXyXyXyXyXyXyXyXyXyXyXyXyXyXyXyXyXyXyXyXyXF { S j , % o { q.<.#.{ { ....+.+.+.+.+.+... . .+.+.%.+.o.+.+.+.+.+.+.+.+.%.%.+.+.+.+.%.,.0.0.0.0.0.0.=.+.+.+.+.+.0.=.+. .+.,.,.,.,.,.+.,.0.0.0.0.0.0.0.0.0.0.=.0.0.+.+.+.+.+.5.5.5.0.0.5.0.0.0.0.%.....+.+.+.+.+.+.+.o. .+.+.+.+.+.+.=.5.5.5.5.5.+.5.5.5.5.5.5.5.5.o.o.+.=.+.+.+.+.+. .{  .+.=.=.+.+.+.o.o.+.+.+.+.3.=.+.5.=.=.+.+.5.+...;.,.+.+.+.+.%.:.D.D.x.%. . . . .....+.+.o.+.+.+.+.o.+...l j , , > o o o . * w 5 * , ! *.F j l I I ..%.,.,.,.%.......@.! U ! ! ! z z z z #.;., } <.",
"#., #.! l z F R F ..%.0.,.=...%.&.%.+.+.} ! ! ! z g , g V.G.L 5 * % > = + o 5 6 , < j g l J ..+.+.+.+.+.....%.%.%.:.U.q.+.+.+.+.+.+.,.+.+.+.+.+.=.5.=.,.,.%.%...%.,.%.....+.,.,.+. . .o.+.+.3.+.+.+.+.+.+.+.+.+.+.+.+.+.+.+.+.+.+.,.%.%.,.0.0.5.=.5.0.=.+.+.+.5.5.=.5.=.o. .+.,.0.,.%.%.%.%.%.,.=...{ { +.+.+.,.,.=.%.%.,.,.,.,.0.0.5.5.0.0.5.0.0.0.+.+.+.,.0.,.+.....+.,.,.%.+.%.%.+.#.%.%.........+... . .+.%.+.%.%...| ..%.%.*.#.! I I I ! ! z k F @.%.#.@.^ ^ L L D } <.F.$.j o # 5 l ....J u u % o yXyXyXyXyXyXyXyXyXyXyXyXyXyXyXyXyXyXyXyXyXyXyXyXyXyXyXyXyXyXyXyXyXyXyXyXyXyXyXyXyXyXyXyXyXyXyXyXyXyXyXyXyXyXyXyXyXyXyXyXyXyXyXyXyXyXyXyXyXyXyXyXyXyXyXyXyXyXyXyXyXyXyXyXyXyXyXyXyXyXyXyXyXyXyXyXyXyXyXyXyXyXyXyXyXyXyXyXyXyXyXyXyXyXyXyXyXyXz { { j , % % [ ,.&.@.} } ..#...+..... . . . .o.+.%.%. . .+.+.+.+.+.+.+.+.0.0.0.,.%.%.+.+.+.0.%.+.+.+.+.+.o.+.+.+.5.+.+. .+.+.=.=.0.0.,.0.0.0.0.0.0.0.5.0.5.=.%.%.%.%.+.+.+.+.+.5.5.0.5.+.=.5.0.0.,.+. .+.+...+.+.+.+.....+.+.+... .o.=.5.5.5.5.=.+.+.=.=.=.5.5.5.+.o.o.+.+.+.+.+..... .| ..+.+.+.o.+.o.+.+.+.+.=.+.+.+.+.=.5.+.o. .+...#.H.2.,.o.+.+.%.>.D.c.l... . . .%.<.;... . .+.o.o.o.+.+...l j , , > o o o + * l 5 * , ! *.F j j F D I #.%.%.%.+.+.....} D z F ! F z z z z ^ %., } 2.",
"@., #.^ z z v R ! I %.,.%.....#.%.,.,.%.#.@.@.L z j , g Z.G.L 5 * * > > O + 5 6 , , 6 g z { ..+.,.,.%.%.;.;.;.;.%.;.<.,. .+.+. .+.+.+.+.+.%.+. .+.,.,.+.+.+...I ..%.%.....+.,.%...{ { ..+.+.+.+.+.+.+.+.+.+.+.+.+.+.+.+.+.0.,.+.%.%.#.#.#.%.,.+.+.5.,.,. .| +.=.5.5.=.=.,.,.%.+.+.%.%.%...{ ..%.+.....+.%.=.+.+.1.,...} %.%.,.0.0.0.0.0.0.0.0.0.0.0.+.....%.,.+.....%.+.%.%...| ..+...%.%.+.+. .+.+.+.+. .+.%.,.+...#.#.#.#.#.#.^ ! I ! L F z k k k x ! #.@.L U U F L F } <.Z.$.j o o > j D { J u i % o yXyXyXyXyXyXyXyXyXyXyXyXyXyXyXyXyXyXyXyXyXyXyXyXyXyXyXyXyXyXyXyXyXyXyXyXyXyXyXyXyXyXyXyXyXyXyXyXyXyXyXyXyXyXyXyXyXyXyXyXyXyXyXyXyXyXyXyXyXyXyXyXyXyXyXyXyXyXyXyXyXyXyXyXyXyXyXyXyXyXyXyXyXyXyXyXyXyXyXyXyXyXyXyXyXyXyXyXyXyXyXyXyXyXyXyXyXyXj [ [ w , o o S ;.#.I L L I I } ....| { {  ... .+.+.......+.+.+.+.....+.+.0.5.+.,.,.%.+...+.,.+.+. .+.+.......%.0.3.3.+.+. .+.+.+.3.5.5.5.5.5.0.0.0.,.+.,.%.%.%...{ %.+.+.+.+.+.5.5.0.+.+.+.0.0.0.,.+.+.,.+.o.+.+.+.o. .+.%.+...} P ..,.=.5.5.5.5.+.+.+.=.=.5.=.=.+.+.+.+... ... . .+.+....... . .{ ..+.=.+.+.+.5.+.+.+.+.+.+.+.+. .....:.H.F.%.....o...#.( ) ^ { {  .| ;.OXS.#.....+...o.+.,.,...l j , , ; o o o + > l 5 * , ! *.! g l U I ^ I I #.%.%.+.....} L D ! @.I D z z z @.&.6 } 2.",
"@., #.#.z x ! ~ ^ @.%.%.+.+.+.+.%.,.0.0.%...} I F j < j Z.G.I 5 * * > ; O + > 8 , , g l J ....+.+.+.+.+.;.S.S.:.%..... . .+.+. .o. . .......| { +.+.+.+.+...| I } } ..@.....+...{ { {  . .+.+.+.+.+.+.+.+.+.+...+.+.+.+.3.,.%.%.%.#...! } #.%.+.+.=.,.+. . .+.=.=.+.5.0.0.,.,.+.+.%.%.#.P S { +.+.+.%.%.,.+. ...,.%.{ S ..%.,.,.,.0.0.5.5.0.0.0.0.0.0.=.........+.+...+.+.%.I D I #.%.%.=.=.+.+.+.+.=.+.+...%.%...} #.#.@.@.^ ^ ^ ! I I ! ! x x z z ! ! ! ! F D F ! ! F L %.$.*.j o # 5 8 l [ S h p % o yXyXyXyXyXyXyXyXyXyXyXyXyXyXyXyXyXyXyXyXyXyXyXyXyXyXyXyXyXyXyXyXyXyXyXyXyXyXyXyXyXyXyXyXyXyXyXyXyXyXyXyXyXyXyXyXyXyXyXyXyXyXyXyXyXyXyXyXyXyXyXyXyXyXyXyXyXyXyXyXyXyXyXyXyXyXyXyXyXyXyXyXyXyXyXyXyXyXyXyXyXyXyXyXyXyXyXyXyXyXyXyXyXyXyXyXyXyXl [ [ 7 > o o S &.@.L F ! L D J ..+.{ T S { #...} {  .+.+.+.+.5.+... .+.,.,.+...+.,.,.%.+.+.=.+.+.+.+.%.%.....%.%.+.+.+.+.+.+.+.+.5.5.=.=.=.5.5.0.5.,.%.+.%.%.,.J j #.=.+.+.+.=.5.0.+.+.+.+.+.5.+.+.+.,.0.+.+.+.+.+. .{ ......} ..} ..+.=.5.5.5.5.+.+.+.+.+.5.+.+.+.+.+.+... . .{ { ..%.......| [ [  .+.5.=.+.+.=.+.....+.+.+.+.+.+.+...#.:.#.....o. . ...^ I J S [ [ T %.H.:.#.#.>.;.+.o.=.,.+.{ l l , , = o . . . > j 5 # , ^ V.^ z z ..#.#.} } %.,.,.+.......} L @.@.! F D D D @.:.6 I F.",
"#., #.#.z z ! ^ #.%.%.+.+.,.0.=.=.=.,.0.0.+.+.} z g , z F.G.! , * * > = . . , 8 , , g J { } ....+.+.+...;.Z.Z.:...o.+. . .o.o.o. . . .} ......| +.+.+.+.+.....{ { I } } ....%...{ { { ....+. . .+.+. .{ ..+.....+.+.+.5.5.+.....#.,.;.%.@...+.+.+.=.,.=.+.+.+.=.=.+.5.5.+.+.+.o.%.......} J { +.+.+.+.+.%...P ..%.%. .+.%.,.,.+.+.=.=.=.=.0.0.0.0.0.0.0.,.%.%.+.=.=.+.+...#.@.z L #.%.,.+.+.+.+.....+.+.........} } @.@.I U ! ^ ~ ^ I } @.! R ! F ! ! ! ! ! F U ! ^ ! F F @.*.#.j o # 5 8 [  .[ j p % o yXyXyXyXyXyXyXyXyXyXyXyXyXyXyXyXyXyXyXyXyXyXyXyXyXyXyXyXyXyXyXyXyXyXyXyXyXyXyXyXyXyXyXyXyXyXyXyXyXyXyXyXyXyXyXyXyXyXyXyXyXyXyXyXyXyXyXyXyXyXyXyXyXyXyXyXyXyXyXyXyXyXyXyXyXyXyXyXyXyXyXyXyXyXyXyXyXyXyXyXyXyXyXyXyXyXyXyXyXyXyXyXyXyXyXyXyXyXl X. .8 5 o o S <.@.F F ! } J { +...{ S S J } } J {  .+.o.+.=.5.+.%.o.+.=.+.....+.=.,.,.,.=.,.+.+.+.5.0.,.%.......+.+.+.+.o.o.o.+.+.+.+.+.=.+.=.5.0.,.%.+.%.%.,.} l #.=.+.+.=.5.=.=.+.+.+.+.=.=.+.+.+.+.+.+.+.o.+.+...} P } P } %...+.+.=.5.5.=.5.+.+.+.3.+.=.+.+.o.o.+.+.%.%...| { ....} ...... . .+.+.5.+.+.+.+.....+.+.+.+.+.+.=.+.+.%.%.%... . . .[ P P P J S S S S { #./ ^ :.D.>...o.+... .{ l l , , = o + + . * j , # , ~ Z.$.J } #.%.%.%.%.,.,.,.%.....+...} ! ^ ! U F F D @.<.< L F.",
"#., #.#.z z x ^ #.&.,.5.5.5.0.0.,.+.+.0.0.=.%.I z g , z F.H.F , * * > * O . 5 j , , j J { { {  .o.+.+.....:./ ^ ..+.+.+.o.o. . . .+...{ J ..+...+.o.o.+.+.+. .[  ...P J } %.&.} L } } ....} } ..#...{ J { ....{ ..+.+.,.0.+.....%.,.0.<.%.....+.+.+.,.,.0.0.5.=.+.+.+.=.+.+.o. ...} { ..#.....+.%.....%.%.....%.%.+.,.0.0.0.+.o. .+.+.=.=.=.0.0.=.=.,.,.,.,.,.,.+.=.%.....#.#.@.#.%.,.%...o.o.+.+. .........I L L } ..I A z ! ^ ^ U L } @.I A z F ! F A ! ! ! ^ $.*.F F D @.*.*.j o # 5 l  .+. .j u % o yXyXyXyXyXyXyXyXyXyXyXyXyXyXyXyXyXyXyXyXyXyXyXyXyXyXyXyXyXyXyXyXyXyXyXyXyXyXyXyXyXyXyXyXyXyXyXyXyXyXyXyXyXyXyXyXyXyXyXyXyXyXyXyXyXyXyXyXyXyXyXyXyXyXyXyXyXyXyXyXyXyXyXyXyXyXyXyXyXyXyXyXyXyXyXyXyXyXyXyXyXyXyXyXyXyXyXyXyXyXyXyXyXyXyXyXyXyXS o. .w 5 o o S <.@.F z L } ....+. .| { P J P J J } +... .o.+.+.+.0.+.3.+.+.+...+.+.%.,.,.,.0.=.o.+.=.+.+...%... .o.+.+.+.+.o.+.+.+.+.+.+.,.+.+.+.4.%.%.%.%.+.,.,...%.+.+.+.5.=.=.=.5.0.0.5.5.5.5.+. . . .o.+.o.+.+... .........+.+.+.+.+.+.+.5.5.+.+.+.+.+.=.+.o. . .o.+.%.+.........J { ..,.=.+.+.+.+.3.+.+.+... ...+.+.+.+.+.=.+.=.+.%.%.%.+.o. .[ S l j j j S S S S { ..Y I ) D.( .. . .|  .{ l l 6 < , o + .   * 8 * % u ~ Z.#.J ..+.+.+.+.,.,.,.,.+.....+.%.#.^ ~ ! F F F F %.<.< I I.",
"#., @.#.z z ! ^ #.%.,.=.5.5.5.0.,...+.0.5.=.} L z j g z Z.G.F , * * > %   # 7 l , , j J { { {  ...+.+.o...#.#.Y o.o. . . . . .{ { ..} l l } +.+.+.o. .o.+.+. . .....P D P #.@.I F F F I I D F I #...} } } ..{ {  . . .+.+.,.%.,.,.,.=.%...| ..%.+.[ ..+.0.0.5.+.+.+.+.+.+.+.+.+...I J ..%.%.+...#...} #.#...%.%...%.,.5.5.5.+.o. .o.+.+.+.+.,.+.+.+.+.+.+...%.%.+.%.#.} L @.@.@.%.,.%.%... .+.+.%...} I I I F z L } } F z z F ! I D S { } J A z ! #.F z ! ! ! ^ Z.$.F z J @.$.#.j o # 5 S +.+. .j u % o = yXyXyXyXyXyXyXyXyXyXyXyXyXyXyXyXyXyXyXyXyXyXyXyXyXyXyXyXyXyXyXyXyXyXyXyXyXyXyXyXyXyXyXyXyXyXyXyXyXyXyXyXyXyXyXyXyXyXyXyXyXyXyXyXyXyXyXyXyXyXyXyXyXyXyXyXyXyXyXyXyXyXyXyXyXyXyXyXyXyXyXyXyXyXyXyXyXyXyXyXyXyXyXyXyXyXyXyXyXyXyXyXyXyXyXyXyX{ +.X.w 7 # o l <.#.z z J } #.#...............{ { { ..+. .[  .+.+.3.5.5.3.+.+.+.+.+.+.+.+.+.+.+.o.+.+.o. ...+.+. .+.=.+.+.+.+.+.+.+.+.+.=.=.=.+.+.+.+.0.%.%.+.+.,.,.+.=.+.+.5.5.=.=.5.5.0.5.0.0.5. .{ {  . .+.+.+.o... .+.+.=.=.=.+.o.o.+.+.+.5.5.+.+.o.+.+.0.+. . . .o.+. .| ........J { +.,.+.+.+.+.+.3.+.+. . .{ | +.+... .+.+.+.+.+.+.+.%.+.+. .| S 8 , , 6 l l S { | ....U ) D.( Y  .X.[ | { l l < , = . . O . * 8 = % u ~ Z.^ S { +.+.+.+.=.5.5.+. ...%.;.;.#.R ~ ~ ! F F ! %.<.< P U.",
"#., #.#.z z ! ^ #.%.%.=.5.5.5.0.,.%.%.0.5.=...L z j g z :.G.F ; o # > % O # 5 l , , j J P { [ { ..+.+.o...;.;...o. . . . . .{ [ [ { J D J { ..+... . . . ..... . .| P D D D ! F z k k z z z D U I } ....%.....| ....{ | %.%.%.%.,.,.%.........%...[  .+.,.0.=.+.+.+.+.+.+.+.+...#.} } ..%.%.%.%.#.#.} @.I ..%.#...%.,.=.=.5.+.+.+. . . . .+.+.+.+.+.%.,...{ #.%.%.%.@.L F F F @.%.%.%.#.} ....%.%...L D F F z z @.@.I F A z z A D l l { { P D I @.@.U F F ! ^ ^ *.*.! D D #.$.#.j . # 5 S o.+. .g u % # ; yXyXyXyXyXyXyXyXyXyXyXyXyXyXyXyXyXyXyXyXyXyXyXyXyXyXyXyXyXyXyXyXyXyXyXyXyXyXyXyXyXyXyXyXyXyXyXyXyXyXyXyXyXyXyXyXyXyXyXyXyXyXyXyXyXyXyXyXyXyXyXyXyXyXyXyXyXyXyXyXyXyXyXyXyXyXyXyXyXyXyXyXyXyXyXyXyXyXyXyXyXyXyXyXyXyXyXyXyXyXyXyXyXyXyXyXyX .,.X.w 7 # + l :.#.z z J I } } { } ............{ { ..%...[ [  .o.+.+.+.3.+.+.+.+. .{  .+.+.o.+. .+.+. ...%.+.+.+.+.+.o.X.o.+.+.+.+.+.+.=.=.5.=.+.+.+.,.%.......+.,.=.,.=.5.5.5.=.=.5.5.5.5.5.5.5...{ { {  . .+.+. .......+.+.=.+.+.o..... . .o.+.o. .[  .+.,...{ { .. . .T S } ..#...} ........ .o.+.+.+.+... .{ P { .... .|  .+.,.=...........%...} S 6 6 6 8 8 j S { { ....Y :.S.( Y |  .[ { { l l , , = o . O . * j = % , ! $.! l S +.,.=.=.=.5.5.+. ...%.%.&.@.~ ~ ~ ! F F F #.;., P U.",
"#., %.#.z z ! ~ ^ @.%.%.5.5.5.0.,.,.0.0.0.=.%.@.F j g z Z.G.F > o o * o O . 5 j < , j D J J { {  .+.+. ...%.;.%. . . . .{ { { S l l D I I { {  .} ....{ { P I { S S D D l l z z z p p k z z D D I I } ..%.#.........{ P ....%.%.%.%.%...#.............%.,.,.=.+.+.+.,.,.,.,.%...#...} ..%.%.%.%.%.#.@.I I ..%.#.....%.,.+.o.+.+.=... . . .+.+.+.+.+.%.,.#.} } #.#.@.L F z z F U @.%.#.@.@.@.} #...J z z z z z L #.@.! F z z z z S l l S P P P @.@.@.! U F I ! ! R ^ ! z D #.$.#.j . # 5 S o.+. .j u % # ; yXyXyXyXyXyXyXyXyXyXyXyXyXyXyXyXyXyXyXyXyXyXyXyXyXyXyXyXyXyXyXyXyXyXyXyXyXyXyXyXyXyXyXyXyXyXyXyXyXyXyXyXyXyXyXyXyXyXyXyXyXyXyXyXyXyXyXyXyXyXyXyXyXyXyXyXyXyXyXyXyXyXyXyXyXyXyXyXyXyXyXyXyXyXyXyXyXyXyXyXyXyXyXyXyXyXyXyXyXyXyXyXyXyXyXyXyX..,. .w 7 # . l :.#.z F F L L D D P ..#.........} } ....{ { { {  .+.o.o.+.+.+.+..... . ...+.+...+.%.+.....%...+.+.+. . .[ |  .........+.+.=.=.=.=.+...............,.,.,.,.0.5.=.+.=.=.=.=.+.=.=.=.%.......| { P { } } ......+.=.+.+.+.+...{ T [ {  .{ { ..%.%...P P { { T D D I ....} } #.#...| |  .............{ I I } ....} } @.%.;.%...} } } #.Y } l 8 6 8 8 8 8 S { P { ..#.:.S.:.Y | | { { P j j , , = o . . . * j = # , ! $.@.l l ..%.0.5.5.5.=.=. .....%.#.#.^ ^ ^ ! U F F @.&.< D q.",
"%., $.#.z z R ~ R ! @.%.0.5.0.,.=.,.0.0.0.=.,.&.! z g z :.G.F , o . * o . . > j u u g l z J J {  . ... .....#...|  . .{ S S S l l l S L D D S S I } ..} D D A D z l z z l j z z k h p k z z z z F L L } @.@.#.....P S P { ....%.%.@.@.@.@.......%.%.#.%.+.+.+.%.%.+.,.,.,.%.%.%.......#.%.%.%.%.%.#.L D ..%.%.#.#.#.%.%.+...+.+.+.+. .{ T ................I @.@.@.I F z F ! ! ! ! @.@.! I I L } I D F z z z F I @.#.! z z z l l S S l l S P I ....@.! I I I ! A z R F z F #.$.! j . # 5 w o.+. .j p % # ; yXyXyXyXyXyXyXyXyXyXyXyXyXyXyXyXyXyXyXyXyXyXyXyXyXyXyXyXyXyXyXyXyXyXyXyXyXyXyXyXyXyXyXyXyXyXyXyXyXyXyXyXyXyXyXyXyXyXyXyXyXyXyXyXyXyXyXyXyXyXyXyXyXyXyXyXyXyXyXyXyXyXyXyXyXyXyXyXyXyXyXyXyXyXyXyXyXyXyXyXyXyXyXyXyXyXyXyXyXyXyXyXyXyXyXyXyX .,.[ n 5 # . l &.#.A D D D F D D D I @.#.} } ..@...} { { { { { { } { ..%.........%.......+.......%.#.} ..@.,.;.%...| | { { | ............+.+.+.+.+.............%.%.,.,.,.0.,.=.+.=.=.=.+.+.+.%.%.%.%.%.%...P D L I I Y ....+.+.+. .......P S T { { } P I @.} I D D D J S F z D I I I I ..@.Y D J P } I I ..#...} } @.I I I I U I #.#.^ ! I I } } ! I l 6 5 5 5 8 8 S S T P ..Y ^ / ^ T | | [ S S j l , , = o . .   * j = # , ! $.@.l [ I ..+.5.5.0.=.=.+...%...I @.$.#.^ ! I D z ^ %.< J 2.",
"&.6 &.#.z F ! R R ! ^ %.,.0.%.+.=.=.0.0.%.%.%.%.#.F j z <.G.L , o o % o . * , j g h h k z D J J I } ......I ^ #.@...} J S S l l l z A F A z z D ! ! ! ! A z k z z z k k z z k z z k k A R ! ! ! ! ~ ! ! ^ #.%.@.I S S D I I ^ ^ @.^ ! ^ #.#.#.%.%.&.@.#.%.%.;.;.%.%.,.;.%.%.&.%.%.@.@.#.;.%.%.%.%.@.F F #.:.%.%.$.$.$.%.%.%.%.%.%.%.....P } @.@.@.@.@.@.^ #.~ ^ ^ ! ~ R ~ / / ~ ~ ~ ^ ^ ! ! ! ! ^ ! ! ! ! ! ! ! ! #.! z z D J P P P P D P I I ! ^ ! ! ! ! ! ! F A A z z z ^ #.! j . # 5 w +.=. .g p & % ; ; yXyXyXyXyXyXyXyXyXyXyXyXyXyXyXyXyXyXyXyXyXyXyXyXyXyXyXyXyXyXyXyXyXyXyXyXyXyXyXyXyXyXyXyXyXyXyXyXyXyXyXyXyXyXyXyXyXyXyXyXyXyXyXyXyXyXyXyXyXyXyXyXyXyXyXyXyXyXyXyXyXyXyXyXyXyXyXyXyXyXyXyXyXyXyXyXyXyXyXyXyXyXyXyXyXyXyXyXyXyXyXyXyXyXyXj { +.[ w 5 # . l ;.*.! A F A F F F F F I @.! ! ! @.@.} I I } } I I I } #.&.%.....%.%.%.%.%.%.%.#.#.#.#.#.#.#.:.;.#.Y Y @.@...@.#.#.@.....@.%.&.;.%.@.@.#.#.#.@.@.%.;.;.;.;.,.1.,...,.,.,.%.%.%.&.&.%.%.#.%.#.^ U ! ^ ^ ^ #.#.%.:.;.%...P P D P @.^ ^ ^ ! ! ! I U U ! ! ! ! ! z A ! ! ! ! ! ^ ! A A ! U A ! ^ #.^ ^ ^ ^ ^ ! ! ^ ! ! ~ / ~ ! ! ^ ^ ! ^ ! l 8 8 8 7 8 j l S P I ^ ~ ! F I I P P P J l j z g , , % o .   > j = o , ! $.@.z { J {  .+.5.0.,.+.+.%.%.@.I ! #.#.@.@.I F z @.&.6 S <.",
"&.5 &.#.z F ! R ! ! @.%.%.+...+.,.0.0.,.%.@.#.#.^ ! k z Z.Z.F , o o * o + > < k R v x x R ! ! ! ! ^ ~ / / / g.Z.V.$.^ ! ~ ~ ~ ~ R R ~ ~ ~ R R ~ ~ ~ ~ ~ R R R R ~ ~ ~ ~ R R R R ~ E E / g.g.g.g.g.g.g.V.V.V.V.V.~ ! ! ! ~ ~ / g./ ~ ^ $.Z.Z.Z.G.F.:.$.$.Z.A.A.Z.:.$.:.F.Z.Z.Z.F.Z.$.$.Z.J.Z.$.~ $.*.~ $.Z.Z.Z.Z.A.A.A.Z.Z.Z.Z.Z.Z.Z.Z.$.~ ~ / V.g.g./ / g.V.V.V.g.g.g.g.Z.A.A.A.Z.Z.Z.V.*.$.$.$.V.$.$.V.V./ / / / Z.$.~ ~ *.$.$.:.:.:.$.*.~ ~ $.$.$.$.^ ^ ^ ^ ^ ^ ! A z l I @.! j . # 5 l +.,...g i & % % % yXyXyXyXyXyXyXyXyXyXyXyXyXyXyXyXyXyXyXyXyXyXyXyXyXyXyXyXyXyXyXyXyXyXyXyXyXyXyXyXyXyXyXyXyXyXyXyXyXyXyXyXyXyXyXyXyXyXyXyXyXyXyXyXyXyXyXyXyXyXyXyXyXyXyXyXyXyXyXyXyXyXyXyXyXyXyXyXyXyXyXyXyXyXyXyXyXyXyXyXyXyXyXyXyXyXyXyXyXyXyXyXyXyXyXyX} +. .8 5 # . l Z.*.~ ^ ^ ~ ~ ~ ^ ! ! ! ^ *.$.$.$.$.*.^ ^ #.*.*.~ *.*.:.Z.$.$.$.Z.Z.Z.Z.V.V.V.Z.Z.Z.Z.Z.Z.Z.G.Z.$.$.$.$.$.$.V.Z.Z.$.~ ^ $.$.Z.Z.$./ $.Z.Z.Z.Z.Z.Z.Z.Z.Z.<.F.F.;.%.:.:.;.;.$.$.:.Z.Z.Z.$.$.$.$.~ ~ / / $.$.$.G.H.H.<.#.! A ^ *.$.$.Z./ / ~ ~ / / / g.g.g.g.g.Q Q g.g.g.g.g.g./ R R ~ / / / / V.V.g.g.V.V.g.g.g.g.g./ / E ~ / Z.V.*.$.^ D D { ..[ l L F I I ! ( A.l.~ ! @.^ ~ ! ! ! R ! ! p , * o .   5 j = o , ! $.@.z S J { +.+.=.+.+.+...%.#.! ! ! ! @.@.@.I L F #.;.6 S ,.",
"#., &.@.z F L ^ ^ ^ @.%.+.+.....,.0.0.,.%.#.#.@.! F z z <.Z.D , o * 5 o + > j k z R z x ! ~ ! ! ! ~ / g.g.g.g.z.z.g.~ R R ~ ~ R R R ~ ~ R R R R R ~ ~ R R R R ! ! ~ ~ ~ ^ ~ R E E ~ ~ g.g.V.V.V.V.V.V.V.V.V.V.V.*.~ R ! *.V.V.V./ ~ ~ g.Z.Z.Z.A.Z./ / / Z.A.A.Z./ V.Z.Z.Z.Z.Z.Z.Z.V.V.D.D.A./ / $.V.V.V.Z.V.V.Z.A.A.A.Z.Z.Z.Z.Z.Z.Z.Z.Z./ / g.h.h.g.g.g.g.l.g.g.g.g.g.g.Z.Z.Z.Z.Z.Z.Z.$.$.$.:.Z.Z.V.V.Z.Z.V.V./ V.Z.Z.V.$.$.$.$.V.Z.Z.$.*./ *.Z.G.H.:.^ ! ! ^ ^ #.! F z l I @.! j . # 5 l  .%...g i & % % % yXyXyXyXyXyXyXyXyXyXyXyXyXyXyXyXyXyXyXyXyXyXyXyXyXyXyXyXyXyXyXyXyXyXyXyXyXyXyXyXyXyXyXyXyXyXyXyXyXyXyXyXyXyXyXyXyXyXyXyXyXyXyXyXyXyXyXyXyXyXyXyXyXyXyXyXyXyXyXyXyXyXyXyXyXyXyXyXyXyXyXyXyXyXyXyXyXyXyXyXyXyXyXyXyXyXyXyXyXyXyXyXyXyXyXyX{ +. .8 5 # . l <.*.! @.#.$.*.#.^ L ! ^ *.$.$.$.$.$.*.^ ^ #.*.*.~ / $.V.Z.V.g.g.Z.Z.Z.Z.Z.Z.Z.$.V.<.Z.Z.F.F.F.&.$.$.$.$.$.V.Z.Z.C.*.~ ~ *.$.&.C.$.*.*.$.Z.Z.Z.Z.Z.Z.V.C.&.&.<.$.$.&.<.&.&.$.$.$.$.V.V.V.*.$.$.*.~ ^ #.#.#.#.$.<.Z.Z.*.v z ^ $.&.<.:.$.~ ^ ^ / / g.g.g.g.g.s.E Q g.g.g.g.g.g./ E v ~ / g.g.~ ~ ~ / g.g.g.g.g.V.g.g./ ~ ~ ^ $.Z.$.#.*.^ L #.<.<.%.I ! ^ ^ ! ~ Z.|.K./ ~ ! ^ ^ ! ! ! R ^ ~ p , * o .   5 j ; # , ! $.! l l P ..=.=.=.+.+.+.+.%.@.@.I F I ! @.@.! I ! %.:.6 D <.",
"#.= &.#.z D I #.#.^ @.%.,.,.,.%.,.w.0.,.,.,.%.%.I F z A ;.<.F 5 o 5 l * . * 6 < u g g k k z A z A ! A ! ! ! ! ~ ^ ! J l l l z z z z z z z k k k k k g g g a a g g p k k j g g p p k k A ! ! ! ! ! ! ! ! ! ! ! ! F A A D I ^ ^ ! U F D I ! @.@.@.@.I } I I ^ I I I @.%.%.%.%.%.@.@.! ^ *.*.^ ! ! ^ ^ ^ ^ ^ ^ ^ @.#.#.#.@.^ @.#.#.#.@.@.@.I I F ! ^ ! F F ! ! ! ! ^ ! R ! ~ ^ ~ ! ! ^ ! ! ! ! ! ! ! F U ^ ^ ^ U U ! ^ @.^ U F ! ^ ^ @.@.Y U U ^ *.$.#.! ! @.@.! ! ! F F F F #.#.I 8 + # 5 8 S  .{ p i & % % % yXyXyXyXyXyXyXyXyXyXyXyXyXyXyXyXyXyXyXyXyXyXyXyXyXyXyXyXyXyXyXyXyXyXyXyXyXyXyXyXyXyXyXyXyXyXyXyXyXyXyXyXyXyXyXyXyXyXyXyXyXyXyXyXyXyXyXyXyXyXyXyXyXyXyXyXyXyXyXyXyXyXyXyXyXyXyXyXyXyXyXyXyXyXyXyXyXyXyXyXyXyXyXyXyXyXyXyXyXyXyXyXyXyXyXyXJ +. .8 5 # . l $.U z P } I F F L L L ! @.@.! F F ! F D L I ! ! I } } ..@.@.@.@.#.#.@.^ @.#.#.........%.%.+.%.........} ..@.#.#.@.Y D P I ....#...} ..@.@.@...} } ............{ | ...... ...} } I I } } } } I P P P P P P P { { } } J l l S { } #.#.@.I F F D L L F F F F z k k z A F A A k A z g k A F A z z F I I U F F U ! ! ! U I L I @.@.@.I ! ! L @.#.#.! D z R ^ ! ! $.A.j.W R F F F z z z k k p , , o o .   8 S , # , I $.! j l ....+.+.+.+.,.0.,.+.%.#...} } @.@.^ I F ! #.&.< D <.",
"#.= $.#.z J J ! @.! @.%.;.,.,.,.,.0.w.0.0.0.0.,...L z z $.:.F 5 # 5 [ > . o 5 , < j j 6 j l l S S D S S S S S S [  . .[ [ w l S l l l z J J J J l j < j j g g g p p g l j j j 8 8 8 w S T  . .T T T T T { [ S T T T [ | | | { T S [ [ [ [ [ [  . .X.o. .[ [ [ [  .o.o.o.X.o.o.o. . . .| | |  . .| | |  . .| .. .+.+... .X.o.+.+.o.X.X. .X.X.[ [ |  .[ S [ [  . . .{ T J { } P J J J { P P T S S S S S T T | [ | |  . .| S S [ ..%.....| | | | } } P T  .%.,.%.U A A F z I &.%.I 6 . # 5 5 l { S u p = o % % yXyXyXyXyXyXyXyXyXyXyXyXyXyXyXyXyXyXyXyXyXyXyXyXyXyXyXyXyXyXyXyXyXyXyXyXyXyXyXyXyXyXyXyXyXyXyXyXyXyXyXyXyXyXyXyXyXyXyXyXyXyXyXyXyXyXyXyXyXyXyXyXyXyXyXyXyXyXyXyXyXyXyXyXyXyXyXyXyXyXyXyXyXyXyXyXyXyXyXyXyXyXyXyXyXyXyXyXyXyXyXyXyXyXyXyXl +. .w 5 # o j #.D l S P J l D I @.I I @.@.z D F L D S } ...... .X. .o.o.+.+. . . .X.X.X.+.=.=.+.+.=.5.5.5.+.X. .X.+.+.+...+.+.+. .[  .X.X...+.+. . . . . . .S S [  .X.O.O.X.X.X.X.O.X.X.O.X. .[ T  .|  . . . .[  . .{ { [ [ [ [  .[ S n S [  . .o... .{ J S S S S S S S S l j l l S S S l l S S S S S S S [  .+... .S T [ | | | | ....} ........} ..} @.I F D J L ! I I D U ^ ~ I J J J D S l j g u , , , o o . . l { 5 # , ! $.^ l S ...... .+.,.,.0.,.+.+.%.%.+.%.%.@.I F A z @.$., D <.",
"#.= %.#.D J J L L @.#.%.&.%.%.+.%.0.0.w.w.w.w.,...L l z $.Z.L 8 # 7  .5 O o > 5 g z j 6 8 l S S [ [ T S S S [ [ [ [ [ [ S S S T S S l l S [  ...S 8 8 j j j j k l j A D S S J l l l l {  . . .[ [ { { } } J S { ....+.+.+.%.+.}  . . .{ } ..........+... .| [ | ..+.+... . .+.+.+.+... . .....+.+.+.o.+.+.+.+.%.,.,.%... .+.=.0.=... . . .X.T [  . .[ S { ..........}  .o.o.o. .[  .o.o.o.o. .X. . .{ { ..+.+.+.o.o.+.+. .[ { ..&.......+.+.+. . . .X.o.,.,.%.U F ! ! z D %.@.I 6 . # > , l { l u h , . % % yXyXyXyXyXyXyXyXyXyXyXyXyXyXyXyXyXyXyXyXyXyXyXyXyXyXyXyXyXyXyXyXyXyXyXyXyXyXyXyXyXyXyXyXyXyXyXyXyXyXyXyXyXyXyXyXyXyXyXyXyXyXyXyXyXyXyXyXyXyXyXyXyXyXyXyXyXyXyXyXyXyXyXyXyXyXyXyXyXyXyXyXyXyXyXyXyXyXyXyXyXyXyXyXyXyXyXyXyXyXyXyXyXyXyXyXl  .[ w 5 # o j #.F l S J J z F @.} P P @.@.D D ^ } J { +.+.+.+. . .......%....... . . . .+.,.%.+.+.0.0.0.0.5.o.o.+.+.0.+.+.+.4.+.+. .o.+.+.+.+.+. . . .+.+.+. .[ [ [ o.+.+.o.o.o.+.o.o.+.+.+. . . . ... . . . . .o.o. . . . . .o.+.o.[ S [ o.+.+.+.=.+. .{ l S P ..P S S D D l S S { { { l l S [ [  .[ [  .o.+.+.+.o. .o.o.+.+.+.+......... .........S S J S S S J D D { { P P { }  .[ [ T T l j g g 6 > 5 * o + . l { 5 * 5 @.Z.#.z { J I } ..+.%.,.,.,.+.+.+.,.,.%.%.@.I D l l @.&.< D q.",
"%., &.#.D J J { ..%.%.%.%.%.,.,.,.,.0.w.0.0.0.,...I j z Z.G.@.j > w | 6 + o * , g j u < j l S [ [ [ G T { { { S S S S S S S S S S S S S {  . .| S l j j l j z j j l l S S T P { J S { ....+.+...........} J J } +.+.+.+.%.%.+... . . .} } ..#.#.......%.+. .| ....%.=.+. . .+.,.,.%.+...+.%.%.%.%.+.o.+.0.4.%.,.,.,.%...+.=.,.,.,.,.,.+...| { {  ...| P  ...+.....| .. .o.+.+. . .o.+.+.+.+.O.+.+. .{ } ..+.+.+.+.+.%.%...} ....@...} ..%.%.%... . . . ...%.#.U F A z k l I I D 6 + # > , l { l , k , . % % yXyXyXyXyXyXyXyXyXyXyXyXyXyXyXyXyXyXyXyXyXyXyXyXyXyXyXyXyXyXyXyXyXyXyXyXyXyXyXyXyXyXyXyXyXyXyXyXyXyXyXyXyXyXyXyXyXyXyXyXyXyXyXyXyXyXyXyXyXyXyXyXyXyXyXyXyXyXyXyXyXyXyXyXyXyXyXyXyXyXyXyXyXyXyXyXyXyXyXyXyXyXyXyXyXyXyXyXyXyXyXyXyXyXyXyXj  .[ 8 > o . j $.! l l J l l z F z D D I I l z F F D S ..+.+... .......................+.+.%.%.%.%.0.0.0.0.+.+.+.+.0.0.+.+.+.+.,.+.+...%.0.,.%.+.....%.%.%.,.%.+. . .o.+.+.+.o.+.+.+.+.+.+.+.+.....+.+... .o.+.+.+.+.+.o. .o.+.+.+.+. .[  .+.3.5.5.+.=...} P I @.#...P P ..I P } .... .[ S S S [  . .[  .+.+.+.+.+.+.+.+.%.%.%.%.%.+.+..... .{ { ....l j l w 8 l l D D T [ [ {  . . .[ [ { { S j j j 6 ; > # # + . l { 5 5 6 #.G.*.F { J | +.+.+.=.=.,.+.o...+.,.=.+.+...} J D S @.:.< D 2.",
"#., :.&.J J { +.,.,.,...+.,.0.0.,.,.,.0.r.5.5.+...L j z F.J.#.j 5 w | 8 . . * , g h u u g z J { { { [  .+.+. .[ S [ [  . .[ [ [ l j l P ....P S J I J D D F F z A D D D P { { | ..{ | +.+.+.=.+.+...........| ..+.+.+.+. . . . . . ...+. . .+.+.+.+.+.0.=.+.+.+.=.5.5.5.+.+.5.0.0.0.3.3.5.0.0.0.,.+...=.0.0.5.0.0.0.+.+.5.0.5.5.0.0.0.5.+.+.+.+.+.+.+.o.+.=.=.+.+.+.+.+.+.,.,.+. .+.+.,.,.+.o.+.+. . . .+.+.=.=.=.=.+... .......P T | | |  . .............@.@.^ ! A k k j D L D 8 + . > 5 l S j , k , . o o yXyXyXyXyXyXyXyXyXyXyXyXyXyXyXyXyXyXyXyXyXyXyXyXyXyXyXyXyXyXyXyXyXyXyXyXyXyXyXyXyXyXyXyXyXyXyXyXyXyXyXyXyXyXyXyXyXyXyXyXyXyXyXyXyXyXyXyXyXyXyXyXyXyXyXyXyXyXyXyXyXyXyXyXyXyXyXyXyXyXyXyXyXyXyXyXyXyXyXyXyXyXyXyXyXyXyXyXyXyXyXyXyXyXyXyXj [ [ 7 5 o . g $.^ j S J l l F F z z z F ! z z z F D J } ...... .+.+.+.+.+.+.+.+.5.5.=.,.,.+.,.,.=.5.5.5.5.=.5.5.5.5.5.=.+.+.=.,.=.+.+.,.0.,.+.+. ...+.+.=.=.=.+.+.o.+.5.+.+.+.+.=.=.+.+.=.=.=.=.+.+.+. . .+.=.+.+.=.+.+.o.o.+.=.+.+.+.+.+.+.3.5.5.5.+.%.#.+.+.+.+.[ [ o.+.+.+.o.o.+.O.X.[ X. . .+.X.X.X.+.+.+.+.+.+.+.=.=.+.+.+.+.+... . . .{ { %.%.S 8 8 7 w l J U D S S T | | | [ [  .{ { D l g u , , , # # + . l { 7 5 8 %.H.$.D {  .+.,.5.5.5.5.0.+... .=.,.+.+.+.%...{ D D #.;., J 2.",
"#., :.&.J J J +.+.0.0.0.0.0.w.w.0.,.,.0.0.5.3.%.#.L l D Z.J.*.l 5 7 l 7 O . > , u u u p g z S S [ [ [  . .+. .[ [ [ X.+... .| S S S [  . .{ [ S { ..{ { { } D l D I D S {  . . ... . .+.+.+.+.%.+.+.+.....+.+.+.o.+.+. . .o.+.+. . .%.+...I I Y ..+.+.+.+.+.=.=.,.0.0.=.=.5.0.0.0.0.0.0.0.0.w.w.0.5.=.0.0.0.0.0.w.0.0.0.0.0.0.5.5.5.5.0.5.5.=.=.5.=.+.+.0.,.+.+.+.,.,.5.5.5.0.0.+.+.=.0.0.+.+.+.+.o.+.+.=.=.5.5.=.+.+.o.+.+.+.%.J J P } .. . .+. . .+.......I ! ! F z k z F I D 8 . . > , l S j , Z , . o o yXyXyXyXyXyXyXyXyXyXyXyXyXyXyXyXyXyXyXyXyXyXyXyXyXyXyXyXyXyXyXyXyXyXyXyXyXyXyXyXyXyXyXyXyXyXyXyXyXyXyXyXyXyXyXyXyXyXyXyXyXyXyXyXyXyXyXyXyXyXyXyXyXyXyXyXyXyXyXyXyXyXyXyXyXyXyXyXyXyXyXyXyXyXyXyXyXyXyXyXyXyXyXyXyXyXyXyXyXyXyXyXyXyXyXyX6 [ S 7 > . + g #.z j S J l l D D A D D J } } L L I P { { { {  .+.+.%.+.+.%.+...+.+.,.,.=.=.+.,.,.,.0.0.0.5.5.5.5.0.0.5.+.5.+.+.0.0.+.+.0.0.=.+.+.+.+.+.5.+.+.+.+.+.+.+.=.5.+.+.+.5.+.+.=.0.5.=.=.+.=.+.+. .+.+.5.5.=.+.+.+.5.5.=.+.+.+.3.3.3.+.+.5.0.+.+.+.+.+..... ...+.+.+.+.+.+.+.o.O. .+...o.o. . .o.+.+.+.+.o.+.+.+.+.+... ...+.+.......{ ..S.>.#.T T | ....T T T T [ X...{ [ [ [ | | { S l g g & , * o o + O l } 8 > 8 $.H.$.z J +.+.5.5.5.=.=.=.+.....+.,.+.+.=.,.+.{ J D @.;.6 { U.",
"} , <.:.J J J +.+.0.0.0.0.0.0.w.w.0.0.0.0.5.5.%.} J l z Z.J.^ j > 5 w > . . * > , u u p g j j S S [ [  ..... . . .o.+.+. .| | | .... . . . .{ { { { { {  .{ S D J P T T  .+.+....... ..... .+.+.=.%.....%.,.+.+.+.=.=.+.o.+.+.+. . .%.%.{ D A I ..+.+.+.+.=.,.,.,.0.0.5.5.0.0.0.0.0.0.0.0.0.w.w.0.0.0.0.0.0.5.0.0.0.0.0.0.0.0.5.5.5.5.5.5.5.5.0.5.5.=.+.+.+.+.0.0.0.0.0.5.5.0.0.=.+.5.0.5.+.+.+.+.o.+.0.0.0.0.=.+.+.+.+.+.+.%.+.D J I } ......%... . .| ....U F F ! A z z ! I D 6 . . * > 7 l 6 > l = . . . yXyXyXyXyXyXyXyXyXyXyXyXyXyXyXyXyXyXyXyXyXyXyXyXyXyXyXyXyXyXyXyXyXyXyXyXyXyXyXyXyXyXyXyXyXyXyXyXyXyXyXyXyXyXyXyXyXyXyXyXyXyXyXyXyXyXyXyXyXyXyXyXyXyXyXyXyXyXyXyXyXyXyXyXyXyXyXyXyXyXyXyXyXyXyXyXyXyXyXyXyXyXyXyXyXyXyXyXyXyXyXyXyXyXyX% 5 [ w 7 * . + 6 F g 6 z D l z L J D J J { ..@.} I } ...... . .o.+.+.+.%.=.=.+.o.,.,.+.+.+.%.%.;.;.,.,.+.+.,.5.5.0.0.5.=.=.5.+.+.5.0.+.5.5.=.=.=.+.5.+.+.+.+.+.+.+.+.+.+.=.=.=.+.+.=.+.+.+.5.5.=.+.=.=.=.+.+.+.+.+.+.+.+.+.+.+.5.5.5.=.=.3.3.3.O.o.+.,.+.+.+.,.+.....+.+. .+.+.+.+.+.+.o.+.+.o. . . .O.o.o.o.o.+.+.+.+.+.+.+.+. . . .+.+.........%.Z.:.;.1.<.<.<.;.^ Y #.;.%. .| { [ [ [  .| S S l j j & , = o o # + l } 8 * 8 $.H.$.D { +.+.5.5.5.5.=.=.+.+.+.+.=.+.=.0.0.%...P D @.:.6 { I.",
"I , <.:.D z J +.,.0.0.0.0.0.0.r.r.0.0.0.r.r.0.,.@.F j z $.J.^ 8 * > 8 >   . * = = = , u g j j w S [ [ X. .......o.+... .{ { { ..+.+.+.+... .....{ { [ {  .{ S S P ..| | +.+.=.....+. . ...+. . .=.+...#.%.,.+.o.o.=.,.+.+.+.,.+.+.+.,.%.} D D J ....+.+.+.,.,.=.=.=.5.=.=.5.0.0.5.5.0.0.0.0.w.0.0.5.0.0.0.5.5.5.=.+.=.0.0.5.5.=.5.=.+.5.=.+.5.=.+.+.+.+.+.+.=.0.0.0.+.+.+.=.0.0.+.3.5.=.+.+.+.+.+.+.+.0.0.0.5.+.+.o.+.+.+.+.=...P I } ....%.%.%...{ { ..@.I F A F ^ ^ F F L L D 6 + + o * 5 7 5 > j *       yXyXyXyXyXyXyXyXyXyXyXyXyXyXyXyXyXyXyXyXyXyXyXyXyXyXyXyXyXyXyXyXyXyXyXyXyXyXyXyXyXyXyXyXyXyXyXyXyXyXyXyXyXyXyXyXyXyXyXyXyXyXyXyXyXyXyXyXyXyXyXyXyXyXyXyXyXyXyXyXyXyXyXyXyXyXyXyXyXyXyXyXyXyXyXyXyXyXyXyXyXyXyXyXyXyXyXyXyXyXyXyXyXyX% % , l 7 5 # . + , z u 6 z z z L I J D S J } ......I } ..%.+... .o.+.....+.=.+.o.o.+.+...| ..@.@.^ @.%.%.{ P #.+.,.0.=.+.+.=.=.+.+.0.0.+.+.+.+.=.=.+.=.+.+.o.o.+.+.+.+.+.+.+.+.+.+.+.+.o.o.+.=.=.+.+.=.5.=.+.+.+.+.+.+.+.+.+.+.+.+.=.=.+.+.+.+.=.O. .+.+... ...,.+. .o.+.+. .{ ..%.+. . .o.+.+. .[ [  .o.o.o.o.o.o. .o.o.+.+.o.+. .|  .+.,...| ......~ ^ ^ #.;.%.#.#.^ #.<.2.;. .{ [ [ [ [  .{ S l j u u % , = o o # . l { 8 * 6 #.Z.#.z { ....+.5.5.5.5.5.+.+.+.+.+.+.0.w.w.,...I D #.&.6 J I.",
"} = &.%.l l J ..%.0.0.0.0.0.r.r.r.0.5.0.r.r.0.,.@.D g z $.J.^ 8 * - 6 =   . * = & = , u h j 8 w S S [ [ { | ........| P P D P } ....%.%..... ...} { { {  .{ T S { .... .+.o.+.+.+.+. . ...%. . .+...{ } %.+.o. . .+.=.=.=.+.+. . ...%.%.} I I } ....%... .+.+...+.+.+.+.+.+.+.+.+.+.+.5.+.5.0.0.5.5.5.5.5.5.5.+.+.o. .+.=.=.+.+.+.+.+.+.+.+.+.+.X. .+.+.+.+.+.+.+.+.o.o.+.+.,.+.o.+.+.+.+.o.o.o.+.+.+.+.+.+.+.o.o.+.+.+.+.+...{ I I @.} ......{ J { { I @.I F z F ^ ^ D z L L z 5 + . # * 5 5 * > 8 o       yXyXyXyXyXyXyXyXyXyXyXyXyXyXyXyXyXyXyXyXyXyXyXyXyXyXyXyXyXyXyXyXyXyXyXyXyXyXyXyXyXyXyXyXyXyXyXyXyXyXyXyXyXyXyXyXyXyXyXyXyXyXyXyXyXyXyXyXyXyXyXyXyXyXyXyXyXyXyXyXyXyXyXyXyXyXyXyXyXyXyXyXyXyXyXyXyXyXyXyXyXyXyXyXyXyXyXyXyXyXyXyXyX* < = > w 7 > o + . > z g j ! z g z L J D J { { { { } P J { .... . . .+. . . .+...o.+.+.+. .P P ! ! F F I @.L z F ..%.%...X. .+.=.+.+.=.+.o.o.+.+.+.+.+.+.+.+. . .+.+.+.o.+.+.+.+.o.O.o.+.o.o.+.+.o.o.+.+.5.+.+.+.+.o.o.X. .o.+.+.+.+.+.+.+.+.o.+.+.+. . ...{ J { .. . . .+. . .D I #...T T  ... .| T S [  . .o.o. .[ [ {  . . . . . . .{ +.%...{ I U D D I I I I I Y @.! I @... .| | [ [  . .| P S l g u u % , = o o . O w S 8 * , ! $.! l { ....o.+.5.5.5.=.+.,.0.5.5.+.0.w.0.%...I F #.&., z 2.",
"} = #.@.l l J P ..,.0.0.0.0.w.w.0.0.0.0.0.0.0.%.I z g z $.J.#.8 - # 5 *   + * * % = , p g j j w S S [ S l l S { | { } J D D D I ......{ { .. .{ #...{ { [ [ | | | | { {  . .....+.+.{ { +.+. . .+. .S J }  . .[ [ [ +.+... .[ [ [ { { ..} @.@.......%. .[ { [ [  .o.+.o. . .o.o.+.+.+.+.o.+.=.+.+.+.+.+.+.+.+.+.o.[ [  .o.o. . . .| [  .+.+.+. .[ [ ..+.+. . . . . . . ...+.+.o.[  .o.+. . .[ [  .+.+. . . . . . .+. . . . .[ S I L F J J { { J D J J D F ! z z F ! A g l L F j > + . * 7 5 5 * > 6 o   . . yXyXyXyXyXyXyXyXyXyXyXyXyXyXyXyXyXyXyXyXyXyXyXyXyXyXyXyXyXyXyXyXyXyXyXyXyXyXyXyXyXyXyXyXyXyXyXyXyXyXyXyXyXyXyXyXyXyXyXyXyXyXyXyXyXyXyXyXyXyXyXyXyXyXyXyXyXyXyXyXyXyXyXyXyXyXyXyXyXyXyXyXyXyXyXyXyXyXyXyXyXyXyXyXyXyXyXyXyXyXyX  . , l , > 7 5 > o .   > z j j R x p g l D D J J S l S J J D J J S S [  .....{ [ {  . .o.o.+. .P L F A F D D I L z z I ....{ T [  .+.+... . . . .o.o.o.o.o.o.o. . .{ [  .[ [  .+.o.o. .[ [ o.o.o.+. .[ [  .o.+.o.o. . . . .{ [ { .... . . . . .[ [  .+...| { { J z D S P { { { { [ J D D J D S S { { P S l l S { { [ S S S S S { { { { { J S { ..} P I F D S { { P S S { } } J S S [ X. .S S  . .P D z j p u , % , ; o . O   8 S 8 * 5 ! $.! l { ....o.+.5.0.5.+...%.,.5.=.+.,.,.,.%...I F #.&., J 2.",
"..= #.@.l l J J } ..+.=.0.0.0.,.,.,.0.0.0.0.,.#.! A z A $.J.#.5 - # 5 *   O # * % & = < g j 8 w l S S l j j l l S J J D z z A D } ..{ S S | | { } { { [ T [ { ..{ T S [ { [  .| ....T { .... . . .{ l l J P { [ S S { | [ T S S S S l J L I } { {  ...{ S S S S {  .o. .[ [ {  ...{ {  . .o.+.o.o.o.o. .O.O. .[ [ S S { [ S S [ [ S S T {  .{ S S S { { { { ..{ { J J J J {  .[ S [ [ | { { S S P ....{ T { { T { { { { T S S S D z j j l S l S l l l j j z z z F F j g l L l g > + * 5 8 5 * o > > +   . . yXyXyXyX                            . .         yXyXyXyXyXyXyXyXyXyXyXyXyXyXyXyXyXyXyXyXyXyXyXyXyXyXyXyXyXyXyXyXyXyXyXyXyXyXyXyXyXyXyXyXyXyXyXyXyXyXyXyXyXyXyXyXyXyXyXyXyXyXyXyXyXyXyXyXyXyXyXyXyXyXyXyXyXyXyXyXyXyXyXyX          > j ; * 5 5 > o O   > z g 8 ! F h u j l S J D l j j z z z z l l l l S { S S S S [  . .{  .{ P D z z F D J P J l g l J J S S S S { J S l S S {  .[ [ [ [ [ [ { J l S S S S [ [ [ [ S l S {  .{ { { T S S  . . .[ [ [ [ { S l S J S l S P { { S S T { { J S l l l j j l l S S l l D j g z z l l S D z l j j l S S l j l S l l l D D z z l l l z l D D z l S { { S l l S J J D J S S S S S S { J D z g p p = , % , = . + .   7 S 8 * , ! $.^ D J ..+.+.+.5.0.=...I @.,.=.=...%.%.#.@.} I F @.&., D 2.",
"} = #.@.l l J I @.....,.0.0.%.%.%.,.,.0.0.,.%.#.^ ^ I D *.G.#.5 > # 5 *   . o % = = % = , 6 5 8 l l l w l D l j l l z z h p z F P { S S S { | { S l l S S S { J S S S { { S { { { { S S {  . .{ S S l l D S S S S S { P S S S J J l j l l z S S S { { S S { S S S {  .[ S S [ | P S S { {  . . .{  . . .[ [ [ S S 8 j S S 8 S S S l j l S S l l S S l l l J I J l j l l l j S S l l S S S S j j S ..} S S S l l S S { S l j S l z j g g l l l j j j j g p k F ! F z l l L } j 6 5 o * 6 5 5 o . = =         yX  . . . . .       . . + + + + + + . . . . . . . . . + yXyXyXyXyXyXyXyXyXyXyXyXyXyXyXyXyXyXyXyXyXyXyXyXyXyXyXyXyXyXyXyXyXyXyXyXyXyXyXyXyXyXyXyXyXyXyXyXyXyXyXyXyXyXyXyXyXyXyXyXyXyXyXyXyXyXyXyXyXyXyXyXyXyXyXyXyXyX. . . . .     o = . o * > > * O   * j , , k z g j j l l z z j l z z g k k z z z l j j j l l S S [ S S S S S l l z D J S S S l j l l D l l l l l l l l l S S { [ S S S S S S l 8 j S l l l S S l l l l l S S S S T S S S [ S l w l S S l j j l l j j S S S l j S J l l l l z z g g g l l l l j g < u g k k j l j j j j j j l l j j j j j j j l l j j j j j j g j l j j j l l j g g l l j j j j l w j j l l j l p i u u = = % , * + . O   7 l 5 * , ! :.#.D { ..+.=.5.0.0.,.! ! @.,.,.,.%.@.@.@.@.I I D @.:., D 2.",
"I > ..#.l l J @.#...,.,.1.;.%.@...,.0.0.,.,.;.;.@.^ F l #.G.#.6 # > > *   O o o % = = = = , < g j j j j j j g g g h g u u g j l l l j j j Z D D l j j l l l l j 8 8 j l S S S S l l j l l l l l l 8 j l l l 8 8 l l S S l l j j j j j j j j j j j j l j l S S l l S l l l l l S J l l l l J l S S [ T S l l l l 8 8 l 8 5 5 j j 6 6 j j l j j j j j j g j l l j g g g g u 6 g j j j 8 w 8 j j l z z l l j j j j j w l l j 8 6 6 g g , , , 5 5 5 6 5 < 6 g h k k z l l J I z , * > o o * % o +   . % = = , % % % ; ; % ; ; , , , , , , , , u u u , : , u p i u u u p p p p p p p yXp k yXyXyXa yXyXyXR yXyXyXA A A k a yXyXyXyXyXyXyXp p g yXyXyXyXyXyXyXi i yXyXyXyXyXyXp p p a i e p u u yXyXk k yXyXj g yXyXyXj j l j < , , , , , , , , = % o . . . + * 5 # .   % g = % g l J l l j g j j j j j g g g g j j j j j j j j j j l l l 8 l l l l j j l l j 6 6 j j j j j j l l l j j j j j 8 8 l S l l j j j j j g 8 j l l w l l l l j j j j l l j l S S j l l l l l j j j 8 8 6 6 6 8 8 j j 8 8 j l l l j j j g g j j j j j j j g g < < 6 6 , < < 6 < < < 6 j j j 6 , , 6 8 j j j g g g j j g g g 6 6 6 g g 6 6 6 6 6 6 g g 6 6 6 6 j j 8 6 g h p p h p u & % ; = . + .   > j , % , ! $.#.J { ....%.0.0.,...@.^ ..,.,.#.@.@.#.#...I I D #.:.5 S :.",
"I * ..^ l S J @.#.%.%.%.%.%.;.%.%.,.w.0.,.%.%.%.@.U z z #.G.$.8 # # > *   O o o % = = , , , , 6 6 , , 6 j g u u u g g h g j j l l l l l l z z z j j l l l z l j j j j l D D z z l l l z z z S z l j j z l j j j j l l l l l j j g g k z k g g g z z j g g z z l l l l l l l l l D z l l l Z Z D J P J S l l l j j l l j j j g g g g j l l l j j j l l z z z z j k z k k g p g j j j j j j k j z z z z k j j g j j l z l g g g h h h p u , < g j j j g g p p p g j j z @.l = . . o . . . . % o o % , < < < 8 j 8 < < < j j j p j g g g g g k k k p p z A ! R R A A U ! ! ! ! ! ! ! ! ! ~ ~ ~ ~ / / Z.Z.Z.Z.l.( ( :.Z.G.Z.Z.$.^ ^ ^ #.^ ^ ^ #.$.$.~ ~ ~ ~ R R z A A A k k A A R R R a a a a k A ! A ^ I I I I U I U D D D A j g j g j p u u u < % o o o . o o . .   o > % % , l { { l j p j g g g h u u u u u h h g j h j j g g j j j j j l l k k k z z g g j g g g j j g j l j j g j l j j j l l A z l g g j k g g j l l j j g g j j l l l D l l l l l l z z z l j j g g g g g g u u g g g j j g l l z l g g g g j j j g g g g k p p p p p u u u u u u p p p g g p u u u j g g g g k z z z z g g g g g g g g g g g u p h p u u u g g g 6 6 g u u h k j h , , ; * . . .   * 8 ; o , ! $.! z S } ....o.+.%.#.#.@.%.,.,...I I @.@.@.I U F $.<., S :.",
"L # ..#.l S J I @.%.@.I Y %.;.;.%.,.w.0.,.+...#.@.F z A #.J.$.8 # # > %     o o % = = , , , u g u < < j j g g h g z z z z z D D D D F F F F z z z z F F F F z z z z F L ! ! ! ! ! ! ! ! ! ! I ! ! ! ! ! ! ! F F ! ! F F F F z z z F ! ~ ! F F ! ! ~ ! F F ! ! F F F F U U U U U U F A A D U ! ^ @.@.^ ! F F F F F ! ! F F F L L L L L L L J D D D D L ! ! ^ ! F ! ^ ^ ! F z F F F L L ! ! ! ! ! ! ! ! ! ! F z F ! ! ! ! F z z z z ! F z z z z z D z z z z z k l z l J z , . . . o o o % % = = > , 6 j j g l D l j u p j g g p g k z j g g k k k k k k A A R A k A A ! ! ! ! ! ! ! ~ / / / / / / / / / / / g./ l.g.Z.Z.$.~ / R R ^ ^ ^ ! ^ ~ $.~ ^ R R R R a a k R R A R R R R R a a k a k k R ! ! I U U I I I I I I I @.! A p p j l j p j j < , % = * o o . . . . + o . . o > l { { l j l z z z z z k k k z z A A F F F F F z z z z D F F F ! ! ! ! ! ! A F ! F ! ! ! ! ! ! F F F F L F z z F ! @.@.! F ! ! ! F U I I I U ! F F F F L ! L I I L L I L ! ! ! ! ! F F F ! F F z z z z z z F F F F F ! ! ! z z z F ! ! ! ! F F F R R z z z z z z z z z z k z z z z z k k k z z A A A x ! R ! ! z z z z z z z z z z k k k k a p u p g g j j j j g u u u g g , , ; % . .     o 5 * o = F *.F j l { ..| { ..@.@.@.%.,.,.+.......} @.I F A A $.<.< J :.",
"D # #.#.l S J P @.%.#.@.@.%.,.,.%.,.0.0.,.%...#.@.F z A #.G.$.6 # # * %     o o % = = = , < g g g g g g j j g g g j l z z z S D D D D z z z z D F F F J F F F D D D J L I I I ! I I L F F F U I I L L L F L D F L L L F D D z z z F F ! F F F F F F F z z F D D D D F F L F F F D D D z z D D I I I I J D D D z z z D D D D D J J z D J z S l l l D D F I I I D F L F D z z z J D J L L L ! ! I L L L L L L D D L @.@.} L L J L F z z z l l j z D D z z z l l l l J z , % % % % % * > , 6 u u j j l l z A F I F z p k A z z k k A A A z k k k A R A R R R R R a k A R ~ ~ ! ~ ~ / / :.:.:.:.:./ / / / g./ Q W / / / / ~ R / ~ R ~ $.$./ $.$.$./ / ~ / / R R R R ~ ~ R R R E E R s R R R R R R ~ ~ U U U U ! ! ! ^ ^ ^ $.^ A k k F F z g j g u u , < < , , % % % * % + + . . o > w S l j l z z z l j j l z z z D D D D L L F D z z J U I I I I ! ! ! ! ! L I I F ! ! ! ! ! L F F F F L D z D J } } } I F L L J D D J J J J I L L J J J J L I I L I } } I } } I L L J L L L L F F z z F F F F F D z z L J z l l z L L L L D z J z z z z z z l z z z z z g g k k j j g g g j z z z z z z z z z z g j j j z z z z j j j g h p u u u g j j j g j 6 < < , , , , = * o . O     o , * . = F *.F j J ..%...{ @.I I ..%.,.,.+.+.,.%...I F A z z *.:., S ;.",
"D # %.*.l l D I %.%.%.#.%.%.,.,.+.+.0.0.,.,.%.#.I A z A #.J.$.6 # # > %     + + o % $ % = = = = = = = = = = = % % = , , , , > , , , , , , , , , , , 5 , , , , , , , , , , , 5 5 5 , , , , , , , , , , , , > ; > > > > > > > ; , , , , , , , , , , = , * > > > = > , , , , , , , , , , , > > ; > > , , > > > > > = = ; ; ; ; = = = = = , = , , > , , , , , , > , , > > > ; * > > > , , , , 5 5 , , , 5 5 6 6 , , 5 5 5 6 5 5 , , , , > > > > * > 5 5 , , 5 5 6 < 6 j 6 = % % ; ; ; , < j l k j g l A A F U ! @.! z k k R R A k k R ! ! R k a a a a k x R R R R R R A R ~ ~ R R / :.:./ / :.:.:.( Z.Z.Z.Z./ W R R R E E R R / / / $.:.:.:.:./ ~ / / / / / / / E R R R R R R R W R R R R R R R R ~ R A F F U ! ! ! ! ^ ^ ^ ! A A ! ^ ^ A k z A z k g g p u u , < , < , = * % % o o * > > > , , , > = = * * > , , > > > > , 5 , , > 5 5 5 5 5 5 5 5 5 6 6 6 5 5 , , 6 6 5 5 5 , , , , , , , , ; , 5 , , , , > > > > > > > > > 5 , > 5 5 5 5 , , , , , 5 5 5 5 5 5 5 5 , , 5 , , , , , , , , , , , > * > , > > * = * * , 5 , > * > = = = = = = = = = , = = = % % = = = = = * = * * * * = > > > > = = = = = * * * * = * * = = % % % % % = = = = = = = % % % % % o o . . .     o > * . = ! $.! l J %.&.%...@.L D ..%.,.=.+.+.,.,...P D A k z #.$., D :.",
"L > %.*.l l D @.%.&.%.+.+.+.=.,.%.+.=.5.,.,.,.%.I A j z #.J.$.6 # # > o               . . . . . . . . . . . . . . . . . . . . . . . . . . . . . . . . . . . . . . . . . . . . . . . . . . . . . . . . .               . O O . . . .   . . . . . . . . . . . . . . . . . . . . . . . . . . . . . . . . + + . . . . . . . .   . . . . . . . . . . . . . . . . . . . . . . . . . . . . . . . . + . . . o o o o . . + . . . . . . . o . . . . . . o o % % % = = = = = = , , , , < u u j j l U ! A A A F A A U ^ #.! z k k R R R R R R R R x a a i i a a a a s R R R R a R R R R R E / / / ~ / / / l.Z.Z.Z.:./ / ~ R W W W R R R E ~ / $.Z.Z./ R R R / R E W W W E R R R R E E E E R N s s s s s s R R R R R R R ! R ! ~ ~ R R R R / ~ ~ A A A U F A A A k k j p p g g p < , , , % % % % o o o . . . . . o o o o o + . . . . . . . . . + . . . . . . . . . . . . . . . . . . . . . . . . . . . . . . . . . . . . . . . . . . . + + . . . + + . . . . . . . . . . . . . . . . . . .   . . . . . . . . . . . . . . .     . + + . .   . . . . .       . . . .   . . . . .     .         . . . . . . .       . . . . . . . . . . . . . . . . . . . . . . . . .             .     . > * . = @.Z.#.z J %.%.%.@...{ P +.+.,.,... .+.,.+.| D A z z ! $., S :.",
"I > %.#.l l J @.%.%...+.=.+.+.=.,.=.=.0.0.,.,.,.I D j j $.J.$., . # * o                         O + . . + . . . + + . + + O . . . o o . . o o o o o + + + + o + + + + + + + + + + . . . . + o + + + . . . . . . . . . . O O O . . + + . . . . . . . o + o o . . . . . . . . . . . . + . . . . . o o o o o o o o o o o . . . . . . . . . . . . o . . . . . . . . . o o o o o o o o o % % * * * * * * * % # % # % * * * o o # o # = = = % o o o % ; , , < < < < < u u u u p p g z A D A A ^ ~ R ! ! ^ ! R ! ^ ! A R R a i a x R R R R a a a a a a s s s s s R R s s s s s R N N E R W R R ~ ~ ^ / / / / $.$.:.Z.~ / / / / ~ R R R R ~ / / / R R R R R N N R R R R R R R E E E E E E s s s s a a R E R R R R R A k k x x k R W W E ~ R ! ! ! U ! R R R ! ! F z k z z k g p p p p < , , = * = % % % * % % % % % * % % o % % % % # # o o o * * o o o o o o o o o . . o o o o . . . o o o o o o + + + . . o o . . . o o o o o o o o o o . . . + + + . o o o # # o o o o o o o o o + o o o o o o o o o o o o o o + . . o + + + . . . . . . . . . . . . . . . . . . + . . . . . . + o + o o . . o o + . . . + . . . . . . . . . . . . . + . . O + + + . . + . .                 . > % + = @.F.#.z J #.@.@.@.....+.=.+.+.,... .+.+.+.| D A z l I %., S :.",
"S , &.@.j l l I I ..,.=.+.+.=.5.5.0.0.0.,.,.=.%.I z z z *.G.$., . # o .       . . . . . o o o . . o % % o % . . $ % % % % % % % = , , % % % % % , ; > * = = ; , = = = = , , , , , ; = = ; , , ; ; = = = , = % * ; ; ; ; > > ; % % ; , , < , = , , > 6 6 6 , = = = , , , , , , , , > ; = % = = , < 8 8 < = , < < , , : : = % % , , , , , , , , , , , : , , , = , , < < < , , , , , , , p g j j j j p g j p u u j j l j j j p u g D g u , : & , p k A z A k A A D A k k a k k A A ! ^ ! R ~ / / W / ^ ! ! ! U ! R R R R a a x R R R k k x s a a x R x a a a x R x x x x R R R R W W R R R ~ ~ ~ ~ ~ ^ $.;.;.:.$.$.#.^ ^ #.#.~ ~ R ~ ^ ~ / ~ / / / Q W R R A R R k R R R R R W R R R R R R R R R R R R R k R A A k A A k a a R R R A A ! ! A ! ^ ~ R / :./ R R ! A A A A k k A k k j p i a a p u u p p u , , p p u < < , < u u p p p j j p j j u < < j < < < , : , < < 6 g < < , , , , , , , , , , < , , , , , , , , , , , , , , , , , , , , , , , , , < < < g < < u < < < < , , , < < < < < < < < < , , < , = , , , , , , : % % , % $ $ % % % = = , , % % % = % % $ $ % % % & : , , : & : , , ; % & % = , % % % % = , = $ o o $ $ % = % % % % % % % % . . .       .       . * o   * @.;.! z D ! F I ..=.,.,.+.+.+.+......... ...J z z k ! $., D $.",
"l ; %.@.j j l z D #.,.=.+...+.=.0.w.0.,.%.+.+.%.I z z z ^ G.$., + O .       . . . o o o o o o % % = = = % = % = , < < 6 , = = ; , 6 < < , , , = , < 8 6 5 < 8 j j 6 6 j j l l j j j j 8 j j j < < < g g j l j j j j j j l l j 8 j l z A z l g 8 j S J l j j j g u j l l j l l l l j l j < < j D I D D j < j l z g u , , u < j j p u p j j D l g g g g j l j g j l D D l l l l l j g j A U U D z z A ! ! A z z A F F F U F A D ^ ^ z p p p g g A A F A U F ! ! ^ ! A R k R R ! ^ ! ^ ^ R R E / Z.Z./ ! ~ ^ ! A ! ~ ^ ^ ~ R R R R R R x a i i a R a a i i i a R R R E R R R R R W / R / / / / E A A ! ^ #.#.#.;.;.$.^ ^ ^ ! ~ / ~ ~ / ~ / / g./ / l./ R R R R R / / R a s a a a i a R R R R R R R R R A R R A A A ! ! R i i x x a k R R R ~ ^ ~ ~ R / :./ ! ~ ^ ^ ^ ^ ~ ! ! ~ R A k k R ~ / R k k A ! A z z A U F g j F F F A A A F F U D D D D D D D z l l g g l D D D D z l l l l g g l l l l l l z l l l z l g p g p p g g g j j j g j j j l g p g z z l z z l l l l l l l z z z z z z l l j j j j j j u u p u g h j j p u u p , : , p u < , , < , , , u u < , & : , u , , , , u < < < j 6 < , , u < < < , = , < < , : % $ % , < , = ; , ; ; ; = % % % % o o . . .       + .   * @.;.! z z z ! @.%.,.=.=.=.+.+.+.%... .+. ...} D z g ! $.6 l %.",
"j ; %.} j j l l } %.,.+.+...+.=.0.0.=.....+.,.%.D g k g ! G.#., . .     . . . o . . o % o * = * = > , , = & = , u j j 8 < < 6 6 6 j j j j u , , , j l l 8 l S { S l l l A A D l l A D l j l l j j j l z z z j j l D S Z D D z l l z A U F F F D D { P S P D l j k z l j j l l D D Z D z p u z ! ! F A l j l D A j g j p g j z l j j l Z D U A z z A z k A D D l A I P Z l A F U A k z U ^ #.! F F U ! U F F ! ! F F F I ! ^ @.^ D z A ! A k z ! U ^ U I U ^ #.#.#.^ ~ R R R ! ~ ~ ~ ~ R k R / Z.Z./ ~ ! ^ ! ! ! ^ ^ ^ ~ ~ R R R R R R R N a a i i i i a a a R R R ~ R R R R R R ~ / g.l./ / R a A ~ ^ ^ ^ / ^ ^ ! ! ! ! R R R ~ ~ / / / / g.g.g.g.W R / / R / / / R a a R N a a R R R R a R ~ R x k A R ! R A R ! ^ ! k a s x k x R R ~ / ~ R ~ R ~ ^ ^ ^ ~ / / $./ ~ ~ ~ $./ R R R R R R R R A R R R R ! ! ! F k A ! ^ ^ ! ! U ! ! F F U U F F A I I D A A D D D I I D D F D D l j l z z A z l D I U D D F D z A F z k A D A z j D D z l z z z p k k k g z I I D D I I D A F ! ! A A D A D J S l z j g p k k a k k z A z l j p p p p g g j j g g g j g u p g g u , u g u u p g z l j p j j j p < u u g j g < j g < , u , & & < 6 , , , , 5 8 , = = ; = % % o . . . .           % @.;.! j z k F %.,.+.+.+.=.+.+....... . .| ..I z l g ! %., l #.",
"8 , &.} j j l z } #.........+.+.+.+...} } %.%...l g p j ! F.#.> .       . . . . . . $ % % * > > * = , , , u p u u < < , 6 l l j j j l j < , , u g l D D l S S S l l A D F A l j j F D l < j l A A z z z z k k l D I I D A F F F A k j j z A F I I S l P @.I g u k D A z l D P { P D D F g g z D l g j l z D F A g j z k j g k l A D D D D F z z A F k k z A A A D D D Z A U ! ! A k k U @.#.#.^ I F A z z U ^ F g z F ! ! ! ! F D A ! ! k k x ! ! ^ F D D #.@.I ^ ^ ~ k k k a a R ~ R s a s E g.E R R R ~ ! ~ ^ ^ ^ ^ ~ R R R R R R R R R R s i i i a R a i a s R R R A R ~ ~ R R ~ Z.Z./ W a a R ^ ~ ~ ! ! ^ ^ ^ ^ ^ ~ ~ R R R R / Z./ E g.g.j.W R ~ $./ / / / R R R R R ~ ~ ! R R R A a A ~ R k R ~ ~ ^ ~ ! ! ! A k A R k R R R x R R ~ R R R R R R R ~ ^ / ~ ^ ^ ~ ~ $./ ~ / ~ / / N a R ~ R R R ~ ! ! ! A k A F ! ^ / $./ ^ ^ ! F U U ! U F A ! I F D F I D D L I L I ! D D z l z F ! R A z D ! ^ F D F z A ! R k k A ! I A A U I I z z U z k k a k g z ! @...P I I U A A ! ! A A A D Y %...J j k k k k R a g k z A A j g k k k z k g g l j g j z g u u z F z u u p u g j z L D j < 6 j F j < g u g g j j j u , : p p , , < < , > , 8 8 j 5 , , < , = % % o . . . .         % @.<.! j l z L #... . .+.+.o.{ { { { { [ T { J l j j I %., S $.",
"8 , &.I j j j l J J J { { | { { { ....} { } ..P l j j j F F.#.> .       . . . . . $ % = = , , > * = , , u k z g , , , < 6 l l j j 8 j 8 , % , u k l z J J S S j j j l z z z g u j A D j < j z I F z g j g k z z D I U z z A F F j p p p j z F F D Z l D I F p , u z z z D I ..{ P D z z g g g j j u p g A U I z g j z k g p g l F U D Z l A z k z z k k z j z D A A A D U U U F z g k F @.#.@.! F F z j j A A k u g F ! F A F D A j k k a p z ! ! U l l A ! ! F ! ! R a p a a a R R a a a a x R R a R A ! ! ! R A A A R R R A R R R R R x R R a a i k x a i i a x A A k k A A k k R / / E R x a R ~ ! R A A R ! ~ ~ ! R R R R R R ~ ~ R s E / W s a ! ^ ^ ^ ~ ~ R ! ~ ! ~ ~ ^ ! A z k k k A R A k R ! ! ! ! A k k k k A R R R R A R k x ~ E a k x k A A A A ~ ! ~ ! R R ! R A R R R R a i a R R s R R ~ ^ ! A z ! ! A ~ ^ ^ ^ ^ ^ ! U F A A A A z D D z l F U z l D F F I I D l z z l A ! A k z z F A j z A z A F z p p z U I F A D D z l z F F A x k k g g A U D l S D F F A z k k j j A Y %...S g g p p k R k g g k z g p j g k z k p p p g g g z A g u , g F z g g g j j j l D l j < 6 j l p , < , < , < g g < , u k k u , < , ; ; , 6 6 8 , = , , , ; ; = % % . + .         * @.<.! g j z D J { {  ...+.{ S S J S [ { P P l j j j I %.5 S :.",
"6 , %.L 6 6 8 l l l l l S S S l S { } P z l l l l l l j F Z.! *           . . . . % = , , 5 , > = > , , , u u , , , , , , , < 6 8 6 6 6 , , , < j j j j l l 8 8 8 j j g u < u < < j g < , < 6 j l j < < p j l l l l j j p g j g u u u u u j g g < j l j l j < < , j g l z J J S S l l j g g u u g < < < g z A g u < u u u , u g l l j j u g p u u u u u j u p g j j j l j g g g p p g l F U A j j j g p p p p p p g k k k k z z j p p g p p p R A z g z A U U A A a a i p p a k k a a a i a k x s a k A A A z k a k k z A k a k A A k k A k k k a p a k p i i k R F A A k k a a R R ~ ~ R ~ R R R A z k k a k k A A k k k R R R A A R A k R R R i k A A F ! ! ! ! ! ! ! ! ! ! U A l j g j k k k k A A A F F A k p k z z z A k k k R k k ~ E a a k k A A A j R ! ^ ~ ! A A A a k k k a a a k a a k k A F U F A F F A A A F F A A F F F z j j p j j j j j j A A l g g j z z z l j j j j g z j g g g g p u g g g g g p u p g z F F A l j j j j z A A A z k g u p j j < g j j l j j u < u < j l S l j j p u u p k k j g p u < , < u g g u < < < , , < j g j < , u u , u g j j j < < < < , , < < < , , , , , & = , , , , , u p , , , , ; ; > , , , ; = = ; , , , , , = % o + . .     * @.$.F g j g l l l S P { P S l l l S S P D D l j j j I #., S <.",
"5 , %.D , 6 8 j j j j j l l j j l l D l j j j l l l z l U :.I #         . . . . . % * = = * > > = * * * % % & % % = % % % = ; , , , ; , , , , , , , , , , , , , , , , = = , , , , , = = = = , , , , , , , , < 6 < < , < < , , , : , , , , , , , < < < < < < , , , , 6 g 6 6 8 8 8 j j g , u u < < < , , , < < < , , % ; , , , < < , , , , , , , , , , , , , < , , < u < , , u u u u u g j g < < < , , , , u u u u u p p p p g g j g j g p p g k a k g k k k g p a i a i p g p k k i i k p p k a a k a k k k a p p p p g g p u p j j j j g u p j u u u p p p p g k k k k a p p k A A A A A ! ! A A k k k A a k k k k p p k x R R A A A A A A R A a k A z z z z A A z A F A D D A A l z g l j g j k A A A z z k k p p k k g p p p g k z k a a a k k k k k j p k R ! A A A A A p k k k p a g k a a a k g l j j j j g g g j z j j j g g j p p p u p j < j j j g g p j u < u p u < < g < < , < , u u u u u u u u u u u p u u < p g g g g g g j j j j g j g u p u , , , , , < , , , < , , , , , , , , < < , , & & , , < , , , = = , = = = = = = % % = ; , , , , , , = = = , , , , , , , , , , ; , , , & % = & = = & & = % & & & & & % = ; = = = % % = = % % = , , , , % % % . . .     % @.$.z < 6 p j j j j l l j j j l l j l l l l g g j 6 L #.> l :.",
", , %.D = > 5 5 5 5 5 5 5 , 5 , , 5 6 5 6 6 6 8 8 8 6 8 D :.F o       . . . . . . . o o o o * * % o o o * % o o o o o o o o % % % % o * * * * o % % * % * * * * % % % % % % % % % % % o o % % % % % % % % * * * % % % % % = % % % & % % , % % % ; = ; ; ; = > > > , , ; ; ; ; ; ; > , > = = = = = = * % % * = ; * % % % * = = , , & & & & & & & : & = = % % = & & = & & & & = , : & , , , , , , = = , , = = = & & , , , , , , , , < < , u u u , , u u u u u u u e u u e u u u u i i i p p p p u u i u u u u , : , : : , , , , , , , , , , , , , , , , , , < , , , , u , u u , u p p p p p k k k k k k k k a j j p p p p k k k k k g g k k k k k p p g g j j p u u p g g g g g j < p p < u u u u p p p p u u u u u u u u , , u , u u p u u u u p u p p p < u , u < , , u , < , u u u u u u u u p p u u u u u u < < , < u u < , , , , , , , , , , , , , , , , , , , , , , ; ; ; ; ; ; = = = % % % : , , , , , , , , ; ; ; ; = , , , , , , , , , , , , , , , , ; , ; = = = % % % % = = % % % % % % % % % % % % % * * % % % % = = * % % % % o o % % % % % % % % % % % % o o o % % % % % % % % % % % % % % % % % $ % % % % % % % % % % % % o % % % % % % . o % $ $ $ o o . . . .     % l L h , , , , , 5 5 , , 5 5 5 5 5 5 6 5 5 5 , > > , D #.5 l #.",
", 5 %.z = * * * * * % % o o % % o * * % % = = > > > = , j #.D , > > ; = = ; = = , , , , , < 6 6 < , , , < , , , , , , , , , , < , , , , , < , , , , < , , , , , , , , , , , , , , , , , ; , , , , , , , , < , < u u , , , , , , , < , < u u u , < < < < < < < < < < < < u u < < < , < , < , , < < , , , , , , < , , , , , , u u p p i p p g p p p g g p g g g g g p p p p g g p p p p p p g g p p p u u j g g k k k a k k k g k j j k A A R R A A A R R x x k k a a a a a a a a a a a a a A A A k k x a a k k k k a k a a a k k k k z z k k a a k k A A A A k k k R R R R R A R R R R R R R ~ W R R R R R R R ~ W W W R / ~ E ~ R R R R R R R R R R R R R R R R R R R R R R R A A A k k k k k R R R R A R R R R R R R R R R R A R ! R R R R R A A A R R A R R A A A A A z A k k A A a s R R R R A A A A A A A A k k k A R R A A k k k p a k k g p j g g g g g k k j k g j p p p j p u u u u u u u p u u u u u u , , , , , p g g p p p u g j j j u u u p u u u u u u u , , u p p u u u u u u < , , , , , < < < < , < , , , u g < , , , , , < g g < , , , , , < , , , , = = = , , u , , : , , , < < < u < u < , , , , , < < < < , , : , , , , , , , , < j j < < < , , , , , , , ; , g j , = , , = = , , ; ; ; = * * * = = = * > ; * = , D #., l @.",
"> 5 &.@.l l l l l l j j j l l l l S S l l l l l l l l J L #.@.#.,.%.#.@.^ #.#.*.$.$.$.#.$.$.:.$.$.#.*.$.$.~ ~ $.$.$.$.$.$.$.$.*.*.#.#.*.$.$.$.^ ~ $.Z.$.~ ^ ~ $.$.$.:.$.$.$.$.:.:.$.$.#./ #.#.#.#.$.:.<.<.$.$.$.Z.V.$./ #.^ #.$.$.$.$.$.$.$.$.$.$.$.:.:.:.:.:.$.$.~ / $.Z.Z.:.$.$.:.:.:.Z.V.V.V.Z.$.$.$.$.V.V.Z.:.:.:.Z.Z.Z.Z.Z.Z.Z.Z.Z.Z.G.Z.Z.Z.Z.G.A.J.H.G.G.G.G.Z.G.G.J.J.G.G.A.G.G.G.G.Z.Z.Z.g./ $.Z.J.J.J.J.G.G.G.A.Z.Z.G.G.H.J.Y.Y.E.E.L.L.L.L.L.L.L.J.J.J.J.J.J.J.J.J.J.J.J.D.L.L.*X*X*XL.L.*XL.*X*X*X*X*X*XJ.J.L.L.*X*X*X*X*X}.L.L.J.J.D.D.D.J.L.J.D.D.L.L.}.L.L.K.K.|.|.|.|.|.}.}.|.=X X].}.}.L.L.}.}.}.}.}.}.|.|.|.}.*X}.}.}.}. X}.}.*X=X=X=X*X*X}.}.}.}.}.*X*X}.}.}.}.}.=X}.}.}.}.}.}.}.J.J.J.J.].J.J.J.L.L.L.L.L.J.L.*X*XE.E.*X*X*X*X*X*X*X*X*X:X=X:X*X*X:X*X*X*X}.*X*XL.L.}.}.}.}.}.}.}.}.*X*X*X*XL.J.J.D.L.}.L.J.J.D.J.D.A.A.J.J.Z.H.G.G.G.G.J.J.J.J.J.J.J.Z.Z.G.G.F.Z.Z.Z.G.G.Z.Z.Z.Z.Z.Z./ $.V.V./ / $.$.Z.Z.Z.Z.Z.Z.Z.Z.:.Z.Z.Z.Z.Z.Z.Z.Z.$./ / / *.~ / Z.A.A.V.V.Z.Z.Z.Z.Z.Z.$./ / / Z.Z.Z.Z.Z.Z.Z.V.$.Z.Z.$./ / / $.$.:.Z.:.$.~ ~ / / / / / ~ *.~ ~ ~ ! ~ $.V./ / / *.$.:.<.:.$./ / V.V.$./ / / / V.Z.Z.$.$.~ ^ *.$.Z.$./ / R ~ :.<.<.;.;.$.$.$.$.$.;.$.$.;.^ ! #.@.} ..I I I @.@.@.@.@...{ I I L L L D D Z l l l ! #., l @.",
"5 5 %.&.#.&.#.&.&.%.#.#.%.%.&.:.:.:.<.<.&.&.;.&.&.&.&.&.&.#.@.&.<.:.:.%.%.$.$.$.$.$.$.:.:.:.<.<.<.$.$.$.$.$.*.$.Z.Z.Z.V.Z.Z.<.<.<.<.<.Z.Z.F.F.:.$.Z.H.F.:.:.Z.F.H.H.H.G.G.G.G.G.G.G.F.F.F.:.:.:.:.Z.H.H.U.Y.H.G.H.G.G.Z.$.$.<.F.<.<.:.Z.Z.F.F.Z.Z.F.H.H.H.H.H.H.Z.V.Z.Z.G.H.H.G.G.H.J.J.J.J.J.J.J.J.G.G.G.G.J.J.G.G.J.J.J.J.G.G.G.G.J.J.G.J.J.G.G.G.J.J.J.J.J.J.G.H.H.J.Y.Y.J.J.Y.J.J.J.J.J.J.Z.Z.Z.Z.Z.Z.H.J.J.J.J.J.J.J.J.H.H.J.J.J.Y.Y.Y.J.Y.Y.J.J.*XY.J.J.J.J.J.J.J.J.J.J.*X*XE.J.E.*X*X*X*XE.E.E.J.J.J.J.J.J.J.J.G.G.A.A.J.J.J.E.J.J.J.J.J.D.J.J.J.J.J.J.J.L.L.L.L.L.J.L.*X=X*X*X*X*X*X*X*X}.}.}.}.}.L.}.}.}.L.L.L.}.}.}.*X+X*X*X*X*X*X*X*X*X*X-X=X=X*X*X*X*X*X*X*X}.L.J.L.}.L.*XJ.J.J.J.J.J.J.J.J.J.J.J.J.J.G.J.J.J.J.J.G.G.J.J.J.J.J.J.J.J.J.J.J.J.J.L.J.J.J.J.Y.+X+XJ.J.Y.J.J.J.J.J.J.J.J.`.}.}.*XJ.E.J.J.J.J.J.J.J.J.J.J.J.J.A.Z.Z.A.G.Z.Y.Y.Y.J.J.J.Y.J.J.J.J.J.J.J.J.J.J.H.J.J.J.Y.Y.J.J.J.E.J.Z.Z.G.J.Z.Z.Z.G.J.G.G.G.G.Z.G.G.G.G.J.G.Z.G.J.J.J.G.G.Z.Z.Z.$.$.G.L.A.V.V.Z.G.G.G.G.Z.Z.Z.Z.Z.Z.Z.G.H.J.G.Z.Z.Z.Z.Z.Z.Z.Z.Z.Z.Z.G.G.Z.$./ ~ / $.V.V.$.$.$.$./ ~ ~ $.Z.Z.V./ $.:.F.F.F.F.Z.$.V.V.Z.Z.$.$.V.V.Z.Z.Z.Z.Z.$.*.$.Z.G.Z.Z./ / ~ :.<.2.:.;.$.$.;.:.:.<.<.:.;.$.$.<.<.2.<.<.:.:.<.2.2.2.q.q.q.q.2.:.&.<.:.$.$.$.#.$.$.#.6 l @.",
"5 5 #.@.} @.} } } I P I Y @.@.@.@.@.%.%.#.} } @.} @.@.} } L D J P I I D S D D D z z D I I I } } P P D F D z z z F ! ! F F ! } I } } I @.! ! ! F F ! ^ @.! ! @.@.@.! ! ! ! ! ~ ~ ^ ^ ! ! ! ! ! ! F ! @.#.$.$.#.@.#.$.$.*.! F ! @.! ! ! ! ^ ^ ! ! @.#.&.%.%.%.%.#.^ ! ! ^ ^ #.#.#.#.#.$.#.#.^ *.$.$.#.#.#.*.*.*.^ ^ ^ ^ #.#.^ ^ ^ ^ ^ ^ ^ ^ #.#.^ ! ! ^ ~ ~ ~ ^ ^ ! #.#.#.#.@.@.#.$.#.^ ! #.$.^ ^ ~ ~ ~ ! U ! ^ ^ ! ^ ^ ^ ^ ^ #.$.$.#.#.#.$.$.%.$.$.$.$.$.$.$.$.$.#.! ! ^ ^ #.*.$.$.#.*.$.$.:.$.$.$.$.$.*.$.$.$.$.$.$.#.$.~ ^ ^ ^ ~ $.:.$.$.$.$.$.$.$.$.#.#.#.#.$.$.$.$.$.$.$.$.:.<.<.:.:.:.:.:.Z.Z.:.:.$.$.$.$.$.$.$.~ $.$.$.$.$.%.$.$.$.$.$.$.$.$.$.:.:.:.$.$.$.$.$.$.$.*.#.*.$.$.$.$.$.#.#.#.$.$.$.#.#.#.! #.#.#.@.@.@.#.%.#.^ ^ *.$.$.$.$.$.$.$.^ *.$.$.$.*.~ $.$.$.:.$.$.#.#.$.#.^ #.#.^ *.*.#.$.$.$.$.$.$.$.#.#.$.$.*.*.#.#.#.#.$.$.~ ^ $.$.$.%.%.$.;.$.$.$.$.$.$.^ ^ #.$.$.$.#.#.#.$.$.$.$.$.$.$.$.*.! ~ *.$.*.*.^ ^ ~ ~ *.#.! ! #.*.#.$.$.^ ^ ^ $.$.$.$.*.#.^ ^ ! ! ~ *.~ R R ! ^ ^ ^ ~ ~ ^ ~ ~ ~ ^ ^ ^ #.*.^ ~ ~ ~ ~ ~ ! ! R ! ! ^ #.#.! F A F F ! ~ ^ ~ ! F A A A A F ^ ^ ~ ! A F I I I ! ! z R ! ! ! F F ! ~ ^ ^ ! ! F D D F L ! ^ ! ! ! ! F I } I P J J P P { } ..! U F ! ^ ^ } P I U I } @.@.@.#.#.&.&.#.! ! ! ! ! ^ #.#.*.$.#.< l #.",
"> 6 } z j l l l j j j l l l l l l l S P l j j l j j l l l l j j j j l j j 8 j j 6 6 j j l l l l 8 8 j j j 6 6 g j j j j j l S S l l l l j l l j l l z S l l S l l j j l l l k z z j j j j k z z g g j z z z l j l z L L l j j l z z z D D D z D J { { { { J J J S D F D z z D D D L L D l l D I I J z l z F F l l z z D l l l z z z z D J D J D l g j z F z z l D P } I J S l J I D l l D I D z F F I D l Z D D Z D U U D D U I I I L I I I I } } @.} } I I @.I D l A D F D J I I J L } @.#...@.@.@.@.U I ! ! ! L L L ^ I D D D F U I } } } J D I @.} D D P } } } I } @.I P I I @.#.@.I } @.@.@.@.#.@.! I J I @.#.! F I I @.#.#...} } @.@.I I @.@.@.@.@.@.! @.} J J } #.I I @.@.#.@.....} P J P { } } } J J } ..} { { P P ....I U I ^ @.#.@.I I J I I U U ! ^ F F I I ^ I I I ! ^ I U I I ! ! ! @.@.I } @.@.#.} J I @.! ! @.@.I D z F I F A D F F J D D I I I L I I U D z A F ! L D D L I I I P J D D D D z F I I F F D D F ! ! L D D J L L I L A g k z F F F z z z z l j z x k k g g l z z z D F F z z D D D J L D z z z z z k g g g l z F D l j j j l z D F F z g j j j j j l z D l j j j l S l l j z z z l j j l F F J l l l l l l l l l l l z l j j l l l l j l l l l S J l g j z l j 8 j l j j l J J { { { } L z z z k k z A A D ! ! , l #.",
"> 5 J j j j j j 8 6 6 j j g 6 j j j l S 8 5 6 g 6 6 6 j j j 8 6 5 5 8 l 8 6 < 6 6 6 8 8 j l 8 8 5 5 8 8 8 < < 6 j j j j 6 l S S w w 8 8 6 j j j j j l j j l l l j 6 8 j j j j j l j j j j g z z u < u g j j j 6 6 j j l j 6 g g g z k l z j j J { S [ [ S l l l l z D z l l D D D D l l j j S P I D j j j k z g j j l j j j l l l j l l D D D S l j g z z z g g l J } I P J l D I D l l D D l j j z A l l S J S Z l D I D l z D D D D L I I J P } @.I I P I @.I z l D D D D D D D D D I @.#.} } ..@.! D F ! @.I D D J I L z z D I I I @.@.@.D Z P @.I l D I @.I J I @.%.I l J J @.%.@.P } #.@.@.@.%.@.D l l J @.%.! F D S Y %.%.#.{ P @.@.! I I @.@.! I I @.#.I l D ..#.U D ^ @.^ Y @.#.%...P J P ..} P D P @.#.I } ..} } @.#.I I I I @.#.I D J I @.@.D D ^ #.F A U @.@.I D I @.@.I D U I I I ! @.Y U D P } ..P D D I F F ! ! I z l F I F z l D D D l l D D D z z F I D l l D F z l j l J I } P J D l S D l D F z j l l l l } @.l l l l l D D z j g g j z A z g j j l l j g k g u < < j l l j j z z j j l S l l l S l j j g z g u u u j j l l l j 8 < < g l j g p j j j j j j g j l l 8 j j l S l j j g g j j j j j l D l l l l l w w l l j 8 8 8 < 6 8 w w 8 8 6 8 w 8 8 l l j , < j j 6 , 6 8 8 6 8 l { [ S S J l j z z k g j j j j z F , l #.",
"; , l j g g 6 g 6 5 g g g g g j j l l l 6 5 6 6 6 , 6 g j j j 6 6 < j D j , , 6 6 6 j j j l j 8 5 , 6 j 6 , < j j j l j 8 l S S l 8 5 5 6 j j j j g l j 8 8 j j 6 6 6 g j j g g g j j g j g g g u u u g k g g u u p g g 6 < u g g k k k k g g D } { J J J D l j l z z z l l z z z j g j j l D I I D j g h k k g g p g g j j g l l l j j D L z l g g k k k k j j z D I I I J D D F D z l D D j g g g z l l z D S Z z D D z l l z D z D I I I F I ! ! I I I ! #.! z l z F F z z A D D D U ! ! I ! @.#.! F ! ! #.^ ! F F F D z l D U I ^ @.@.^ U F U ! I D D I ! U U ! #.#.I D D I @.#.^ U ! #.#.#.$.$.^ F A z ! ^ #.! F A D I #.%.%...I @.#.^ ^ I #.^ ! U ^ %.;.@.F F I #.U U ^ ! U U @.@.@.@.I I I @.@.I D I @.@.I I @.@.#.#.^ ! ! ! ^ #.#.! D L I @.@.F F ! ^ A z U @.@.! ! ! ! ^ I F F F F U U ! ! U F I I I U l l D F F U ! F D z F L F z l z F D l l l A A z z F I F z l z z z g p j A I ! I I D l l l z z z g g g g g j F L z g j j l l l k g g g z z A z g p g g g g g k g p u 6 j j g j g j j < , j l l j l S l g p a k p u u u u p g l l l j < u g g p , , u j g j j g u j j j j j j l l j u , g g j j j g 6 j l j j j j l 8 8 j j j j 8 < , < j l l j j 6 8 8 w 8 j j 6 , , < < < , < 6 6 , 5 j l l l l j g h k k k g u u u u j D , l #.",
"> 6 j j j g j j 6 6 j k k g l l l l l l 8 8 j j j 8 j j z z l l l l z I l j g j j j j S l S S l j 8 j l j < j l z z D l l l l S S l l j l l j j z A D l l l D l l j g g j l z z z z z z g h u u p g z A F z z j z z F z g g j z k A A x z z l D } } J D L L D l l z A A A A F ! z g g z z D I I I F z k k z z k g g g g j g z A D A z z F L z j g g k z z z z z D F U I I I L L F F D D L F z z z z F F A D D D D D F F F A A A U z D @.@.! ! ! ^ @.@.@.@.#.#.^ F A ! ! ! F A F I I U I ! ^ ^ #.$.$.~ ^ #.#.#.#.^ ! ! I U U U U ! #.#.#.#.@.@.^ ~ ! ! ! ! ! ! ! ^ #.%.%.#.! ! @.#.#.@.^ ! ^ #.$.$.$.^ ! ! ! ^ #.#.^ I U U @.#.%.%.@.@.#.#.#.#.^ #.^ #.^ #.;.;.#.^ ! ! #.@.#.@.^ @.^ #.#.@.@.@.@.@.@.@.@.I ^ @.^ I @.%.#.:.$.^ ! ! #.$.#.#.^ ! ! ^ @.@.! ^ ^ ^ ! ! ^ #.#.#.#.#.#.@.@.! F F F U ! ^ ! ! ! ^ @.^ I F F U ^ ^ ! ! F F F ! ! U D D F ! D D A A A F F F U U F z z A A A z z z D ! ^ ^ ^ I A j g g k k k g g g g k F U D l g g z z z z k g k F F F F k h p g j g k z k g g j j g j g g g j j g j l Z Z A D A k p a a : u u u u p j z l l j j g z z g p p g z z g j g j z j g j j l A D z g u h k z k g g < g j l z l l j j j l z F z j u < j z D D z l j j l { P J D j < < < u u u g j j j j j l l l l j g g a k a k p p u g z F < l ^ ",
"8 l P L } } I D z S F ! ! F F D z S l S l D P I J J J D I I F L } I I ! } P J J J D J } { } } P J J D D z l z F L L I P J J S J { { J J D z z z F F D D D L @.#.#.^ ! I U I ^ ^ ^ ^ ^ ! I z l z A F ! ! ! ! I L I @.#.I l l l D A ! F ! F D D I } I #.@.#.#.@.! ! ~ ~ ~ ^ ^ ~ *.^ ! ! ^ ! @.#.#.@.@.^ ^ ^ ^ ! F F F F F L F I ! ! ! @.@.#.#.! F D F U ! ! ! ! ! @.@.#.%.%.%.$.#.@.@.@.@.#.#.#.^ ^ #.*.#.#.#.#.^ ! #.#.#.#.#.#.#.#.@.%.&.&.$.%.$.$.$.%.&.;.;.;.$.$.%.$.$.#.@.#.%.%.%.%.%.$.$.;.<.<.F.:.:.<.:.;.$.$.$.#.$.;.;.$.;.;.;.:.:.;.$.$.$.#.#.$.$.;.;.;.;.;.<.<.<.<.:.:.:.<.<.<.<.<.<.F.<.<.;.$.$.$.;.;.$.$.$.%.%.%.$.$.%.;.;.:.;.:.:.:.:.<.<.<.<.<.<.<.;.;.$.%.;.;.<.:.;.;.;.:.:.:.:.:.:.&.:.;.;.;.;.;.#.%.$.:.;.F.:.$.$.$.$.:.;.;.;.$.;.%.%.%.$.$.$.:.;.;.;.;.;.:.:.:.:.:.;.$.#.#.%.%.;.:.:.:.:.:.:.:.;.$.$.;.;.;.$.#.#.@.@.#.#.#.#.#.#.#.#.#.@.#.#.#.#.#.#.@.^ ^ #.#.#.#.#.#.#.#.%.;.;.;.$.#.I F F ! ! ! ! ! ! ! ! ^ #.^ ! ! I #.#.#.#.! ! ! ! ! ! ! F z z l l z F ! F A D J D L L F D F F U U U I I ^ ^ ^ ! U A k a u g z z l z z A z l l l z z z z j l l D A z l l D F D z l S J L I F F z F ! ! ! F D l z F ! ! I F z z z z F ! z k g g g z D z z l l l S ..@...I I D D D D D D D J I } I D S { { { I I ! ! R k A z D A F F F 6 l L ",
"8 l S J J L D F D J L ! ~ ! F D z l l S P } ..} } P J D D F D J } } I F P J J l l l D P P P P J J J D D z l l D D D z l l l l S J P P J A j g j l l l l l D ^ ! ! ! F z l z D D D z D D z z A A A A z z l g j j l l D A S S l D z A z z z D D I I F I I ! ! U F A k k k z z z R ! F ! F A F F D D z A F F z k g g j l z l g l l l l z D D L D l j j j j j j z D D D D I I @.@.I D z D D z z z z z A ! ! ! ! F F F D D F F F U U ^ U ! @.@.@.I I L I I I ! ! ! ! ! ! ! U F D I I ......Y ^ ! ^ #.#.#.^ ^ ^ ! ! U U U U ! ! ! ^ ! ! ^ ^ ^ I U U F F F ! ^ ^ #.^ ^ ^ ! ! U ! ^ I I ! ^ @.#.#.#.#.@.Y I I ! ^ ! I I U I ! @...I I I I I ..! ! ! @.@.#.^ #.#.@.Y U U D F D U U ! ! I I I I I I Y ! ! @.! ! ! ^ ^ ~ ! ! ! ^ ! ^ ~ ~ ! F ! ! ^ ^ ^ ^ ^ I U F U U F F U U U F I ! I I I I P D D D U I Y Y I ^ ^ I I I I I I I I I U F D D D D A D D U F D L I I I I L L I L z A F F U F U ! ! @.! ^ ^ ! ^ ! U D z z F F U U U U U D F U U U F F @.@.@.@.I F z D A D A D D z l l l D F z l l l l l l j j g j z A z z A A F z g p p u u g z z z j g g g p j j j g g g g g j j l j g j j g l g g j l l z z z z k k k k k z z g k z A F F z z k k g k k k a a g k k z k g g j j l J D D z l l l l l j l J J J S S l l S S J J J D A z j A z D D D F D 6 l S "
};
