/* XPM */
static const char *xpm__1_sgun_normal[] = {
/* columns rows colors chars-per-pixel */
"103 122 248 2 ",
"   c #0C0301",
".  c #0E0901",
"X  c #090509",
"o  c #120B03",
"O  c #140D0B",
"+  c #150907",
"@  c #1B130D",
"#  c #171309",
"$  c #0A0514",
"%  c #130D13",
"&  c #150C18",
"*  c #1B1413",
"=  c #1C1915",
"-  c #1B151B",
";  c #1E191C",
":  c #161217",
">  c #22140C",
",  c #231613",
"<  c #231A15",
"1  c #231C1C",
"2  c #251919",
"3  c #2D170F",
"4  c #25211C",
"5  c #2B221D",
"6  c #2B2316",
"7  c #33231D",
"8  c #38271D",
"9  c #25220F",
"0  c #1E1A22",
"q  c #191426",
"w  c #130D2D",
"e  c #231C23",
"r  c #281F22",
"t  c #231E2A",
"y  c #2B1E2B",
"u  c #211C34",
"i  c #252124",
"p  c #2B2424",
"a  c #26222B",
"s  c #2B242B",
"d  c #2E292D",
"f  c #2C2825",
"g  c #322523",
"h  c #332A23",
"j  c #3C2A24",
"k  c #32262B",
"l  c #332C2B",
"z  c #3B2A2B",
"x  c #3B332D",
"c  c #3A362C",
"v  c #2C2632",
"b  c #2E2933",
"n  c #282737",
"m  c #322C34",
"M  c #332D3A",
"N  c #382C34",
"B  c #353134",
"V  c #3B3433",
"C  c #36313C",
"Z  c #3B353B",
"A  c #3F393C",
"S  c #3E3934",
"D  c #442D1E",
"F  c #422D27",
"G  c #4C342B",
"H  c #46352A",
"J  c #543A2E",
"K  c #5B3B2C",
"L  c #54362B",
"P  c #423634",
"I  c #423A35",
"U  c #4E3A33",
"Y  c #433B3B",
"T  c #48383A",
"R  c #533C34",
"E  c #5B3D32",
"W  c #543D39",
"Q  c #452E38",
"!  c #623E2E",
"~  c #623E31",
"^  c #5C412F",
"/  c #49413C",
"(  c #5C4234",
")  c #54433C",
"_  c #5B443B",
"`  c #59473A",
"'  c #504B36",
"]  c #644233",
"[  c #64453B",
"{  c #6B4639",
"}  c #6D493B",
"|  c #674839",
" . c #724C3E",
".. c #624935",
"X. c #2B2947",
"o. c #372C43",
"O. c #2C3247",
"+. c #343342",
"@. c #3A3442",
"#. c #3D3944",
"$. c #3C3A4B",
"%. c #36354A",
"&. c #393B54",
"*. c #342A56",
"=. c #211C4A",
"-. c #433B43",
";. c #433D4A",
":. c #493846",
">. c #553A48",
",. c #423A55",
"<. c #493B6A",
"1. c #3C4154",
"2. c #3C435B",
"3. c #3D434F",
"4. c #3F4360",
"5. c #4B4343",
"6. c #4C444B",
"7. c #494448",
"8. c #544543",
"9. c #534945",
"0. c #5C4B44",
"q. c #544B4B",
"w. c #5B4D4B",
"e. c #584546",
"r. c #5C514C",
"t. c #59514B",
"y. c #444353",
"u. c #494859",
"i. c #534D5C",
"p. c #554A53",
"a. c #5D5453",
"s. c #5A5658",
"d. c #634B43",
"f. c #674C47",
"g. c #734E42",
"h. c #784E40",
"j. c #63534C",
"k. c #68554A",
"l. c #765144",
"z. c #795649",
"x. c #635452",
"c. c #655B58",
"v. c #785C52",
"b. c #664A56",
"n. c #69625D",
"m. c #726E53",
"M. c #4A4E63",
"N. c #474A64",
"B. c #544D61",
"V. c #4D5467",
"C. c #52566C",
"Z. c #545A6C",
"A. c #5C5C6C",
"S. c #575665",
"D. c #565C74",
"F. c #595E74",
"G. c #575877",
"H. c #514B73",
"J. c #615E6D",
"K. c #5C6275",
"L. c #5D647A",
"P. c #5F6879",
"I. c #5D616E",
"U. c #686467",
"Y. c #736C69",
"T. c #78726A",
"R. c #646473",
"E. c #61667C",
"W. c #636A7D",
"Q. c #6A6A7A",
"!. c #777273",
"~. c #6E757F",
"^. c #827D72",
"/. c #805C4E",
"(. c #918C79",
"). c #55548B",
"_. c #575688",
"`. c #585796",
"'. c #656C82",
"]. c #696E83",
"[. c #626685",
"{. c #6B7285",
"}. c #6D748A",
"|. c #6C7687",
" X c #747A8C",
".X c #797C8C",
"XX c #737687",
"oX c #6C7494",
"OX c #767B93",
"+X c #7A7D93",
"@X c #757697",
"#X c #7676A6",
"$X c #605E8E",
"%X c #807E8C",
"&X c #7A818E",
"*X c #7D8394",
"=X c #7D829A",
"-X c #7F82A3",
";X c #818593",
":X c #858B9B",
">X c #858999",
",X c #8C919D",
"<X c #999594",
"1X c #8E8A89",
"2X c #ABA697",
"3X c #8688A6",
"4X c #8D93A4",
"5X c #9295A2",
"6X c #969BAB",
"7X c #969AA8",
"8X c #979AB7",
"9X c #8A8CB4",
"0X c #9DA2AC",
"qX c #9AA1A9",
"wX c #9CA1B4",
"eX c #A5A6A9",
"rX c #AAADBA",
"tX c #A5AAB5",
"yX c #ADB3BB",
"uX c #B5B7BA",
"iX c #B1ABA7",
"pX c #A09B98",
"aX c #C1BCB9",
"sX c #CCC7B4",
"dX c #9696C4",
"fX c #A7A9C8",
"gX c #ADB2C3",
"hX c #B2B5C3",
"jX c #B7BBC7",
"kX c #AAABD4",
"lX c #B3B5D5",
"zX c #AFB0D8",
"xX c #B8B8EB",
"cX c #9FA2C5",
"vX c #C2BFE0",
"bX c #BCC2C5",
"nX c #BDC2CB",
"mX c #BEC3D5",
"MX c #BEC1E4",
"NX c #C5CBCD",
"BX c #C4C8CB",
"VX c #C5CAD3",
"CX c #C7CAD5",
"ZX c #CCD1D5",
"AX c #CDD2D2",
"SX c #C8CCE6",
"DX c None",
"FX c black",
/* pixels */
"DXDXDXDXDXDXDXDXDXDXDXDXDXDXDXDXDXDXDXDXDXDXDXDXDXDXDXDXDXDXDXDXDXDXDXDXDXDXDXDXDXDXDXDXDXDXDXDXDXDXDXDXDXDXDXDXDXDXDXDXDXDXDXDXDXDXDXDXDXDXDXDXDXDXDXDXDXDXDXDXDXDXDXDXDXDXDXDXDXDXDXDXDXDXDXDXDXDXDXDXDXDXDX",
"DXDXDXDXDXDXDXDXDXDXDXDXDXDXDXDXDXDXDXDXDXDXDXDXDXDXDXDXDXDXDXDXDXDXDXDXDXDXDXDXDXDXDXDXDXDXDXDXDXDXDXDXDXDXDXDXDXDXDXDXDXDXDXDXDXDXDXDXDXDXDXDXDXDXDXDXDXDXDXDXDXDXDXDXDXDXDXDXDXDXDXDXDXDXDXDXDXDXDXDXDXDXDX",
"DXDXDXDXDXDXDXDXDXDXDXDXDXDXDXDXDXDXDXDXDXDXDXDXDXDXDXDXDXDXDXDXDXDXDXDXDXDXDXDXDXDXDXDXDXDXDXDXDXDXDXDXDXDXDXDXDXDXDXDXDXDXDXDXDXDXDXDXDXDXDXDXDXDXDXDXDXDXDXDXDXDXDXDXDXDXDXDXDXDXDXDXDXDXDXDXDXDXDXDXDXDXDX",
"DXDXDXDXDXDXDXDXDXDXDXDXDXDXDXDXDXDXDXDXDXDXDXDXDXDXDXDXDXDXDXDXDXDXDXDXDXDXDXDXDXDXDXDXDXDXDXDXDXDXDXDXDXDXDXDXDXDXDXDXDXDXDXDXDXDXDXDXDXDXDXDXDXDXDXDXDXDXDXDXDXDXDXDXDXDXDXDXDXDXDXDXDXDXDXDXDXDXDXDXDXDXDX",
"DXDXDXDXDXDXDXDXDXDXDXDXDXDXDXDXDXDXDXDXDXDXDXDXDXDXDXDXDXDXDXDXDXDXDXDXDXDXDXDXDXDXDXDXDXDXDXDXDXDXDXDXDXDXDXDXDXDXDXDXDXDXDXDXDXDXDXDXDXDXDXDXDXDXDXDXDXDXDXDXDXDXDXDXDXDXDXDXDXDXDXDXDXDXDXDXDXDXDXDXDXDXDX",
"DXDXDXDXDXDXDXDXDXDXDXDXDXDXDXDXDXDXDXDXDXDXDXDXDXDXDXDXDXDXDXDXDXDXDXDXDXDXDXDXDXDXDXDXDXDXDXDXDXDXDXDXDXDXDXDXDXDXDXDXDXDXDXDXDXDXDXDXDXDXDXDXDXDXDXDXDXDXDXDXDXDXDXDXDXDXDXDXDXDXDXDXDXDXDXDXDXDXDXDXDXDXDX",
"DXDXDXDXDXDXDXDXDXDXDXDXDXDXDXDXDXDXDXDXDXDXDXDXDXDXDXDXDXDXDXDXDXDXDXDXDXDXDXDXDXDXDXDXDXDXDXDXDXDXDXDXDXDXDXDXDXDXDXDXDXDXDXDXDXDXDXDXDXDXDXDXDXDXDXDXDXDXDXDXDXDXDXDXDXDXDXDXDXDXDXDXDXDXDXDXDXDXDXDXDXDXDX",
"DXDXDXDXDXDXDXDXDXDXDXDXDXDXDXDXDXDXDXDXDXDXDXDXDXDXDXDXDXDXDXDXDXDXDXDXDXDXDXDXDXDXDXDXDXDXDXDXDXDXDXDXDXDXDXDXDXDXDXDXDXDXDXDXDXDXDXDXDXDXDXDXDXDXDXDXDXDXDXDXDXDXDXDXDXDXDXDXDXDXDXDXDXDXDXDXDXDXDXDXDXDXDX",
"DXDXDXDXDXDXDXDXDXDXDXDXDXDXDXDXDXDXDXDXDXDXDXDXDXDXDXDXDXDXDXDXDXDXDXDXDXDXDXDXDXDXDXDXDXDXDXDXDXDXDXDXDXDXDXDXDXDXDXDXDXDXDXDXDXDXDXDXDXDXDXDXDXDXDXDXDXDXDXDXDXDXDXDXDXDXDXDXDXDXDXDXDXDXDXDXDXDXDXDXDXDXDX",
"DXDXDXDXDXDXDXDXDXDXDXDXDXDXDXDXDXDXDXDXDXDXDXDXDXDXDXDXDXDXDXDXDXDXDXDXDXDXDXDXDXDXDXDXDXDXDXDXDXDXDXDXDXDXDXDXDXDXDXDXDXDXDXDXDXDXDXDXDXDXDXDXDXDXDXDXDXDXDXDXDXDXDXDXDXDXDXDXDXDXDXDXDXDXDXDXDXDXDXDXDXDXDX",
"DXDXDXDXDXDXDXDXDXDXDXDXDXDXDXDXDXDXDXDXDXDXDXDXDXDXDXDXDXDXDXDXDXDXDXDXDXDXDXDXDXDXDXDXDXDXDXDXDXDXDXDXDXDXDXDXDXDXDXDXDXDXDXDXDXDXDXDXDXDXDXDXDXDXDXDXDXDXDXDXDXDXDXDXDXDXDXDXDXDXDXDXDXDXDXDXDXDXDXDXDXDXDX",
"DXDXDXDXDXDXDXDXDXDXDXDXDXDXDXDXDXDXDXDXDXDXDXDXDXDXDXDXDXDXDXDXDXDXDXDXDXDXDXDXDXDXDXDXDXDXDXDXDXDXDXDXDXDXDXDXDXDXDXDXDXDXDXDXDXDXDXDXDXDXDXDXDXDXDXDXDXDXDXDXDXDXDXDXDXDXDXDXDXDXDXDXDXDXDXDXDXDXDXDXDXDXDX",
"DXDXDXDXDXDXDXDXDXDXDXDXDXDXDXDXDXDXDXDXDXDXDXDXDXDXDXDXDXDXDXDXDXDXDXDXDXDXDXDXDXDXDXDXDXDXDXDXDXDXDXDXDXDXDXDXDXDXDXDXDXDXDXDXDXDXDXDXDXDXDXDXDXDXDXDXDXDXDXDXDXDXDXDXDXDXDXDXDXDXDXDXDXDXDXDXDXDXDXDXDXDXDX",
"DXDXDXDXDXDXDXDXDXDXDXDXDXDXDXDXDXDXDXDXDXDXDXDXDXDXDXDXDXDXDXDXDXDXDXDXDXDXDXDXDXDXDXDXDXDXDXDXDXDXDXDXDXDXDXDXDXDXDXDXDXDXDXDXDXDXDXDXDXDXDXDXDXDXDXDXDXDXDXDXDXDXDXDXDXDXDXDXDXDXDXDXDXDXDXDXDXDXDXDXDXDXDX",
"DXDXDXDXDXDXDXDXDXDXDXDXDXDXDXDXDXDXDXDXDXDXDXDXDXDXDXDXDXDXDXDXDXDXDXDXDXDXDXDXDXDXDXDXDXDXDXDXDXDXDXDXDXDXDXDXDXDXDXDXDXDXDXDXDXDXDXDXDXDXDXDXDXDXDXDXDXDXDXDXDXDXDXDXDXDXDXDXDXDXDXDXDXDXDXDXDXDXDXDXDXDXDX",
"DXDXDXDXDXDXDXDXDXDXDXDXDXDXDXDXDXDXDXDXDXDXDXDXDXDXDXDXDXDXDXDXDXDXDXDXDXDXxX#X=.`.DXDXDXDXDXDXDXDXDXDXDXDXDXDXDXDXDXDXDXDXDXDXDXDXDXDXDXDXDXDXDXDXDXDXDXDXDXDXDXDXDXDXDXDXDXDXDXDXDXDXDXDXDXDXDXDXDXDXDXDXDX",
"DXDXDXDXDXDXDXDXDXDXDXDXDXDXDXDXDXDXDXDXDXDXDXDXDXDXDXDXDXDXDXDXDXDXDXDXDXDXMX[.X.DXDXDXDXDXDXDXDXDXDXDXDXDXDXDXDXDXDXDXDXDXDXDXDXDXDXDXDXDXDXDXDXDXDXDXDXDXDXDXDXDXDXDXDXDXDXDXDXDXDXDXDXDXDXDXDXDXDXDXDXDXDX",
"DXDXDXDXDXDXDXDXDXDXDXDXDXDXDXDXDXDXDXDXDXDXDXDXDXDXDXDXDXDXDXDXDXDXDXDXDX_.3XN.w $XDXDXDXDXDXDXDXDXDXDXDXDXDXDXDXDXDXDXDXDXDXDXDXDXDXDXDXDXDXDXDXDXDXDXDXDXDXDXDXDXDXDXDXDXDXDXDXDXDXDXDXDXDXDXDXDXDXDXDXDXDX",
"DXDXDXDXDXDXDXDXDXDXDXDXDXDXDXDXDXDXDXDXDXDXDXDXDXDXDXDXDXDXDXDXDXDXDXDXDXdXN.O.&.G._.`.DXDXDXDXDXDXDXDXDXDXDXDXDXDXDXDXDXDXDXDXDXDXDXDXDXDXDXDXDXDXDXDXDXDXDXDXDXDXDXDXDXDXDXDXDXDXDXDXDXDXDXDXDXDXDXDXDXDXDX",
"DXDXDXDXDXDXDXDXDXDXDXDXDXDXDXDXDXDXDXDXDXDXDXDXDXDXDXDXDXDXDX`.DX`.`.#X3X+X{.I..X4XfXdX).`.`.`.`.`.DXDXDXDXDXDXDXDXDXDXDXDXDXDXDXDXDXDXDXDXDXDXDXDXDXDXDXDXDXDXDXDXDXDXDXDXDXDXDXDXDXDXDXDXDXDXDXDXDXDXDXDXDX",
"DXDXDXDXDXDXDXDXDXDXDXDXDXDXDXDXDXDXDXDXDXDXDXDXDXDXDX_._.9X3X3X8X3XoX[.oX X,X6XeXrXhXlX8X+X[.oX9XcXlXSXcXDXDXDXDXDXDXDXDXDXDXDXDXDXDXDXDXDXDXDXDXDXDXDXDXDXDXDXDXDXDXDXDXDXDXDXDXDXDXDXDXDXDXDXDXDXDXDXDXDXDX",
"DXDXDXDXDXDXDXDXDXDXDXDXDXDXDXDXDXDXDXDXDXDXDXDX).).dX9X3X=X=X*X+X*X].F.A.*X,X,XeXBXnXrX0X>XE.W.{.6XtXnXSXSXkXDXDXDXDXDXDXDXDXDXDXDXDXDXDXDXDXDXDXDXDXDXDXDXDXDXDXDXDXDXDXDXDXDXDXDXDXDXDXDXDXDXDXDXDXDXDXDXDX",
"DXDXDXDXDXDXDXDXDXDXDXDXDXDXDXDXDXDXDXDXDXDXDX`.xXdXfX8X>X>X&X:X>X=XOXA.Z.A.>X5XyXjXNXNXjX5XOX[.'.+X5XyXbXVXCXfX`.DXDXDXDXDXDXDXDXDXDXDXDXDXDXDXDXDXDXDXDXDXDXDXDXDXDXDXDXDXDXDXDXDXDXDXDXDXDXDXDXDXDXDXDXDXDX",
"DXDXDXDXDXDXDXDXDXDXDXDXDXDXDXDXDXDXDXDXDXDX`.xXzXlXhXwX>X>X.X.X+X=X+XK.V.K..X,XeXjXAXNXbXrX6XoX[.E.;X0XuXBXZXSXkX`.DXDXDXDXDXDXDXDXDXDXDXDXDXDXDXDXDXDXDXDXDXDXDXDXDXDXDXDXDXDXDXDXDXDXDXDXDXDXDXDXDXDXDXDXDX",
"DXDXDXDXDXDXDXDXDXDXDXDXDXDXDXDXDXDXDXDXDXDX`.kXlXVXjXyX5X>X.X.X+X=X&X|.Z.V.}.*X6XtXBXNXNXjX8X4XoXL.E.;XeXuXjXmXSXkX).DXDXDXDXDXDXDXDXDXDXDXDXDXDXDXDXDXDXDXDXDXDXDXDXDXDXDXDXDXDXDXDXDXDXDXDXDXDXDXDXDXDXDXDX",
"DXDXDXDXDXDXDXDXDXDXDXDXDXDXDXDXDXDXDXDXDXDX).8XlXZXNXbXqX,X*X*X X X*X&XK.N.[.@X>X6XuXBXAXZXhXwX3X'.F.W.;XtXhXnXmXSXfX`.DXDXDXDXDXDXDXDXDXDXDXDXDXDXDXDXDXDXDXDXDXDXDXDXDXDXDXDXDXDXDXDXDXDXDXDXDXDXDXDXDXDXDX",
"DXDXDXDXDXDXDXDXDXDXDXDXDXDXDXDXDXDXDXDXDXDX_.fXhXCXNXBXeX,X+XOX X|.&X*X'.V.C.[.@X4X0XuXNXAXbXtX6X.XK.C.K.;X0XyXnXVXCXfX_.DXDXDXDXDXDXDXDXDXDXDXDXDXDXDXDXDXDXDXDXDXDXDXDXDXDXDXDXDXDXDXDXDXDXDXDXDXDXDXDXDXDX",
"DXDXDXDXDXDXDXDXDXDXDXDXDXDXDXDXDXDXDXDXDXDX).dXgXNXNXBXtX5X;X@X X{. X&X XL.V.G.oX+X,XtXbXNXZXbXtX,X XK.C.E.;XqXyXhXVXSXzX).DXDXDXDXDXDXDXDXDXDXDXDXDXDXDXDXDXDXDXDXDXDXDXDXDXDXDXDXDXDXDXDXDXDXDXDXDXDXDXDXDX",
"DXDXDXDXDXDXDXDXDXDXDXDXDXDXDXDXDXDXDXDXDXDX`.cXrXBXAXNXyX6X>X@X@XoXoXoX+XOXG.N.F.}.*X6XrXjXCXZXhXqX,X XF.C.'.>X0XtXBXnXmXzX).DXDXDXDXDXDXDXDXDXDXDXDXDXDXDXDXDXDXDXDXDXDXDXDXDXDXDXDXDXDXDXDXDXDXDXDXDXDXDXDX",
"DXDXDXDXDXDXDXDXDXDXDXDXDXDXDXDXDXDXDXDXDXDX`.dXwXjXAXNXuX5X;X@XoXoXoX}.OX+X'.C.N.[.OX>X6XgXVXVXBXrX6X>X'.C.C.W.>X5XtXhXjXSXkX_.DXDXDXDXDXDXDXDXDXDXDXDXDXDXDXDXDXDXDXDXDXDXDXDXDXDXDXDXDXDXDXDXDXDXDXDXDXDXDX",
"DXDXDXDXDXDXDXDXDXDXDXDXDXDXDXDXDXDXDXDXDXDXDX_.8XhXNXAXbX6X>X+XoXoX}.|.|. X XL.N.C.]. X,XtXbXZXCXnXtX4X+XE.M.V.Q..X5XyXjXhXVXkX`.DXDXDXDXDXDXDXDXDXDXDXDXDXDXDXDXDXDXDXDXDXDXDXDXDXDXDXDXDXDXDXDXDXDXDXDXDXDX",
"DXDXDXDXDXDXDXDXDXDXDXDXDXDXDXDXDXDXDXDXDXDXDX).8XrXbXAXVXtX4X+X X|.{. X|.|.OX{.C.N.D.].&X,XqXjXVXZXjX6X4X XZ.M.C.].*X>XrXhXbXmXkX`.DXDXDXDXDXDXDXDXDXDXDXDXDXDXDXDXDXDXDXDXDXDXDXDXDXDXDXDXDXDXDXDXDXDXDXDXDX",
"DXDXDXDXDXDXDXDXDXDXDXDXDXDXDXDXDXDXDXDXDXDXDX`.8XrXbXZXNXrX6X+X X{.{.{.{. X}.}.'.M.u.E.XX*X7XrXVXCXBXtX5X;XXXV.M.Z.'.OX4XtXyXjXjXfX`.DXDXDXDXDXDXDXDXDXDXDXDXDXDXDXDXDXDXDXDXDXDXDXDXDXDXDXDXDXDXDXDXDXDXDXDX",
"DXDXDXDXDXDXDXDXDXDXDXDXDXDXDXDXDXDXDXDXDXDXDX`.9XwXjXZXCXhX5X.X}.'.'.'.'.{.}.}.}.D.u.V.E.XX>X6XhXBXVXjXtX,X&XK.V.M.C.E.OX4X0XhXnXjXfX).DXDXDXDXDXDXDXDXDXDXDXDXDXDXDXDXDXDXDXDXDXDXDXDXDXDXDXDXDXDXDXDXDXDXDX",
"DXDXDXDXDXDXDXDXDXDXDXDXDXDXDXDXDXDXDXDXDXDXDXDX9XwXhXVXCXjX5X*X}.'.'.'.'.'.].{.}.'.M.u.C.W.XX>X0XjXCXZXjX0X>XXXW.M.2.M.E.OX,XwXgXVXjXlX`.DXDXDXDXDXDXDXDXDXDXDXDXDXDXDXDXDXDXDXDXDXDXDXDXDXDXDXDXDXDXDXDXDXDX",
"DXDXDXDXDXDXDXDXDXDXDXDXDXDXDXDXDXDXDXDXDXDXDXDX9X6XtXbXZXCXtX&X X'.'.'.E.'.'.].{.}.D.M.u.F.'..X,XyXnXCXBXyX7X;X XK.u.&.M.W. X*XwXhXjXjXkX`.DXDXDXDXDXDXDXDXDXDXDXDXDXDXDXDXDXDXDXDXDXDXDXDXDXDXDXDXDXDXDXDXDX",
"DXDXDXDXDXDXDXDXDXDXDXDXDXDXDXDXDXDXDXDXDXDXDXDX_.4XrXVXVXjXrX4X X'.'.E.L.E.E.'.'.}.'.Z.1.M.K.{..X6XrXnXVXVXrX5X*X{.Z.1.&.M.K.|.>X6XtXjXfXlX).DXDXDXDXDXDXDXDXDXDXDXDXDXDXDXDXDXDXDXDXDXDXDXDXDXDXDXDXDXDXDXDX",
"DXDXDXDXDXDXDXDXDXDXDXDXDXDXDXDXDXDXDXDXDXDXDXDXDX9X6XbXVXVXhX>X.X'.E.L.L.L.E.'.].{.{.L.1.1.Z.'.{.>X6XhXVXZXjX0X,X.X].C.1.&.V.{.|.*X5XgXjXgXkX_.DXDXDXDXDXDXDXDXDXDXDXDXDXDXDXDXDXDXDXDXDXDXDXDXDXDXDXDXDXDXDX",
"DXDXDXDXDXDXDXDXDXDXDXDXDXDXDXDXDXDXDXDXDXDXDXDXDX9X6XuXnXVXyX5X*X].E.L.L.L.E.'.'.'.].'.V.u.M.L.W. X,XtXjXVXVXyX7X;X XP.M.%.1.C.{. X>X6XrXjXhXfX_.DXDXDXDXDXDXDXDXDXDXDXDXDXDXDXDXDXDXDXDXDXDXDXDXDXDXDXDXDXDX",
"DXDXDXDXDXDXDXDXDXDXDXDXDXDXDXDXDXDXDXDXDXDXDXDXDX3X4XyXnXZXjXtX>X{.E.L.K.L.L.E.'.'.'.}.L.N.&.V.W.{.*X5XrXjXZXVXyX5X*X|.K.2.O.&.Z.{.].>X5XrXjXgXMX_.DXDXDXDXDXDXDXDXDXDXDXDXDXDXDXDXDXDXDXDXDXDXDXDXDXDXDXDXDX",
"DXDXDXDXDXDXDXDXDXDXDXDXDXDXDXDXDXDXDXDXDXDXDXDXDX9X4X0XnXVXCX0X>X}.{.K.K.L.E.F.K.{.'.'.}.Z.%.1.A.E.Q.*X5XyXVXVXjXtX>X.X'.Z.2.&.2.K.W.|.>X7XrXhXgXSX).DXDXDXDXDXDXDXDXDXDXDXDXDXDXDXDXDXDXDXDXDXDXDXDXDXDXDXDX",
"DXDXDXDXDXDXDXDXDXDXDXDXDXDXDXDXDXDXDXDXDXDXDXDXDX#X3XtXyXVXnXtX4X|.'.E.L.F.L.L.L.E.L.E.].K.1.O.M.W.].{.;X6XjXVXCXhX5X*X XW.V.2.X.2.C.W.|..X5XyXjXgXxX`.DXDXDXDXDXDXDXDXDXDXDXDXDXDXDXDXDXDXDXDXDXDXDXDXDXDXDX",
"DXDXDXDXDXDXDXDXDXDXDXDXDXDXDXDXDXDXDXDXDXDXDXDXDX`.3X,XjXBXZXjX7XXXW.L.L.D.F.L.[.K.L.'.E.'.V.O.O.V.W.W..X5XtXjXVXnXrX,X.X{.L.D.2.&.&.V.R.~.&X7XrXrXhXzX`.DXDXDXDXDXDXDXDXDXDXDXDXDXDXDXDXDXDXDXDXDXDXDXDXDXDX",
"DXDXDXDXDXDXDXDXDXDXDXDXDXDXDXDXDXDXDXDXDXDXDXDXDX`.3X,XrXBXNXjX6X.X'.K.F.D.K.D.L.F.'.'.L.'.L.1.O.1.Z.K.].*X5XrXjXBXhX5X.X].E.F.C.&.%.&.V.K.W.*X,XgXrXlXxXDXDXDXDXDXDXDXDXDXDXDXDXDXDXDXDXDXDXDXDXDXDXDXDXDXDX",
"DXDXDXDXDXDXDXDXDXDXDXDXDXDXDXDXDXDXDXDXDXDXDXDXDXDX-X>XtXjXNXjX0X*X{.K.F.D.F.G.G.D.L.L.K.E.L.C.%.O.u.K.E.]..X5XtXyXrX5X.XXX'.L.F.u.&.%.1.C.I.W..X6XwXhXfXlXDXDXDXDXDXDXDXDXDXDXDXDXDXDXDXDXDXDXDXDXDXDXDXDXDX",
"DXDXDXDXDXDXDXDXDXDXDXDXDXDXDXDXDXDXDXDXDXDXDXDXDXDX3X*XtXuXZXbXrX;X|.W.L.D.G.F.D.D.D.D.K.L.L.K.$.n %.Z.K.L.].+X,X5X5X>XXX].W.E.].K.M.%.O.1.V.Z.W. X>XwXrXgXfXDXDXDXDXDXDXDXDXDXDXDXDXDXDXDXDXDXDXDXDXDXDXDXDX",
"DXDXDXDXDXDXDXDXDXDXDXDXDXDXDXDXDXDXDXDXDXDXDXDXDXDX#X;X,XuXBXBXhX,X XE.K.D.D.F.F.D.D.D.K.L.L.W.S.$.n &.C.F.E.{.*X*X;XXXR.A.C.C.V.S.C.u.O.X.2.M.V.I.XX:X4X4X4X9XDXDXDXDXDXDXDXDXDXDXDXDXDXDXDXDXDXDXDXDXDXDXDX",
"DXDXDXDXDXDXDXDXDXDXDXDXDXDXDXDXDXDXDXDXDXDXDXDXDXDX3X.X5XrXbXZXhX7X*XK.A.D.K.D.D.D.D.D.D.F.K.E.R.i.n O.F.E.Z.V.u.1.$.%.%.+.X.n M +.y.Z.C.N.M.N.u.3.1.u.Z.Q.R.XX#XdXDXDXDXDXDXDXDXDXDXDXDXDXDXDXDXDXDXDXDXDXDX",
"DXDXDXDXDXDXDXDXDXDXDXDXDXDXDXDXDXDXDXDXDXDXDXDXDXDX#X*X4XtXbXNXnXqX*XW.K.K.C.D.K.V.M.&.u.M.u.1.y.$.%.&.A.C.N.N.M.C.R.M.A.C.V.i.S.i.y.u.&.&.%.u.Z.y.S.R.Q.{.XXXXOX=X8XDXDXDXDXDXDXDXDXDXDXDXDXDXDXDXDXDXDXDXDX",
"DXDXDXDXDXDXDXDXDXDXDXDXDXDXDXDXDXDXDXDXDXDXDXDXDXDX_.+X>XwXuXNXVXqX*X{.K.L.K.C.&.%.M.K.R.R.I.A.Z.A.i.+.%.1.u.&.y.4XmX8X6X:X;X.XR.A.u.$.%.y.$.$.J.R.Q.S.y.i.Z.Z.Q.XX;X6XDXDXDXDXDXDXDXDXDXDXDXDXDXDXDXDXDXDXDX",
"DXDXDXDXDXDXDXDXDXDXDXDXDXDXDXDXDXDXDXDXDXDXDXDXDXDX_.=X=X7XuXNXnXrX>X|.].V.%.$.M.A.K.u.u.y.#.+.u.u.i.y.y.M.A.A.Q.R.J.S.R.J.A.p.p.s.S.A.A.R.J.R.u.v 0 t a v v v @.y.A.@X9XDXDXDXDXDXDXDXDXDXDXDXDXDXDXDXDXDXDX",
"DXDXDXDXDXDXDXDXDXDXDXDXDXDXDXDXDXDXDXDXDXDXDXDXDXDXDX@X+X,XyXjXVXjX0XXXM.y.u.M.y.+.+.n t t s a v t a C $.i.R.R.R.S.J.U.s.s.U.s.s.s.s.s.J.R.i.y.a - : - : : 0 t - a u %.E.3XDXDXDXDXDXDXDXDXDXDXDXDXDXDXDXDXDX",
"DXDXDXDXDXDXDXDXDXDXDXDXDXDXDXDXDXDXDXDXDXDXDXDXDXDXDX@XOX;XtXyXhXyX,XR.u.u.y.M a v 0 0 a e - t ; : : : 0 C -.m m m d p f 4 6 6 6 = < 1 ; % % : - 0 ; - - e t - r - & u 0 ,.3XDXDXDXDXDXDXDXDXDXDXDXDXDXDXDXDX",
"DXDXDXDXDXDXDXDXDXDXDXDXDXDXDXDXDXDXDXDXDXDXDXDXDXDXDX#XOX;X5XrXjXhX.XS.i.$.v t 0 t s s e s m 1 1 1 1 1 - s e X %         . 9 / / 6 o       X X : - ; i i = 1 i 1 e t & t a $.@XDXDXDXDXDXDXDXDXDXDXDXDXDXDXDX",
"DXDXDXDXDXDXDXDXDXDXDXDXDXDXDXDXDXDXDXDXDXDXDXDXDXDXDX#XOX&X;X6X5X;XXXR.;.t t t t s e l l k k V l p 1 r ; e 2 % % X * o @ ` ^.(.(.(.T.I o O = X : i p f l l f 1 p e e % t t i n @XDXDXDXDXDXDXDXDXDXDXDXDXDXDX",
"DXDXDXDXDXDXDXDXDXDXDXDXDXDXDXDXDXDXDXDXDXDXDXDXDXDXDX`.}..X.X;X%XXXi.C M t t s e d k Y Y 9.9./ I l r r 2 r - % % * < # I ^.m.....m.T.T.I < # * = f x / q.q.5.x p k = i e t i a X.DXDXDXDXDXDXDXDXDXDXDXDXDXDX",
"DXDXDXDXDXDXDXDXDXDXDXDXDXDXDXDXDXDXDXDXDXDXDXDXDXDXDXDX@XXX XQ.Q.J.7.a a a t t d d V 7.s.Y.Y.n.s./ V f e ; - : - f f @ / (.2X2X(.(.2X(.x , = * 1 S t.c.T.Y.Y.a.Y k 5 1 e t e s v *.DXDXDXDXDXDXDXDXDXDXDXDXDX",
"DXDXDXDXDXDXDXDXDXDXDXDXDXDXDXDXDXDXDXDXDXDXDXDXDXDXDXDX@XR.R.S.S.7.b a a t e s p B 5.c.^.pX2X<X^.c.5.m s r e e d V l o o ' (.sXsXsX<Xn.> . < # 1 V !.<X2XiX<XY.r.I p 1 e e 2 e t n H.DXDXDXDXDXDXDXDXDXDXDXDX",
"DXDXDXDXDXDXDXDXDXDXDXDXDXDXDXDXDXDXDXDXDXDXDXDXDXDXDXDX+XR.Q.R.u.b 0 a a 0 - i s V q.Y.<XuXsXuXiX1Xs.Y d 0 : e m B f 4 # . @ c ' H 6 o o 1 4 1 1 k <XuXuXaXiX^.s.Y p 1 e e 0 e ; t %.DXDXDXDXDXDXDXDXDXDXDXDX",
"DXDXDXDXDXDXDXDXDXDXDXDXDXDXDXDXDXDXDXDXDXDXDXDXDXDXDXDX@XS.R.A.#.s t a t 0 0 ; f l 7.!.<XiXuXaXeX1XU.q.Z e % t m d i 1 = # # # o   + o @ 4 < 1 1 4 <XaXaX2X<X!.9.x p 1 e e 2 e 1 i n ,.DXDXDXDXDXDXDXDXDXDXDX",
"DXDXDXDXDXDXDXDXDXDXDXDXDXDXDXDXDXDXDXDXDXDXDXDXDXDXDXDX@XA.A.y.M s a a e t i i l B 7.Y.1X<XeXiX(.!.U.s.A ; O e i s i e = * = = = 1 2 r 1 ; d e ; = s.(.1X!.U.q.V f i r r 1 - 2 r p s +.DXDXDXDXDXDXDXDXDXDXDX",
"DXDXDXDXDXDXDXDXDXDXDXDXDXDXDXDXDXDXDXDXDXDXDXDXDXDXDXDXDX~.R.$.b s a a e ; e s p l A 6.s.U.!.!.U.s.s.5.s % O r d i e e 1 i i r r e r e e m A i 1 1 1 Y 6.6.A m p 4 i r 1 1 2 2 r i a M DXDXDXDXDXDXDXDXDXDXDX",
"DXDXDXDXDXDXDXDXDXDXDXDXDXDXDXDXDXDXDXDXDXDXDXDXDXDXDXDXDXQ.i.C v v t t e ; e r f l V Y 5.9.q.6.7.A V f ; : ; f d r s s e e e a y t M t t C Z B 1 f ; V 5.-.s i e 1 i 1 2 1 2 2 r r a M &.DXDXDXDXDXDXDXDXDXDX",
"DXDXDXDXDXDXDXDXDXDXDXDXDXDXDXDXDXDXDXDXDXDXDXDXDXDXDXDXDXQ.y.M v m t - ; i e 1 1 ; i B V Z S Z Z l m f 1 1 ; e e ; m s e s t t M m v v @.M b - i ; - f 7.m ; ; e r i = = 1 < < 1 s t n w DXDXDXDXDXDXDXDXDXDX",
"DXDXDXDXDXDXDXDXDXDXDXDXDXDXDXDXDXDXDXDXDXDXDXDXDXDXDXDXDXR.,.M v s t 0 ; ; ; ; ; - a b d d l d s s s s e - a t t M M v t t s v v v M C C C M b e - ; e d Z e : - - s e - 1 * 4 s - p s u DXDXDXDXDXDXDXDXDXDX",
"DXDXDXDXDXDXDXDXDXDXDXDXDXDXDXDXDXDXDXDXDXDXDXDXDXDXDXDXDX[.o.M s a s i i 1 = = ; t 0 i s s s s i a s s e e s b +.$.$.+.M v s s s b M C m #.@.m v e s s s A -.m f e % ; s ; = 5 2 * 1 e u DXDXDXDXDXDXDXDXDXDX",
"DXDXDXDXDXDXDXDXDXDXDXDXDXDXDXDXDXDXDXDXDXDXDXDXDXDXDXDXDX@XM s s p p p 5 4 1 1 ; 0 - a a t s b B m s i s s v @.$.$.$.@.M m m s m M M M ;.-.#.i.7.#.-.B s p m f p m s - 1 = ; 2 < , 1 s w DXDXDXDXDXDXDXDXDXDX",
"DXDXDXDXDXDXDXDXDXDXDXDXDXDXDXDXDXDXDXDXDXDXDXDXDXDXDXDXDX3XM e 4 4 4 4 1 r r i e - i a t s b v d f l l Y 6.#.6.#.+.@.@.C C Z M C m Z m ;.;.;.Z -.7.7.6.s.A m V l p f : = 1 ; 2 < > * t q DXDXDXDXDXDXDXDXDXDX",
"DXDXDXDXDXDXDXDXDXDXDXDXDXDXDXDXDXDXDXDXDXDXDXDXDXDXDXDXDXDXM = * = 2 1 1 1 1 1 1 ; i - e C m N 6.q.c.a.s.q.m b Z C +.@.+.C @.M M C M C ;.C -.XXQ.S.-.6.s.c.s.c.Y l V = o O : * @ @ O % n DXDXDXDXDXDXDXDXDXDX",
"DXDXDXDXDXDXDXDXDXDXDXDXDXDXDXDXDXDXDXDXDXDXDXDXDXDXDXDXDXDXM * @ @ * * * ; 2 2 = 1 4 = p l f p.c.c.n.c.c.c.Y i d b C +.+.+.+.M M M M ;.@.;.@.p.7.C Z 7.-.s.U.c.9.8.T l O   O o # o O - w DXDXDXDXDXDXDXDXDXDX",
"DXDXDXDXDXDXDXDXDXDXDXDXDXDXDXDXDXDXDXDXDXDXDXDXDXDXDXDXDXDX;.O @ @ O O O % : * # # # 4 h h Y n.c.r.j.r.r.c.9.r i b +.$.y.y.$.+.M C M ;.;.Z M s.m i Y 7.V 5.s.c.a./ h I x ,   O o . o 0 =.DXDXDXDXDXDXDXDXDXDX",
"DXDXDXDXDXDXDXDXDXDXDXDXDXDXDXDXDXDXDXDXDXDXDXDXDXDXDXDXDXDXS.  O O O O O O O O #   . 6 h / n.r.k.r.k.k.j.c.c.k r M #.y.u.u.$.M M M #.M Z b Z 7.s - Z 7.5.Y 5.n.x.r./ I x k   o o o # $ DXDXDXDXDXDXDXDXDXDXDX",
"DXDXDXDXDXDXDXDXDXDXDXDXDXDXDXDXDXDXDXDXDXDXDXDXDXDXDXDXDXDXDX% . . @ . X o   + . o . 6 c t.x.x.j.k.j.k.d.k.c.P 1 C C y.B.B.y.@.@.M C C @.M s 6.a - f 5.A V 5.r.c.0.) H T k +   o O % q DXDXDXDXDXDXDXDXDXDXDX",
"DXDXDXDXDXDXDXDXDXDXDXDXDXDXDXDXDXDXDXDXDXDXDXDXDXDXDXDXDXDXDXv O #   O o . O   . o . 6 P t.x.j.j.f._ d.` j.c.8.f s Z y.i.B.u.$.@.M M M Z M s A - : f -.Z V Y 5.c.j.0.U T g       X q u DXDXDXDXDXDXDXDXDXDXDX",
"DXDXDXDXDXDXDXDXDXDXDXDXDXDXDXDXDXDXDXDXDXDXDXDXDXDXDXDXDXDXDXM.X # . . . O . o o . o 5 Y w.x.w.j.f._ _ _ _ k.w.V r C #.y.i.B.y.;.+.@.M M m a s : % i Z A Z Z x t.0.0.) U z O + X % w DXDXDXDXDXDXDXDXDXDXDXDX",
"DXDXDXDXDXDXDXDXDXDXDXDXDXDXDXDXDXDXDXDXDXDXDXDXDXDXDXDXDXDXDXDXt O   o . . o o . . o p 5.w.x.0.f.f._ | d._ 0.0.W p k @.y.i.B.u.;.o.C M M Z m a ; : p A A V m f / r.j.0.U F *   % $ =.DXDXDXDXDXDXDXDXDXDXDXDX",
"DXDXDXDXDXDXDXDXDXDXDXDXDXDXDXDXDXDXDXDXDXDXDXDXDXDXDXDXDXDXDXDXDX$ %   O . o         p e.x.j.0.d.d.[ [ f.[ _ 0.8.V r Z u.i.i.i.y.@.@.M m C b 0 O % s Z B s s k x r.j.x.) I 2 X & $ DXDXDXDXDXDXDXDXDXDXDXDXDX",
"DXDXDXDXDXDXDXDXDXDXDXDXDXDXDXDXDXDXDXDXDXDXDXDXDXDXDXDXDXDXDXDXDXN.$ &   O .   .     p q.x.d.d.k.f.[ [ [ [ | 0.) W p C 6.i.i.i.u.;.M m v m s 0 % : s Z C s s f g ) j.x.0.I g X $ DXDXDXDXDXDXDXDXDXDXDXDXDXDX",
"DXDXDXDXDXDXDXDXDXDXDXDXDXDXDXDXDXDXDXDXDXDXDXDXDXDXDXDXDXDXDXDXDXDX&.$ % X o o o o   k 0.k.| k.v.v.k.[ [ [ [ _ ) 8.N k -.p.i.i.;.@.b v v b N m Z m N -.-.N s 1 h I x.x.0.U 7 - DXDXDXDXDXDXDXDXDXDXDXDXDXDXDX",
"DXDXDXDXDXDXDXDXDXDXDXDXDXDXDXDXDXDXDXDXDXDXDXDXDXDXDXDXDXDXDXDXDXDXDX*.$ X O o X X   l 0.k.k.v.v.v.v.g.[ } | _ ` 8.W r N p.i.i.y.@.M b b s m C C m b N C C s r p h x.k.j.e.x Z DXDXDXDXDXDXDXDXDXDXDXDXDXDXDX",
"DXDXDXDXDXDXDXDXDXDXDXDXDXDXDXDXDXDXDXDXDXDXDXDXDXDXDXDXDXDXDXDXDXDXDXDXO.X $ % O   o 5 j.k.k.v.v.v.z.g.{ [ | ( E _ e.z f -.6.i.i.$.C M d b B N C C M M C B d i 4 h ) j.f.e.Y $.DXDXDXDXDXDXDXDXDXDXDXDXDXDXDX",
"DXDXDXDXDXDXDXDXDXDXDXDXDXDXDXDXDXDXDXDXDXDXDXDXDXDXDXDXDXDXDXDXDXDXDXDXDXn q X     . 7 k.k.k.v.v.v.z.l.} { ] E E R _ P g Z 7.p.B.y.#.B s s d s m M M M m m d p 4 h U k.f.f.:.%.DXDXDXDXDXDXDXDXDXDXDXDXDXDXDX",
"DXDXDXDXDXDXDXDXDXDXDXDXDXDXDXDXDXDXDXDXDXDXDXDXDXDXDXDXDXDXDXDXDXDXDXDXDXu.v e % o O h j.k.k.v.z.v.z.l. .} ] K E J ` ) l f #.6.i.y.@.m a i a i m m M M m d i 4 = 4 8 d.f.j.8.%.DXDXDXDXDXDXDXDXDXDXDXDXDXDXDX",
"DXDXDXDXDXDXDXDXDXDXDXDXDXDXDXDXDXDXDXDXDXDXDXDXDXDXDXDXDXDXDXDXDXDXDXDXDXN.+.-.l p p x t.j.k.v.z.z.z.z. .} ] K K J _ 0.P p B 7.6.;.Z b i i i i d m M C N f e = = < 3 R f.j.w.;.DXDXDXDXDXDXDXDXDXDXDXDXDXDXDX",
"DXDXDXDXDXDXDXDXDXDXDXDXDXDXDXDXDXDXDXDXDXDXDXDXDXDXDXDXDXDXDXDXDXDXDXDXDXH.$.Y Y V V I t.j.k.f.z.v./.z. .{ ] K K E ( 0.) g k -.6.6.-.N s s s s s d m m m d i ; = < < H d.` 0.;.DXDXDXDXDXDXDXDXDXDXDXDXDXDXDX",
"DXDXDXDXDXDXDXDXDXDXDXDXDXDXDXDXDXDXDXDXDXDXDXDXDXDXDXDXDXDXDXDXDXDXDXDXDXDXy.V I V P P w.j.k.f.z.z./.z. .{ ] ~ K ^ E ( ) x p V -.6.7.Z m d d b m m b d m d i ; = = < 8 | ` 0.;.DXDXDXDXDXDXDXDXDXDXDXDXDXDXDX",
"DXDXDXDXDXDXDXDXDXDXDXDXDXDXDXDXDXDXDXDXDXDXDXDXDXDXDXDXDXDXDXDXDXDXDXDXDXDXy.I I x x V 9.j.k.f.z.z./.z.g.{ ] ! K K ( R ) U g g Z 6.6.-.Z m m m m N m m m B f 1 ; ; < 7 ` d.j.q.<.DXDXDXDXDXDXDXDXDXDXDXDXDXDX",
"DXDXDXDXDXDXDXDXDXDXDXDXDXDXDXDXDXDXDXDXDXDXDXDXDXDXDXDXDXDXDXDXDXDXDXDXDXDX,.Y I x x P q.w.j.d.l.z.z.z.g.{ ] ! K K ] ( ( ` F g V 7.q.7.A m s m s N C B V A B p ; = @ > H [ ` 8.,.DXDXDXDXDXDXDXDXDXDXDXDXDXDX",
"DXDXDXDXDXDXDXDXDXDXDXDXDXDXDXDXDXDXDXDXDXDXDXDXDXDXDXDXDXDXDXDXDXDXDXDXDXDX,.Y I P V I q.a.0.d.[ g.z.z.g. .{ ! K K ^ ( ( _ W 7 P Y 6.q.Z s s m Z 6.6.q.5.9.7.f i = < @ 8 _ 0.e.o.DXDXDXDXDXDXDXDXDXDXDXDXDXDX",
"DXDXDXDXDXDXDXDXDXDXDXDXDXDXDXDXDXDXDXDXDXDXDXDXDXDXDXDXDXDXDXDXDXDXDXDXDXDXN.Z P V x P 9.a.0.d.[  .l.z.l.g.{ ] K K K ( ( _ R j l 5.q.9.Y s f C 6.Y A V V V B l p 1 < @ 6 ` _ e.:.,.DXDXDXDXDXDXDXDXDXDXDXDXDX",
"DXDXDXDXDXDXDXDXDXDXDXDXDXDXDXDXDXDXDXDXDXDXDXDXDXDXDXDXDXDXDXDXDXDXDXDXDXDXDX@.Y x x V 9.w.e.d.[  .l.z.l.g.{ ! ! K K K E ( R H g 5.q.6.:.m s Y N k A V Y 5.5.6.Y l p < 3 ( f.0.T v DXDXDXDXDXDXDXDXDXDXDXDXDX",
"DXDXDXDXDXDXDXDXDXDXDXDXDXDXDXDXDXDXDXDXDXDXDXDXDXDXDXDXDXDXDXDXDXDXDXDXDXDXDX&.-.V x S 9.w.8._ [ } l.l.l.g.{ ! ] K K K K E E G 7 Y 5.6.6.-.m N -.:.7./ / / 5.7.7.S 4 < < G f.0.U N DXDXDXDXDXDXDXDXDXDXDXDXDX",
"DXDXDXDXDXDXDXDXDXDXDXDXDXDXDXDXDXDXDXDXDXDXDXDXDXDXDXDXDXDXDXDXDXDXDXDXDXDXDX*.;.S x S 9.w.) _ ] | g.l.l.l. .{ ] K K K E E E R h x Y q.q.6.Z l V S S 9.t.t.a.a.q.V 1 # , j j.d.R P *.DXDXDXDXDXDXDXDXDXDXDXDX",
"DXDXDXDXDXDXDXDXDXDXDXDXDXDXDXDXDXDXDXDXDXDXDXDXDXDXDXDXDXDXDXDXDXDXDXDXDXDXDX<.;.S x S 9.w.8._ ( | } l.z.l. .{ ] ! K K K E E _ j g P 9.6.:.Y k V q.a.U.Y.T.!.!.c.Y 1 * 2 g d.d.( H X.DXDXDXDXDXDXDXDXDXDXDXDX",
"DXDXDXDXDXDXDXDXDXDXDXDXDXDXDXDXDXDXDXDXDXDXDXDXDXDXDXDXDXDXDXDXDXDXDXDXDXDXDXDX;.S c c 9.r.8._ ( ] } l.z.l. .{ ~ ] K K K E E _ I 7 l :.6.-.Y m V a.U.n.n.n.U.Y.U.7.1 - , 2 W [ ^ G o.DXDXDXDXDXDXDXDXDXDXDXDX",
"DXDXDXDXDXDXDXDXDXDXDXDXDXDXDXDXDXDXDXDXDXDXDXDXDXDXDXDXDXDXDXDXDXDXDXDXDXDXDXDX;.S x S 9.r.) ) E E [ g.l.l. .{ ~ ] ! K K E E _ ` h g Y 6.5.Y V V 9.Y.T.T.c.a.n.Y.t.; 1 * 2 R d.( ( @.*.DXDXDXDXDXDXDXDXDXDXDX",
"DXDXDXDXDXDXDXDXDXDXDXDXDXDXDXDXDXDXDXDXDXDXDXDXDXDXDXDXDXDXDXDXDXDXDXDXDXDXDXDXy.S V Z ) j.e.W R ( [ } g.l.l. .{ ] K K K K K E _ H 7 x / 7.5.V V Y x.Y.c.w.5.5.9.9.4 * , > F d.d.R P X.DXDXDXDXDXDXDXDXDXDXDX",
"DXDXDXDXDXDXDXDXDXDXDXDXDXDXDXDXDXDXDXDXDXDXDXDXDXDXDXDXDXDXDXDXDXDXDXDXDXDXDXDXu.B C Y ) j.) W R R ( { g.l.h. .} ] K K K K K E _ G 7 h I 5.5.S V N Y 5.Y Y x l h z 5 < * O F 0.d.W U @.DXDXDXDXDXDXDXDXDXDXDX",
"DXDXDXDXDXDXDXDXDXDXDXDXDXDXDXDXDXDXDXDXDXDXDXDXDXDXDXDXDXDXDXDXDXDXDXDXDXDXDXDXM.B C Y 8.j.) W R J E [ g.g.h. . .| ^ K K K K E _ R j g V 5.5.Y V V P z V 5.5.Y x h p 1 * , j ` R 0.U y *.DXDXDXDXDXDXDXDXDXDX",
"DXDXDXDXDXDXDXDXDXDXDXDXDXDXDXDXDXDXDXDXDXDXDXDXDXDXDXDXDXDXDXDXDXDXDXDXDXDXDXDXDX@.N P ) j.W W R J E [ g.g.h.l. .{ ] K K K K E E _ H 8 x / 5.5.Z V N f p l V V P h 5 @ O , 7 U d._ U k X.DXDXDXDXDXDXDXDXDXDX",
"DXDXDXDXDXDXDXDXDXDXDXDXDXDXDXDXDXDXDXDXDXDXDXDXDXDXDXDXDXDXDXDXDXDXDXDXDXDXDXDXDX$.m V ) j.) W R J E ] }  . .l. .} ] K K K K K E W U j h Y 9.9.5.l f g 1 @ @ 5 p g p * @ * 2 R [ J R x M DXDXDXDXDXDXDXDXDXDX",
"DXDXDXDXDXDXDXDXDXDXDXDXDXDXDXDXDXDXDXDXDXDXDXDXDXDXDXDXDXDXDXDXDXDXDXDXDXDXDXDXDXu.B x 8.r.) R U J E E [ {  .l. .} ] K K K K K E E R j 7 P 9.a.q.Y N k p 5 4 f p h p < , * , R [ ( _ F b DXDXDXDXDXDXDXDXDXDX",
"DXDXDXDXDXDXDXDXDXDXDXDXDXDXDXDXDXDXDXDXDXDXDXDXDXDXDXDXDXDXDXDXDXDXDXDXDXDXDXDXDXH.C c 9.w.8.U G J J K ~ {  .g.l.} ] K K K K K E J _ G 7 F 9.a.9.5.Y p 1 f p 1 g p 1 * * * , j [ J G F g %.DXDXDXDXDXDXDXDXDX",
"DXDXDXDXDXDXDXDXDXDXDXDXDXDXDXDXDXDXDXDXDXDXDXDXDXDXDXDXDXDXDXDXDXDXDXDXDXDXDXDXDXDXZ x 9.w.e.R G J L J E }  . .z. .] K K K K K E G [ R 8 j T 9.9.Y V f 1 1 = 1 2 < * = * , 2 h J | R H 7 v DXDXDXDXDXDXDXDXDX",
"DXDXDXDXDXDXDXDXDXDXDXDXDXDXDXDXDXDXDXDXDXDXDXDXDXDXDXDXDXDXDXDXDXDXDXDXDXDXDXDXDXDX#.x q.w.8.) U J L J E ] {  . . .{ ! K K K E E K ( _ G 8 F 5.5.P l p 1 1 1 5 2 * * * @ @ , 2 J ( J G 8 s DXDXDXDXDXDXDXDXDX",
"DXDXDXDXDXDXDXDXDXDXDXDXDXDXDXDXDXDXDXDXDXDXDXDXDXDXDXDXDXDXDXDXDXDXDXDXDXDXDXDXDXDX,.B q.a.e.R R G L L E ( {  . . .{ ! K K K K K L E ( G 8 j I 5.5.Y V l l l V l f p 1 = * , 7 H ( R F F N *.DXDXDXDXDXDXDXDX",
"DXDXDXDXDXDXDXDXDXDXDXDXDXDXDXDXDXDXDXDXDXDXDXDXDXDXDXDXDXDXDXDXDXDXDXDXDXDXDXDXDXDXN.C q.a.e.U U G G G J E [ } l. .{ ] K K K K K K K E E F j F Y 5./ V x l x Y P x h 4 * O * 2 G ( K F 8 N =.DXDXDXDXDXDXDXDX",
"DXDXDXDXDXDXDXDXDXDXDXDXDXDXDXDXDXDXDXDXDXDXDXDXDXDXDXDXDXDXDXDXDXDXDXDXDXDXDXDXDXDXDX$.q.w.8.W G G G G J E ] {  . . .{ ~ K K K K K K E E G j z I 5./ V x k x 5./ Y l 4 * O * , F ` ( ( F z M DXDXDXDXDXDXDXDX",
"DXDXDXDXDXDXDXDXDXDXDXDXDXDXDXDXDXDXDXDXDXDXDXDXDXDXDXDXDXDXDXDXDXDXDXDXDXDXDXDXDXDXDX,.p.r.0.) G G G G J J ( {  . .h.} ~ K K K K K K K ( R F j V / 5.S V l P q.9./ l 4 * O * , F d.K G F g N DXDXDXDXDXDXDXDX",
"DXDXDXDXDXDXDXDXDXDXDXDXDXDXDXDXDXDXDXDXDXDXDXDXDXDXDXDXDXDXDXDXDXDXDXDXDXDXDXDXDXDXDXN.p.a.8.R R G G G G G E { {  .h. .] K K K K K K K E E G j g V Y Y I V Y w.w.7.l 4 * O @ @ F R ] J Q z f M DXDXDXDXDXDXDX",
"DXDXDXDXDXDXDXDXDXDXDXDXDXDXDXDXDXDXDXDXDXDXDXDXDXDXDXDXDXDXDXDXDXDXDXDXDXDXDXDXDXDXDXH.p.w.8.R R G G G G G E { {  .h. .{ ! K K K K K K E E U j 5 l Y 5.5.Y 8.x.x.r.V p = O , > F G ] ( z z h s DXDXDXDXDXDXDX",
"DXDXDXDXDXDXDXDXDXDXDXDXDXDXDXDXDXDXDXDXDXDXDXDXDXDXDXDXDXDXDXDXDXDXDXDXDXDXDXDXDXDXDXDXi.q.8.) U G G G G G J ] {  .h.g.} ] K K K K K K K E R j 5 h I 7.5.Y 9.x.a.a.S f = O , > 3 R K ( T z 7 l DXDXDXDXDXDXDX",
"DXDXDXDXDXDXDXDXDXDXDXDXDXDXDXDXDXDXDXDXDXDXDXDXDXDXDXDXDXDXDXDXDXDXDXDXDXDXDXDXDXDXDXDXH.i.8.` U R G G G G J E [ g.l.l. .{ ! K K K K J J ( R F 8 j P / / Y 6.q.a.q.Y p - : * > 7 G [ ( U h 7 s DXDXDXDXDXDXDX",
"DXDXDXDXDXDXDXDXDXDXDXDXDXDXDXDXDXDXDXDXDXDXDXDXDXDXDXDXDXDXDXDXDXDXDXDXDXDXDXDXDXDXDXDXG.B.0.` G G G G G G L E [ } l.l. .{ ! K K K K K K K E G H j j I Y Y Y Y Y V k ; : * , , 3 H ( ( R j h b X.DXDXDXDXDXDX",
"DXDXDXDXDXDXDXDXDXDXDXDXDXDXDXDXDXDXDXDXDXDXDXDXDXDXDXDXDXDXDXDXDXDXDXDXDXDXDXDXDXDXDXDXDXB.9.` G G G G G H G E ] } g.l. .} ] K K K K K K K E R F 8 h V V l k k l h 1 = % % * > 3 D K K J F j k u DXDXDXDXDXDX",
"DXDXDXDXDXDXDXDXDXDXDXDXDXDXDXDXDXDXDXDXDXDXDXDXDXDXDXDXDXDXDXDXDXDXDXDXDXDXDXDXDXDXDXDXDXB.q.) U G G G G H G E E { g.l.g.} ] K K K K ! K K E E G h 5 h p p p l 4 1 * O % : @ @ > D K ^ J F j k M DXDXDXDXDXDX",
"DXDXDXDXDXDXDXDXDXDXDXDXDXDXDXDXDXDXDXDXDXDXDXDXDXDXDXDXDXDXDXDXDXDXDXDXDXDXDXDXDXDXDXDXDXS.p.) R G G G G H G J E [ g.l.l. .{ K K K K ~ K K E E G 7 > < 5 4 1 = 4 1 ; = = = < > > D ( ] J H j z M DXDXDXDXDXDX",
"DXDXDXDXDXDXDXDXDXDXDXDXDXDXDXDXDXDXDXDXDXDXDXDXDXDXDXDXDXDXDXDXDXDXDXDXDXDXDXDXDXDXDXDXDXG.p.8.R G G G G H G L E [ g.l.l.g.{ ~ ! K K ~ E E E E R 7 @ + O = 1 = @ * = ; 1 1 2 > > D E ] J G F z M &.DXDXDXDXDX",
"DXDXDXDXDXDXDXDXDXDXDXDXDXDXDXDXDXDXDXDXDXDXDXDXDXDXDXDXDXDXDXDXDXDXDXDXDXDXDXDXDXDXDXDXDXG.B.6.W L G G G G G G K [ g.g.g.g.{ ] ! K ! ! K ~ E J [ G 8 @   . , g h h h 5 , O + + 8 L E ] L J F z -.&.DXDXDXDXDX",
"DXDXDXDXDXDXDXDXDXDXDXDXDXDXDXDXDXDXDXDXDXDXDXDXDXDXDXDXDXDXDXDXDXDXDXDXDXDXDXDXDXDXDXDXDXDXH.B.>.:.:.:.:.:.Q Q >.>.b.b.b.b.b.e.>.>.>.>.>.>.>.>.:.>.6.o.q $ $ $ & & q & $ $ & - :.p.e.>.>.>.Q M %.H.DXDXDXDXDX",
"DXDXDXDXDXDXDXDXDXDXDXDXDXDXDXDXDXDXDXDXDXDXDXDXDXDXDXDXDXDXDXDXDXDXDXDXDXDXDXDXDXDXDXDXDXDXDXDXDXDXDXDXDXDXDXDXDXDXDXDXDXDXDXDXDXDXDXDXDXDXDXDXDXDXDXDXDXDXDXDXDXDXDXDXDXDXDXDXDXDXDXDXDXDXDXDXDXDXDXDXDXDXDX",
"DXDXDXDXDXDXDXDXDXDXDXDXDXDXDXDXDXDXDXDXDXDXDXDXDXDXDXDXDXDXDXDXDXDXDXDXDXDXDXDXDXDXDXDXDXDXDXDXDXDXDXDXDXDXDXDXDXDXDXDXDXDXDXDXDXDXDXDXDXDXDXDXDXDXDXDXDXDXDXDXDXDXDXDXDXDXDXDXDXDXDXDXDXDXDXDXDXDXDXDXDXDXDX"
};
