/* XPM */
static const char *xpm__10_sgun_prepreload3[] = {
/* columns rows colors chars-per-pixel */
"165 119 247 2 ",
"   c #030203",
".  c #0A0604",
"X  c #0A0A06",
"o  c #05050A",
"O  c #060A0A",
"+  c #0C0C0C",
"@  c #080808",
"#  c #140B05",
"$  c #120D0C",
"%  c #180A06",
"&  c #0D110C",
"*  c #0A1105",
"=  c #13120D",
"-  c #1B130D",
";  c #181709",
":  c #0D0D12",
">  c #080514",
",  c #120E12",
"<  c #160E16",
"1  c #0E1212",
"2  c #0E1419",
"3  c #131313",
"4  c #1A1513",
"5  c #151915",
"6  c #1A1A15",
"7  c #151519",
"8  c #1A161B",
"9  c #151A1B",
"0  c #1B1B1B",
"q  c #250C06",
"w  c #25160C",
"e  c #231B15",
"r  c #231D1C",
"t  c #281915",
"y  c #361C17",
"u  c #30120C",
"i  c #1D211D",
"p  c #1B2015",
"a  c #1E230F",
"s  c #23221D",
"d  c #2B231D",
"f  c #292517",
"g  c #33241B",
"h  c #39281A",
"j  c #382B11",
"k  c #151C23",
"l  c #1C1D22",
"z  c #191927",
"x  c #16182B",
"c  c #221E22",
"v  c #251B25",
"b  c #1D2224",
"n  c #1D242B",
"m  c #1B262A",
"M  c #1D2933",
"N  c #232324",
"B  c #2B2523",
"V  c #2C2A24",
"C  c #24242A",
"Z  c #2A252B",
"A  c #24292C",
"S  c #2C2B2C",
"D  c #242925",
"F  c #342B24",
"G  c #3B2B23",
"H  c #332D2C",
"J  c #362827",
"K  c #2C312B",
"L  c #34322D",
"P  c #3B322C",
"I  c #393527",
"U  c #232B33",
"Y  c #2C2D32",
"T  c #272A39",
"R  c #322D33",
"E  c #382C32",
"W  c #2D3135",
"Q  c #2C343A",
"!  c #28343A",
"~  c #333234",
"^  c #3B3434",
"/  c #34343A",
"(  c #3A353B",
")  c #34393C",
"_  c #3C3A3D",
"`  c #393A34",
"'  c #432C1D",
"]  c #47271B",
"[  c #4A331C",
"{  c #55331A",
"}  c #512C19",
"|  c #432D23",
" . c #492A25",
".. c #572C28",
"X. c #443123",
"o. c #4B3324",
"O. c #45342B",
"+. c #4B342B",
"@. c #4C3A2C",
"#. c #473B29",
"$. c #533525",
"%. c #543925",
"&. c #543B2C",
"*. c #5B3D2C",
"=. c #583629",
"-. c #4B3C34",
";. c #423C3B",
":. c #453935",
">. c #533C32",
",. c #5C3E32",
"<. c #573A37",
"1. c #5E2D30",
"2. c #663B2A",
"3. c #663A35",
"4. c #6F3A2D",
"5. c #4E211C",
"6. c #3D433B",
"7. c #5D412D",
"8. c #53422B",
"9. c #4C443C",
"0. c #464539",
"q. c #544234",
"w. c #5C4333",
"e. c #53433A",
"r. c #5B453A",
"t. c #5D4A3B",
"y. c #584A39",
"u. c #4F4B34",
"i. c #61412D",
"p. c #68422A",
"a. c #624433",
"s. c #634B3C",
"d. c #66473A",
"f. c #784737",
"g. c #65503F",
"h. c #77452E",
"j. c #2C3844",
"k. c #333D43",
"l. c #3C3C42",
"z. c #353847",
"x. c #30344C",
"c. c #3A3C64",
"v. c #423D43",
"b. c #613D42",
"n. c #3D4244",
"m. c #37444A",
"M. c #3B4955",
"N. c #384C51",
"B. c #434244",
"V. c #4A4443",
"C. c #44444A",
"Z. c #4B464B",
"A. c #4B4A4D",
"S. c #484A46",
"D. c #534D4B",
"F. c #574944",
"G. c #59574A",
"H. c #474C53",
"J. c #524E52",
"K. c #485459",
"L. c #535254",
"P. c #5B5452",
"I. c #53555A",
"U. c #5A585A",
"Y. c #4D5349",
"T. c #634D42",
"R. c #6A4945",
"E. c #774846",
"W. c #645244",
"Q. c #6A5344",
"!. c #64554B",
"~. c #6A554B",
"^. c #65594D",
"/. c #6A5A4C",
"(. c #6C5946",
"). c #725548",
"_. c #655C52",
"`. c #6A5D52",
"'. c #645B5A",
"]. c #765855",
"[. c #744E51",
"{. c #5B6250",
"}. c #6A635A",
"|. c #73665A",
" X c #65715B",
".X c #4A5966",
"XX c #585A63",
"oX c #4D536E",
"OX c #645E62",
"+X c #5B656A",
"@X c #566775",
"#X c #4F656E",
"$X c #696567",
"%X c #756B67",
"&X c #726D73",
"*X c #7A7576",
"=X c #6E7072",
"-X c #8A4C36",
";X c #8A5A49",
":X c #955A47",
">X c #865551",
",X c #906554",
"<X c #A76954",
"1X c #B16F57",
"2X c #847B7A",
"3X c #95746B",
"4X c #A87666",
"5X c #B17767",
"6X c #A15A48",
"7X c #C57D65",
"8X c #8A827C",
"9X c #B98B78",
"0X c #C48D78",
"qX c #C98C71",
"wX c #5E6D84",
"eX c #667986",
"rX c #717A8E",
"tX c #847D83",
"yX c #758699",
"uX c #708393",
"iX c #7B8AA6",
"pX c #778CA3",
"aX c #898486",
"sX c #958C8A",
"dX c #928D94",
"fX c #9A9497",
"gX c #8B8B95",
"hX c #B4928C",
"jX c #ACA298",
"kX c #8793AF",
"lX c #A49DA3",
"zX c #A8A5A7",
"xX c #B3A8AE",
"cX c #9CA4B4",
"vX c #C89588",
"bX c #D5AC98",
"nX c #D0B1AB",
"mX c #E8AFA1",
"MX c #B3B8CC",
"NX c #D1B7C4",
"BX c #B6C7D9",
"VX c #BCCBE8",
"CX c #D0C7C9",
"ZX c #D5CBD9",
"AX c #DFC2B3",
"SX c None",
"DX c black",
/* pixels */
"SXSXSXSXSXSXSXSXSXSXSXSXSXSXSXSXSXSXSXSXSXSXSXSXSXSXSXSXSXSXSXSXSXSXSXSXSXSXSXSXSXSXSXSXSXSXSXSXSXSXSXSXSXSXSXSXSXSXSXSXSXSXSXSXSXSXSXSXSXSXSXSXSXSXSXSXSXSXSXSXSXSXSXSXSXSXSXSXSXSXSXSXSXSXSXSXSXSXSXSXSXSXSXSXSXSXSXSXSXSXSXSXSXSXSXSXSXSXSXSXSXSXSXSXSXSXSXSXSXSXSXSXSXSXSXSXSXSXSXSXSXSXSXSXSXSXSXSXSXSXSXSXSXSXSXSXSXSXSXSXSXSXSXSXSX",
"SXSXSXSXSXSXSXSXSXSXSXSXSXSXSXSXSXSXSXSXSXSXSXSXSXSXSXSXSXSXSXSXSXSXSXSXSXSXSXSXSXSXSXSXSXSXSXSXSXSXSXSXSXSXSXSXSXSXSXSXSXSXSXSXSXSXSXSXSXSXSXSXSXSXSXSXSXSXSXSXSXSXSXSXSXSXSXSXSXSXSXSXSXSXSXSXSXSXSXSXSXSXSXSXSXSXSXSXSXSXSXSXSXSXSXSXSXSXSXSXSXSXSXSXSXSXSXSXSXSXSXSXSXSXSXSXSXSXSXSXSXSXSXSXSXSXSXSXSXSXSXSXSXSXSXSXSXSXSXSXSXSXSXSXSX",
"SXSXSXSXSXSXSXSXSXSXSXSXSXSXSXSXSXSXSXSXSXSXSXSXSXSXSXSXSXSXSXSXSXSXSXSXSXSXSXSXSXSXSXSXSXSXSXSXSXSXSXSXSXSXSXSXSXSXSXSXSXSXSXSXSXSXSXSXSXSXSXSXSXSXSXSXSXSXSXSXSXSXSXSXSXSXSXSXSXSXSXSXSXSXSXSXSXSXSXSXSXSXSXSXSXSXSXSXSXSXSXSXSXSXSXSXSXSXSXSXSXSXSXSXSXSXSXSXSXSXSXSXSXSXSXSXSXSXSXSXSXSXSXSXSXSXSXSXSXSXSXSXSXSXSXSXSXSXSXSXSXSXSXSXSX",
"SXSXSXSXSXSXSXSXSXSXSXSXSXSXSXSXSXSXSXSXSXSXSXSXSXSXSXSXSXSXSXSXSXSXSXSXSXSXSXSXSXSXSXSXSXSXSXSXSXSXSXSXSXSXSXSXSXSXSXSXSXSXSXSXSXSXSXSXSXSXSXSXSXSXSXSXSXSXSXSXSXSXSXSXSXSXSXSXSXSXSXSXSXSXSXSXSXSXSXSXSXSXSXSXSXSXSXSXSXSXSXSXSXSXSXSXSXSXSXSXSXSXSXSXSXSXSXSXSXSXSXSXSXSXSXSXSXSXSXSXSXSXSXSXSXSXSXSXSXSXSXSXSXSXSXSXSXSXSXSXSXSXSXSXSX",
"SXSXSXSXSXSXSXSXSXSXSXSXSXSXSXSXSXSXSXSXSXSXSXSXSXSXSXSXSXSXSXSXSXSXSXSXSXSXSXSXSXSXSXSXSXSXSXSXSXSXSXSXSXSXSXSXSXSXSXSXSXSXSXSXSXSXSXSXSXSXSXSXSXSXSXSXSXSXSXSXSXSXSXSXSXSXSXSXSXSXSXSXSXSXSXSXSXSXSXSXSXSXSXSXSXSXSXSXSXSXSXSXSXSXSXSXSXSXSXSXSXSXSXSXSXSXSXSXSXSXSXSXSXSXSXSXSXSXSXSXSXSXSXSXSXSXSXSXSXSXSXSXSXSXSXSXSXSXSXSXSXSXSXSXSX",
"SXSXSXSXSXSXSXSXSXSXSXSXSXSXSXSXSXSXSXSXSXSXSXSXSXSXSXSXSXSXSXSXSXSXSXSXSXSXSXSXSXSXSXSXSXSXSXSXSXSXSXSXSXSXSXSXSXSXSXSXSXSXSXSXSXSXSXSXSXSXSXSXSXSXSXSXSXSXSXSXSXSXSXSXSXSXSXSXSXSXSXSXSXSXSXSXSXSXSXSXSXSXSXSXSXSXSXSXSXSXSXSXSXSXSXSXSXSXSXSXSXSXSXSXSXSXSXSXSXSXSXSXSXSXSXSXSXSXSXSXSXSXSXSXSXSXSXSXSXSXSXSXSXSXSXSXSXSXSXSXSXSXSXSXSX",
"SXSXSXSXSXSXSXSXSXSXSXSXSXSXSXSXSXSXSXSXSXSXSXSXSXSXSXSXSXSXSXSXSXSXSXSXSXSXSXSXSXSXSXSXSXSXSXSXSXSXSXSXSXSXSXSXSXSXSXSXSXSXSXSXSXSXSXSXSXSXSXSXSXSXSXSXSXSXSXSXSXSXSXSXSXSXSXSXSXSXSXSXSXSXSXSXSXSXSXSXSXSXSXSXSXSXSXSXSXSXSXSXSXSXSXSXSXSXSXSXSXSXSXSXSXSXSXSXSXSXSXSXSXSXSXSXSXSXSXSXSXSXSXSXSXSXSXSXSXSXSXSXSXSXSXSXSXSXSXSXSXSXSXSXSX",
"SXSXSXSXSXSXSXSXSXSXSXSXSXSXSXSXSXSXSXSXSXSXSXSXSXSXSXSXSXSXSXSXSXSXSXSXSXSXSXSXSXSXSXSXSXSXSXSXSXSXSXSXSXSXSXSXSXSXSXSXSXSXSXSXSXSXSXSXSXSXSXSXSXSXSXSXSXSXSXSXSXSXSXSXSXSXSXSXSXSXSXSXSXSXSXSXSXSXSXSXSXSXSXSXSXSXSXSXSXSXSXSXSXSXSXSXSXSXSXSXSXSXSXSXSXSXSXSXSXSXSXSXSXSXSXSXSXSXSXSXSXSXSXSXSXSXSXSXSXSXSXSXSXSXSXSXSXSXSXSXSXSXSXSXSX",
"SXSXSXSXSXSXSXSXSXSXSXSXSXSXSXSXSXSXSXSXSXSXSXSXSXSXSXSXSXSXSXSXSXSXSXSXSXSXSXSXSXSXSXSXSXSXSXSXSXSXSXSXSXSXSXSXSXSXSXSXSXSXSXSXSXSXSXSXSXSXSXSXSXSXSXSXSXSXSXSXSXSXSXSXSXSXSXSXSXSXSXSXSXSXSXSXSXSXSXSXSXSXSXSXSXSXSXSXSXSXSXSXSXSXSXSXSXSXSXSXSXSXSXSXSXSXSXSXSXSXSXSXSXSXSXSXSXSXSXSXSXSXSXSXSXSXSXSXSXSXSXSXSXSXSXSXSXSXSXSXSXSXSXSXSX",
"SXSXSXSXSXSXSXSXSXSXSXSXSXSXSXSXSXSXSXSXSXSXSXSXSXSXSXSXSXSXSXSXSXSXSXSXSXSXSXSXSXSXSXSXSXSXSXSXSXSXSXSXSXSXSXSXSXSXSXSXSXSXSXSXSXSXSXSXSXSXSXSXSXSXSXSXSXSXSXSXSXSXSXSXSXSXSXSXSXSXSXSXSXSXSXSXSXSXSXSXSXSXSXSXSXSXSXSXSXSXSXSXSXSXSXSXSXSXSXSXSXSXSXSXSXSXSXSXSXSXSXSXSXSXSXSXSXSXSXSXSXSXSXSXSXSXSXSXSXSXSXSXSXSXSXSXSXSXSXSXSXSXSXSXSX",
"SXSXSXSXSXSXSXSXSXSXSXSXSXSXSXSXSXSXSXSXSXSXSXSXSXSXSXSXSXSXSXSXSXSXSXSXSXSXSXSXSXSXSXSXSXSXSXSXSXSXSXSXSXSXSXSXSXSXSXSXSXSXSXSXSXSXSXSXSXSXSXSXSXSXSXSXSXSXSXSXSXSXSXSXSXSXSXSXSXSXSXSXSXSXSXSXSXSXSXSXSXSXSXSXSXSXSXSXSXSXSXSXSXSXSXSXSXSXSXSXSXSXSXSXSXSXSXSXSXSXSXSXSXSXSXSXSXSXSXSXSXSXSXSXSXSXSXSXSXSXSXSXSXSXSXSXSXSXSXSXSXSXSXSXSX",
"SXSXSXSXSXSXSXSXSXSXSXSXSXSXSXSXSXSXSXSXSXSXSXSXSXSXSXSXSXSXSXSXSXSXSXSXSXSXSXSXSXSXSXSXSXSXSXSXSXSXSXSXSXSXSXSXSXSXSXSXSXSXSXSXSXSXSXSXSXSXSXSXSXSXSXSXSXSXSXSXSXSXSXSXSXSXSXSXSXSXSXSXSXSXSXSXSXSXSXSXSXSXSXSXSXSXSXSXSXSXSXSXSXSXSXSXSXSXSXSXSXSXSXSXSXSXSXSXSXSXSXSXSXSXSXSXSXSXSXSXSXSXSXSXSXSXSXSXSXSXSXSXSXSXSXSXSXSXSXSXSXSXSXSXSX",
"SXSXSXSXSXSXSXSXSXSXSXSXSXSXSXSXSXSXSXSXSXSXSXSXSXSXSXSXSXSXSXSXSXSXSXSXSXSXSXSXSXSXSXSXSXSXSXSXSXSXSXSXSXSXSXSXSXSXSXSXSXSXSXSXSXSXSXSXSXSXSXSXSXSXSXSXSXSXSXSXSXSXSXSXSXSXSXSXSXSXSXSXSXSXSXSXSXSXSXSXSXSXSXSXSXSXSXSXSXSXSXSXSXSXSXSXSXSXSXSXSXSXSXSXSXSXSXSXSXSXSXSXSXSXSXSXSXSXSXSXSXSXSXSXSXSXSXSXSXSXSXSXSXSXSXSXSXSXSXSXSXSXSXSXSX",
"SXSXSXSXSXSXSXSXSXSXSXSXSXSXSXSXSXSXSXSXSXSXSXSXSXSXSXSXSXSXSXSXSXSXSXSXSXSXSXSXSXSXSXSXSXSXSXSXSXSXSXSXSXSXSXSXSXSXSXSXSXSXSXSXSXSXSXSXSXSXSXSXSXSXSXSXSXSXSXSXSXSXSXSXSXSXSXSXSXSXSXSXSXSXSXSXSXSXSXSXSXSXSXSXSXSXSXSXSXSXSXSXSXSXSXSXSXSXSXSXSXSXSXSXSXSXSXSXSXSXSXSXSXSXSXSXSXSXSXSXSXSXSXSXSXSXSXSXSXSXSXSXSXSXSXSXSXSXSXSXSXSXSXSXSX",
"SXSXSXSXSXSXSXSXSXSXSXSXSXSXSXSXSXSXSXSXSXSXSXSXSXSXSXSXSXSXSXSXSXSXSXSXSXSXSXSXSXSXSXSXSXSXSXSXSXSXSXSXSXSXSXSXSXSXSXSXSXSXSXSXSXSXSXSXSXSXSXSXSXSXSXSXSXSXSXSXSXSXSXSXSXSXSXSXSXSXSXSXSXSXSXSXSXSXSXSXSXSXSXSXSXSXSXSXSXSXSXSXSXSXSXSXSXSXSXSXSXSXSXSXSXSXSXSXSXSXSXSXSXSXSXSXSXSXSXSXSXSXSXSXSXSXSXSXSXSXSXSXSXSXSXSXSXSXSXSXSXSXSXSXSX",
"SXSXSXSXSXSXSXSXSXSXSXSXSXSXSXSXSXSXSXSXSXSXSXSXSXSXSXSXSXSXSXSXSXSXSXSXSXSXSXSXSXSXSXSXSXSXSXSXSXSXSXSXSXSXSXSXSXSXSXSXSXSXSXSXSXSXSXSXSXSXSXSXSXSXSXSXSXSXSXSXSXSXSXSXSXSXSXSXSXSXSXSXSXSXSXSXSXSXSXSXSXSXSXSXSXSXSXSXSXSXSXSXSXSXSXSXSXSXSXSXSXSXSXSXSXSXSXSXSXSXSXSXSXSXSXSXSXSXSXSXSXSXSXSXSXSXSXSXSXSXSXSXSXSXSXSXSXSXSXSXSXSXSXSXSX",
"SXSXSXSXSXSXSXSXSXSXSXSXSXSXSXSXSXSXSXSXSXSXSXSXSXSXSXSXSXSXSXSXSXSXSXSXSXSXSXSXSXSXSXSXSXSXSXSXSXSXSXSXSXSXSXSXSXSXSXSXSXSXSXSXSXSXSXSXSXSXSXSXSXSXSXSXSXSXSXSXSXSXSXSXSXSXSXSXSXSXSXSXSXSXSXSXSXSXSXSXSXSXSXSXSXSXSXSXSXSXSXSXSXSXSXSXSXSXSXSXSXSXSXSXSXSXSXSXSXSXSXSXSXSXSXSXSXSXSXSXSXSXSXSXSXSXSXSXSXSXSXSXSXSXSXSXSXSXSXSXSXSXSXSXSX",
"SXSXSXSXSXSXSXSXSXSXSXSXSXSXSXSXSXSXSXSXSXSXSXSXSXSXSXSXSXSXSXSXSXSXSXSXSXSXSXSXSXSXSXSXSXSXSXSXSXSXSXSXSXSXSXSXSXSXSXSXSXSXSXSXSXSXSXSXSXSXSXSXSXSXSXSXSXSXSXSXSXSXSXSXSXSXSXSXSXSXSXSXSXSXSXSXSXSXSXSXSXSXSXSXSXSXSXSXSXSXSXSXSXSXSXSXSXSXSXSXSXSXSXSXSXSXSXSXSXSXSXSXSXSXSXSXSXSXSXSXSXSXSXSXSXSXSXSXSXSXSXSXSXSXSXSXSXSXSXSXSXSXSXSXSX",
"SXSXSXSXSXSXSXSXSXSXSXSXSXSXSXSXSXSXSXSXSXSXSXSXSXSXSXSXSXSXSXSXSXSXSXSXSXSXSXSXSXSXSXSXSXSXSXSXSXSXSXSXSXSXSXSXSXSXSXSXSXSXSXSXSXSXSXSXSXSXSXSXSXSXSXSXSXSXSXSXSXSXSXSXSXSXSXSXSXSXSXSXSXSXSXSXSXSXSXSXSXSXSXSXSXSXSXSXSXSXSXSXSXSXSXSXSXSXSXSXSXSXSXSXSXSXSXSXSXSXSXSXSXSXSXSXSXSXSXSXSXSXSXSXSXSXSXSXSXSXSXSXSXSXSXSXSXSXSXSXSXSXSXSXSX",
"SXSXSXSXSXSXSXSXSXSXSXSXSXSXSXSXSXSXSXSXSXSXSXSXSXSXSXSXSXSXSXSXSXSXSXSXSXSXSXSXSXSXSXSXSXSXSXSXSXSXSXSXSXSXSXSXSXSXSXSXSXSXSXSXSXSXSXSXSXSXSXSXSXSXSXSXSXSXSXSXSXSXSXSXSXSXSXSXSXSXSXSXSXSXSXSXSXSXSXSXSXSXSXSXSXSXSXSXSXSXSXSXSXSXSXSXSXSXSXSXSXSXSXSXSXSXSXSXSXSXSXSXSXSXSXSXSXSXSXSXSXSXSXSXSXSXSXSXSXSXSXSXSXSXSXSXSXSXSXSXSXSXSXSXSX",
"SXSXSXSXSXSXSXSXSXSXSXSXSXSXSXSXSXSXSXSXSXSXSXSXSXSXSXSXSXSXSXSXSXSXSXSXSXz.z.M.XXuXcXSXSXSXSXSXSXSXSXSXSXSXSXSXSXSXSXSXSXSXSXSXSXSXSXSXSXSXSXSXSXSXSXSXSXSXSXSXSXSXSXSXSXSXSXSXSXSXSXSXSXSXSXSXSXSXSXSXSXSXSXSXSXSXSXSXSXSXSXSXSXSXSXSXSXSXSXSXSXSXSXSXSXSXSXSXSXSXSXSXSXSXSXSXSXSXSXSXSXSXSXSXSXSXSXSXSXSXSXSXSXSXSXSXSXSXSXSXSXSXSXSXSX",
"SXSXSXSXSXSXSXSXSXSXSXSXSXSXSXSXSXSXSXSXSXSXSXSXSXSXSXSXSXSXSXSXSXSXSXSXj.n b m b Q +XMXSXSXSXSXSXSXSXSXSXSXSXSXSXSXSXSXSXSXSXSXSXSXSXSXSXSXSXSXSXSXSXSXSXSXSXSXSXSXSXSXSXSXSXSXSXSXSXSXSXSXSXSXSXSXSXSXSXSXSXSXSXSXSXSXSXSXSXSXSXSXSXSXSXSXSXSXSXSXSXSXSXSXSXSXSXSXSXSXSXSXSXSXSXSXSXSXSXSXSXSXSXSXSXSXSXSXSXSXSXSXSXSXSXSXSXSXSXSXSXSXSX",
"SXSXSXSXSXSXSXSXSXSXSXSXSXSXSXSXSXSXSXSXSXSXSXSXSXSXSXSXSXSXSXSXSXSXSXSXj.T C N W Q oXyXSXSXSXSXSXSXSXSXSXSXSXSXSXSXSXSXSXSXSXSXSXSXSXSXSXSXSXSXSXSXSXSXSXSXSXSXSXSXSXSXSXSXSXSXSXSXSXSXSXSXSXSXSXSXSXSXSXSXSXSXSXSXSXSXSXSXSXSXSXSXSXSXSXSXSXSXSXSXSXSXSXSXSXSXSXSXSXSXSXSXSXSXSXSXSXSXSXSXSXSXSXSXSXSXSXSXSXSXSXSXSXSXSXSXSXSXSXSXSXSXSX",
"SXSXSXSXSXSXSXSXSXSXSXSXSXSXSXSXSXSXSXSXSXSXSXSXSXSXSXSXSXSXSXSXSXSXSXeXx.z.W D K C.M.@XuXrXcXSXSXSXSXSXSXSXSXSXSXSXSXSXSXSXSXSXSXSXSXSXSXSXSXSXSXSXSXSXSXSXSXSXSXSXSXSXSXSXSXSXSXSXSXSXSXSXSXSXSXSXSXSXSXSXSXSXSXSXSXSXSXSXSXSXSXSXSXSXSXSXSXSXSXSXSXSXSXSXSXSXSXSXSXSXSXSXSXSXSXSXSXSXSXSXSXSXSXSXSXSXSXSXSXSXSXSXSXSXSXSXSXSXSXSXSXSXSX",
"SXSXSXSXSXSXSXSXSXSXSXSXSXSXSXSXSXSXSXSXSXSXx.x.x.z.M.z.z.M.M.j.T T ! U j.m.k b C Q j.U U n m.eXrX@XoX@XrXrXVXBXVXSXSXSXSXSXSXSXSXSXSXSXSXSXSXSXSXSXSXSXSXSXSXSXSXSXSXSXSXSXSXSXSXSXSXSXSXSXSXSXSXSXSXSXSXSXSXSXSXSXSXSXSXSXSXSXSXSXSXSXSXSXSXSXSXSXSXSXSXSXSXSXSXSXSXSXSXSXSXSXSXSXSXSXSXSXSXSXSXSXSXSXSXSXSXSXSXSXSXSXSXSXSXSXSXSXSXSXSX",
"SXSXSXSXSXSXSXSXSXSXSXSXSXSXSXSXSXSXSXSXc.x.j.n U Q n.) ! k.! k M m k n k./   O 1 O 9 U U U U m T x x x M j.H..XrXVXSXSXSXSXSXSXSXSXSXSXSXSXSXSXSXSXSXSXSXSXSXSXSXSXSXSXSXSXSXSXSXSXSXSXSXSXSXSXSXSXSXSXSXSXSXSXSXSXSXSXSXSXSXSXSXSXSXSXSXSXSXSXSXSXSXSXSXSXSXSXSXSXSXSXSXSXSXSXSXSXSXSXSXSXSXSXSXSXSXSXSXSXSXSXSXSXSXSXSXSXSXSXSXSXSXSXSX",
"SXSXSXSXSXSXSXSXSXSXSXSXSXSXSXSXSXSXSXc.j.! n.n.Y.6.) W A m U U T T n z S 9   O @ & 3 D T T U Q Q n b 9 7 A 9 m W H.rXMXSXSXSXSXSXSXSXSXSXSXSXSXSXSXSXSXSXSXSXSXSXSXSXSXSXSXSXSXSXSXSXSXSXSXSXSXSXSXSXSXSXSXSXSXSXSXSXSXSXSXSXSXSXSXSXSXSXSXSXSXSXSXSXSXSXSXSXSXSXSXSXSXSXSXSXSXSXSXSXSXSXSXSXSXSXSXSXSXSXSXSXSXSXSXSXSXSXSXSXSXSXSXSXSXSX",
"SXSXSXSXSXSXSXSXSXSXSXSXSXSXSXSXSXSXc.x.k.K.6.6.s 5 5 5 1 1 2 k k n Q Q D & &   O + 9 D n T k.Q 9 3 1 O 1 1 1 1 1 W K.yXVXSXSXSXSXSXSXSXSXSXSXSXSXSXSXSXSXSXSXSXSXSXSXSXSXSXSXSXSXSXSXSXSXSXSXSXSXSXSXSXSXSXSXSXSXSXSXSXSXSXSXSXSXSXSXSXSXSXSXSXSXSXSXSXSXSXSXSXSXSXSXSXSXSXSXSXSXSXSXSXSXSXSXSXSXSXSXSXSXSXSXSXSXSXSXSXSXSXSXSXSXSXSXSXSX",
"SXSXSXSXSXSXSXSXSXSXSXSXSXSXSXSXSXj.M.+XK.U.V   X = 0 0 0 b b 9 7 : l / W 9 9 2 2 b D b A Y Z 3 6 3 0 5 0 0 C 0 5 O A K.rXVXSXSXSXSXSXSXSXSXSXSXSXSXSXSXSXSXSXSXSXSXSXSXSXSXSXSXSXSXSXSXSXSXSXSXSXSXSXSXSXSXSXSXSXSXSXSXSXSXSXSXSXSXSXSXSXSXSXSXSXSXSXSXSXSXSXSXSXSXSXSXSXSXSXSXSXSXSXSXSXSXSXSXSXSXSXSXSXSXSXSXSXSXSXSXSXSXSXSXSXSXSXSXSX",
"SXSXSXSXSXSXSXSXSXSXSXSXSXSXSXSXM.M.H.I.K.D & 5 + 3 3 + + 3 0 0 0 0 3 7 Y U U U U Q W A ~ N 6 0 6 = 5 0 3 c B N 6 5 1 m M.kXBXSXSXSXSXSXSXSXSXSXSXSXSXSXSXSXSXSXSXSXSXSXSXSXSXSXSXSXSXSXSXSXSXSXSXSXSXSXSXSXSXSXSXSXSXSXSXSXSXSXSXSXSXSXSXSXSXSXSXSXSXSXSXSXSXSXSXSXSXSXSXSXSXSXSXSXSXSXSXSXSXSXSXSXSXSXSXSXSXSXSXSXSXSXSXSXSXSXSXSXSXSXSX",
"SXSXSXSXSXSXSXSXSXSXSXSXSXSXSXwXK.m..X+XQ 7 7   @ o o + + + = 6 5 N 0 1 l Y U U ! k U l.Z 6 5 X .   o + o l 8 Z Z i i i M K.BXVXSXSXSXSXSXSXSXSXSXSXSXSXSXSXSXSXSXSXSXSXSXSXSXSXSXSXSXSXSXSXSXSXSXSXSXSXSXSXSXSXSXSXSXSXSXSXSXSXSXSXSXSXSXSXSXSXSXSXSXSXSXSXSXSXSXSXSXSXSXSXSXSXSXSXSXSXSXSXSXSXSXSXSXSXSXSXSXSXSXSXSXSXSXSXSXSXSXSXSXSXSX",
"SXSXSXSXSXSXSXSXSXSXSXSXSXSXSXwXM.H.K.k.7 9 o +   o o o o       6 0 0 0 1 n A W W Q l.l.0 = @     = X : , < : 8 Z s 6 p D A +XBXSXSXSXSXSXSXSXSXSXSXSXSXSXSXSXSXSXSXSXSXSXSXSXSXSXSXSXSXSXSXSXSXSXSXSXSXSXSXSXSXSXSXSXSXSXSXSXSXSXSXSXSXSXSXSXSXSXSXSXSXSXSXSXSXSXSXSXSXSXSXSXSXSXSXSXSXSXSXSXSXSXSXSXSXSXSXSXSXSXSXSXSXSXSXSXSXSXSXSXSXSX",
"SXSXSXSXSXSXSXSXSXSXSXSXSXSXiX.Xk.m.H.7 1 3   o       o o @ @   X 6 s 0 , 9 C A A ) C.9 X             o : : : + 0 S 6 + 5 l.k.cXVXSXSXSXSXSXSXSXSXSXSXSXSXSXSXSXSXSXSXSXSXSXSXSXSXSXSXSXSXSXSXSXSXSXSXSXSXSXSXSXSXSXSXSXSXSXSXSXSXSXSXSXSXSXSXSXSXSXSXSXSXSXSXSXSXSXSXSXSXSXSXSXSXSXSXSXSXSXSXSXSXSXSXSXSXSXSXSXSXSXSXSXSXSXSXSXSXSXSXSXSX",
"SXSXSXSXSXSXSXSXSXSXSXSXSXSXyXM.k.I.) 3 o @           o o o o o . $ 6 6 : 7 A W S ~ Y X                 o O + X $ 6 e = + l.H.eXBXSXSXSXSXSXSXSXSXSXSXSXSXSXSXSXSXSXSXSXSXSXSXSXSXSXSXSXSXSXSXSXSXSXSXSXSXSXSXSXSXSXSXSXSXSXSXSXSXSXSXSXSXSXSXSXSXSXSXSXSXSXSXSXSXSXSXSXSXSXSXSXSXSXSXSXSXSXSXSXSXSXSXSXSXSXSXSXSXSXSXSXSXSXSXSXSXSXSXSXSX",
"SXSXSXSXSXSXSXSXSXSXSXSXSXSXeXm.k.XXA +     o             o o     X 3 0 3 3 N A Y / l         .           o + + = 4 r 6 X Y H.m.MXSXSXSXSXSXSXSXSXSXSXSXSXSXSXSXSXSXSXSXSXSXSXSXSXSXSXSXSXSXSXSXSXSXSXSXSXSXSXSXSXSXSXSXSXSXSXSXSXSXSXSXSXSXSXSXSXSXSXSXSXSXSXSXSXSXSXSXSXSXSXSXSXSXSXSXSXSXSXSXSXSXSXSXSXSXSXSXSXSXSXSXSXSXSXSXSXSXSXSXSX",
"SXSXSXSXSXSXSXSXSXSXSXSXSXSX@Xj.n.I.b                               3 s 3 + l b A / :                       O + @ 4 6 3 3 b H.m.gXSXSXSXSXSXSXSXSXSXSXSXSXSXSXSXSXSXSXSXSXSXSXSXSXSXSXSXSXSXSXSXSXSXSXSXSXSXSXSXSXSXSXSXSXSXSXSXSXSXSXSXSXSXSXSXSXSXSXSXSXSXSXSXSXSXSXSXSXSXSXSXSXSXSXSXSXSXSXSXSXSXSXSXSXSXSXSXSXSXSXSXSXSXSXSXSXSXSXSXSX",
"SXSXSXSXSXSXSXSXSXSXSXSXSXiX.X! k.H.3                         o X   @ 0 : o b A C W O                       @ + @ = 3 5 5 9 H.H.gXSXSXSXSXSXSXSXSXSXSXSXSXSXSXSXSXSXSXSXSXSXSXSXSXSXSXSXSXSXSXSXSXSXSXSXSXSXSXSXSXSXSXSXSXSXSXSXSXSXSXSXSXSXSXSXSXSXSXSXSXSXSXSXSXSXSXSXSXSXSXSXSXSXSXSXSXSXSXSXSXSXSXSXSXSXSXSXSXSXSXSXSXSXSXSXSXSXSXSXSX",
"SXSXSXSXSXSXSXSXSXSXSXSXSXkXM.M Q I.+ o                       o @ o X 0 : X C C S / :                       o @ + + 6 0 + l H.k.=XSXSXSXSXSXSXSXSXSXSXSXSXSXSXSXSXSXSXSXSXSXSXSXSXSXSXSXSXSXSXSXSXSXSXSXSXSXSXSXSXSXSXSXSXSXSXSXSXSXSXSXSXSXSXSXSXSXSXSXSXSXSXSXSXSXSXSXSXSXSXSXSXSXSXSXSXSXSXSXSXSXSXSXSXSXSXSXSXSXSXSXSXSXSXSXSXSXSXSXSX",
"SXSXSXSXSXSXSXSXSXSXSXSXSXkXM.U U L.b                         o   @ X 0 : O D b Y W 3                         o @ @ 0 l o A H.Q @XSXSXSXSXSXSXSXSXSXSXSXSXSXSXSXSXSXSXSXSXSXSXSXSXSXSXSXSXSXSXSXSXSXSXSXSXSXSXSXSXSXSXSXSXSXSXSXSXSXSXSXSXSXSXSXSXSXSXSXSXSXSXSXSXSXSXSXSXSXSXSXSXSXSXSXSXSXSXSXSXSXSXSXSXSXSXSXSXSXSXSXSXSXSXSXSXSXSXSXSX",
"SXSXSXSXSXSXSXSXSXSXSXSXSXiXM.U A A.B.  X                     o   o o 5 O + Y A W W 0 O                       o o + 0 l o Y C.k.K.SXSXSXSXSXSXSXSXSXSXSXSXSXSXSXSXSX>X,X:X:X,X4XSXSXSXSXSXSXSXSXSXSXSXSXSXSXSXSXSXSXSXSXSXSXSXSXSXSXSXSXSXSXSXSXSXSXSXSXSXSXSXSXSXSXSXSXSXSXSXSXSXSXSXSXSXSXSXSXSXSXSXSXSXSXSXSXSXSXSXSXSXSXSXSXSXSXSXSXSX",
"SXSXSXSXSXSXSXSXSXSXSXSXiXrXM.! n l.XX          o               @   3 3 O 1 / A C n.l   o o                     O 1 9 7 : C.l.~ I.SXSXSXSXSXSXSXSXSXSXSXSXSXSXSXSXg.d.3.4.4.f.f.:X:X1X5XSXSXSXSXSXSXSXSXSXSXSXSXSXSXSXSXSXSXSXSXSXSXSXSXSXSXSXSXSXSXSXSXSXSXSXSXSXSXSXSXSXSXSXSXSXSXSXSXSXSXSXSXSXSXSXSXSXSXSXSXSXSXSXSXSXSXSXSXSXSXSXSXSX",
"SXSXSXSXSXSXSXSXSXSXSXSXiXeXN.m.U l =XS                     o X   X 3 + : W A C Q / C 3   O   o   o               + l o ) _ S v.'.SXSXSXSXSXSXSXSXSXSXSXSXSXSXSXSX*...3.1.f.2.f.-X-X-X1X1XbXSXSXSXSXSXSXSXSXSXSXSXSXSXSXSXSXSXSXSXSXSXSXSXSXSXSXSXSXSXSXSXSXSXSXSXSXSXSXSXSXSXSXSXSXSXSXSXSXSXSXSXSXSXSXSXSXSXSXSXSXSXSXSXSXSXSXSXSXSXSXSX",
"SXSXSXSXSXSXSXSXSXSXSXSXiX#XN.m.Q U A A.5         o o           o X + 7 C A A n A Q k.7 X X o                 o : O 7 9 C.~ ( F ~.SXSXSXSXSXSXSXSXSXSXSXSXSXSXSXSX] ..=...=.2.2.4.h.-X:X;X4X<X0XhXSXSXSXSXSXSXSXSXSXSXSXSXSXSXSXSXSXSXSXSXSXSXSXSXSXSXSXSXSXSXSXSXSXSXSXSXSXSXSXSXSXSXSXSXSXSXSXSXSXSXSXSXSXSXSXSXSXSXSXSXSXSXSXSXSXSXSXSX",
"SXSXSXSXSXSXSXSXSXSXSXkXuX@Xm.k.k./ W / ` +   o       o o       o   + C U 7 A A U U W l.+         o             : o 7 Y Y S ~ :.SX4X3XSXSXSXSXSXSXSXSXSXSXSXSXSXSXSX .} } } } h.p.p.f.f.f.-X-XqX0XvXAXSXSXSXSXSXSXSXSXSXSXSXSXSXSXSXSXSXSXSXSXSXSXSXSXSXSXSXSXSXSXSXSXSXSXSXSXSXSXSXSXSXSXSXSXSXSXSXSXSXSXSXSXSXSXSXSXSXSXSXSXSXSXSXSXSXSX",
"SXSXSXSXSXSXSXSXSXSXSXiXyX#XN.U ! A Q ) _ S.3   @       o         o l D l W U Q Q W U W B.9 X                 o   9 A Y R H v %Xd.>XE.E.;X;X,X4X4XSXSXSXSXSXSXSXSXSX,.%.] { { } 2.3.f.h.-X-X1XqXqXbXbXZXSXSXSXSXSXSXSXSXSXSXSXSXSXSXSXSXSXSXSXSXSXSXSXSXSXSXSXSXSXSXSXSXSXSXSXSXSXSXSXSXSXSXSXSXSXSXSXSXSXSXSXSXSXSXSXSXSXSXSXSXSXSXSXSXSX",
"SXSXSXSXSXSXSXSXSXSXSXiXeX.Xj.M m A A b C b R Y , @ o   o   o o 3 S W U / n.k.m.m.Q U U A ) l o o o         o + l _ B.l.S.^ F.F.d.1...2.4.h.-X-X:X:X:X<X4XSXSXSXSXSXSXSXd.%.*.*.=.3.h.4.-X-X<X1XqX0XbXnXNXSXSXSXSXSXSXSXSXSXSXSXSXSXSXSXSXSXSXSXSXSXSXSXSXSXSXSXSXSXSXSXSXSXSXSXSXSXSXSXSXSXSXSXSXSXSXSXSXSXSXSXSXSXSXSXSXSXSXSXSXSXSXSXSX",
"SXSXSXSXSXSXSXSXSXSXSXrXeXM.j.M n b 9 b C b 7 N C S R Z C Z H Y ( A.C.C.XXK.+X+X+XXXI.Q Q A ~ A.l./ S B B r 8 7 7 l C / B.V.*XO.>.$.*.*.{ { 2.4.4.;X-X-X5X0XvXnXhXSXSXSXSXSXSX3.2.=.=.2.2.f.<X<X1X0XbXnXnXNXSXSXSXSXSXSXSXSXSXSXSXSXSXSXSXSXSXSXSXSXSXSXSXSXSXSXSXSXSXSXSXSXSXSXSXSXSXSXSXSXSXSXSXSXSXSXSXSXSXSXSXSXSXSXSXSXSXSXSXSXSXSXSX",
"SXSXSXSXSXSXSXSXSXSXkXyX@XK.j.M n k l 2 b 0 Z l S v.Z.v.~ R R S Y Y _ l._ I.XXXXI.L.A.A.A.A.U.A.A.C.B.V.V.~ 0 @ 3 1 , 3 8 r B O.| o.[ ' %.%.$.2.3.4.4.:X<X0X0XvXbXSXSXSXSXSXSXSXb.=.=.d.i.2.;X:X4X9XbXnXnXnXSXSXSXSXSXSXSXSXSXSXSXSXSXSXSXSXSXSXSXSXSXSXSXSXSXSXSXSXSXSXSXSXSXSXSXSXSXSXSXSXSXSXSXSXSXSXSXSXSXSXSXSXSXSXSXSXSXSXSXSXSXSXSX",
"SXSXSXSXSXSXSXSXSXSXyXyX.XM.z.M n l 1 7 l 0 C Z.U.B.R Z C c C C B 0 0 7 C ( L.$X=XXX$X$X}.P.G.D.;.9.` V.P.V.N $ , : : 7 7 7 8 4 +.' o.h $. ...=.2.2.4.:X1X1XqX0XvXbXhXSXSXSXSXSXSXSX+.&.*.i.f.;X;X,X&.G V.P.;.SXSXSXSXSXSXSXSXSXSXSXSXSXSXSXSXSXSXSXSXSXSXSXSXSXSXSXSXSXSXSXSXSXSXSXSXSXSXSXSXSXSXSXSXSXSXSXSXSXSXSXSXSXSXSXSXSXSXSXSXSXSX",
"SXSXSXSXSXSXSXSXSXSXyXeX.XM.j.U A 1 l 3 : C I.U.v.~ Y Y Z C C N c c c 8 8 Z L.aXdXaXaX$XD.F.P._._.9.P.D.P.P.r @ 3 3 : 3 7 < 8 r y T.h ' |  .1...{ { h.:X:X1X1XqX0XvXbX9XSXSXSXSXSXSXSX<.&.%.2.*.u g 4 r W _ P -.E.<XvX9XSXSXSXSXSXSXSXSXSXSXSXSXSXSXSXSXSXSXSXSXSXSXSXSXSXSXSXSXSXSXSXSXSXSXSXSXSXSXSXSXSXSXSXSXSXSXSXSXSXSXSXSXSXSXSXSXSX",
"SXSXSXSXSXSXSXSXSXSXyX=XM.j.j.n k l l 7 C XX$XL.C.v.( / Y Z Z Z B c B c 8 Z Z.=XOXv.^ s ^ }.}.9.9.P.P.V L V.S 3 , , : : 7 < < 8 E F.`.O.O.+. ...*.} { -X:X5X<X4XhXhXnXnXsXSXSXSXSXSXSXSX&.a.] q w 4 8 Z / l.v.^ >.=.3X4X4XhXhXSXSXSXSXSXSXSXSXSXSXSXSXSXSXSXSXSXSXSXSXSXSXSXSXSXSXSXSXSXSXSXSXSXSXSXSXSXSXSXSXSXSXSXSXSXSXSXSXSXSXSXSXSXSX",
"SXSXSXSXSXSXSXSXSXrXyX@XM.k.U U C l 1 A $X*X$XI.J.Z.v.( Y Z Z Z Z S Z B c R J.( 4 o 8 B P.aX%X^ P.aXlXP.0 N _ 6 7 7 7 , 8 8 8 8 E OX%X2X8X|  .] [ } } 2.4.;X;X;XE.<.F.G e.G B SXSXSXSXSXq.%.g t 4 < 7 l C Y C._ P f |.,X4X0XvXAXNXSXSXSXSXSXSXSXSXSXSXSXSXSXSXSXSXSXSXSXSXSXSXSXSXSXSXSXSXSXSXSXSXSXSXSXSXSXSXSXSXSXSXSXSXSXSXSXSXSXSXSXSX",
"SXSXSXSXSXSXSXSXSXrXyX@Xm.k.! n A b 0 U.rXdXtX$XZ.C.v.( ~ R Y Z Z R R Z C / &X( @ 8 _ r 6 D.aXzXCXCX&X^ V r D.Z , 7 8 7 8 c r c Z Z.8XjXsXsX`.| X.o.o...2.E.E.3.] y :.E L P C Y j.SXSXSXy.X.w < , 3 7 7 l N _ / ) L 9.|.3X9XqXbXnXnXSXSXSXSXSXSXSXSXSXSXSXSXSXSXSXSXSXSXSXSXSXSXSXSXSXSXSXSXSXSXSXSXSXSXSXSXSXSXSXSXSXSXSXSXSXSXSXSXSXSXSX",
"SXSXSXSXSXSXSXSXSXiXeX.XN.k.M U l l l.aXzXzXfX=XJ.Z.v.( ~ R R Y Z Y R R Z v.aXv.7 B _ r $ s ;.P.P.( c 3 B _ A.v.7 7 Z Z c B B Z ( J.*XlXaX8XSXSX^ J +.' } $.y ' t F r r C 0 l A l C SXSXSXF , < : 3 5 3 6 3 l b 3 Y ^ |.3X4X<X2.=.>.%XSXSXSXSXSXSXSXSXSXSXSXSXSXSXSXSXSXSXSXSXSXSXSXSXSXSXSXSXSXSXSXSXSXSXSXSXSXSXSXSXSXSXSXSXSXSXSXSXSXSX",
"SXSXSXSXSXSXSXSXSXyXwXM.m.! U A b l $XgXZXfXgX&XU.L.S.v.~ Y Y Y Y Y Y / / U.rX~ 3 c R B 8 , $ 3 3 8 4 $ R v.S.$XS 7 c B 8 B B R v./ S.*X2XaXsXSXSXSXJ h [ o.q w r r B 0 W A 2 b s ; ; SXSX+ 7 + : X = = ; ; 4 6 C 5 N ;.2XT.d.u G G ^ Z v SXSXSXSXSXSXSXSXSXSXSXSXSXSXSXSXSXSXSXSXSXSXSXSXSXSXSXSXSXSXSXSXSXSXSXSXSXSXSXSXSXSXSXSXSXSXSXSX",
"SXSXSXSXSXSXSXSXSXyX@Xj.m.U U A l n.rXgXlXxXaX$XXXU.L.A.B.( / ~ / l./ / ( =X=XS 0 c B c Z B 8 8 8 7 B l / C.S I.$XY B B B ~ ;.J.C.v.V.}.$X%X2XSXSXSXSXj j h q 4 r N 4 N 1 9 b 5 = # ; 6 0 + : : , o = = # ; = = = r c 4 P P % t d V c Z ^ Z SXSXSXSXSXSXSXSXSXSXSXSXSXSXSXSXSXSXSXSXSXSXSXSXSXSXSXSXSXSXSXSXSXSXSXSXSXSXSXSXSXSXSXSXSXSXSX",
"SXSXSXSXSXSXSXSXyXuX.XM.! U A A 0 I.=XaXaX*XOX$X$XOX$XU.J.B._ _ ( _ v.v.I.&XA.C c C 0 8 Z R R c c Z R c / l./ A.$XA.;.( ;.J.'.$XU.L.S.U.U.$X%XSXSXSXSXg h t # , 7 l 6 6 9 9 9 1 ; = 3 7 7 7 3 $ : 8 X + 5 & = = = 6 4 N s _ L 5 b b C l J H F.SXSXSXSXSXSXSXSXSXSXSXSXSXSXSXSXSXSXSXSXSXSXSXSXSXSXSXSXSXSXSXSXSXSXSXSXSXSXSXSXSXSXSXSXSXSX",
"SXSXSXSXSXSXSXSXuXuX.Xm.U M C 9 C U.=X$X=X$XOXU.U.*XaX=X=XU.I.C.L.B.J.L.OXOXv.8 B S c 0 C Y / / R Z R R ( l./ l._ J.U.B.D.*XaXtX&X$XL.A.L.G.'.SXSXSXSX;.w # r 8 7 0 0 0 0 i p p 0 6 8 7 9 7 5 5 S ~ 0 7 5 X = = 0 4 4 6 N ~ / b b 9 k 0 B F u.SXSXSXSXSXSXSXSXSXSXSXSXSXSXSXSXSXSXSXSXSXSXSXSXSXSXSXSXSXSXSXSXSXSXSXSXSXSXSXSXSXSXSXSXSXSX",
"SXSXSXSXSXSXSXSXiX=XM.m.! b l 0 Y XX$XI.U.'.U.P.*XzXzXaX$X=X$X=XOXOX&XOXU.A.S , B S Z c Z R R ( ( Z R R ( v.Z.v._ R A.*X&XsXzXsXtX$XL.V.D.0.D.tXSXSXSXSX< 4 4 @ , = 9 1 3 0 3 0 5 5 3 : , + + & X 5 1 3 0 7 l C C 0 s 0 5 5 0 3 3 3 = 6 s B I SXSXSXSXSXSXSXSXSXSXSXSXSXSXSXSXSXSXSXSXSXSXSXSXSXSXSXSXSXSXSXSXSXSXSXSXSXSXSXSXSXSXSXSXSXSX",
"SXSXSXSXSXSXSXSXiX=XK.k.U n A 0 ~ U.J.U.D.U.J.U.tXlXCXxXaXaXaXaXtXaX*XU.v.~ 8 8 Z S R S / / C R v.R R R ( l.A./ ~ R _ &X*XsXsXsXtX$XU.V.;.P ;.&XSXSXSXSXz < @ 8 $ 3 5 & 3 7 3 8 3 3 3 , $ @ X * X 4 3 9 7 1 3 1 0 0 i C 5 7 7 7 8 6 6 s N C L SXSXSXSXSXSXSXSXSXSXSXSXSXSXSXSXSXSXSXSXSXSXSXSXSXSXSXSXSXSXSXSXSXSXSXSXSXSXSXSXSXSXSXSXSXSX",
"SXSXSXSXSXSXSXSXyX.Xm.m.! k b N ~ A.;.S.;.A.Z.'.*XxXzXlXsXdXaXzXdX&XJ._ r 0 8 B S S R R ( ~ Z R ( ( ( ( l.l.B.S R ^ ^ B.V.L.'.*X%X'.L.V.V P :.OXSXSXSXSX7 < 7 + + 7 & & 3 5 0 0 3 3 3 < < $ + * * & & & 3 1 7 7 1 1 1 0 0 c 8 < z k 5 s 0 C D SXSXSXSXSXSXSXSXSXSXSXSXSXSXSXSXSXSXSXSXSXSXSXSXSXSXSXSXSXSXSXSXSXSXSXSXSXSXSXSXSXSXSXSXSXSX",
"SXSXSXSXSXSXSXSXeX.Xm.! M n b 0 H B._ ~ ( ;.Z.L.OX*XaXdXzXzXCXzX$X( ^ R B H ;.c B Z R ( / R Z R Z ( _ ( B.C.B.Z S H D.J.U.V.D.P.'.V.;.V.g I ^ $XSXSXSXSXz @ X + @ 3 X & = = 7 7 3 , : + + + + + X X X @ X + + : : + 3 X 5 , 7 , 7 7 7 0 6 N A c.SXSXSXSXSXSXSXSXSXSXSXSXSXSXSXSXSXSXSXSXSXSXSXSXSXSXSXSXSXSXSXSXSXSXSXSXSXSXSXSXSXSXSXSXSX",
"SXSXSXSXSXSXSXiXeXM.j.! T k 9 i Z _ ^ S ~ ~ ;.;.D.OX$X*XsXzXzX&X;.^ V.Z.V.P.U.H 8 c Z ( ( Y Z C R ( v.l.v.C.B.C Z Z.OX;.U.'.P.'.|.e.F ` g f H &XSXSXSXSX< 7 1 3 3 , , $ 3 1 1 1 3 , @ X X + : : : X + + + + X o + + 5 X 3 @ 3 5 5 5 9 0 0 D A z.SXSXSXSXSXSXSXSXSXSXSXSXSXSXSXSXSXSXSXSXSXSXSXSXSXSXSXSXSXSXSXSXSXSXSXSXSXSXSXSXSXSXSXSXSX",
"SXSXSXSXSXSXSXkXeXK.j.M M k k 0 C ~ B N r B S H ^ ;.J.OX*XzXsX'.V.P.P.P.F.F.V.F.c r Z ( / R R c B Z _ v.B.A.C.C R '.aX$XA.U.D.^.`.F.g t f f L &XSXSXSXSXSXSX+ + + + , + : 1 O : : @ . X X & : : : @ + X X + + + @ + + + & + * & * & 7 7 6 6 0 Q SXSXSXSX,X;X:X<X9XhXZXSXSXSXSXSXSXSXSXSXSXSXSXSXSXSXSXSXSXSXSXSXSXSXSXSXSXSXSXSXSXSXSXSXSX",
"SXSXSXSXSXSXSXyXeXM.Q A n k k 9 l ( B r r 4 V B S Y _ A.$X*X%X;.G.^.F.e.t.r.e.F.:., B ( l.( Z Z Z v Z C.Z.C.S.S S *XzX$X$X$XP.P.`._.d % e ; 0.SXSXSXSXSXSXSX7 + + 3 : + : + + 3 + o + + X + 3 o o + + X X + + + X X + + 3 + 5 5 = 3 3 1 0 & 5 i l SXSX'.Q.,X,X,X9XAXnXCXSXSXSXSXSXSXSXSXSXSXSXSXSXSXSXSXSXSXSXSXSXSXSXSXSXSXSXSXSXSXSXSXSX",
"SXSXSXSXSXSXSXyX@Xm.! m n b k k N R N e e t 6 s 0 C S ) B.P._.e._.`.W.r.t.w.q.F.F.J 4 Z l.( R Z Z Z Z ( l.C.S.B ~ $XaX$X*X2X}.P.!.!.:.% ; f U.SXSXSXSXSXSXSX> : : + X + : : +   + + + X X + + X + + X X X + + : 3 + + + 3 3 0 0 Z N 7 1 1 5 3 = 6 e w h @.s.d.hXbXbXbXCXSXSXSXSXSXSXSXSXSXSXSXSXSXSXSXSXSXSXSXSXSXSXSXSXSXSXSXSXSXSXSXSXSX",
"SXSXSXSXSXSXSXyX.Xm.Q n n k k 9 8 B H e 4 e % e 6 D V S H ;.P.^.}._.W.t.t.w.q.e.F.V.r 8 ( l.R R Z Z Z Z R v.B.c Z '.aX$X2X2X%XP.P.|.9.4 e S SXSXSXSXSXSXSXSXSX7 7 X X X o + 3 + X + X o + + X + + X X + : : 3 5 + + + 3 5 3 3 0 N s 0 i 3 i 9 3 6 6 V t t | g  .} ,XnXnXNXSXSXSXSXSXSXSXSXSXSXSXSXSXSXSXSXSXSXSXSXSXSXSXSXSXSXSXSXSXSXSXSX",
"SXSXSXSXSXSXkXeXK.m.Q C C k 7 0 5 0 ` e - - - - 6 e r d V P F.`.}.^.!.W.t.w.w.>.-.9.^ 0 Z v.R Z c Z Z Z Z ( _ Z 8 V.2XD.*XaXtX'.P.^._.V $ l.SXSXSXSXSXSXSXSXSX> + X + + X X + + X X o X + X + 3 5 3 3 3 + X + 5 + + 5 0 C 3 X 7 s V 5 i 5 1 1 9 + 0 r e e t t G  .<.F.nXxXSXSXSXSXSXSXSXSXSXSXSXSXSXSXSXSXSXSXSXSXSXSXSXSXSXSXSXSXSXSXSXSX",
"SXSXSXSXSXSXkX@XM.k.W b n k 9 l l 5 J B - - - % = - - e t g e.!.|.`.`./.s.w.w.&.q.-.-.F r ^ ( Z C Z Z R S S Y C B B.*XV.$XtXaX*X_.F.%XD.Y SXSXSXSXSXSXSXSXSXSXSX, = + X & + X X + X o + o + 8 3 5 5 3 + X X 3 N 5 X 0 N ~ 3 X 6 0 S 3 K _ 9 1 9 9 0 C S Z r r r J J :.V.%XSXSXSXSXSXSXSXSXSXSXSXSXSXSXSXSXSXSXSXSXSXSXSXSXSXSXSXSXSXSXSXSX",
"SXSXSXSXSXSXuXeXH.) W n n l l l 0 4 L F.r - # # % = - e - f q.^.|.}.}./.T.s.s.w.r.q.-.-.B r ;.~ R Z Z Y S C c l C v.$XJ.P.*XaXsX}._.}.2XSXSXSXSXSXSXSXSXSXSXSXSX: = +   + X X 5 + X o + o + l 3 X + 3 7 + + 5 N 0 X 0 0 Z + X 0 0 Y + N _ 0 l W A b W N C / C 8 v E Z P 9.$XSXSXSXSXSXSXSXSXSXSXSXSXSXSXSXSXSXSXSXSXSXSXSXSXSXSXSXSXSXSXSX",
"SXSXSXSXSXSXrXeXK.) W M m k k 9 + s D.'.H 4 # # # % ; % # e q.!._.}.|.`.W.W.g.t.r.r.-.e.P r L _ ~ Z B c B C l 0 0 Z S B.J.*X*XaX*X}.}.sXSXSXSXSXSXSXSXSXSXSXSXSXo o + + X o o X : 3 X X + 3 N 3 X 3 0 5 3 X + 3 0 X 3 3 0 5 + 5 5 D & i Y l : b l.: k.C.k W n.C v 8 B P ` &XSXSXSXSXSXSXSXSXSXSXSXSXSXSXSXSXSXSXSXSXSXSXSXSXSXSXSXSXSXSXSX",
"SXSXSXSXSXSXpX@XK.! U M m m l 9 + S }.S.^ r $ . % # % % # t e.G.^.%X%X|./.W.s.t.w.r.>.@.9.P V ^ R S C 8 8 C C c c R B ( v.U.*XtXsX}.|.8XfXSXSXSXSXSXSXSXSXSXSXSXSX+ + + X + : @ 5 N + X 3 0 N 5 X + 3 : + + 3 5 0 + 3 0 0 C 3 3 b D + 9 C ~ 7 0 B.0 C l.b W C./ T l 6 V B.=XSXSXSXSXSXSXSXSXSXSXSXSXSXSXSXSXSXSXSXSXSXSXSXSXSXSXSXSXSXSXSX",
"SXSXSXSXSXkXeX.XK.Q ! M 2 m n 3 = 0.$XV.^ L r $ . . # - . F 9.G.!.^.|.|.|.Q.Q.g.s.w.w.>.-.:.F F ( R r Z N N C c C Z ( l._ U.=XtXdXfX}.*XdXgXSXSXSXSXSXSXSXSXSXSXSXo 7 : : + o + 5 S = o = + 0 0 X 3 3 + + + + 5 N 3 + ~ N Z 3 3 5 D 1 1 N Z 0 l l.0 0 / b C / C.l.Y 6 s / =XSXSXSXSXSXSXSXSXSXSXSXSXSXSXSXSXSXSXSXSXSXSXSXSXSXSXSXSXSXSXSX",
"SXSXSXSXSXiXeX.XH.k.T M M m 1 $ e 9.%XD._ ^ ;.H 6 $ . . # P 9.e.^.^.|.|.|.Q.Q.Q.s.s.w.q.q.-.P F H ~ Z c 8 l 0 8 l C ( v.l.C.U.*XdXfX%X*X2XfXSXSXSXSXSXSXSXSXSXSXSXo 2 : > : : : : N + X = = 6 3 X X + + + X X 3 0 0 3 0 0 C 5 & 9 9 1 1 b S 7 8 l.C c C / 0 Z _ / n.W 0 ) XXSXSXSXSXSXSXSXSXSXSXSXSXSXSXSXSXSXSXSXSXSXSXSXSXSXSXSXSXSXSXSX",
"SXSXSXSXSXyXrXM.N.k.M M T b 0 % h _.%XV.V.~ ~ S S N = # - :.9.F.!.W./.`.`.~./.Q.W.Q.s.q.y.y.-.F F ^ ^ N 8 8 8 0 8 C R R ( ( Z.$XdXdX*X*X8XsXgXSXSXSXSXSXSXSXSXSXSXSX> > <   7 o + 5 + X + 3 5 + X X + : 3 + X + 3 C 3 + 0 0 3 + 1 k 9 o l ~ 3 N R S , V ( s N ` i _ A./ A.H.SXSXSXSXSXSXSXSXSXSXSXSXSXSXSXSXSXSXSXSXSXSXSXSXSXSXSXSXSXSXSX",
"SXSXSXSXSXiX#XK.! ) ! ! k l e % h T.`.e.P.;.L S V S V V H 9.;.9.W.s.W.!./.!./.Q.Q.).s.w.w.q.q.P F J _ B r 8 8 l c Z C Z / ( _ XXtXsXfX$X&XfXaXSXSXSXSXSXSXSXSXSXSXSX: 7 : o : o + + + X X = = + X X X + 3 + X X 3 C 3 + 0 7 5 & 9 1 b 9 9 C 7 0 S Z 3 N ` 0 S ` ` N / I.Y m.SXSXSXSXSXSXSXSXSXSXSXSXSXSXSXSXSXSXSXSXSXSXSXSXSXSXSXSXSXSXSX",
"SXSXSXSXSXyX#XN.m.A n U A N q q *.$.~.F.D.D.0.L V S V F F P P e.W.t.s.W.^.!./.~.W.).s.s.w.q.q.:.P V ^ H B 8 c B c Z C R R R S J.*XdX2X%X}.*XfXaXSXSXSXSXSXSXSXSXSXl , 3 + + X X + X = + X + + 3 X o o X : + o X 5 N 3 + 5 0 N 5 3 l S 0 3 D C + Z S 5 N ~ b C ~ S.s z.z.S.C.SXSXSXSXSXSXSXSXSXSXSXSXSXSXSXSXSXSXSXSXSXSXSXSXSXSXSXSXSXSXSX",
"SXSXSXSXiXeX#Xm.W W Y C 8 F % 3X,X2.d.<.G.$X0.S L S V V V V P F.s.w.t.T.^.^.`.!.Q.~.Q.s.s.w.>.>.-.V H ^ J c c B S l.l.R R B.v.V.L.2XfX%X}.2XsXdXSXSXSXSXSXSXSXSXSXY + X + + X X X X = 3 + + + + X X o X + + X X 3 0 5 + + 0 Z 0 + l / S 0 C _ 0 0 / 0 b S W 3 ~ L 1 Y C.i U.SXSXSXSXSXSXSXSXSXSXSXSXSXSXSXSXSXSXSXSXSXSXSXSXSXSXSXSXSXSXSX",
"SXSXSXSXpXeX.Xm.) N Z Z v t 3X9X4X;X3.o.`.*XV.L S V H P P F P e.t.7.w.t.^.!._.!.W.Q.Q.Q.s.s.,.q.:.H B H H Z r 8 c / v.Z R v.Z._ P.&X2X2X}.}.aXMXSXSXSXSXSXSXSXSXH.+ + & . = . X . X + 3 3 + + : X + X X : 3 : + + 5 0 3 X 3 0 C Z o N B.C 9 _ / 0 A W 9 / W 9 W ) c / l.5 C.SXSXSXSXSXSXSXSXSXSXSXSXSXSXSXSXSXSXSXSXSXSXSXSXSXSXSXSXSXSXSX",
"SXSXSXSXyXeXN.N.Y Z C Y r 3X4X9X5X<Xf.*.T.%XS.S S V V d f d P e.w.%.q.r.W.!.^.W.W.Q.).Q.Q.Q.w.q.O.-.V J ^ ~ c 8 8 c Z.v.v.( Z.V.0.U.2XfX%X$XsXgXcXSXSXSXSXSXSXSXT 6 + + +   + X X X X 3 3 + + : X + X o + 3 3 + X 3 5 0 + X + Z C C + 3 l.C 9 / Y A l.A U k.n Y / N Y l.S / C.SXSXSXSXSXSXSXSXSXSXSXSXSXSXSXSXSXSXSXSXSXSXSXSXSXSXSXSXSXSX",
"SXSXSXSXyX@XM.k.Q n U U 0 w ,X0X5X<Xf.3.r.%XS.~ H H H V B r J F.y.&.q.r.T.W.W.W.Q.Q.Q.Q.~.Q.s.w.-.| P F J ^ Z 8 8 8 v.v.E E S ~ l.B.'.fXsX}.*XsXzXSXSXSXSXSXSXSXc 6 $ X X = X @ o O X X + + O @ + + X X X 3 3 + X + 3 0 5 + + 5 0 D 5 3 0 ~ b 5 C n./ ) A C.U Y _ Y A z.T Y J.I.SXSXSXSXSXSXSXSXSXSXSXSXSXSXSXSXSXSXSXSXSXSXSXSXSXSXSXSXSX",
"SXSXSXkXyX#XK.k.Y T M M 0 e ;X0X1X<X;X3. .|.P.^ S S L S B d F e.e.>.q.r.s.W.Q.Q.Q.W.W.Q.~.Q.s.w.@.O.O.F V H S c 8 < Z E E R R / Z.J.OX2XsX2X%X8XzXMXSXSXSXSXSXSXB # = X X @ @ + o + X + + X X @ X + X X X 3 3 3 + + 3 5 5 3 + 3 9 0 0 & 3 D C 3 0 S / ) W l./ 0 ~ _ z j.l.0 _ ) SXSXSXSXSXSXSXSXSXSXSXSXSXSXSXSXSXSXSXSXSXSXSXSXSXSXSXSXSX",
"SXSXSXiXeX.XM.Q U T n m 1 e d.5X<X6X;X4. .F.}.` H L L V d d F -.q.&.q.r.t.s.Q.Q.W.W.W.Q./.~.W.t.>.&.O.G d B ~ B c 8 8 S R S S R ~ V.'.2XsX2X^.*XaXcXSXSXSXSXSXSXR 6 = X + @ @ X + + + X X X X @ X + + X X + 5 5 + + + 5 0 0 5 3 5 0 C 3 + 0 Z s + 0 _ b N Y I.~ ` B.Y A A.C ~ l.SXSXSXSXSXSXSXSXSXSXSXSXSXSXSXSXSXSXSXSXSXSXSXSXSXSXSXSXSX",
"SXSXSXpXwXK.M.k.W n M n X J *.<X5X1X:Xh...h %XG.L S P J d r B :.-.@.>.r.t.t.T.W.W.W.W.W././.W.s.w.&.X.O.V B H B l 0 8 S ~ B s B B R V.2XsX2X_._.aXlXxXSXSXSXSXo H L X + = X + X + + + + X X X @ + + + + X + 3 5 3 + + 3 0 0 6 3 5 7 C 3 + 3 B S 5 0 D _ 0 0 ) B.~ S.B.C A.~ ` l.z.SXSXSXSXSXSXSXSXSXSXSXSXSXSXSXSXSXSXSXSXSXSXSXSXSXSXSXSX",
"SXSXSXyX@XM.m.! W n U k + -.=.4X1X1X6X-X=.y `.}.` S ^ P F s r L @.+.@.w.t.t.s.T.W.W.W.W.~./.!.W.d.*. .+.F r B C 0 0 5 N S C s D V H ^ '.tXtX}.F.}.xXlXSXSXSX< - V V = 5 + o X + O O O + X X X X + + : : + X + 5 0 5 3 3 0 0 5 + 3 8 r 7 , + 0 ~ 0 = 6 ~ ~ + D ~ D i XX/ C.C.Y B.A SXSXSXSXSXSXSXSXSXSXSXSXSXSXSXSXSXSXSXSXSXSXSXSXSXSXSXSX",
"SXSXSXiX@XK.m.m.W Y A 1 c F.$.0XqX7X1X:X3.$.:.'.A.~ ^ P B s s ` :.X.@.q.w.r.s.W.W.Q.W.W.!./.^.W.d.*.$.@.G t r C N 0 1 5 C S V V L H ^ V.*XtX_.G.^.sXxXzXSX% - F 9.s r = X X + X O O O O X X X X X + + 3 3 + + 3 0 0 5 3 5 8 8 + , 8 8 8 5 3 $ Z 3 5 + s S N N ` ` 0 C C./ =XW L.D H.SXSXSXSXSXSXSXSXSXSXSXSXSXSXSXSXSXSXSXSXSXSXSXSXSXSXSX",
"SXSXSXuX.Xm.m.k.Q Q b 1 ^ e.$.0X0XqX5X,XE.e.-.$XU.;.;.P d d D ` @.X.o.>.w.r.s.s.W.Q.W.W.W.^._.~.s.a.*.+.O.F r N Z l 7 + s ` P P :.F H ;.*XaX%Xe.t.|.jXxXt w f g V.` d + + + + X + + + + + + + + X X + 3 3 , + 3 5 0 5 3 3 0 0 7 3 3 6 8 5 3 3 N 5 = 5 N _ 5 5 ~ ) / 5 ) n.Q n.L.n.n.SXSXSXSXSXSXSXSXSXSXSXSXSXSXSXSXSXSXSXSXSXSXSXSXSXSXSX",
"SXSXkXeX.Xm.k.! Q U 9 0 S.<.,.9XvXvX9X4X].t r :.P.;.9.^ V V D P O.' X.>.w.r.t.t.T.Q.W.W.W.!.`./.(.g.w.o.@.O.r r r 0 0 , s ;.:.O.O.:.-.V.'.%X2X:.y.|.sXxX# f I g s P.D $ =   X X + + + + + + + + + + + 3 5 3 + , 8 0 5 + 3 0 0 3 3 + 6 0 $ 3 0 0 5 0 5 l Z 0 3 Y _ K 9 A C.H.A C.U.z.SXSXSXSXSXSXSXSXSXSXSXSXSXSXSXSXSXSXSXSXSXSXSXSXSXSXSX",
"SXSXiX=XK.m.k.Q ! U 1 D P.e.$.,XvXvXbX] g e e B 0.D.0.L V e s P O.| ' +.&.w.w.s.s.Q.W.T.F.!.`./.Q.g.w.&.&.| g t r Z 5 4 r J e.o.' X.O.V.^.%X%X:.q.t.3X% F f I F V 0 = = + X O + + + + + + + : : X X + 3 7 0 5 3 3 8 0 5 3 5 8 5 3 3 6 0 , + 7 7 0 9 N S Y l 3 U ) W 0 S l.l.A l.S.k.SXSXSXSXSXSXSXSXSXSXSXSXSXSXSXSXSXSXSXSXSXSXSXSXSXSXSX",
"SXSXyXeXK.k.U ! U n D 0.G.e.&.*.vXbXy g d r r e B V.0.L V V f P G | | @.&.w.w.s.s.g.Q.W.W.W.^.^.Q.Q.w.*.&.o.G d 4 B r e t G <.a.a.).].~.e.T.].-.-.W.. w :.F I f 6 = + + + X X + + + + + + + : : + + + 3 5 0 5 3 + 8 8 5 3 7 5 5 = + 3 5 3 3 7 0 3 l C ) ~ C 3 Y Y S 0 / C./ C n.` ) z.SXSXSXSXSXSXSXSXSXSXSXSXSXSXSXSXSXSXSXSXSXSXSXSXSXSX",
"SXSXiX@XN.) T T M 9 D 0.e.r.T.a.=.nXG d B Z 3 Z B ;.V.V d d d O.G | | o.@.w.w.d.d.s.W.W.W.W.!.^./.(.s.w.&.&.O.h r r 8 r t !.+.*.=.} =.3.<.[.,X<. .F.% G :.t 4 $ $ $ + + + X X + X O + + + + + , 3 : + 3 5 0 0 5 3 5 0 6 3 3 3 5 5 & 3 5 3 3 5 0 c + 0 A.S l 8 _ Z S c C l.C Y Y ` Y.A SXSXSXSXSXSXSXSXSXSXSXSXSXSXSXSXSXSXSXSXSXSXSXSXSXSX",
"SXSXiXK.N.n.k.U M b s 9.!.T.s.s.R.+.t B 3 0 l r r J D.` L d d I | | ' | @.w.w.w.d.d.s.s.W.T.W.^././.W.s.,.&.&.G e r r r y -.<. .} 2.=...3.3.d.,X| q t - e e 4 , $ = = + X X X X X O + + + + : , 3 3 : 3 5 0 8 5 5 5 5 5 3 3 3 5 5 1 3 5 5 1 3 8 0 8 7 ~ C S N _ ;.B H S Z.~ N 0.0.Y.C C.SXSXSXSXSXSXSXSXSXSXSXSXSXSXSXSXSXSXSXSXSXSXSXSXSX",
"SXSXyX.Xn.l.Q T M b i 9./.s.r.d.e.G d H 0 0 0 5 s 6 9.S.^ V V P P | ' | &.w.w.7.a.w.w.s.s.t.T.W._.`.Q.s.w.*.,.X.G - 6 s 4 <. .$...{ ..2.1...=.&.<.- e 4 # - < , $ + + X X X + X X X + + + + + , 3 3 3 3 3 3 5 6 8 3 3 3 5 3 3 5 3 3 3 5 5 3 5 0 N 5 s ;.s V H V P V ;.'.S.0.0.` B./ / H.z.SXSXSXSXSXSXSXSXSXSXSXSXSXSXSXSXSXSXSXSXSXSXSXSX",
"SXSXyXK.) ) j.T U b 6 #.T.s.Q.s.e.-.t F s 3 3 5 N 4 F V.H V V ;.G G | o.&.&.7.7.7.7.a.s.g.s.T.W._.}./.Q.a.*.,.+.G e s s d - | &. .} ..} ..=.$.o.w - , r = = , , + + + X + + X O X X + + + + + 3 3 3 3 3 3 3 7 5 0 5 3 5 5 3 3 3 7 7 7 7 0 5 6 r 5 6 s 9.F.e.G.|.G.|.|.F.|. X%X%X$X$XI.n.A.6.I.H.z.SXSXSXSXSXSXSXSXSXSXSXSXSXSXSXSXSXSXSXSX",
"SXSXuXM.k.Q z.T T m 6 0.W.s.s.>.e.e.G F V D 5 & 5 4 r :.^ J D L G h | o.&.%.7.i.7.7.a.d.s.g.W.W.P.}./.Q.d.2.*.&.#.f = 6 s t w | o.' $.=.} { ] % # 3 1 & & & : : , : + + + + O O X X + + + + + , 3 3 5 5 3 3 3 7 0 5 3 7 5 3 5 0 l N l 8 8 8 6 6 ^ 9.:.I h X.#.G #.f G.I G.u.f G.0.6.K {.6.G.$XS.n..XoXSXSXSXSXSXSXSXSXSXSXSXSXSXSXSXSXSXSX",
"SXSXSX.Xm.Q T T U A 5 :./.s.d.w.8.q.G P F S i 5 5 6 6 e ^ B V ` #.h h ' &.%.7.i.7.7.7.w.t.s.g.W.G._.`./.Q.w.*.w.@.O.f ; V d t q.h X. . .[ [ u w % = & & & * O : + + + + + X X + X X + + + + + , 3 3 5 5 7 3 3 3 3 3 , 3 3 0 N S N N 8 7 0 0 3 4 d :.d f h 8.#.[ X.j 0.y.8.8.I G.{.G.{.V G.6.0.+Xn.I.K.oXSXSXSXSXSXSXSXSXSXSXSXSXSXSXSXSXSX",
"SXSXSXyXQ U j.U Q l r ^ F.).,.*.8.8.#.F V s C 5 3 5 6 6 N B d P O.| | | X.&.&.7.i.i.a.7.d.s.g.W.W./.`.^.W.t.w.*.*.+.X.w 6 V e e h  .'  .| h # = = = + + + + O O & + + + X X X X X + + + + + + + + 3 5 3 3 5 5 3 3 , 3 3 0 Z S 0 3 5 0 0 0 6 5 = X - G.#.; I y.8.#.u.y.u.y.u.y.G.{.G.G.G.Y. XG.G.G.6.L.K.eXSXSXSXSXSXSXSXSXSXSXSXSXSXSXSXSX",
"SXSXSXSX@XU k M n C c P `.&.i.7.{ %.O.P B s N 0 0 9 3 + 7 r F :.O.| G h X.@.%.&.7.i.i.7.w.t.t.t.W.~.`._.!.F.r.,.*.*.o.h ; B c e | y | ' | % - X = = , $ + + + + + + + + + X X X X + + + + + + + + 3 5 3 3 5 5 3 , + 5 0 0 c 0 3 3 5 6 0 0 6 4 5 # . 0.F.0.u.I 8.I #.0.u.f * {.{.a 0.K {.0.{.{.0.$X` ` 6.K.oXSXSXSXSXSXSXSXSXSXSXSXSXSXSXSX",
"SXSXSXSXSXSXc.j.T k.N ^ D.r.*.%. .&.O.:.F Z Z N 0 9 0 3 5 6 d :.+.| | | X.@.@.&.*.i.i.i.w.d.s.T.Q.!.^._._.W.d.w.*.a.o.#.w r B r | g | ' h G # 5 = + : $ + + + + + + + + + + X X X + + 3 + + + $ , 3 7 3 7 5 5 3 3 3 0 N 0 5 3 + 5 5 0 0 0 0 6 4 = # ; ` 0.f f u.; }.G.G.0.a a 6.f K p ` D p 0.K U.U.B.n.A.I..XSXSXSXSXSXSXSXSXSXSXSXSXSXSX",
"SXSXSXSXSXSXSXSXSXSXSXZ.F.-.%.%. .+.| O.J Z Z l N 0 0 3 = = r ^ :.| | | X.@.%.*.*.2.i.i.w.d.s.W.Q.W.^._.`.^.s.w.*.a.&.@.h t F t t h g h | g - $ & & : , , $ + + + + + + + + + + X + + + + + + 3 $ 3 3 3 7 5 7 3 5 5 0 0 0 5 3 5 5 5 0 0 0 0 0 6 $ 4 6 d 9.g 0.0.s L d V s V s V L K D L D D ~ W _ A.6.$XA.I.Y.+XSXSXSXSXSXSXSXSXSXSXSXSXSX",
"SXSXSXSXSXSXSXSXSXSXSXSX:.q.j o.$. .[  .| J Z c N l 0 3 = = 0 E :.| | h | o.$.*.%.*.i.i.7.w.s.s.W.W.!._.}./.T.d.,.*.*.>.#.g t d e % G ' y g w = + + : , , , $ + + + + X + + + + + X + + + + 3 3 3 3 3 3 3 3 3 3 5 6 6 5 5 5 5 5 0 8 0 0 0 0 0 0 5 + s 5 L V s ; D V V N ~ 0 s 0 N D ~ / ) L.) ) ~ B.I.A.L.6.G.L.SXSXSXSXSXSXSXSXSXSXSXSXSX",
"SXSXSXSXSXSXSXSXSXSXSXSXR :.X.h ] ] [ ' | J ^ Y c l i 6 6 6 0 J O.| | | | o.o.&.%.*.i.7.*.7.w.t.s.T.W.^.`.`.~.s.d.w.&.w.@.O.t d d e q ]  .y y - + & 1 3 , , $ @ + + + + + + + + + + + + + + 3 3 3 3 3 3 3 3 3 3 3 0 5 3 5 0 0 0 0 0 0 0 0 0 0 0 c 7 0 0 D V d D 6 N ) Y _ ~ C S D W W / n.I.n.n.B.XXL._ 6.6.6.K.SXSXSXSXSXSXSXSXSXSXSXSXSX",
"SXSXSXSXSXSXSXSXSXSXSXSXSX( :.f j j j j j h P Z Z C s = = 4 0 L P G X.X.X.o.o.%.%.*.7.i.7.7.w.w.s.W.W.!._.`./.Q.d.w.*.w.+.-.h t f w q q .. .y - = & 1 : , , $ + + + + + + + + + + + + + + + 3 3 , 3 3 3 5 3 3 5 5 0 0 5 0 0 0 0 0 0 0 0 0 0 l l 7 0 3 l 0 3 6 0 N N S C W L.Y S / _ Y A.C.L.C.A.I.B.l.A.B.n.m..X@XSXSXSXSXSXSXSXSXSXSXSXSX",
"SXSXSXSXSXSXSXSXSXSXSXSXSXSXZ P j j y h g G H C N Z V p 0 6 6 V G G X.X.| o.o.%.%.%.*.7.7.7.w.w.s.W.!.!.^.`.`.~.s.w.7.&.o.&.O.t % t q  .5. .+.- = & 1 : + + + + + + + + + + + + + + : : + + + 3 , , 3 3 5 5 5 5 5 0 5 0 0 0 0 N 0 0 8 8 0 0 0 l 0 l C 0 C C N C l l C Z N S l._ ~ W ) W ) Y l.~ _ L.U.L.H.I.M.oXwXSXSXSXSXSXSXSXSXSXSXSXSX",
"SXSXSXSXSXSXSXSXSXSXSXSXSXSXSXH I G F J r J ~ Z N i D 0 7 5 4 F g G g X.| o.o.$.%.%.*.*.7.7.7.w.d.s.W.!.!.`.`./.T.w.w.7.&.&.&.| | q y 5.....+.t 4 + 3 1 O 3 3 & + + + + + + + + + + + + + + + 3 + 3 3 3 3 7 5 5 5 8 0 0 0 0 0 0 0 0 0 0 0 0 0 0 0 N C C S D C N Y D b l l l 0 3 3 3 3 0 C S C N b V Y.n.SXSXSXSXSXSXSXSXSXSXSXSXSXSXSXSXSX",
"SXSXSXSXSXSXSXSXSXSXSXSXSXSXSXSXSXSXSXSXSXSXA.~ D V 6 N 0 c $ P F g G t | +.' %.%.%.%.*.*.*.7.7.7.t.T.W.!._.`./.W.t.w.*.*.*.w.&.+.q  .5...1. .<.4 = 1 1 1 + + O + : 3 $ + + + + + + + + + 3 3 3 + , 3 3 3 5 5 5 5 8 0 0 0 0 0 0 N s 0 0 0 0 0 0 l 0 l N S ~ C _ C 0 5 3 3 9 0 9 0 5 3 3 5 0 C Y / V 5 D K.SXSXSXSXSXSXSXSXSXSXSXSXSXSXSXSX",
"SXSXSXSXSXSXSXSXSXSXSXSXSXSXSXSXSXSXSXSXSXSXSXU 6.0 N l 7 0 r B P g t g h h &.o.%.$.%.&.*.*.*.*.7.w.t.T.^.`.`.`./.s.w.*.*.*.7.>.y y  .....1.<.F.4 4 3 3 3 + 1 5 3 3 3 3 + + 3 3 3 3 1 1 3 3 3 3 3 = 3 3 7 5 5 5 5 8 0 0 0 0 N s N s s s s s 0 0 0 5 N ~ i i 5 5 3 3 5 5 0 5 5 5 9 5 0 N i 0 0 C Z D V ~ z T SXSXSXSXSXSXSXSXSXSXSXSXSXSXSX",
"SXSXSXSXSXSXSXSXSXSXSXSXSXSXSXSXSXSXSXSXSXSXSXl.U / 7 C 8 7 8 8 F d g h y ' ' o.%.%.%.&.*.*.*.i.7.7.w.T.^._._._./.g.d.a.2.*.&.&.u  .5.1.1.1.R.<.t 4 4 4 7 3 + O 3 3 3 3 3 3 3 3 3 3 1 , 3 3 3 3 3 3 3 3 5 5 8 0 5 8 0 0 0 0 N N s s N D D N 0 6 8 ~ N S b 5 5 5 6 6 6 5 5 5 0 i 0 0 0 i s 0 0 b C / Z N / T T SXSXSXSXSXSXSXSXSXSXSXSXSXSX",
"SXSXSXSXSXSXSXSXSXSXSXSXSXSXSXSXSXSXSXSXSXSXSXSXSXSXx z 0 0 3 5 = F g t g h y o.+.@.@.%.&.&.*.a.a.7.w.s.!.^._._.^.W.d.a.i.*.&.*.y  . .1.3.3.R.T.t - r 4 # 5 & 1 1 3 3 3 3 3 3 3 3 3 $ , 3 3 3 $ 3 3 3 5 5 8 0 0 0 0 0 0 0 0 N N N N C C C N 0 0 N 0 0 B.Z 0 C 0 0 0 0 0 0 5 0 i 0 0 9 9 9 0 0 0 W Y / Y / C.T T SXSXSXSXSXSXSXSXSXSXSXSXSX",
"SXSXSXSXSXSXSXSXSXSXSXSXSXSXSXSXSXSXSXSXSXSXSXSXSXSXT 7 l 0 0 = . P F t h t h h X.X.o.@.$.$.*.i.i.7.7.d.T.!.^._././.s.a.2.*.%.*.y <...1.3.3.R.~.y w t t - 4 3 & 3 3 3 3 3 3 3 3 3 3 , 3 3 3 3 3 3 3 5 5 5 8 0 0 0 0 0 0 0 0 N N C C C N N N 0 0 C S 0 X + S C N 0 0 l N l 0 7 0 3 9 0 0 9 9 9 9 0 7 S / ~ ~ W T j.SXSXSXSXSXSXSXSXSXSXSXSX",
"SXSXSXSXSXSXSXSXSXSXSXSXSXSXSXSXSXSXSXSXSXSXSXSXSXSXSX7 C 0 0 = = = F g y g g y h h X.o.o.$.*.*.i.7.i.w.T.!.^._.}./.s.i.2.*.%.&.y ..3.3.d.d.R.~.~.<.t q t 4 = = 3 3 3 3 3 3 3 3 3 3 3 3 3 3 3 3 5 5 5 5 5 5 0 0 0 0 0 0 0 0 N N Z C C C C N N 0 B $ 3 0 0 c 0 B B l 0 0 8 7 0 l 0 0 9 9 7 9 0 b 0 N C C ~ B.n.V S / SXSXSXSXSXSXSXSXSXSXSX",
"SXSXSXSXSXSXSXSXSXSXSXSXSXSXSXSXSXSXSXSXSXSXSXSXSXSXSXz 7 0 5 3 = X # F F y y h h h ' X.o.$.*.*.i.i.i.a.r.W.^._.!./.W.i.2.*.%.&.&.q R.R.3.R.R.].R.].b.R.R.t - 4 4 5 3 3 3 3 3 3 3 3 3 3 3 7 7 5 5 5 5 7 5 5 8 0 0 0 0 0 0 N N C Z Z C Z S Z N 0 3 0 0 0 r 8 0 c c 0 0 8 0 8 7 9 0 7 7 9 0 0 0 0 N 0 C N S C S S.L n.n SXSXSXSXSXSXSXSXSXSX",
"SXSXSXSXSXSXSXSXSXSXSXSXSXSXSXSXSXSXSXSXSXSXSXSXSXSXSXSX5 = 7 7 5 + . P P F y j ' '  .o.o.$.&.,.i.i.i.a.d.s.!././././.s.7.*.*.*.<.y <.~.R.~.].[.[.[.[.E.E.b.u u t = 4 5 3 1 9 1 2 1 3 3 7 7 7 7 7 7 7 5 7 8 0 8 8 0 8 0 0 c N N N Z S S S B N c B N l l l c c c 8 r 0 8 0 0 0 9 9 0 0 0 9 6 0 0 l l l N N C S ~ _ l.T j.SXSXSXSXSXSXSXSXSX",
"SXSXSXSXSXSXSXSXSXSXSXSXSXSXSXSXSXSXSXSXSXSXSXSXSXSXSXSX* 6 7 7 , o = ; P -.@.o.[ [ o.$.%.*.,.,.2.2.*.7.w.t.W.^.G.^.^.W.s.w.*.*.&.3X% ,.3X].R.[.E.E.E.E.3.3.1.1.y - e = & 3 1 7 1 1 3 3 7 7 7 7 7 7 7 7 8 8 0 8 c c c l l N B N N B Z Z C B B B B N l l c c c l r r 8 0 0 9 9 9 9 3 3 5 6 0 0 0 6 0 r B B B D D D / l.H.T SXSXSXSXSXSXSXSX",
"SXSXSXSXSXSXSXSXSXSXSXSXSXSXSXSXSXSXSXSXSXSXSXSXSXSXSXj.V i 0 8 7 c - - - -.o.%.%.%.%.$.%.*.7.7.7.7.7.7.w.r.W.!./././.W.t.w.*.%.,.a.3Xu  .>X>X[.E.E.>X3.3.1.3.5.=.T./.P e - 5 + 3 5 5 5 5 5 5 3 3 3 3 3 5 5 5 5 0 0 0 0 0 0 0 0 N N N N N C C C D N N N N N 0 0 0 0 0 0 0 9 9 9 0 9 5 6 6 4 4 - w t g g f f f f d V S n.H.M.SXSXSXSXSXSXSX",
"SXSXSXSXSXSXSXSXSXSXSXSXSXSXSXSXSXSXSXSXSXSXSXSXSXSXSXA 7 o X 8 8 + $ # e F.F.s.w.7.w.7.i.i.i.i.7.7.*.7.w.t.s.W./././.W.t.w.7.7.%.*.3.9X] ] d.,X>X3.E.3.E.3.q 3.3.R.w.!.^.t = 6 = 3 5 3 3 = = = 3 3 5 5 5 5 0 0 0 0 0 0 0 N N N N i N N C D C N 0 0 0 0 0 0 0 0 0 0 0 9 0 0 9 9 5 5 6 4 4 - e g o.$.%.o.[ X.h h f B D i K Q oXSXSXSXSXSXSX",
"SXSXSXSXSXSXSXSXSXSXSXSXSXSXSXSXSXSXSXSXSXSXSXSXSXSXn 7 : 9 3 + o < - . % % !.>.e.w.w.w.7.8.7.7.i.*.=.*.*.w.d.s.(.(.(.(.g.a.i.*.&.&.w.=.,.R.=.5.] =.3.......3.2.d.,.T.].!.F.D.= = & & & & * * & + + + & & & 3 5 3 5 6 5 0 0 0 0 0 6 0 0 i p 0 0 0 6 i p 0 p 0 5 5 3 3 1 1 1 1 & 5 5 5 4 4 e P e.R.E.E.f.).R.*.| J E t v V V Z oXSXSXSXSXSX",
"SXSXSXSXSXSXSXSXSXSXSXSXSXSXSXSXSXSXSXSXSXSXSXSXSXSXSXSXSXSXSXSXSXSXSXSXSXSXSXSXSXSXSXSXSXSXSXSXSXSXSXSXSXSXSXSXSXSXSXSXSXSXSXSXSXSXSXSXSXSXSXSXSXSXSXSXSXSXSXSXSXSXSXSXSXSXSXSXSXSXSXSXSXSXSXSXSXSXSXSXSXSXSXSXSXSXSXSXSXSXSXSXSXSXSXSXSXSXSXSXSXSXSXSXSXSXSXSXSXSXSXSXSXSXSXSXSXSXSXSXSXSXSXSXSXSXSXSXSXSXSXSXSXSXSXSXSXSXSXSXSXSXSXSXSX",
"SXSXSXSXSXSXSXSXSXSXSXSXSXSXSXSXSXSXSXSXSXSXSXSXSXSXSXSXSXSXSXSXSXSXSXSXSXSXSXSXSXSXSXSXSXSXSXSXSXSXSXSXSXSXSXSXSXSXSXSXSXSXSXSXSXSXSXSXSXSXSXSXSXSXSXSXSXSXSXSXSXSXSXSXSXSXSXSXSXSXSXSXSXSXSXSXSXSXSXSXSXSXSXSXSXSXSXSXSXSXSXSXSXSXSXSXSXSXSXSXSXSXSXSXSXSXSXSXSXSXSXSXSXSXSXSXSXSXSXSXSXSXSXSXSXSXSXSXSXSXSXSXSXSXSXSXSXSXSXSXSXSXSXSXSX"
};
