/* XPM */
static const char *xpm__11_sgun_startreload1[] = {
/* columns rows colors chars-per-pixel */
"128 154 256 2 ",
"   c #0B0503",
".  c #0C0A05",
"X  c #060B0B",
"o  c #0C0C0C",
"O  c #070707",
"+  c #130B04",
"@  c #120D0B",
"#  c #180A06",
"$  c #0D110D",
"%  c #09120A",
"&  c #13120D",
"*  c #1A120C",
"=  c #19160A",
"-  c #0D0D11",
";  c #080917",
":  c #110E12",
">  c #160C15",
",  c #0E1212",
"<  c #0D1719",
"1  c #121414",
"2  c #1A1513",
"3  c #151916",
"4  c #1B1A16",
"5  c #131619",
"6  c #151A1B",
"7  c #1A1C1C",
"8  c #1A161A",
"9  c #240D09",
"0  c #24120D",
"q  c #2A130E",
"w  c #26180A",
"e  c #34170D",
"r  c #2C1611",
"t  c #2D1913",
"y  c #221D1A",
"u  c #251915",
"i  c #321612",
"p  c #341A14",
"a  c #3B1D15",
"s  c #3B1E18",
"d  c #361D18",
"f  c #210E10",
"g  c #1D211E",
"h  c #15221D",
"j  c #23211D",
"k  c #2B231C",
"l  c #3C231B",
"z  c #372519",
"x  c #36210F",
"c  c #151D22",
"v  c #1B1E21",
"b  c #181A26",
"n  c #121727",
"m  c #231C23",
"M  c #391E2C",
"N  c #1C2223",
"B  c #1C242A",
"V  c #1D2A2C",
"C  c #172326",
"Z  c #1E2933",
"A  c #1F3136",
"S  c #222424",
"D  c #2B2522",
"F  c #242926",
"G  c #23262A",
"H  c #232A2C",
"J  c #2B2C2C",
"K  c #2B2727",
"L  c #332A24",
"P  c #3B2C24",
"I  c #332D2B",
"U  c #372926",
"Y  c #28322D",
"T  c #3C322C",
"R  c #36312B",
"E  c #232D33",
"W  c #2A2D32",
"Q  c #242B39",
"!  c #253134",
"~  c #2B3234",
"^  c #2B343B",
"/  c #2D3A3C",
"(  c #273439",
")  c #343333",
"_  c #323A3C",
"`  c #383737",
"'  c #352A33",
"]  c #441E15",
"[  c #4B1913",
"{  c #432116",
"}  c #44231A",
"|  c #4B251B",
" . c #49291C",
".. c #53291D",
"X. c #5B2A1D",
"o. c #53261B",
"O. c #4C331C",
"+. c #652C1D",
"@. c #74321E",
"#. c #462B24",
"$. c #5C2D21",
"%. c #552A24",
"&. c #4C3324",
"*. c #43342B",
"=. c #493529",
"-. c #533A2A",
";. c #573827",
":. c #463A35",
">. c #563B34",
",. c #502B34",
"<. c #652D23",
"1. c #643225",
"2. c #6A3324",
"3. c #69372A",
"4. c #743A2B",
"5. c #7A3B2B",
"6. c #763526",
"7. c #673933",
"8. c #72342E",
"9. c #4B1D25",
"0. c #33423C",
"q. c #5D422D",
"w. c #4A433C",
"e. c #594538",
"r. c #61432D",
"t. c #644739",
"y. c #784537",
"u. c #6D4D39",
"i. c #2D3B43",
"p. c #2A3644",
"a. c #323D43",
"s. c #353C47",
"d. c #2B324C",
"f. c #3A3962",
"g. c #483C4A",
"h. c #384449",
"j. c #3B4B54",
"k. c #3A4755",
"l. c #35494D",
"z. c #3E4D67",
"x. c #494745",
"c. c #574A45",
"v. c #5C5249",
"b. c #434B58",
"n. c #465558",
"m. c #585956",
"M. c #475549",
"N. c #634B43",
"B. c #645244",
"V. c #67574C",
"C. c #685B54",
"Z. c #745552",
"A. c #536658",
"S. c #686557",
"D. c #6D6658",
"F. c #485864",
"G. c #4C526A",
"H. c #55676A",
"J. c #576A6F",
"K. c #667666",
"L. c #6E6C6B",
"P. c #6C5A67",
"I. c #863C2A",
"U. c #8B3D31",
"Y. c #8C351C",
"T. c #8B422D",
"R. c #97462C",
"E. c #8C4432",
"W. c #864636",
"Q. c #9C4B35",
"!. c #974835",
"~. c #9B5239",
"^. c #A44B35",
"/. c #AB543D",
"(. c #A6553A",
"). c #B4573A",
"_. c #AB522D",
"`. c #AE623E",
"'. c #964C46",
"]. c #895447",
"[. c #9A5748",
"{. c #8F5550",
"}. c #AC5A43",
"|. c #A75745",
" X c #B45C45",
".X c #A45B54",
"XX c #956655",
"oX c #A9624B",
"OX c #B5634A",
"+X c #BB644C",
"@X c #B86447",
"#X c #AA6757",
"$X c #B76954",
"%X c #BC745B",
"&X c #AF705E",
"*X c #92726D",
"=X c #BB7865",
"-X c #B2756D",
";X c #995A64",
":X c #C6755C",
">X c #C46B54",
",X c #C67965",
"<X c #CF7A6E",
"1X c #C35F4F",
"2X c #BA8676",
"3X c #BC816B",
"4X c #C8846C",
"5X c #C88976",
"6X c #D38976",
"7X c #D18F79",
"8X c #677A87",
"9X c #6A7892",
"0X c #5C7381",
"qX c #748794",
"wX c #7A8BA4",
"eX c #7E92A6",
"rX c #918B8F",
"tX c #B7918B",
"yX c #8292AB",
"uX c #B9A8A5",
"iX c #CC9787",
"pX c #D49C8C",
"aX c #D69986",
"sX c #C99C93",
"dX c #D59B93",
"fX c #C78B86",
"gX c #D8A899",
"hX c #D2A592",
"jX c #E4AA9A",
"kX c #E5B29D",
"lX c #DAADA5",
"zX c #DAB3A7",
"xX c #D3B6B6",
"cX c #E6B5A7",
"vX c #E5B5AE",
"bX c #E19F8F",
"nX c #DAC4B9",
"mX c #E8C5BA",
"MX c #F3C4B7",
"NX c #E8C8C4",
"BX c #F8DAD7",
"VX c #EED3CF",
"CX c #FAE3DA",
"ZX c #F2E3D4",
"AX c #F2DCF0",
"SX c #FBE8E6",
"DX c #FDF5ED",
"FX c #FEF5F4",
"GX c #FFFBF4",
"HX c #FFFCFE",
"JX c #F8F5FE",
"KX c #ECE4EF",
"LX c #D9C7C5",
"PX c #C8B6C4",
"IX c None",
"UX c #937A80",
/* pixels */
"IXIXIXIXIXIXIXIXIXIXIXIXIXIXIXIXIXIXIXIXIXIXIXIXIXIXIXIXIXIXIXIXIXIXIXIXIXIXIXIXIXIXIXIXIXIXIXIXIXIXIXIXIXIXIXIXIXIXIXIXIXIXIX#XdXIXIXIXIXIXIXIXIXIXIXIXIXIXIXIXIXIXIXIXIXIXIXIXIXIXIXIXIXIXIXIXIXIXIXIXIXIXIXIXIXIXIXIXIXIXIXIXIXIXIXIXIXIXIXIXIXIXIXIXIXIXIXIX",
"IXIXIXIXIXIXIXIXIXIXIXIXIXIXIXIXIXIXIXIXIXIXIXIXIXIXIXIXIXIXIXIXIXIXIXIXIXIXIXIXIXIXIXIXIXIXIXIXIXIXIXIXIXIXIXIXIXIXIXIXIX'.oX=XgXHXIXIXIXIXIXIXIXIXIXIXIXIXIXIXIXIXIXIXIXIXIXIXIXIXIXIXIXIXIXIXIXIXIXIXIXIXIXIXIXIXIXIXIXIXIXIXIXIXIXIXIXIXIXIXIXIXIXIXIXIXIXIX",
"IXIXIXIXIXIXIXIXIXIXIXIXIXIXIXIXIXIXIXIXIXIXIXIXIXIXIXIXIXIXIXIXIXIXIXIXIXIXIXIXIXIXIXIXIXIXIXIXIXIXIXIXIXIXIXIXIXIXIXIX{.R.OX5XNXGXHXIXIXIXIXIXIXIXIXIXIXIXIXIXIXIXIXIXIXIXIXIXIXIXIXIXIXIXIXIXIXIXIXIXIXIXIXIXIXIXIXIXIXIXIXIXIXIXIXIXIXIXIXIXIXIXIXIXIXIXIXIX",
"IXIXIXIXIXIXIXIXIXIXIXIXIXIXIXIXIXIXIXIXIXIXIXIXIXIXIXIXIXIXIXIXIXIXIXIXIXIXIXIXIXIXIXIXIXIXIXIXIXIXIXIXIXIXIXIXIXIXIXIX#XQ.$XfXvXFXHXIXIXIXIXIXIXIXIXIXIXIXIXIXIXIXIXIXIXIXIXIXIXIXIXIXIXIXIXIXIXIXIXIXIXIXIXIXIXIXIXIXIXIXIXIXIXIXIXIXIXIXIXIXIXIXIXIXIXIXIXIX",
"IXIXIXIXIXIXIXIXIXIXIXIXIXIXIXIXIXIXIXIXIXIXIXIXIXIXIXIXIXIXIXIXIXIXIXIXIXIXIXIXIXIXIXIXIXIXIXIXIXIXIXIXIXIXIXIXIXIXIXIX+X_.#XdXBXHXHXIXIXIXIXIXIXIXIXIXIXIXIXIXIXIXIXIXIXIXIXIXIXIXIXIXIXIXIXIXIXIXIXIXIXIXIXIXIXIXIXIXIXIXIXIXIXIXIXIXIXIXIXIXIXIXIXIXIXIXIXIX",
"IXIXIXIXIXIXIXIXIXIXIXIXIXIXIXIXIXIXIXIXIXIXIXIXIXIXIXIXIXIXIXIXIXIXIXIXIXIXIXIXIXIXIXIXIXIXIXIXIXIXIXIXIXIXIXIXIXIXIXI.@X_..XdXNXHXHXIXIXIXIXIXIXIXIXIXIXIXIXIXIXIXIXIXIXIXIXIXIXIXIXIXIXIXIXIXIXIXIXIXIXIXIXIXIXIXIXIXIXIXIXIXIXIXIXIXIXIXIXIXIXIXIXIXIXIXIXIX",
"IXIXIXIXIXIXIXIXIXIXIXIXIXIXIXIXIXIXIXIXIXIXIXIXIXIXIXIXIXIXIXIXIXIXIXIXIXIXIXIXIXIXIXIXIXIXIX;XIXIXIXIXIXIXIXIXIXIXIX8.}. X$XdXBXHXHXIXIXIXIXIXIXIXIXIXIXIXIXIXIXIXIXIXIXIXIXIXIXIXIXIXIXIXIXIXIXIXIXIXIXIXIXIXIXIXIXIXIXIXIXIXIXIXIXIXIXIXIXIXIXIXIXIXIXIXIXIX",
"IXIXIXIXIXIXIXIXIXIXIXIXIXIXIXIXIXIXIXIXIXIXIXIXIXIXIXIXIXIXIXIXIXIXIXIXIXIXIXIXIXIXIXIXIX].#X5XdXxXIXIXIXIXIXIXIXIXIX8.~.OX,XdXBXHXKXIXIXIXIXIXIXIXIXIXIXIXIXIXIXIXIXIXIXIXIXIXIXIXIXIXIXIXIXIXIXIXIXIXIXIXIXIXIXIXIXIXIXIXIXIXIXIXIXIXIXIXIXIXIXIXIXIXIXIXIXIX",
"IXIXIXIXIXIXIXIXIXIXIXIXIXIXIXIXIXIXIXIXIXIXIXIXIXIXIXIXIXIXIXIXIXIXIXIXIXIXIXIXIXIXIXIXIX|.$XaXjXNXIXIXIXIXIXIXIXIXIX6.^. X<XdXBXFXKXIXIXIXIXIXIXIXIX#X2XtXPXIXIXIXIXIXIXIXIXIXIXIXIXIXIXIXIXIXIXIXIXIXIXIXIXIXIXIXIXIXIXIXIXIXIXIXIXIXIXIXIXIXIXIXIXIXIXIXIXIX",
"IXIXIXIXIXIXIXIXIXIXIXIXIXIXIXIXIXIXIXIXIXIXIXIXIXIXIXIXIXIXIXIXIXIXIXIXIXIXIXIXIXIXIXIX'. X,XaXgXBXIXIXIXIXIXIXIXIXIX@./.>X&X-XzXBXAXIXIXIXIXIXIXIXoXoXaXNXHXJXIXIXIXIXIXIXIXIXIXIXIXIXIXIXIXIXIXIXIXIXIXIXIXIXIXIXIXIXIXIXIXIXIXIXIXIXIXIXIXIXIXIXIXIXIXIXIXIX",
"IXIXIXIXIXIXIXIXIXIXIXIXIXIXIXIXIXIXIXIXIXIXIXIXIXIXIXIXIXIXIXIXIXIXIXIXIXIXIXIXIXIXIXIX.X/.,XkXkXSXIXIXIXIXIXIXIXIXIXI./.+X,XiXzXFXAXIXIXIXIXIXIX#X(.@XpXBXDXKXIXIXIXIXIXIXIXIXIXIXIXIXIXIXIXIXIXIXIXIXIXIXIXIXIXIXIXIXIXIXIXIXIXIXIXIXIXIXIXIXIXIXIXIXIXIXIXIX",
"IXIXIXIXIXIXIXIXIXIXIXIXIXIXIXIXIXIXIXIXIXIXIXIXIXIXIXIXIXIXIXIXIXIXIXIXIXIXIXIXIXIXIX7.|./.,XjXmXnXIXIXIXIXIXIXIXIXIXI.).:X7XpXvXSXAXIXIXIXIXIXIX}.).@XpXBXGXKXHXIXIXIXIXIXIXIXIXIXIXIXIXIXIXIXIXIXIXIXIXIXIXIXIXIXIXIXIXIXIXIXIXIXIXIXIXIXIXIXIXIXIXIXIXIXIXIX",
"IXIXIXIXIXIXIXIXIXIXIXIXIXIXIXIXIXIXIXIXIXIXIXIXIXIXIXIXIXIXIXIXIXIXIXIXIXIXIXIXIXIXIX[ [.,X<XsXNXBX-XIXIXIXIXIXIXIXIXY.).1X=XgXmXVXAXIXIXIXIXIXIX$X/.}.iXBXFXKXJXIXIXIXIXIXIXIXIXIXIXIXIXIXIXIXIXIXIXIXIXIXIXIXIXIXIXIXIXIXIXIXIXIXIXIXIXIXIXIXIXIXIXIXIXIXIXIX",
"IXIXIXIXIXIXIXIXIXIXIXIXIXIXIXIXIXIXIXIXIXIXIXIXIXIXIXIXIXIXIXIXIXIXIXIXIXIXIXIXIXIXIXo.|.6X&XiXBXBX2XIXIXIXIXIXIXIXIXR._. X=XcXMXBXAXIXIXIXIXIXIXOX X,XfXBXGXJXHXIXIXIXIXIXIXIXIXIXIXIXIXIXIXIXIXIXIXIXIXIXIXIXIXIXIXIXIXIXIXIXIXIXIXIXIXIXIXIXIXIXIXIXIXIXIXIX",
"IXIXIXIXIXIXIXIXIXIXIXIXIXIXIXIXIXIXIXIXIXIXIXIXIXIXIXIXIXIXIXIXIXIXIXIXIXIXIXIXIXIXIX+.R.,X,XaXkXgX=XIXIXIXIXIXIXIXIXE.}.,X6XiXgXNXVXIXIXIXIXIXIXQ./.$X2XCXGXJXHXIXIXIXIXIXIXIXIXIXIXIXIXIXIXIXIXIXIXIXIXIXIXIXIXIXIXIXIXIXIXIXIXIXIXIXIXIXIXIXIXIXIXIXIXIXIXIX",
"IXIXIXIXIXIXIXIXIXIXIXIXIXIXIXIXIXIXIXIXIXIXIXIXIXIXIXIXIXIXIXIXIXIXIXIXIXIXIXIXIXIXIX+.U. X%X=X5X5X5XIXIXIXIXIXIXIXIXW.|.%X=XaXzXmXBXIXIXIXIXIXIX(.$X|.5XCXDXHXHXIXIXIXIXIXIXIXIXIXIXIXIXIXIXIXIXIXIXIXIXIXIXIXIXIXIXIXIXIXIXIXIXIXIXIXIXIXIXIXIXIXIXIXIXIXIXIX",
"IXIXIXIXIXIXIXIXIXIXIXIXIXIXIXIXIXIXIXIXIXIXIXIXIXIXIXIXIXIXIXIXIXIXIXIXIXIXIXIXIXIXIX<.U.$X%X5XaXaXjXIXIXIXIXIXIXIXIX6.|.%X7XpXsXzXmXuXIXIXIXIXIX/.}.}.2XlXZXGXHXIXIXIXIXIXIXIXIXIXIXIXIXIXIXIXIXIXIXIXIXIXIXIXIXIXIXIXIXIXIXIXIXIXIXIXIXIXIXIXIXIXIXIXIXIXIXIX",
"IXIXIXIXIXIXIXIXIXIXIXIXIXIXIXIXIXIXIXIXIXIXIXIXIXIXIXIXIXIXIXIXIXIXIXIXIXIXIXIXIXIXIX%.'.$X5XpXpXaXaXfXIXIXIXIXIXIXIXE.~.%X5XiXlXmXBXxXIXIXIXIXIX/.).OX-XsXBXDXHXIXIXIXIXIXIXIXIXIXIXIXIXIXIXIXIXIXIXIXIXIXIXIXIXIXIXIXIXIXIXIXIXIXIXIXIXIXIXIXIXIXIXIXIXIXIXIX",
"IXIXIXIXIXIXIXIXIXIXIXIXIXIXIXIXIXIXIXIXIXIXIXIXIXIXIXIXIXIXIXIXIXIXIXIXIXIXIXIXIXIXIX8.I.%X5X5XaXaXaXfXIXIXIXIXIXIXIXR.Q.$X5XcXmXCXGXVXIXIXIXIXIX/.+X,X5XsXCXFXHXIXIXIXIXIXIXIXIXIXIXIXIXIXIXIXIXIXIXIXIXIXIXIXIXIXIXIXIXIXIXIXIXIXIXIXIXIXIXIXIXIXIXIXIXIXIXIX",
"IXIXIXIXIXIXIXIXIXIXIXIXIXIXIXIXIXIXIXIXIXIXIXIXIXIXIXIXIXIXIXIXIXIXIXIXIXIXIXIXIXIXIX<.!..X5X5X5XaXaXiXIXIXIXIXIXIXIX^.Q.}.5XpXmXVXFXKXIXIXIXIXIX(.OX=X5XsXNXKXHXHXIXIXIXIXIXIXIXIXIXIXIXIXIXIXIXIXIXIXIXIXIXIXIXIXIXIXIXIXIXIXIXIXIXIXIXIXIXIXIXIXIXIXIXIXIXIX",
"IXIXIXIXIXIXIXIXIXIXIXIXIXIXIXIXIXIXIXIXIXIXIXIXIXIXIXIXIXIXIXIXIXIXIXIXIXIXIXIXIXIXIX<.!.,X=X7XaX7X7XfXIXIXIXIXIXIXIXR./.OX,XaXmXSXFXHXIXIXIXIXIX^.$X,XdXlXNXZXHXHXIXIXIXIXIXIXIXIXIXIXIXIXIXIXIXIXIXIXIXIXIXIXIXIXIXIXIXIXIXIXIXIXIXIXIXIXIXIXIXIXIXIXIXIXIXIX",
"IXIXIXIXIXIXIXIXIXIXIXIXIXIXIXIXIXIXIXIXIXIXIXIXIXIXIXIXIXIXIXIXIXIXIXIXIXIXIXIXIXIXIXo.U.%X%X4X5X5X5XfXIXIXIXIXIXIXIX^.^.+X6XpXzXCXGXHXIXIXIXIXIX/.oX$X7XlXmXSXFXHXIXIXIXIXIXIXIXIXIXIXIXIXIXIXIXIXIXIXIXIXIXIXIXIXIXIXIXIXIXIXIXIXIXIXIXIXIXIXIXIXIXIXIXIXIXIX",
"IXIXIXIXIXIXIXIXIXIXIXIXIXIXIXIXIXIXIXIXIXIXIXIXIXIXIXIXIXIXIXIXIXIXIXIXIXIXIXIXIXIXIXIX@.~.$X:XaXpXaXiXIXIXIXIXIXIXIXR.}.OX%X5XzXVXFXHXHXIXIXIXIX|.$X4XaXkXzXnXSXHXIXIXIXIXIXIXIXIXIXIXIXIXIXIXIXIXIXIXIXIXIXIXIXIXIXIXIXIXIXIXIXIXIXIXIXIXIXIXIXIXIXIXIXIXIXIX",
"IXIXIXIXIXIXIXIXIXIXIXIXIXIXIXIXIXIXIXIXIXIXIXIXIXIXIXIXIXIXIXIXIXIXIXIXIXIXIXIXIXIXIXIX<.Q.@X%XaXgXjXhXtXIXIXIXIXIXIXR.}./.,XaXzXnXFXGXFXIXIXIXIX|.|.,X5XkXMXmXZXHXIXIXIXIXIXIXIXIXIXIXIXIXIXIXIXIXIXIXIXIXIXIXIXIXIXIXIXIXIXIXIXIXIXIXIXIXIXIXIXIXIXIXIXIXIXIX",
"IXIXIXIXIXIXIXIXIXIXIXIXIXIXIXIXIXIXIXIXIXIXIXIXIXIXIXIXIXIXIXIXIXIXIXIXIXIXIXIXIXIXIXIX8.T.`.:X4XcXgXgXsXIXIXIXIXIXIX'.|.OX,XaXgXBXBXFXHXIXIXIXIX.X#X,X6XaXcXmXZXHXIXIXIXIXIXIXIXIXIXIXIXIXIXIXIXIXIXIXIXIXIXIXIXIXIXIXIXIXIXIXIXIXIXIXIXIXIXIXIXIXIXIXIXIXIXIX",
"IXIXIXIXIXIXIXIXIXIXIXIXIXIXIXIXIXIXIXIXIXIXIXIXIXIXIXIXIXIXIXIXIXIXIXIXIXIXIXIXIXIXIXIX1.I.(.%X5XhXjXvXiXIXIXIXIXIXIX.X|.|.,X5XgXmXZXGXHXIXIXIXIXIX&X%X6X7XgXVXGXHXIXIXIXIXIXIXIXIXIXIXIXIXIXIXIXIXIXIXIXIXIXIXIXIXIXIXIXIXIXIXIXIXIXIXIXIXIXIXIXIXIXIXIXIXIXIX",
"IXIXIXIXIXIXIXIXIXIXIXIXIXIXIXIXIXIXIXIXIXIXIXIXIXIXIXIXIXIXIXIXIXIXIXIXIXIXIXIXIXIXIXIX%.@.|.:X5XkXcXgXcXIXIXIXIXIXIX;X|./.,X5XkXmXBXFXJXJXIXIXIXIX#X=X6XaXlXBXHXHXIXIXIXIXIXIXIXIXIXIXIXIXIXIXIXIXIXIXIXIXIXIXIXIXIXIXIXIXIXIXIXIXIXIXIXIXIXIXIXIXIXIXIXIXIXIX",
"IXIXIXIXIXIXIXIXIXIXIXIXIXIXIXIXIXIXIXIXIXIXIXIXIXIXIXIXIXIXIXIXIXIXIXIXIXIXIXIXIXIXIXIX%.5.|.$X7X7XjXcXkXtXIXIXIXIXIXIX'.}.:X6XpXzXNXFXHXHXIXIXIXIX;X,X7XpXlXnXFXHXJXIXIXIXIXIXIXIXIXIXIXIXIXIXIXIXIXIXIXIXIXIXIXIXIXIXIXIXIXIXIXIXIXIXIXIXIXIXIXIXIXIXIXIXIXIX",
"IXIXIXIXIXIXIXIXIXIXIXIXIXIXIXIXIXIXIXIXIXIXIXIXIXIXIXIXIXIXIXIXIXIXIXIXIXIXIXIXIXIXIXIX,.<.'. X4XaXkXcXgXsXIXIXIXIXIXIX'.|.$X=XpXlXNXZXDXHXIXIXIXIX.X=X4X5XzXnXGXFXHXIXIXIXIXIXIXIXIXIXIXIXIXIXIXIX{.*XxXAXHXIXIXIXIXIXIXIXIXIXIXIXIXIXIXIXIXIXIXIXIXIXIXIXIXIX",
"IXIXIXIXIXIXIXIXIXIXIXIXIXIXIXIXIXIXIXIXIXIXIXIXIXIXIXIXIXIXIXIXIXIXIXIXIXIXIXIXIXIXIXIXIX<.~.$X6XaXiXkXgXcXIXIXIXIXIXIX'.^.OX$XiXlXvXSXDXGXIXIXIXIX&X,XaXiXzXnXGXHXHXIXIXIXIXIXIXIXIXIXIXIXIXIXIX|.#XXXsXDXHXIXIXIXIXIXIXIXIXIXIXIXIXIXIXIXIXIXIXIXIXIXIXIXIXIX",
"IXIXIXIXIXIXIXIXIXIXIXIXIXIXIXIXIXIXIXIXIXIXIXIXIXIXIXIXIXIXIXIXIXIXIXIXIXIXIXIXIXIXIXIXIX+.T.$X,X6XaXkXhXgXtXIXIXIXIXIX{.R./.$X4XkXzXmXZXGXAXIXIXIXoX:X4XiXgXNXGXDXHXIXIXIXIXIXIXIXIXIXIXIXIXIXIX}.|.=XgXFXHXHXIXIXIXIXIXIXIXIXIXIXIXIXIXIXIXIXIXIXIXIXIXIXIXIX",
"IXIXIXIXIXIXIXIXIXIXIXIXIXIXIXIXIXIXIXIXIXIXIXIXIXIXIXIXIXIXIXIXIXIXIXIXIXIXIXIXIXIXIXIXIXX.!.}.,X5XaXiXkXgXsXIXIXIXIXIX{.R.R.OXaXkXsXzXnXDXSXIXIXIX|.:X:X4XsXmXGXGXHXIXIXIXIXIXIXIXIXIXIXIXIXIXIX1X(.=XMXDXFXHXIXIXIXIXIXIXIXIXIXIXIXIXIXIXIXIXIXIXIXIXIXIXIXIX",
"IXIXIXIXIXIXIXIXIXIXIXIXIXIXIXIXIXIXIXIXIXIXIXIXIXIXIXIXIXIXIXIXIXIXIXIXIXIXIXIXIXIXIXIXIX3.I.|.OX%XgXiXiXhXgXIXIXIXIXIX'.I.(.,XaXpXdXsXnXSXHXIXIXIX|.:X6XaXgXNXGXDXGXIXIXIXIXIXIXIXIXIXIXIXIXIX|.@X(.5XMXDXLXHXIXIXIXIXIXIXIXIXIXIXIXIXIXIXIXIXIXIXIXIXIXIXIXIX",
"IXIXIXIXIXIXIXIXIXIXIXIXIXIXIXIXIXIXIXIXIXIXIXIXIXIXIXIXIXIXIXIXIXIXIXIXIXIXIXIXIXIXIXIXIX%.6.!.}.,X7XkXiXiXvXIXIXIXIXIX{.T.R.$X5XpXvXNXVXBXGXIXIXIX#X>X<XfXgXnXZXGXHXIXIXIXIXIXIXIXIXIXIXIXIXIX|.@X$X&XMXSXLXHXIXIXIXIXIXIXIXIXIXIXIXIXIXIXIXIXIXIXIXIXIXIXIXIX",
"IXIXIXIXIXIXIXIXIXIXIXIXIXIXIXIXIXIXIXIXIXIXIXIXIXIXIXIXIXIXIXIXIXIXIXIXIXIXIXIXIXIXIXIXIX%.<.I.(.,XaXaXpX2XjXlXIXIXIXIX{.E.Q.$X=XaXcXsXlXSXGXIXIXIX|.:X:X6XpXzXCXSXHXHXIXIXIXIXIXIXIXIXIXIXIXIX|.>X$X5XsXNXSXHXIXIXIXIXIXIXIXIXIXIXIXIXIXIXIXIXIXIXIXIXIXIXIXIX",
"IXIXIXIXIXIXIXIXIXIXIXIXIXIXIXIXIXIXIXIXIXIXIXIXIXIXIXIXIXIXIXIXIXIXIXIXIXIXIXIXIXIXIXIXIX9.X.T.~.|.aXkXiXpXjXzXIXIXIXIXN.T.R./.%XjX2XvXNXDXGXxXIXIX'.+X<X6XpXgXNXSXHXHXIXIXIXIXIXIXIXIXIXIXIXIX X/.=X5XtXNXHXHXIXIXIXIXIXIXIXIXIXIXIXIXIXIXIXIXIXIXIXIXIXIXIXIX",
"IXIXIXIXIXIXIXIXIXIXIXIXIXIXIXIXIXIXIXIXIXIXIXIXIXIXIXIXIXIXIXIXIXIXIXIXIXIXIXIXIXIXIXIXIXIX%.5.U.&X5XjXjXpXpXlXIXIXIXIXIXE.R.(.%XaXkXMXmXFXDXSXIXIX[.@X+X6XiXzXxXSXHXHXIXIXIXIXIXIXIXIXIXIXIXIX|.+X,XiXlXVXFXHXIXIXIXIXIXIXIXIXIXIXIXIXIXIXIXIXIXIXIXIXIXIXIXIX",
"IXIXIXIXIXIXIXIXIXIXIXIXIXIXIXIXIXIXIXIXIXIXIXIXIXIXIXIXIXIXIXIXIXIXIXIXIXIXIXIXIXIXIXIXIXIX%.2.@.[.=XpXpX5XcXcXlXIXIXIXIXW.I.~.,X5XgXhXCXFXSXHXIXIX[./.OX,XiXlXNXBXDXHXIXIXIXIXIXIXIXIXIXIXIXIX|.,X5XpXNXNXHXHXIXIXIXIXIXIXIXIXIXIXIXIXIXIXIXIXIXIXIXIXIXIXIXIX",
"IXIXIXIXIXIXIXIXIXIXIXIXIXIXIXIXIXIXIXIXIXIXIXIXIXIXIXIXIXIXIXIXIXIXIXIXIXIXIXIXIXIXIXIXIXIX,.[ 6.U.XXtXiXcXMXvXlXIXIXIXIXW.E.|.&X-XiXlXNXBXFXGXIXIXW./. X6XpXgXzXxXCXJXIXIXIXIXIXIXIXIXIXIXIX[.oX:X5XgXvXSXFXHXIXIXIXIXIXIXIXIXIXIXIXIXIXIXIXIXIXIXIXIXIXIXIXIX",
"IXIXIXIXIXIXIXIXIXIXIXIXIXIXIXIXIXIXIXIXIXIXIXIXIXIXIXIXIXIXIXIXIXIXIXIXIXIXIXIXIXIXIXIXIXIX,.| <.].u.7.tXtXtXlXsXIXIXIXIX7.y.y.Z.y.e >.#.P.rXC.UXIX[.|.(.,XjXMXgXNXVXHXIXIXIXIXIXIXIXIXIXIXIX(./.,XaXjXNXVXHXIXIXIXIXIXIXIXIXIXIXIXIXIXIXIXIXIXIXIXIXIXIXIXIXIX",
"IXIXIXIXIXIXIXIXIXIXIXIXIXIXIXIXIXIXIXIXIXIXIXIXIXIXIXIXIXIXIXIXIXIXIXIXIXIXIXIXIXIXIXIXIXIXIX#.%.#.w k U :.` R k & IXIXIX:.l p q 0 u y K ` x.S.c.Z.y.'.^.,XpXMXmXNXZXGXHXIXIXIXIXIXIXIXIXIXIX|.OX6X5XsXzXGXGXIXIXIXIXIXIXIXIXIXIXIXIXIXIXIXIXIXIXIXIXIXIXIXIXIX",
"IXIXIXIXIXIXIXIXIXIXIXIXIXIXIXIXIXIXIXIXIXIXIXIXIXIXIXIXIXIXIXIXIXIXIXIXIXIXIXIXIXIXIXIXIXIXIX#.z k 4 g S ~ ~ ~ F h m IXIXIX2 u & 1 g N H Y Y 0.` >.{.W.|.#XgXhXmXVXGXHXGXIXIXIXIXIXIXIXIXIXIX(.oX=XjXvXNXSXHXIXIXIXIXIXIXIXIXIXIXIXIXIXIXIXIXIXIXIXIXIXIXIXIXIX",
"IXIXIXIXIXIXIXIXIXIXIXIXIXIXIXIXIXIXIXIXIXIXIXIXIXIXIXIXIXIXIXIXIXIXIXIXIXIXIXIXIXIXIXIXIXIXIXd u D 7 h 6 G H V 6 v m m IXIXo @ 1 3 6 C E V Y R ) c.>.7.W.#X-XtXsXxXuXrXuXIXIXIXIXIXIXIXIXIXIX(.oX=XpXmXBXFXHXIXIXIXIXIXIXIXIXIXIXIXIXIXIXIXIXIXIXIXIXIXIXIXIXIX",
"IXIXIXIXIXIXIXIXIXIXIXIXIXIXIXIXIXIXIXIXIXIXIXIXIXIXIXIXIXIXIXIXIXIXIXIXIXIXIXIXIXIXIXIXIXIXIX8 u S 6 6 6 C C c N 8 > > IX5 - 8 1 1 < C E E Y ) ) m.g.N.y.t.{ #.U :.:.` x.v.b.IXIXIXIXIXIXIXIX(.$X7XdXvXDXFXHXIXIXIXIXIXIXIXIXIXIXIXIXIXIXIXIXIXIXIXIXIXIXIXIXIX",
"IXIXIXIXIXIXIXIXIXIXIXIXIXIXIXIXIXIXIXIXIXIXIXIXIXIXIXIXIXIXIXIXIXIXIXIXIXIXIXIXIXIXIXIXIXIXIX: 4 7 < < < 6 c v 6 v y 2 1 5 - 1 1 , 6 c V E N H ~ J ` P.e.w u y K m y R ) x./ IXIXIXIXIXIXIX{.}.=X3XcXNXDXGXHXIXIXIXIXIXIXIXIXIXIXIXIXIXIXIXIXIXIXIXIXIXIXIXIXIX",
"IXIXIXIXIXIXIXIXIXIXIXIXIXIXIXIXIXIXIXIXIXIXIXIXIXIXIXIXIXIXIXIXIXIXIXIXIXIXIXIXIXIXIXIXIXIX; 7 1 7 < < < < 6 v 5 8 1 1 , X 1 o & o 6 6 C H 6 N h M.v 8 = = 1 N G G S g ) _ h.IXIXIXIXIXIXIX.XOX,X5XlXBXGXGXJXIXIXIXIXIXIXIXIXIXIXIXIXIXIXIXIXIXIXIXIXIXIXIXIXIX",
"IXIXIXIXIXIXIXIXIXIXIXIXIXIXIXIXIXIXIXIXIXIXIXIXIXIXIXIXIXIXIXIXIXIXIXIXIXIXIXIXIXIXIXIXIX; n 8 1 7 5 c < < 1 8 8 1 , C < $ 4 . & $ 1 , 6 v 3 N G ~ ^ b & & 6 , 3 1 J G H 0.^ IXIXIXIXIXIXIX.XOX4XpXMXBXSXHXJXIXIXIXIXIXIXIXIXIXIXIXIXIXIXIXIXIXIXIXIXIXIXIXIXIX",
"IXIXIXIXIXIXIXIXIXIXIXIXIXIXIXIXIXIXIXIXIXIXIXIXIXIXIXIXIXIXIXIXIXIXIXIXIXIXIXIXIXIXIXIXIX; , 8 1 7 5 < < h 4 2 : 1 < < % $ . . . & $ 1 8 1 1 3 h C ^ B 1 1 < C g 3 v 6 ~ H s.IXIXIXIXIXIXIX|.OX5XhXmXBXGXHXIXIXIXIXIXIXIXIXIXIXIXIXIXIXIXIXIXIXIXIXIXIXIXIXIXIX",
"IXIXIXIXIXIXIXIXIXIXIXIXIXIXIXIXIXIXIXIXIXIXIXIXIXIXIXIXIXIXIXIXIXIXIXIXIXIXIXIXIXIXIXIXIXX 1 5 1 1 5 6 h N 7 1 1 , , , $ $ o o o o $ $ - 1 1 1 1 v W _ N O N 3 1 h c b S J s.IXIXIXIXIXIX].(.:XbXgXmXBXGXHXIXIXIXIXIXIXIXIXIXIXIXIXIXIXIXIXIXIXIXIXIXIXIXIXIXIX",
"IXIXIXIXIXIXIXIXIXIXIXIXIXIXIXIXIXIXIXIXIXIXIXIXIXIXIXIXIXIXIXIXIXIXIXIXIXIXIXIXIXIXIXIXIXo 1 $ , , , 1 7 S S N 7 3 3 3 3 1 o X o o o o $ 1 1 8 1 7 7 x.S N , , % , 5 G W ~ ^ IXIXIXIXIXIX'.}.6XpXzXzXZXGXHXIXIXIXIXIXIXIXIXIXIXIXIXIXIXIXIXIXIXIXIXIXIXIXIXIXIX",
"IXIXIXIXIXIXIXIXIXIXIXIXIXIXIXIXIXIXIXIXIXIXIXIXIXIXIXIXIXIXIXIXIXIXIXIXIXIXIXIXIXIXIXIXIX; o 1 , , $ , 1 7 7 7 7 3 1 3 7 7 1 $ o X X o o $ 1 1 8 o N N _ o 7 o 1 6 b b 5 6 ^ IXIXIXIXIX{.5.$X4XjXzXxXVXGXHXIXIXIXIXIXIXIXIXIXIXIXIXIXIXIXIXIXIXIXIXIXIXIXIXIXIX",
"IXIXIXIXIXIXIXIXIXIXIXIXIXIXIXIXIXIXIXIXIXIXIXIXIXIXIXIXIXIXIXIXIXIXIXIXIXIXIXIXIXIXIXIXIXIX6 % $ , $ o o , , $ 1 o o o 1 7 7 3 1 o o o o o o o - 3 1 3 1 , 5 3 % 1 c B v v H IXIXIXIXIXN.].[.iXzXNXnXGXHXJXIXIXIXIXIXIXIXIXIXIXIXIXIXIXIXIXIXIXIXIXIXIXIXIXIXIX",
"IXIXIXIXIXIXIXIXIXIXIXIXIXIXIXIXIXIXIXIXIXIXIXIXIXIXIXIXIXIXIXIXIXIXIXIXIXIXIXIXIXIXIXIXIXIX$ & $ 1 1 $ $ $ o o $ o X X o 1 1 1 7 1 1 1 o o X X O 3 1 1 o 1 1 3 g 3 , c v C b IXIXIXIXP.Z.mX{.XXzXxXCXHXHXIXIXIXIXIXIXIXIXIXIXIXIXIXIXIXIXIXIXIXIXIXIXIXIXIXIXIX",
"IXIXIXIXIXIXIXIXIXIXIXIXIXIXIXIXIXIXIXIXIXIXIXIXIXIXIXIXIXIXIXIXIXIXIXIXIXIXIXIXIXIXIXIXIXIX, . & 1 1 $ o o o o o o o o o o @ 1 1 1 o 1 1 o o - o 1 - 1 , 1 - 1 1 1 6 B c C c n IXIXIXg.c.Z.*X-.e.D.SXFXHXIXIXIXIXIXIXIXIXIXIXIXIXIXIXIXIXIXIXIXIXIXIXIXIXIXIXIX",
"IXIXIXIXIXIXIXIXIXIXIXIXIXIXIXIXIXIXIXIXIXIXIXIXIXIXIXIXIXIXIXIXIXIXIXIXIXIXIXIXIXIXIXIXIXIXX 4 1 1 1 o o X X X X X X X o o X o X X X o @ o - 1 1 o - - 1 , , 1 1 , , 6 6 C c < IXIX' m K u P U R c.v.KXHXIXIXIXIXIXIXIXIXIXIXIXIXIXIXIXIXIXIXIXIXIXIXIXIXIXIXIX",
"IXIXIXIXIXIXIXIXIXIXIXIXIXIXIXIXIXIXIXIXIXIXIXIXIXIXIXIXIXIXIXIXIXIXIXIXIXIXIXIXIXIXIXIXIXIXO : o o o 1 o o X X o X X X X o X X o X o o o X X - 1 - 1 1 8 1 1 1 1 1 1 6 < C v < G v m 7 8 4 j 4 D S ) M.IXIXIXIXIXIXIXIXIXIXIXIXIXIXIXIXIXIXIXIXIXIXIXIXIXIXIXIX",
"IXIXIXIXIXIXIXIXIXIXIXIXIXIXIXIXIXIXIXIXIXIXIXIXIXIXIXIXIXIXIXIXIXIXIXIXIXIXIXIXIXIXIXIXIXIX; - 1 o o 1 o X X X X X X O O X o o o o X X o o X o - - 1 - 1 8 , , 5 3 6 6 6 6 6 G G 8 1 8 8 6 h 6 g S F J IXIXIXIXIXIXIXIXIXIXIXIXIXIXIXIXIXIXIXIXIXIXIXIXIXIXIXIX",
"IXIXIXIXIXIXIXIXIXIXIXIXIXIXIXIXIXIXIXIXIXIXIXIXIXIXIXIXIXIXIXIXIXIXIXIXIXIXIXIXIXIXIXIXIXIX; > 1 o o o @ o X X X X X X O X X X o o X X o o - 1 1 1 - 1 1 1 , 1 6 5 , , < < 6 G ) S 4 7 v < < h N 6 F _ a.IXIXIXIXIXIXIXIXIXIXIXIXIXIXIXIXIXIXIXIXIXIXIXIXIXIXIX",
"IXIXIXIXIXIXIXIXIXIXIXIXIXIXIXIXIXIXIXIXIXIXIXIXIXIXIXIXIXIXIXIXIXIXIXIXIXIXIXIXIXIXIXIXIXIXIX> : o X o @ o X O O O X o $ , 1 1 o X X X o o - 1 5 1 - 3 3 3 1 1 - , , 1 6 5 , 8 7 7 7 3 v C C h N 6 N ~ H IXIXIXIXIXIXIXIXIXIXIXIXIXIXIXIXIXIXIXIXIXIXIXIXIXIXIX",
"IXIXIXIXIXIXIXIXIXIXIXIXIXIXIXIXIXIXIXIXIXIXIXIXIXIXIXIXIXZ.{.-XIXIXIXIXIXIXIXIXIXIXIXIXIXIXIXo : o o o o X X X o o o o o o o o o X o , $ o o o , 1 , 6 7 6 6 1 8 5 , - , , , 1 , 7 8 1 6 C C C N N F G / IXIXIXIXIXIXIXIXIXIXIXIXIXIXIXIXIXIXIXIXIXIXIXIXIXIXIX",
"IXIXIXIXIXIXIXIXIXIXIXIXIXIXIXIXIXIXIXIXIXIXIXIXIXIXIXIX7.X.~.[.-XIXIXIXIXIXIXIXIXIXIXIXIXIXIXO : o o o o X X X X o o o o o o o , o , 3 1 , , , , , 1 1 7 6 v 6 3 3 , - , , 1 1 3 3 , 5 3 , 1 N N Y J G h.IXIXIXIXIXIXIXIXIXIXIXIXIXIXIXIXIXIXIXIXIXIXIXIXIXIXIX",
"IXIXIXIXIXIXIXIXIXIXIXIXIXIXIXIXIXIXIXIXIXIXIXIXIXIXIXIX7.@.R.(.$X-XIXIXIXIXIXIXIXIXIXIXIXIXIX- - o o o o X O X O o 1 1 1 1 1 1 , o 1 7 1 , 3 6 6 , , , 6 N 7 6 , 5 5 , 1 1 $ , 6 c c 6 7 7 7 7 6 B H ~ s.IXIXIXIXIXIXIXIXIXIXIXIXIXIXIXIXIXIXIXIXIXIXIXIXIXIXIX",
"IXIXIXIXIXIXIXIXIXIXIXIXIXIXIXIXIXIXIXIXIXIXIXIXIXIXIXIX7.@.U.^._.%XIXIXIXIXIXIXIXIXIXIXIXIXIXX @ o o o 1 o X X X 1 7 1 o , 1 $ , 1 N S 3 , N G G , , 6 N ~ 6 N N v 5 - 1 1 3 1 C E E V S J J 7 6 6 N W s.IXIXIXIXIXIXIXIXIXIXIXIXIXIXIXIXIXIXIXIXIXIXIXIXIXIXIX",
"IXIXIXIXIXIXIXIXIXIXIXIXIXIXIXIXIXIXIXIXIXIXIXIXIXIXIXIX7.@.U.^._.).-XIXIXIXIXIXIXIXIXIXIXIXC 1 1 o o 1 1 1 o O o 7 7 1 $ 3 g 7 3 7 J ~ 6 , N Y ~ , $ G G h.6 G G G v 6 7 g 3 , c b C C N J ) J N 6 C B k.IXIXIXIXIXIXIXIXIXIXIXIXIXIXIXIXIXIXIXIXIXIXIXIXIXIXIX",
"IXIXIXIXIXIXIXIXIXIXIXIXIXIXIXIXIXIXIXIXIXIXIXIXIXIXIXIX%.+.!.!.R.}.oXIXIXIXIXIXIXIXIXIXp.~ ~ - 1 X o o S J X 1 v G N , , 7 N v , 6 N S 1 , 7 G S , 5 6 v N 6 6 / _ < c N _ v G H a.c c B H H ~ Y ! c Z b.IXIXIXIXIXIXIXIXIXIXIXIXIXIXIXIXIXIXIXIXIXIXIXIXIXIXIX",
"IXIXIXIXIXIXIXIXIXIXIXIXIXIXIXIXIXIXIXIXIXIXIXIXIXIXIXIX..2.6.!./.R./.=XIXIXIXIXIXIXIXk.V H ~ X - o o o 3 7 O 1 v S 3 o , v 7 , X , 6 7 1 o 7 S G , 5 N N v 1 6 ~ ! 6 6 ~ E 6 v a.E , E _ / ! _ / / A p.k.IXIXIXIXIXIXIXIXIXIXIXIXIXIXIXIXIXIXIXIXIXIXIXIXIXIXIX",
"IXIXIXIXIXIXIXIXIXIXIXIXIXIXIXIXIXIXIXIXIXIXIXIXIXIXIXIXo.+.T.^.^.^.(.#XIXIXIXIXIXIXb.p./ / ( 5 - o o 1 1 1 O 1 8 S 7 , 1 v 7 1 , 1 v v 3 , N G J , 6 G G 6 , v ~ J < 6 _ W 5 N ~ G 6 C ! n.h.H 0.h.i.p.k.IXIXIXIXIXIXIXIXIXIXIXIXIXIXIXIXIXIXIXIXIXIXIXIXIXIXIX",
"IXIXIXIXIXIXIXIXIXIXIXIXIXIXIXIXIXIXIXIXIXIXIXIXIXIXIXIX7.6.!.Q.^.^.Q.[.IXIXIXIXIXd.k.b.M.h.b., - 1 O 1 1 1 o 1 8 S 7 1 1 7 7 5 o 1 6 N 3 , N W J , v G G 5 , v ~ G , c _ H 5 G H v 6 c V h.! V h.h.F.s.Z IXIXIXIXIXIXIXIXIXIXIXIXIXIXIXIXIXIXIXIXIXIXIXIXIXIXIX",
"IXIXIXIXIXIXIXIXIXIXIXIXIXIXIXIXIXIXIXIXIXIXIXIXIXIXIX,.<.E.(./. X^.R.oXIXIXIXIXd.b.b.s.M.A.; 5 : 1 O 1 1 , o , v 7 1 o 1 v 6 , , 3 7 J 7 7 H _ H 1 v N N 5 , v ~ c 6 6 h.v 5 N W v 6 C V / c V h.n.k.k.s.IXIXIXIXIXIXIXIXIXIXIXIXIXIXIXIXIXIXIXIXIXIXIXIXIXIXIX",
"IXIXIXIXIXIXIXIXIXIXIXIXIXIXIXIXIXIXIXIXIXIXIXIXIXIXIX7.8.|.(./.).).R.~.IXIXIXG.F.s.b.n.M.S.: - X o X 1 1 1 , 1 8 7 3 , 1 7 7 3 o 1 1 G 1 3 v ~ G , v v N 5 , v ~ 6 6 v s.6 5 G G G 6 6 C _ C C ! h.Z H.k.IXIXIXIXIXIXIXIXIXIXIXIXIXIXIXIXIXIXIXIXIXIXIXIXIXIXIX",
"IXIXIXIXIXIXIXIXIXIXIXIXIXIXIXIXIXIXIXIXIXIXIXIXIXIXIX7.'.}.@X@X(.^.^./..XIXIXm.k.s.s.m.v.S.@ : o o o 1 1 7 1 3 3 v v 5 1 3 7 N 1 3 3 H 3 5 6 G H , 6 6 N 5 5 v ~ N 3 G ~ v 6 W J 6 < N B / C C ~ n.Z b.H.IXIXIXIXIXIXIXIXIXIXIXIXIXIXIXIXIXIXIXIXIXIXIXIXIXIXIX",
"IXIXIXIXIXIXIXIXIXIXIXIXIXIXIXIXIXIXIXIXIXIXIXIXIXIX%.4.~. X@X_.@X/. XQ.!.{.IXx.( l.j.m.D.S.  & 1 o o $ 1 7 1 1 8 8 3 , 1 3 3 7 , , 1 S 7 1 3 N W , 6 v G 6 5 N J 6 N J s.6 v W _ N 6 H G / H c C a.s.Q b.IXIXIXIXIXIXIXIXIXIXIXIXIXIXIXIXIXIXIXIXIXIXIXIXIXIXIX",
"IXIXIXIXIXIXIXIXIXIXIXIXIXIXIXIXIXIXIXIXIXIXIXIXIXIXo.W.}. X).).@X+X X^.E.y.u.w./ l.n.m.S.S.+ & o o X $ 3 7 7 1 1 8 3 N 3 3 3 6 1 3 6 S 7 1 N N S 7 v N G 6 5 N J 6 5 ~ _ N 6 E ~ N B G H H 6 B V a.Q Q b.IXIXIXIXIXIXIXIXIXIXIXIXIXIXIXIXIXIXIXIXIXIXIXIXIXIXIX",
"IXIXIXIXIXIXIXIXIXIXIXIXIXIXIXIXIXIXIXIXIXIXIXIXIXIX$.y.!.R.)._.).^.|.|.W.1. .u h.j.H.A.S.S.  . o X o o 1 7 1 1 1 3 7 N 5 3 6 v 1 1 7 N 6 6 N G G 3 6 N W N , v G v v G E c N _ / C B ~ / C 6 H E ! Z Z F.Z IXIXIXIXIXIXIXIXIXIXIXIXIXIXIXIXIXIXIXIXIXIXIXIXIXIX",
"IXIXIXIXIXIXIXIXIXIXIXIXIXIXIXIXIXIXIXIXIXIXIXIXIXIX%.5.T.Q./.).1X>X~.{.$.9 0 f 1 , X % . D.. . X o o o 1 1 1 , 1 8 v N 1 5 7 N 1 1 8 7 1 1 7 G S 3 - G s.~ N N _ 6 6 G ~ c V a./ B V _ h.B C ~ / / n ( j.Z IXIXIXIXIXIXIXIXIXIXIXIXIXIXIXIXIXIXIXIXIXIXIXIXIXIX",
"IXIXIXIXIXIXIXIXIXIXIXIXIXIXIXIXIXIXIXIXIXIXIXIXIXIX9.7.5.T.R.Q.^.$XW.{ 9 0 # f @ 1 $ O . O & & o o o o 1 1 1 , 1 7 7 v , 5 6 N 1 1 7 3 1 1 5 S _ S 5 6 W ~ C C ~ W N C / V 6 / _ H V a.h.H ! E a.Z C E h.Z IXIXIXIXIXIXIXIXIXIXIXIXIXIXIXIXIXIXIXIXIXIXIXIXIXIX",
"IXIXIXIXIXIXIXIXIXIXIXIXIXIXIXIXIXIXIXIXIXIXIXIXIXIXIX,.$.6.!.!.!.].e # = 3 > @ * . . & $ o O X o o o o 1 1 1 $ , 3 7 7 , 1 3 6 1 1 7 8 8 8 , 7 G N N , N _ N N C a.H N h.E ; a.j.H C a.a.V ^ E ( C V p.h.Q d.IXIXIXIXIXIXIXIXIXIXIXIXIXIXIXIXIXIXIXIXIXIXIXIXIX",
"IXIXIXIXIXIXIXIXIXIXIXIXIXIXIXIXIXIXIXIXIXIXIXIXIXIXIXM #.1.5.U.].[ + & $ , . 2 @ & O X O X 8 . o X X o $ 1 1 o , 3 7 6 , 3 3 3 1 3 8 8 8 8 , 5 , G v 6 C J _ C 6 H / E ! / E ! b.V < / a.V ( a./ C ^ i.M.E z.IXIXIXIXIXIXIXIXIXIXIXIXIXIXIXIXIXIXIXIXIXIXIXIXIX",
"IXIXIXIXIXIXIXIXIXIXIXIXIXIXIXIXIXIXIXIXIXIXIXIXIXIXIXIXIXa o.7.] q & , X % 1 . 1 O X o o : o : X o o o o , , $ - 3 6 3 - 5 3 5 1 3 8 8 N 7 5 3 N _ 5 v 6 < h.B < 6 h.H < a.n.C h.( < / h.! E h.i.E A b.~ ^ G.IXIXIXIXIXIXIXIXIXIXIXIXIXIXIXIXIXIXIXIXIXIXIXIXIX",
"IXIXIXIXIXIXIXIXIXIXIXIXIXIXIXIXIXIXIXIXIXIXIXIXIXIXIXIXIXM ,.%.#.0 1 , , $   & X $ o X X . : o X o o o o o , , - 8 6 3 o 5 3 3 1 7 8 7 G v v v 3 v v N 6 6 E N B X _ ~ V < / a.i.h.V i.j.i.C h.h.C p.n.V C f.IXIXIXIXIXIXIXIXIXIXIXIXIXIXIXIXIXIXIXIXIXIXIXIXIX",
"IXIXIXIXIXIXIXIXIXIXIXIXIXIXIXIXIXIXIXIXIXIXIXIXIXIXIXIXIXIX' U P k . - - 1 . o o o o X X X o o o o X o o o o o o 7 7 1 1 1 7 7 8 8 8 v S G 8 S v S S 8 3 N 6 / B 6 N ~ / V < h.j.i.l.( h.a.C a.h./ ( j.a.^ b.IXIXIXIXIXIXIXIXIXIXIXIXIXIXIXIXIXIXIXIXIXIXIXIXIX",
"IXIXIXIXIXIXIXIXIXIXIXIXIXIXIXIXIXIXIXIXIXIXIXIXIXIXIXIXIXIXIXK R = @ 8 - O 1 X o o X X o X o o o o o o o o , 1 $ 7 1 1 1 1 7 8 v 8 v N G G 8 v 7 S G 7 3 6 6 _ N 1 h ~ h.! < / h./ h.E n.a.Q / _ ! h.k.^ s.b.IXIXIXIXIXIXIXIXIXIXIXIXIXIXIXIXIXIXIXIXIXIXIXIXIX",
"IXIXIXIXIXIXIXIXIXIXIXIXIXIXIXIXIXIXIXIXIXIXIXIXIXIXIXIXIXIXIXIXK D @ 3 X - o X o o X X o o o o X o o o X o 1 1 , 3 1 3 3 1 7 v S v v N G G 7 8 S v S 8 v N 6 J h 6 h 6 ~ N 6 ~ / h.E B a.h.( C qX! s.F.i.b.k.IXIXIXIXIXIXIXIXIXIXIXIXIXIXIXIXIXIXIXIXIXIXIXIXIX",
"IXIXIXIXIXIXIXIXIXIXIXIXIXIXIXIXIXIXIXIXIXIXIXIXIXIXIXIXIXIXIXIXIXK 1 X 1 o $ . X X X X . o o o X o o X X o 1 1 , 1 1 7 7 1 3 S G S v v G G v 7 v S K 7 N 3 6 N 7 h S N ~ S N _ ~ n.H H E n.a./ h.n.p.G.( E k.IXIXIXIXIXIXIXIXIXIXIXIXIXIXIXIXIXIXIXIXIXIXIXIXIX",
"IXIXIXIXIXIXIXIXIXIXIXIXIXIXIXIXIXIXIXIXIXIXIXIXIXIXIXIXIXIXIXIXIXIX: v O $ . o o X X . . o o o o o o X X o 1 1 , 1 3 g S 7 3 S K G v v G G S 7 S S K N N 7 N N S 7 6 G J N 5 J H _ ~ H / a.h.m.( n.k.G.E h.k.IXIXIXIXIXIXIXIXIXIXIXIXIXIXIXIXIXIXIXIXIXIXIXIXIX",
"IXIXIXIXIXIXIXIXIXIXIXIXIXIXIXIXIXIXIXIXIXIXIXIXIXIXIXIXIXIXIXIXIXIXIX, & . o o o X X X . o o o o o o o o 1 1 1 1 1 7 S S 7 3 S G G g g G S S 7 G N N 7 N S G N G G N G C B B ~ E H E B / ! ! h.A n.F.F.h.a.k.IXIXIXIXIXIXIXIXIXIXIXIXIXIXIXIXIXIXIXIXIXIXIXIXIX",
"IXIXIXIXIXIXIXIXIXIXIXIXIXIXIXIXIXIXIXIXIXIXIXIXIXIXIXIXIXIXIXIXIXIXIX- $ & . o o - X X o o o X o o o o o o 1 7 7 1 3 N F S 7 g S F 7 7 S S S 8 7 N N N 7 N S S 6 N E E C B ! V ( ( V V A ( C C ( p.H.F.h.j.F.IXIXIXIXIXIXIXIXIXIXIXIXIXIXIXIXIXIXIXIXIXIXIXIXIX",
"IXIXIXIXIXIXIXIXIXIXIXIXIXIXIXIXIXIXIXIXIXIXIXIXIXIXIXIXIXIXIXIXIXIXrX, $ O 1 o - - X X o o o X o X o 1 o o 1 7 7 1 1 7 K G 7 7 S K 7 7 S S K S N F N G N G S 7 b.~ W ^ H 6 V V E V C ! A A V A ! A i.j.h.i.b.IXIXIXIXIXIXIXIXIXIXIXIXIXIXIXIXIXIXIXIXIXIXIXIXIX",
"IXIXIXIXIXIXIXIXIXIXIXIXIXIXIXIXIXIXIXIXIXIXIXIXIXIXIXIXIXIXIXIXIXIXyX< % % X o - - o X X o o X X X o - o 1 1 3 7 7 1 1 S F g 3 F S j S 7 S S N S S F S 7 S K 1 8 _ S G 1 S G S 8 3 B C V ! C V V i./ h.( i.j.IXIXIXIXIXIXIXIXIXIXIXIXIXIXIXIXIXIXIXIXIXIXIXIXIX",
"IXIXIXIXIXIXIXIXIXIXIXIXIXIXIXIXIXIXIXIXIXIXIXIXIXIXIXIXIXIXIXIXIXIXyXC $ 1 , O - - o X X o o o o o o - o @ 1 1 7 7 1 1 g G S 7 g j g j 7 G S N h S N F G J y & S ` D u u u d U T c.c.m.~ n.n.0.0.h.n./ 0.h.p.d.IXIXIXIXIXIXIXIXIXIXIXIXIXIXIXIXIXIXIXIXIXIXIXIX",
"IXIXIXIXIXIXIXIXIXIXIXIXIXIXIXIXIXIXIXIXIXIXIXIXIXIXIXIXIXIXIXIXIXeXyX; < % o 1 - - o o . X o o o o o @ 1 @ 1 1 7 7 1 1 7 S S S 6 g g 7 7 G G N G G F F 7 2 @ u u w k z #.N.>.t.N.e.L.D.A.M.M.A.K.K.H.K.8Xl.i.z.d.IXIXIXIXIXIXIXIXIXIXIXIXIXIXIXIXIXIXIXIXIXIXIX",
"IXIXIXIXIXIXIXIXIXIXIXIXIXIXIXIXIXIXIXIXIXIXIXIXIXIXIXIXIXIXIXIXIX9XqXJ.< , $ o @ @ o o X X X o o o o @ 1 1 1 3 7 7 3 1 3 7 N S 7 7 7 7 7 S G S N N F g 2 + u z P P #.t.%.] [ 7.| t.e.z K.0.K.l.M.H.K.A.K.n.n.l.F.z.IXIXIXIXIXIXIXIXIXIXIXIXIXIXIXIXIXIXIXIXIXIX",
"IXIXIXIXIXIXIXIXIXIXIXIXIXIXIXIXIXIXIXIXIXIXIXIXIXIXIXIXIXIXIXIXIXeX8Xj.B 6 6 o $ $ @ o o o o o o X X o 1 1 1 7 7 7 7 3 3 3 7 S 3 3 7 7 7 7 S S 7 F F 4 4 * :.z x e &. .| o.[ t.%.>.t.z S.S.A.K.0.K.M.H.K.J.F.j.F.z.G.IXIXIXIXIXIXIXIXIXIXIXIXIXIXIXIXIXIXIXIXIX",
"IXIXIXIXIXIXIXIXIXIXIXIXIXIXIXIXIXIXIXIXIXIXIXIXIXIXIXIXIXIXIXIXIXyXJ.F.h.E 1 3 $ . o o o o o o o o o o 1 1 1 3 7 7 7 7 3 1 3 7 3 1 7 S S m S S S N F g y + *.=.{ a ;.u.e u.{ ;.e.e.v.S.K.K.K.A.K.K.K.K.K.J.h.l.j.n.k.z.IXIXIXIXIXIXIXIXIXIXIXIXIXIXIXIXIXIXIXIX",
"IXIXIXIXIXIXIXIXIXIXIXIXIXIXIXIXIXIXIXIXIXIXIXIXIXIXIXIXIXIXIXIXIXqXJ.l.k.Q B 1 & $ o o o o o o o X X o 1 1 1 1 1 3 7 7 7 1 1 3 3 1 g S S m S S N 6 7 j k + z N.7.] | u.u.>.B.e.v.z u v.w.3 A.K.K.h M.A.A.h.J.n.A.n.n.z.IXIXIXIXIXIXIXIXIXIXIXIXIXIXIXIXIXIXIXIX",
"IXIXIXIXIXIXIXIXIXIXIXIXIXIXIXIXIXIXIXIXIXIXIXIXIXIXIXIXIXIXIXIXwXqXF.l.p.E B G 7 1 @ o - o o o X X X o 1 1 1 1 1 1 3 7 7 1 1 1 3 3 7 7 7 8 S v N S S 7 j u 9 >.t.>.>.#.#.:.k C.S.k 3 M.K.m.m.g F ~ 0.n.V J.F.0.n.j.F.j.G.IXIXIXIXIXIXIXIXIXIXIXIXIXIXIXIXIXIXIX",
"IXIXIXIXIXIXIXIXIXIXIXIXIXIXIXIXIXIXIXIXIXIXIXIXIXIXIXIXIXIXIXIXwXqXF.i.Q Z H 6 J o 1 1 o 1 o X o o o o 1 1 1 1 1 1 1 3 3 1 1 1 1 3 7 7 7 7 7 S 7 G 3 S G o 3 I :.x.w.u I ` m.m.` S N _ h.a.a.h./ 0.! V l.F.F.F.F.l.j.F.b.IXIXIXIXIXIXIXIXIXIXIXIXIXIXIXIXIXIXIX",
"IXIXIXIXIXIXIXIXIXIXIXIXIXIXIXIXIXIXIXIXIXIXIXIXIXIXIXIXIXIXIXIXwX8XF.i.! V V v W L.1 : X o , o o o o o 1 1 1 1 1 1 1 1 1 1 1 1 1 3 7 7 3 7 7 g N 3 N S 7 1 J 3 m.M.Y m.F ~ 1 5 v _ ~ B B C C E ( j.h.( p.p.l.j.l.H.l.F.k.IXIXIXIXIXIXIXIXIXIXIXIXIXIXIXIXIXIXIX",
"IXIXIXIXIXIXIXIXIXIXIXIXIXIXIXIXIXIXIXIXIXIXIXIXIXIXIXIXIXIXIXIXwXJ.j.i.Q C C v ) m.v.1 7 o o X o o X o & 1 1 1 1 1 1 1 1 1 1 7 1 3 3 3 3 3 7 7 7 7 N 3 g 3 G 3 g 6 1 1 S S G N G W W B V ( / ( ^ h.( / h.h.j.l.j.i.j.j.F.J.IXIXIXIXIXIXIXIXIXIXIXIXIXIXIXIXIXIX",
"IXIXIXIXIXIXIXIXIXIXIXIXIXIXIXIXIXIXIXIXIXIXIXIXIXIXIXIXIXIXIXIXwXJ.j.h.^ V B G ) x.x.x.1 1 o 1 o o o o & 1 1 1 1 1 1 1 1 1 1 8 1 1 3 3 1 1 3 7 1 F 3 3 N 3 3 F 7 _ F 6 7 Y ~ J W ~ ~ G 6 C E E h.b.l.n.n.j.b.l.j.k.p.F.b.yXIXIXIXIXIXIXIXIXIXIXIXIXIXIXIXIXIXIX",
"IXIXIXIXIXIXIXIXIXIXIXIXIXIXIXIXIXIXIXIXIXIXIXIXIXIXIXIXIXIXIXIX9XF.h.p.Z C v 8 ) x.` ` ) @ 1 @ o o o o $ & 1 1 1 1 o : 1 1 1 1 1 1 1 1 3 3 1 1 7 7 7 g 3 1 7 S 3 3 G G G S _ ~ ~ _ ~ B ~ a.a.h.b.h./ / h.j.n.n.F.IXIXIXIXIXIXIXIXIXIXIXIXIXIXIXIXIXIXIXIXIXIXIX",
"IXIXIXIXIXIXIXIXIXIXIXIXIXIXIXIXIXIXIXIXIXIXIXIXIXIXIXIXIXIXIXwX8Xn.s.p.E B v 8 K ) ` J ) ` 1 o @ o o o o $ , 1 1 o o o 1 1 1 @ 1 1 1 1 3 3 1 1 7 1 g 7 7 1 S 3 S N N g N 7 N 7 v S G N v 6 C ! Z Z ! V C ! h.F.qX9XIXIXIXIXIXIXIXIXIXIXIXIXIXIXIXIXIXIXIXIXIXIX",
"IXIXIXIXIXIXIXIXIXIXIXIXIXIXIXIXIXIXIXIXIXIXIXIXIXIXIXIXIXIXIXyX8Xj.p.! B v c 8 S ` S y y I K 4 & & $ o o o o $ o o o o : 1 : @ 1 1 1 1 1 1 1 1 1 1 7 1 g 7 7 3 1 S N 3 J G S 7 G 1 1 7 6 , 6 < B H E ( ! Z H V n.wXIXIXIXIXIXIXIXIXIXIXIXIXIXIXIXIXIXIXIXIXIXIX",
"IXIXIXIXIXIXIXIXIXIXIXIXIXIXIXIXIXIXIXIXIXIXIXIXIXIXIXIXIXIXIXwX8Xk.^ Q C v 8 v S g.S y y 3 S D & & $ o o X o o o o o o o @ : 1 : 1 1 1 1 1 1 1 1 1 1 1 1 3 1 7 F 7 S _ W 7 S N 3 S v , 6 3 6 6 6 H C V Z B H V ( k.IXIXIXIXIXIXIXIXIXIXIXIXIXIXIXIXIXIXIXIXIXIX",
"IXIXIXIXIXIXIXIXIXIXIXIXIXIXIXIXIXIXIXIXIXIXIXIXIXIXIXIXIXIXIXwXJ.k.^ Z B c v 8 m I D y 4 8 y y K . 1 o X & o X X o o o o o @ : 1 1 1 1 1 1 1 1 1 3 7 1 3 1 1 F G N N S S v 3 8 8 1 1 1 6 6 6 6 c C C C C Z C ~ ( Q p.IXIXIXIXIXIXIXIXIXIXIXIXIXIXIXIXIXIXIXIXIX",
"IXIXIXIXIXIXIXIXIXIXIXIXIXIXIXIXIXIXIXIXIXIXIXIXIXIXIXIXIXIXIXqXH.h.^ E B 6 8 1 8 K ) 2 4 & 1 & j j . 4 .   1 X X o o o o o @ : 1 1 1 1 1 1 1 1 1 1 1 $ 1 3 7 ) 3 7 7 7 1 - 1 8 1 1 3 7 7 7 v 7 6 N H C B c ( h./ i.a.i.IXIXIXIXIXIXIXIXIXIXIXIXIXIXIXIXIXIXIXIX",
"IXIXIXIXIXIXIXIXIXIXIXIXIXIXIXIXIXIXIXIXIXIXIXIXIXIXIXIXIXIXeXqXF.a.^ E V v v 1 1 y ` 3 u 2 * & & j . @ & o o 1 o o o o o o & & o @ 1 1 1 1 1 1 1 1 o o 7 7 N ~ 7 3 1 1 1 1 1 1 1 1 8 7 7 7 7 v v B H F H c E Z Z V b./ IXIXIXIXIXIXIXIXIXIXIXIXIXIXIXIXIXIXIXIX",
"IXIXIXIXIXIXIXIXIXIXIXIXIXIXIXIXIXIXIXIXIXIXIXIXIXIXIXIXIXIXyX0Xn.i.( E V c v 8 8 3 J K * 2 + * @ = 2 . 2 & o X - o o o o 1 & & o @ 1 1 1 1 1 1 1 1 1 3 N S 7 S S 3 $ 1 3 7 1 1 1 1 8 1 1 1 3 v v N 1 g N E ^ Q Q B H _ / IXIXIXIXIXIXIXIXIXIXIXIXIXIXIXIXIXIXIX",
"IXIXIXIXIXIXIXIXIXIXIXIXIXIXIXIXIXIXIXIXIXIXIXIXIXIXIXIXIXIX9X8Xn.a.( E C c v 8 7 3 ) x.y # + # #   * 4 & . 7 O : o o o o o & & @ o o o 1 1 1 1 1 1 7 7 S 7 1 1 3 1 1 1 1 1 1 1 1 1 1 , , 1 1 5 6 7 g Y N i.E Q p.p.Q ( B IXIXIXIXIXIXIXIXIXIXIXIXIXIXIXIXIXIXIX",
"IXIXIXIXIXIXIXIXIXIXIXIXIXIXIXIXIXIXIXIXIXIXIXIXIXIXIXIXIXIXwX8Xj.i.( V C c v 8 1 7 c.m.R # # + + + @ * . @ X 1 - - o o o o o o : o o o 1 1 1 1 1 1 1 3 1 1 , 1 $ 1 1 1 1 o o 1 1 o - 1 1 1 1 1 7 3 7 6 c W W _ Z Q h.E ( d.IXIXIXIXIXIXIXIXIXIXIXIXIXIXIXIXIXIX",
"IXIXIXIXIXIXIXIXIXIXIXIXIXIXIXIXIXIXIXIXIXIXIXIXIXIXIXIXIXIXeXH.j./ ( V C c v 8 o J S.c.` y *   # * *     y o @ - - - o o o o o o o o o o o 1 1 1 o 1 1 o , o , 1 $ & & 1 1 o o o o - 1 1 1 8 1 v 6 N c H C g g H E E ( ~ ( Q IXIXIXIXIXIXIXIXIXIXIXIXIXIXIXIXIX",
"IXIXIXIXIXIXIXIXIXIXIXIXIXIXIXIXIXIXIXIXIXIXIXIXIXIXIXIXIXyX0XJ.j./ ( E B c v 1 3 x.L.:.` ` 8 #     # @ . K c.  @ @ @ o o X o o o o o o o o @ 1 1 o 1 1 $ 1 , , & & o o o 1 o o , $ o o $ 1 1 3 & 4 4 m K y L R R ` g.x._ ~ _ s.IXIXIXIXIXIXIXIXIXIXIXIXIXIXIXIX",
"IXIXIXIXIXIXIXIXIXIXIXIXIXIXIXIXIXIXIXIXIXIXIXIXIXIXIXIXIXeX8XF.j.i.E ( C B 8 @ u x.L.c.:.T :.D 2 +   @ @ ` c.v.V.# # + # & O o o o o o o o o o o 1 1 1 : - - 1 o @ @ @ o o - - , , $ $ $ & 2 # w p e l } -. . .#.=.*.w.x.x.x.h.h.J.IXIXIXIXIXIXIXIXIXIXIXIXIXIX",
"IXIXIXIXIXIXIXIXIXIXIXIXIXIXIXIXIXIXIXIXIXIXIXIXIXIXIXIXIXqX0XF.i.a.E V E B m @ D C.D.v.:.:.I ) I k & @ @ :.x.e.c.V.V.D.S.  o o o o o o o o @ o o o o o - : - o @ @ o o : 1 - - o $ o @ # # q p { 7.].{.2X2X2XsXsXsXsXtXC.T x.x.m.x.b.IXIXIXIXIXIXIXIXIXIXIXIXIX",
"IXIXIXIXIXIXIXIXIXIXIXIXIXIXIXIXIXIXIXIXIXIXIXIXIXIXIXIXIXwXJ.j.l.! ( E B G 3   L v.C.e.c.:._ ) I D D I I :.:.w.V.B.B.B.V.S.  & o o o o o o o o o o o o o o o o $ o o $ , o o @ @ * # 9 a | 7.].XX#X=X7X4XiXpXdXdXlXlXmXNXVXxXrXS.S.m.g.IXIXIXIXIXIXIXIXIXIXIXIX",
"IXIXIXIXIXIXIXIXIXIXIXIXIXIXIXIXIXIXIXIXIXIXIXIXIXIXIXIXIXqXJ.j.! Z Z E H G * # >.=.B.w.C.c.h.F K D D R I I T c.B.e.e.B.C.v.S.. X o X X o o o o o o X o o o o o X % $ , o O @ * # t p | 3.W.'.[.#X%X,X=X5X5XaXpXjXcXcXlXNXNXBXBXnXrXg.G.IXIXIXIXIXIXIXIXIXIXIXIX",
"IXIXIXIXIXIXIXIXIXIXIXIXIXIXIXIXIXIXIXIXIXIXIXIXIXIXIXIXyX8XF.j._ W i.V B L # *X{.t.e.e.v.L.x.I I R I K D D P c.B.>.e.B.B.V.C.  o X o o o o o X o o o o o o o o X X % $ o . * r i } ..3.W.E.!.|.}.$X:X:X6X6XaXiXfXcXzXlXlXmXvXmXCXVXLXL.C.IXIXIXIXIXIXIXIXIXIXIX",
"IXIXIXIXIXIXIXIXIXIXIXIXIXIXIXIXIXIXIXIXIXIXIXIXIXIXIXIXyX8XF.k.` J b ^ S f *X-X&X{.r.>.v.*X:.T I I R I I L P e.e.N.e.e.V.v.C.& o o o o o o o o X o o o o o o o o X . o * 0 t d | %.<.4.W.I.!. X(. X+X,X%X4X7X5XpXpXgXgXzXlXMXMXBXBXSXBXrXIXIXIXIXIXIXIXIXIXIXIX",
"IXIXIXIXIXIXIXIXIXIXIXIXIXIXIXIXIXIXIXIXIXIXIXIXIXIXIXIXwX8Xz.s.W W E W K *X2X3X%X#Xy.-.V.L.x.I R K K K K D P e.e.e.-.B.B.v.C.  o o o o o X o o X X X o o o o X . . + # 0 t l { | X.2.5.5.6.U.Q.(.>X@XOX4X%X3X5X2XiXhXlXgXzXzXlXmXmXCXBXSXPXIXIXIXIXIXIXIXIXIXIX",
"IXIXIXIXIXIXIXIXIXIXIXIXIXIXIXIXIXIXIXIXIXIXIXIXIXIXIXIXeXH.z.i.~ G W G K 9 XX5X=X#X].>.c.C.v.I I R ) K j D P :.e.-.e.e.e.V.  @ o X X X X X . . o . . X o @ o O   # * # f i l #.| $.1.+.+.6.E.T.Q./.^.$X%X%X4X4XaXpXiXiXcXgXgXzXMXmXmXBXBXBXuXIXIXIXIXIXIXIXIXIX",
"IXIXIXIXIXIXIXIXIXIXIXIXIXIXIXIXIXIXIXIXIXIXIXIXIXIXIXyXqXH.j.i.! B E E 8 0 ].7X$XoXW.;.,.C.C.R D R ) I j D P w.e.>.e.e.B.v.# . o X X X o o o . . X o o o O O   + # 0 q i s s } | ..3.1.2.6.W.I.Q.Q./.}.OX+X:X%X6X5X5XaXiXpXsXzXzXlXNXmXmXCXCXnXIXIXIXIXIXIXIXIX",
"IXIXIXIXIXIXIXIXIXIXIXIXIXIXIXIXIXIXIXIXIXIXIXIXIXIXIXwX8XH.b.i.V ! V C 1 0 r.=XoX|.W.7.>.c.L.:.L R R I S S L w.e.=.e.e.e.  + & o o X X o o o o . . o o . O . + # 9 0 q p s s { | | $.1.1.3.y.5.U.R.}.|.+XOX,X,X:X6X4X5XpXdXiXsXlXcXgXlXNXNXmXSXBXIXIXIXIXIXIXIX",
"IXIXIXIXIXIXIXIXIXIXIXIXIXIXIXIXIXIXIXIXIXIXIXIXIXIXIX9X8XF.s.h.! V V V O z r.oX4XoX[.t.#.U D.v.T I I I S j k :.e.=.=.B.v.  @ . o o X X X o o o X X . .     . + # 0 0 q i s s {  .| %.%.1.3.4.6.I.I.Q.!.|.(.+X X:X,X6X6X5XpXdXpXlXvXgXgXlXlXNXvXNXVXIXIXIXIXIXIX",
"IXIXIXIXIXIXIXIXIXIXIXIXIXIXIXIXIXIXIXIXIXIXIXIXIXIXIXyXJ.j.j.i.E ~ Z c 7 :.$.&X%X$X[.].>.U D.C.:.R I ) K j u *.=.=.e.e.e.+ 2 X o o X X X X o o . . . O     . # * * 0 q p d s { } | | o.$.1.<.2.5.I.E.!.Q.}. X+X+X,X,X4X6X5XpXpXhXiXpXcXcXiXlXvXNXmXxXrXIXIXIXIX",
"IXIXIXIXIXIXIXIXIXIXIXIXIXIXIXIXIXIXIXIXIXIXIXIXIXIXIX8XH.n.j.a.( ~ E o D e.%.2X5X=X&X{.7.,.>.D.c.` ) ) K D y *.*.-.=.w.  & o 1 o o o o X X X X O O O O . . @ @ # * 0 0 r p p l ] | | o.$.$.X.2.+.6.W.T.T.^.|.+X+XOX:X,X5X6X4X7X5X2XhXdXpXiXvXgXgXvXMXNXVXIXIXIX",
"IXIXIXIXIXIXIXIXIXIXIXIXIXIXIXIXIXIXIXIXIXIXIXIXIXIXIXqXn.j.j.Q a.G G : ' e.;.fX5X5X,X.XZ.>.:.L.v.w.` I K K y :.:.P =.e.  . 1 o o o o o o o X . O O . . . + @ # * u u r r i p a a | | ..%.$.X.2.2.4.W.5.T.R.!.(.}.}.$X,X,X=X7X4X5X7XpX=XpXpXpXhXkXkXgXmXBXSXIXIX",
"IXIXIXIXIXIXIXIXIXIXIXIXIXIXIXIXIXIXIXIXIXIXIXIXIXIXwXJ.J.h.p.i.^ ^ v 1 x.c.&.2XiX7X-X-XXX0 y ` v.x.x.) D L k :.*.P *.:.  & $ , - o o X o o . O O . . . . @ @ # * u r r i p p a a } | | | ..X.1.1.2.5.@.T.!.R.Q.^./.+XOX%X:X,X6X6X4X5X5X7XaXaXiXpXhXcXlXmXNXNXsX",
"IXIXIXIXIXIXIXIXIXIXIXIXIXIXIXIXIXIXIXIXIXIXIXIXIXIXwXJ.F.p.h.i.^ E 6 K x.e.-.XXsXiXhX{ i t y K x.x.x.) D L y *.*.P P     1 O , - o X . O . O   . . . . . + @ * # 0 f q i p p p a } } | { o.o.X.+.3.4.6.6.E.I.Q.Q.R./.OX$XOX:X:X%X6X6X4X6X6X5XpXpXpXdXlXlXlXMXMX",
"IXIXIXIXIXIXIXIXIXIXIXIXIXIXIXIXIXIXIXIXIXIXIXIXIXIXwX8Xn.h.p.Q E H N w.c.e.;.;.tXsXl U k y y y J x.:.I D D D *.P P P   o $ , - - - o . . O .   + .   . @ @ # * # 0 0 q r i p p l { } } | | o...$.<.1.2.6.5.W.E.!.Q.}./.+X@X+X:X:X:X:X,X%X6X4X7XpX2XpXpXpXpXgXcX",
"IXIXIXIXIXIXIXIXIXIXIXIXIXIXIXIXIXIXIXIXIXIXIXIXIXIXwXJ.j.^ p.Q A C G :.N.t.r.t.e.uXP k L 4 S m S ` x.I K k D T T k T + & 1 , - - - o . . O O   .   . # # * * 2 0 0 0 q r r p p a l { { | | | ..$.%.%.1.4.5.5.6.U.!.R.|./.@X X+X@X@X,X,X6X,X5X5X4XiX5XpXpXiXcXgX",
"IXIXIXIXIXIXIXIXIXIXIXIXIXIXIXIXIXIXIXIXIXIXIXIXIXIXqXH.l.i.i.( A < J w.V.t.t.t.e.>.k j 1 7 1 G y I c.:.L D D T *.P   u @ 1 o o - - X X . O O O O . @ # # # * # 0 0 q r r t p p p a a ] } | | | ....%.<.3.8.6.6.6.T.R.Q.}.}.+X@XOX,X+X:X:X,X,X=X6X5X5X5X2XhXaXiX",
"IXIXIXIXIXIXIXIXIXIXIXIXIXIXIXIXIXIXIXIXIXIXIXIXIXIX9XF.h._ ~ ! E c S x.V.t.t.t.t.P k K 4 g 3 1 7 D x.x.R I L T L *.L + @ & $ , - o X O O O X . . o # # # # # # 0 0 q r r p p p e a a a } } | | } ..$.$.$.<.6.5.6.E.T.Q.R.Q.(./.+X+X XOX<X}.,X,X=X7X=X7X5X2XaXaX",
"IXIXIXIXIXIXIXIXIXIXIXIXIXIXIXIXIXIXIXIXIXIXIXIXIXIX9XF.a.! ~ E E B 7 x.V.e.t.e.-.e.L D S , 3 1 4 4 J x.` L U T T P T   + @ 1 X $ o o X O O O O X o @ * f r 0 9 0 0 0 r r t p p i a a a ] { } | | | o.X.$.<.<.<.6.6.E.!.!.!.Q.}./.>X@X+XOX+X+X%X:X,X4X6X5X5X5XaX",
"IXIXIXIXIXIXIXIXIXIXIXIXIXIXIXIXIXIXIXIXIXIXIXIXIXIX9Xb.a.~ _ ! E J 1 w.V.e.t.e.e.:.R D S 7 1 7 7 1 j ) ` D L T z T P e.+ + @ @ & $ o X X X X O X X @ * 0 r q 0 0 0 r r r t p p i a a a a ] ] } | | | o...$.<.<.y.6.W.T.Q.T.R.!.Q.^./.+X+X@XOX:X:X:X,X%X,X5X5X5X",
"IXIXIXIXIXIXIXIXIXIXIXIXIXIXIXIXIXIXIXIXIXIXIXIXIXIXIXG.a.( / H E W 4 :.V.t.e.e.-.e.T I ) Y N $ 7 3 7 j I D L *.:.P z z   # + # o o o o X X X X - X @ 2 f f 9 0 0 0 q r t p p p i a a e a a a ] } } | | | ..1.3.2.<.2.I.5.E.E.R.!.(././.}. X@XOX@X:X:X%X%X=X7X5X",
"IXIXIXIXIXIXIXIXIXIXIXIXIXIXIXIXIXIXIXIXIXIXIXIXIXIXIX9Xs.^ E ( E H j T V.e.q.q.e.>.*.T j g S 3 1 4 4 1 7 I k :.T *.z *.:.  + + + . o o o o o X - X @ 2 u 0 f q 0 0 r r p i p d p s a a a a a a a { } | | o...X.1.2.2.6.6.6.E.T.U.R.Q./././.+X@X@X:X:X:X:X%X,X%X",
"IXIXIXIXIXIXIXIXIXIXIXIXIXIXIXIXIXIXIXIXIXIXIXIXIXIXIXIXJ.p.Z Z W S D L B.e.;.O.-.-.>.T j j S 7 4 4 4 & 2 y k *.T *.#.l =.>.=.+   + #   @ . X o X :   * k # 0 t 0 0 0 t i t p i d z a a a a a a a a } | %.| ..$.3.+.1.<.4.5.5.6.E.T.T.Q.}././. X1X X:X:X:X%X,X,X",
"IXIXIXIXIXIXIXIXIXIXIXIXIXIXIXIXIXIXIXIXIXIXIXIXIXIXIXIXIX0XG.d.Q W S :.e.e.q.q.-.&.*.T L K S 7 7 7 3 & 1 4 D :.*.P l l  .=.e.>.c.    + *   2 o @ & @ + * y 0 0 q q q r t p i i p s a a a a a a a l } #. .| ..%.X.$.1.2.2.+.5.5.5.T.E.T.!.Q.(.).@X@X@XOX:X,X:X:X",
"IXIXIXIXIXIXIXIXIXIXIXIXIXIXIXIXIXIXIXIXIXIXIXIXIXIXIXIXIXIXIXIXIXIXIXc.v.-.-.O.O. . .*.P D D j j 7 1 & @ & 4 T *.P *.&.*.=.-.-.-.e.e.B.  +         + * * u k * r r r r r i i i p z s a a a a a a } { #.} | | ....o.3.1.1.2.2.4.6.6.6.I.R.Q.Q././.}.OX}.OX:X,X:X",
"IXIXIXIXIXIXIXIXIXIXIXIXIXIXIXIXIXIXIXIXIXIXIXIXIXIXIXIXIXIXIXIXIXIXIXIX` *.-.O.O. .&.=.P D K S j j 7 1 1 1 4 R :.P #.l  .-.-.-.-.q.t.e.e.e.B.v.C.+ # # + * L t r t t r r i i p p s s s a a a a a { { } }  .| | ..%.o.1.1.X.3.2.2.6.5.!.T.T.R.}./.^.}.+X XOX:X:X",
"IXIXIXIXIXIXIXIXIXIXIXIXIXIXIXIXIXIXIXIXIXIXIXIXIXIXIXIXIXIXIXIXIXIXIXIXs.:.P x  . .#.*.U L I D 7 j S 1 1 3 y R :.P #.#. .&.&.e.q.r.;.q.e.e.e.e.c.B.c.V.C.0 u u r t t r r i i i p a a a a a p a a ] } { } } | | ..| $.X.o.X.X.2.4.2.6.W.E.E.E.!.Q.|.}.OX+X+XOX@X",
"IXIXIXIXIXIXIXIXIXIXIXIXIXIXIXIXIXIXIXIXIXIXIXIXIXIXIXIXIXIXIXIXIXIXIXIXIXK T z l l x z z U ` D j G G 4 1 3 4 U R *.*.&.&.&.&.&.;.;.q.q.;.q.t.t.t.e.B.C.C.C.C.v.t t i r t t i r p a a a a a p a a a } ] } { | | | ..| $.$.$.1.X.1.1.y.6.5.6.E.E.!.(.|.}. X@X>X X",
"IXIXIXIXIXIXIXIXIXIXIXIXIXIXIXIXIXIXIXIXIXIXIXIXIXIXIXIXIXIXIXIXIXIXIXIXIXIX*.#.z l x z z D ) S J J K m 7 8 4 I D #.z l  .-.-.&.;.O.q.r.t.;.r.q.q.V.B.B.B.C.D.V.i i r r t r r i i d a d a a a a a a ] { { a { | | | o.%.$.3.<.X.1.X.2.+.8.5.W.5.'.I.R.|.}.^.+X1X",
"IXIXIXIXIXIXIXIXIXIXIXIXIXIXIXIXIXIXIXIXIXIXIXIXIXIXIXIXIXIXIXIXIXIXIXIXIXIXIX' ' *.T T L D R K S S S 7 7 1 3 L D P x &.&.&.=.=.;.;.;.;.;.q.q.r.r.t.V.B.V.C.V.V.d i r p r r q p q i p p a a a s a a a { a a a { | ..| o.[ $.1.1.$.X.+.4.2.4.6.6.I.!.R.T././.@X/.",
"IXIXIXIXIXIXIXIXIXIXIXIXIXIXIXIXIXIXIXIXIXIXIXIXIXIXIXIXIXIXIXIXIXIXIXIXIXIXIXIXIXIXIXIXIXIXg.J K G G 7 1 g : ) D U x x =.#.=.=.-.;.-.;.q.q.q.q.r.t.t.B.V.C.C.C.B.z r i i q s i q i i i p p p a a a s a { } { a | | | | o.o...$.X.X.1.<.2.4.4.4.6.W.E.R.Q.R././.",
"IXIXIXIXIXIXIXIXIXIXIXIXIXIXIXIXIXIXIXIXIXIXIXIXIXIXIXIXIXIXIXIXIXIXIXIXIXIXIXIXIXIXIXIXIXIXIXp.^ W 7 7 S 7 1 J T k l l x =.#.=.-.-.-.-.;.q.q.q.q.r.t.u.B.C.C.C.C.z d q s q i p r i p d p a a s a a a s l { { { | | | | | | ..%.$.o.<.1.1.2.<.8.5.5.6.I.!.^.}./.",
"IXIXIXIXIXIXIXIXIXIXIXIXIXIXIXIXIXIXIXIXIXIXIXIXIXIXIXIXIXIXIXIXIXIXIXIXIXIXIXIXIXIXIXIXIXIXIXf.s.E v N , o 7 3 D D z l p l #.=.-.-.-.-.;.;.;.q.r.q.t.t.B.V.C.C.V.c.z p q p s q i i i d a p a a a a a a a a { } } } { | | | ....[ X.3.$.X.4.4.4.2.6.W.E.T.Q.!.}.",
"IXIXIXIXIXIXIXIXIXIXIXIXIXIXIXIXIXIXIXIXIXIXIXIXIXIXIXIXIXIXIXIXIXIXIXIXIXIXIXIXIXIXIXIXIXIXIXIXIXIXn 8 g g 4 @ 2 I z z x l p *.&.-.-.&.-.-.;.r.q.q.r.t.B.V.V.C.C.V.z z r i p p p i i d p i e p s a a a a a ] } } } { | | | | | o...$.$.o.X.<.2.2.5.6.W.E.T.!.Q.",
"IXIXIXIXIXIXIXIXIXIXIXIXIXIXIXIXIXIXIXIXIXIXIXIXIXIXIXIXIXIXIXIXIXIXIXIXIXIXIXIXIXIXIXIXIXIXIXIXIXIXZ c 7 4 4 4 o ) k L z w l l O.&.&.&.-.;.;.r.r.q.q.t.t.B.V.C.D.B.c.p i p i s s p i d a p p a s a a a a a a { } } } | | | | | | o...X.X.$.2.1.1.2.6.6.6.I.I.~.",
"IXIXIXIXIXIXIXIXIXIXIXIXIXIXIXIXIXIXIXIXIXIXIXIXIXIXIXIXIXIXIXIXIXIXIXIXIXIXIXIXIXIXIXIXIXIXIXIXIXIXIXb v & 4 o 1 : L L t z l l l  . .#.&.-.;.;.r.r.q.q.t.B.V.V.V.V.V.l r s p i p i i d a d p a a p a a a a ] { } } } | | } | | ..$.$.o.o.$.1.o.1.y.+.6.5.6.E.E.",
"IXIXIXIXIXIXIXIXIXIXIXIXIXIXIXIXIXIXIXIXIXIXIXIXIXIXIXIXIXIXIXIXIXIXIXIXIXIXIXIXIXIXIXIXIXIXIXIXIXIXIX; S g & 1 : o > T z z  .x l  . . .&.-.-.;.r.r.q.q.t.B.V.V.C.C.e.c.d i p p i i p p p d p p p a a a a a a ] } { ] } | | | | { ] ] | o.| $.$.X.1.y.5.4.6.5.W.",
"IXIXIXIXIXIXIXIXIXIXIXIXIXIXIXIXIXIXIXIXIXIXIXIXIXIXIXIXIXIXIXIXIXIXIXIXIXIXIXIXIXIXIXIXIXIXIXIXIXIXIXIX- 3 o 4 1 :   :.P z x x  .&.&.&.-.-.;.;.r.q.q.q.t.u.V.V.C.V.V.c.s s l q p p i i p p p i p s l a a a a a } ] ] { | | | | | ..| | | | $...o.X.1.+.4.4.5.6.",
"IXIXIXIXIXIXIXIXIXIXIXIXIXIXIXIXIXIXIXIXIXIXIXIXIXIXIXIXIXIXIXIXIXIXIXIXIXIXIXIXIXIXIXIXIXIXIXIXIXIXIXIX3 1 & 1 1 o 8 2 P =.&.&.-.&.&.&.-.>.;.;.r.;.q.q.q.e.B.V.V.C.V.B.N.l a p p p a a p d a p a a a a a a a a a { a { ] | | | { } | | ..| | ..$.o.3.1.4.6.5.W.",
"IXIXIXIXIXIXIXIXIXIXIXIXIXIXIXIXIXIXIXIXIXIXIXIXIXIXIXIXIXIXIXIXIXIXIXIXIXIXIXIXIXIXIXIXIXIXIXIXIXIXIXIXv 4 3 4 8 1 : @ t -.-.>.-.-.-.-.-.q.>.r.r.;.q.q.q.e.N.B.C.C.V.B.N.l a p p p a a p d a p a a a a a a a a a } ] { ] | { | { { { | | | | ....o.1.X.2.2.4.5."
};
