/* XPM */
static const char *xpm__12_sgun_startreload2[] = {
/* columns rows colors chars-per-pixel */
"128 154 256 2 ",
"   c #050403",
".  c #0B0604",
"X  c #0B0906",
"o  c #0C0C0C",
"O  c #07090A",
"+  c #130A05",
"@  c #120D0B",
"#  c #1A0D0A",
"$  c #180903",
"%  c #0E110E",
"&  c #0A1209",
"*  c #12120E",
"=  c #1B120D",
"-  c #16180B",
";  c #0C0E11",
":  c #070D16",
">  c #110E12",
",  c #0E1213",
"<  c #0D1718",
"1  c #131413",
"2  c #1B1513",
"3  c #151916",
"4  c #1B1A16",
"5  c #131619",
"6  c #151A1B",
"7  c #1A1C1C",
"8  c #19161A",
"9  c #24130C",
"0  c #2A150D",
"q  c #35180C",
"w  c #2C1612",
"e  c #2C1A13",
"r  c #241D1B",
"t  c #261815",
"y  c #341A14",
"u  c #3B1C14",
"i  c #351915",
"p  c #270C07",
"a  c #1C211E",
"s  c #16221D",
"d  c #162C1C",
"f  c #27231C",
"g  c #392419",
"h  c #38240B",
"j  c #151D21",
"k  c #1B1E22",
"l  c #191A27",
"z  c #0F1A26",
"x  c #231E24",
"c  c #1C2224",
"v  c #1C252A",
"b  c #1E2A2C",
"n  c #172426",
"m  c #1D2833",
"M  c #182C30",
"N  c #222424",
"B  c #2B2423",
"V  c #2C2A25",
"C  c #23262A",
"Z  c #232A2C",
"A  c #2B2B2C",
"S  c #252827",
"D  c #332A25",
"F  c #3C2C23",
"G  c #332D2B",
"H  c #372827",
"J  c #29342D",
"K  c #3B322B",
"L  c #36312B",
"P  c #242D32",
"I  c #282C36",
"U  c #352E33",
"Y  c #253134",
"T  c #2B3335",
"R  c #2B353B",
"E  c #2A373B",
"W  c #333333",
"Q  c #323B3D",
"!  c #393736",
"~  c #421E15",
"^  c #4A1A0F",
"/  c #45231A",
"(  c #4C251B",
")  c #4D2A1D",
"_  c #452618",
"`  c #532A1D",
"'  c #58291C",
"]  c #502F18",
"[  c #6C2F1A",
"{  c #462C24",
"}  c #592D22",
"|  c #4D3324",
" . c #47352A",
".. c #543B2B",
"X. c #5B3D2B",
"o. c #563825",
"O. c #473A35",
"+. c #563D33",
"@. c #472E31",
"#. c #632D24",
"$. c #643324",
"%. c #6A3324",
"&. c #663B28",
"*. c #773828",
"=. c #6F3C35",
"-. c #334239",
";. c #5D412D",
":. c #55402E",
">. c #49433A",
",. c #5C4433",
"<. c #54453B",
"1. c #5A4738",
"2. c #58563C",
"3. c #61412D",
"4. c #614026",
"5. c #624533",
"6. c #634C3B",
"7. c #654837",
"8. c #7A4535",
"9. c #65523D",
"0. c #765837",
"q. c #716338",
"w. c #2D3B43",
"e. c #2B3745",
"r. c #333C43",
"t. c #343C49",
"y. c #2F3550",
"u. c #1D2B42",
"i. c #473D42",
"p. c #6B3C42",
"a. c #34434B",
"s. c #394548",
"d. c #3C4B54",
"f. c #3A4859",
"g. c #36484E",
"h. c #3E4B62",
"j. c #484647",
"k. c #574B45",
"l. c #5B5449",
"z. c #464C55",
"x. c #46555A",
"c. c #585757",
"v. c #4A554E",
"b. c #634D41",
"n. c #645344",
"m. c #63564A",
"M. c #655A4C",
"N. c #6A5A4C",
"B. c #695645",
"V. c #675B54",
"C. c #78564D",
"Z. c #536555",
"A. c #696647",
"S. c #696457",
"D. c #756658",
"F. c #736B50",
"G. c #485966",
"H. c #585B66",
"J. c #566876",
"K. c #596D67",
"L. c #696667",
"P. c #647765",
"I. c #787778",
"U. c #737169",
"Y. c #655D62",
"T. c #873D2A",
"R. c #8E3D32",
"E. c #8A432D",
"W. c #96472B",
"Q. c #894634",
"!. c #984935",
"~. c #9B5338",
"^. c #915432",
"/. c #A34D37",
"(. c #A5523B",
"). c #AB543C",
"_. c #A85537",
"`. c #B25637",
"'. c #A0623C",
"]. c #995646",
"[. c #8E514A",
"{. c #A95945",
"}. c #B45C46",
"|. c #A85A54",
" X c #926753",
".X c #A9644A",
"XX c #B5644B",
"oX c #BB644B",
"OX c #B66649",
"+X c #B76955",
"@X c #BB755C",
"#X c #A86853",
"$X c #91726C",
"%X c #BB7765",
"&X c #AC766C",
"*X c #955C60",
"=X c #C5765C",
"-X c #C16752",
";X c #C57865",
":X c #C77D71",
">X c #C15F42",
",X c #8E8977",
"<X c #B98672",
"1X c #AD835B",
"2X c #C8836B",
"3X c #C98877",
"4X c #D38B77",
"5X c #CE9078",
"6X c #68798A",
"7X c #6E7A92",
"8X c #5A6783",
"9X c #927F83",
"0X c #75869B",
"qX c #708592",
"wX c #7989A6",
"eX c #758BA3",
"rX c #908D8B",
"tX c #B7928E",
"yX c #8494AF",
"uX c #ABA8A8",
"iX c #A7A19B",
"pX c #CB9989",
"aX c #D39B8B",
"sX c #D69987",
"dX c #CA9B96",
"fX c #D59D94",
"gX c #C98B82",
"hX c #D8A89A",
"jX c #D5A790",
"kX c #E4AD9B",
"lX c #DAACA4",
"zX c #DAB3A7",
"xX c #CEB1AD",
"cX c #E5B4A7",
"vX c #E7BCB6",
"bX c #E7AFA9",
"nX c #DD9E96",
"mX c #D8C5BA",
"MX c #E7C5BB",
"NX c #F3C6BC",
"BX c #CCBBC8",
"VX c #D3C6C7",
"CX c #E7C8C5",
"ZX c #F8DBD6",
"AX c #F2D7CF",
"SX c #F9E3D9",
"DX c #EDE1D7",
"FX c #FAE7E6",
"GX c #FEF6EB",
"HX c #FEFCFE",
"JX c #FDF8F6",
"KX c #F1E7F0",
"LX c #EDD9E3",
"PX c #ADADBC",
"IX c None",
"UX c #7A816F",
/* pixels */
"IXIXIXIXIXIXIXIXIXIXIXIXIXIXIXIXIXIXIXIXIXIXIXIXIXIXIXIXIXIXIXIXIXIXIXIXIXIXIXIXIXIXIXIXIXIXIXIXIXIXIXIXIXIXIXIXIXIXIXIXIXIXIXIXIXIXIXIXIXIXIXIXIXIXIXIXIXIXIXIXIXIXIXIXIXIXIXIXIXIXIXIXIXIXIXIXIXIXIXIXIXIXIXIXIXIXIXIXIXIXIXIXIXIXIXIXIXIXIXIXIXIXIXIXIXIXIXIX",
"IXIXIXIXIXIXIXIXIXIXIXIXIXIXIXIXIXIXIXIXIXIXIXIXIXIXIXIXIXIXIXIXIXIXIXIXIXIXIXIXIXIXIXIXIXIXIXIXIXIXIXIXIXIXIXIXIXIXIXIXIXIXIXIXIXIXIXIXIXIXIXIXIXIXIXIXIXIXIXIXIXIXIXIXIXIXIXIXIXIXIXIXIXIXIXIXIXIXIXIXIXIXIXIXIXIXIXIXIXIXIXIXIXIXIXIXIXIXIXIXIXIXIXIXIXIXIXIX",
"IXIXIXIXIXIXIXIXIXIXIXIXIXIXIXIXIXIXIXIXIXIXIXIXIXIXIXIXIXIXIXIXIXIXIXIXIXIXIXIXIXIXIXIXIXIXIXIXIXIXIXIXIXIXIXIXIXIXIXIXIXIXIXIXIXIXIXIXIXIXIXIXIXIXIXIXIXIXIXIXIXIXIXIXIXIXIXIXIXIXIXIXIXIXIXIXIXIXIXIXIXIXIXIXIXIXIXIXIXIXIXIXIXIXIXIXIXIXIXIXIXIXIXIXIXIXIXIX",
"IXIXIXIXIXIXIXIXIXIXIXIXIXIXIXIXIXIXIXIXIXIXIXIXIXIXIXIXIXIXIXIXIXIXIXIXIXIXIXIXIXIXIXIXIXIXIXIXIXIXIXIXIXIXIXIXIXIXIXIXIXIXIXIXIXIXIXIXIXIXIXIXIXIXIXIXIXIXIXIXIXIXIXIXIXIXIXIXIXIXIXIXIXIXIXIXIXIXIXIXIXIXIXIXIXIXIXIXIXIXIXIXIXIXIXIXIXIXIXIXIXIXIXIXIXIXIXIX",
"IXIXIXIXIXIXIXIXIXIXIXIXIXIXIXIXIXIXIXIXIXIXIXIXIXIXIXIXIXIXIXIXIXIXIXIXIXIXIXIXIXIXIXIXIXIXIXIXIXIXIXIXIXIXIXIXIXIXIXIXIXIXIXIXIXIXIXIXIXIXIXIXIXIXIXIXIXIXIXIXIXIXIXIXIXIXIXIXIXIXIXIXIXIXIXIXIXIXIXIXIXIXIXIXIXIXIXIXIXIXIXIXIXIXIXIXIXIXIXIXIXIXIXIXIXIXIXIX",
"IXIXIXIXIXIXIXIXIXIXIXIXIXIXIXIXIXIXIXIXIXIXIXIXIXIXIXIXIXIXIXIXIXIXIXIXIXIXIXIXIXIXIXIXIXIXIXIXIXIXIXIXIXIXIXIXIXIXIXIXIXIXIXIXIXIXIXIXIXIXIXIXIXIXIXIXIXIXIXIXIXIXIXIXIXIXIXIXIXIXIXIXIXIXIXIXIXIXIXIXIXIXIXIXIXIXIXIXIXIXIXIXIXIXIXIXIXIXIXIXIXIXIXIXIXIXIXIX",
"IXIXIXIXIXIXIXIXIXIXIXIXIXIXIXIXIXIXIXIXIXIXIXIXIXIXIXIXIXIXIXIXIXIXIXIXIXIXIXIXIXIXIXIXIXIXIXIXIXIXIXIXIXIXIXIXIXIXIXIXIXIXIXIX XxXIXIXIXIXIXIXIXIXIXIXIXIXIXIXIXIXIXIXIXIXIXIXIXIXIXIXIXIXIXIXIXIXIXIXIXIXIXIXIXIXIXIXIXIXIXIXIXIXIXIXIXIXIXIXIXIXIXIXIXIXIXIX",
"IXIXIXIXIXIXIXIXIXIXIXIXIXIXIXIXIXIXIXIXIXIXIXIXIXIXIXIXIXIXIXIXIXIXIXIXIXIXIXIXIXIXIXIXIXIXIXIXIXIXIXIXIXIXIXIXIXIXIXIXIXIX].~.@XcXHXIXIXIXIXIXIXIXIXIXIXIXIXIXIXIXIXIXIXIXIXIXIXIXIXIXIXIXIXIXIXIXIXIXIXIXIXIXIXIXIXIXIXIXIXIXIXIXIXIXIXIXIXIXIXIXIXIXIXIXIXIX",
"IXIXIXIXIXIXIXIXIXIXIXIXIXIXIXIXIXIXIXIXIXIXIXIXIXIXIXIXIXIXIXIXIXIXIXIXIXIXIXIXIXIXIXIXIXIXIXIXIXIXIXIXIXIXIXIXIXIXIXIXIX*X!.XX5XMXJXHXIXIXIXIXIXIXIXIXIXIXIXIXIXIXIXIXIXIXIXIXIXIXIXIXIXIXIXIXIXIXIXIXIXIXIXIXIXIXIXIXIXIXIXIXIXIXIXIXIXIXIXIXIXIXIXIXIXIXIXIX",
"IXIXIXIXIXIXIXIXIXIXIXIXIXIXIXIXIXIXIXIXIXIXIXIXIXIXIXIXIXIXIXIXIXIXIXIXIXIXIXIXIXIXIXIXIXIXIXIXIXIXIXIXIXIXIXIXIXIXIXIXIX&X!.XX3XNXGXHXIXIXIXIXIXIXIXIXIXIXIXIXIXIXIXIXIXIXIXIXIXIXIXIXIXIXIXIXIXIXIXIXIXIXIXIXIXIXIXIXIXIXIXIXIXIXIXIXIXIXIXIXIXIXIXIXIXIXIXIX",
"IXIXIXIXIXIXIXIXIXIXIXIXIXIXIXIXIXIXIXIXIXIXIXIXIXIXIXIXIXIXIXIXIXIXIXIXIXIXIXIXIXIXIXIXIXIXIXIXIXIXIXIXIXIXIXIXIXIXIXIXIX%X~.|.fXZXJXHXIXIXIXIXIXIXIXIXIXIXIXIXIXIXIXIXIXIXIXIXIXIXIXIXIXIXIXIXIXIXIXIXIXIXIXIXIXIXIXIXIXIXIXIXIXIXIXIXIXIXIXIXIXIXIXIXIXIXIXIX",
"IXIXIXIXIXIXIXIXIXIXIXIXIXIXIXIXIXIXIXIXIXIXIXIXIXIXIXIXIXIXIXIXIXIXIXIXIXIXIXIXIXIXIXIXIXIXIXIXIXIXIXIXIXIXIXIXIXIXIXIX=..X(..XdXCXGXHXIXIXIXIXIXIXIXIXIXIXIXIXIXIXIXIXIXIXIXIXIXIXIXIXIXIXIXIXIXIXIXIXIXIXIXIXIXIXIXIXIXIXIXIXIXIXIXIXIXIXIXIXIXIXIXIXIXIXIXIX",
"IXIXIXIXIXIXIXIXIXIXIXIXIXIXIXIXIXIXIXIXIXIXIXIXIXIXIXIXIXIXIXIXIXIXIXIXIXIXIXIXIXIXIXIXIXIXIXIX#XIXIXIXIXIXIXIXIXIXIXIX[ _.`.+XjXAXJXHXIXIXIXIXIXIXIXIXIXIXIXIXIXIXIXIXIXIXIXIXIXIXIXIXIXIXIXIXIXIXIXIXIXIXIXIXIXIXIXIXIXIXIXIXIXIXIXIXIXIXIXIXIXIXIXIXIXIXIXIX",
"IXIXIXIXIXIXIXIXIXIXIXIXIXIXIXIXIXIXIXIXIXIXIXIXIXIXIXIXIXIXIXIXIXIXIXIXIXIXIXIXIXIXIXIXIXIX[.|.2XsXhXIXIXIXIXIXIXIXIXIX[ ~.OX=XsXSXJXKXIXIXIXIXIXIXIXIXIXIXIXIXIXIXIXIXIXIXIXIXIXIXIXIXIXIXIXIXIXIXIXIXIXIXIXIXIXIXIXIXIXIXIXIXIXIXIXIXIXIXIXIXIXIXIXIXIXIXIXIX",
"IXIXIXIXIXIXIXIXIXIXIXIXIXIXIXIXIXIXIXIXIXIXIXIXIXIXIXIXIXIXIXIXIXIXIXIXIXIXIXIXIXIXIXIXIXIX{.+XsXcXzXIXIXIXIXIXIXIXIXIX*.(.oX;XsXSXGXLXIXIXIXIXIXIXIXIX&X&XtXuXIXIXIXIXIXIXIXIXIXIXIXIXIXIXIXIXIXIXIXIXIXIXIXIXIXIXIXIXIXIXIXIXIXIXIXIXIXIXIXIXIXIXIXIXIXIXIXIX",
"IXIXIXIXIXIXIXIXIXIXIXIXIXIXIXIXIXIXIXIXIXIXIXIXIXIXIXIXIXIXIXIXIXIXIXIXIXIXIXIXIXIXIXIXIX[.).=XsXvXCXIXIXIXIXIXIXIXIXIX*.{.}.;X&XzXDXKXIXIXIXIXIXIXIX[.+XsXZXGXHXIXIXIXIXIXIXIXIXIXIXIXIXIXIXIXIXIXIXIXIXIXIXIXIXIXIXIXIXIXIXIXIXIXIXIXIXIXIXIXIXIXIXIXIXIXIXIX",
"IXIXIXIXIXIXIXIXIXIXIXIXIXIXIXIXIXIXIXIXIXIXIXIXIXIXIXIXIXIXIXIXIXIXIXIXIXIXIXIXIXIXIXIXIX{.{.3XhXcXFXIXIXIXIXIXIXIXIXIXR.{.}.%XaXhXGXFXIXIXIXIXIXIX*X{.+XaXZXGXKXIXIXIXIXIXIXIXIXIXIXIXIXIXIXIXIXIXIXIXIXIXIXIXIXIXIXIXIXIXIXIXIXIXIXIXIXIXIXIXIXIXIXIXIXIXIXIX",
"IXIXIXIXIXIXIXIXIXIXIXIXIXIXIXIXIXIXIXIXIXIXIXIXIXIXIXIXIXIXIXIXIXIXIXIXIXIXIXIXIXIXIXIX' ~.{.;XbXvXZXIXIXIXIXIXIXIXIXIXR.}.=X5XpXNXSXDXIXIXIXIXIXIX+X(.+XpXZXJXDXHXIXIXIXIXIXIXIXIXIXIXIXIXIXIXIXIXIXIXIXIXIXIXIXIXIXIXIXIXIXIXIXIXIXIXIXIXIXIXIXIXIXIXIXIXIXIX",
"IXIXIXIXIXIXIXIXIXIXIXIXIXIXIXIXIXIXIXIXIXIXIXIXIXIXIXIXIXIXIXIXIXIXIXIXIXIXIXIXIXIXIXIX^ ).=X;XpXNXNXtXIXIXIXIXIXIXIXIXT.(.OX@XkXvXZXJXIXIXIXIXIXIX+X/.@XgXZXJXDXHXIXIXIXIXIXIXIXIXIXIXIXIXIXIXIXIXIXIXIXIXIXIXIXIXIXIXIXIXIXIXIXIXIXIXIXIXIXIXIXIXIXIXIXIXIXIX",
"IXIXIXIXIXIXIXIXIXIXIXIXIXIXIXIXIXIXIXIXIXIXIXIXIXIXIXIXIXIXIXIXIXIXIXIXIXIXIXIXIXIXIXIX( {.2X;X3XZXAX&XIXIXIXIXIXIXIXIXT._.OX;XcXMXSXKXIXIXIXIXIXIX+X(.;XgXZXJXGXJXIXIXIXIXIXIXIXIXIXIXIXIXIXIXIXIXIXIXIXIXIXIXIXIXIXIXIXIXIXIXIXIXIXIXIXIXIXIXIXIXIXIXIXIXIXIX",
"IXIXIXIXIXIXIXIXIXIXIXIXIXIXIXIXIXIXIXIXIXIXIXIXIXIXIXIXIXIXIXIXIXIXIXIXIXIXIXIXIXIXIXIX#.~.;X;XsXhXcX<XIXIXIXIXIXIXIXIX!.).;X3XaXhXMXBXIXIXIXIXIXIX{._.+X3XSXGXJXHXIXIXIXIXIXIXIXIXIXIXIXIXIXIXIXIXIXIXIXIXIXIXIXIXIXIXIXIXIXIXIXIXIXIXIXIXIXIXIXIXIXIXIXIXIXIX",
"IXIXIXIXIXIXIXIXIXIXIXIXIXIXIXIXIXIXIXIXIXIXIXIXIXIXIXIXIXIXIXIXIXIXIXIXIXIXIXIXIXIXIXIX^ T.XX;X%X5X3X<XIXIXIXIXIXIXIXIXR.).;X%XaXvXMXKXIXIXIXIXIXIX{.oX+X3XZXJXGXHXIXIXIXIXIXIXIXIXIXIXIXIXIXIXIXIXIXIXIXIXIXIXIXIXIXIXIXIXIXIXIXIXIXIXIXIXIXIXIXIXIXIXIXIXIXIX",
"IXIXIXIXIXIXIXIXIXIXIXIXIXIXIXIXIXIXIXIXIXIXIXIXIXIXIXIXIXIXIXIXIXIXIXIXIXIXIXIXIXIXIXIX#.!.}.;X4XsXsXlXIXIXIXIXIXIXIXIX*.(.:X3XpXdXxXVXBXIXIXIXIXIX|.}..X%XhXAXJXHXIXIXIXIXIXIXIXIXIXIXIXIXIXIXIXIXIXIXIXIXIXIXIXIXIXIXIXIXIXIXIXIXIXIXIXIXIXIXIXIXIXIXIXIXIXIX",
"IXIXIXIXIXIXIXIXIXIXIXIXIXIXIXIXIXIXIXIXIXIXIXIXIXIXIXIXIXIXIXIXIXIXIXIXIXIXIXIXIXIXIXIX#.!.+X4X5X5XfXfXtXIXIXIXIXIXIXIXQ.W.;X3XpXzXCXFXBXIXIXIXIXIX|.{.XX<XpXSXGXHXIXIXIXIXIXIXIXIXIXIXIXIXIXIXIXIXIXIXIXIXIXIXIXIXIXIXIXIXIXIXIXIXIXIXIXIXIXIXIXIXIXIXIXIXIXIX",
"IXIXIXIXIXIXIXIXIXIXIXIXIXIXIXIXIXIXIXIXIXIXIXIXIXIXIXIXIXIXIXIXIXIXIXIXIXIXIXIXIXIXIXIX#.T.+X4X3XsXsXfX<XIXIXIXIXIXIXIX~.W.OX2XkXvXFXHXLXIXIXIXIXIX|.+X;X3XjXAXJXHXIXIXIXIXIXIXIXIXIXIXIXIXIXIXIXIXIXIXIXIXIXIXIXIXIXIXIXIXIXIXIXIXIXIXIXIXIXIXIXIXIXIXIXIXIXIX",
"IXIXIXIXIXIXIXIXIXIXIXIXIXIXIXIXIXIXIXIXIXIXIXIXIXIXIXIXIXIXIXIXIXIXIXIXIXIXIXIXIXIXIXIX%.~..X:X3X5XjXaX3XIXIXIXIXIXIXIX^.W.OX4XaXCXZXHXJXIXIXIXIXIX|.|.;X3XpXCXDXHXHXIXIXIXIXIXIXIXIXIXIXIXIXIXIXIXIXIXIXIXIXIXIXIXIXIXIXIXIXIXIXIXIXIXIXIXIXIXIXIXIXIXIXIXIXIX",
"IXIXIXIXIXIXIXIXIXIXIXIXIXIXIXIXIXIXIXIXIXIXIXIXIXIXIXIXIXIXIXIXIXIXIXIXIXIXIXIXIXIXIXIX#.*.;X;X3XsX3X<X<XIXIXIXIXIXIXIX^._.XX%XaXvXFXHXHXIXIXIXIXIX[.+X2XfXlXMXDXJXHXIXIXIXIXIXIXIXIXIXIXIXIXIXIXIXIXIXIXIXIXIXIXIXIXIXIXIXIXIXIXIXIXIXIXIXIXIXIXIXIXIXIXIXIXIX",
"IXIXIXIXIXIXIXIXIXIXIXIXIXIXIXIXIXIXIXIXIXIXIXIXIXIXIXIXIXIXIXIXIXIXIXIXIXIXIXIXIXIXIXIX} !.XX%XgX3X3XaX<XIXIXIXIXIXIXIX^.W.XX4XfXhXZXHXHXIXIXIXIXIX].OX+X3XbXMXSXJXHXIXIXIXIXIXIXIXIXIXIXIXIXIXIXIXIXIXIXIXIXIXIXIXIXIXIXIXIXIXIXIXIXIXIXIXIXIXIXIXIXIXIXIXIXIX",
"IXIXIXIXIXIXIXIXIXIXIXIXIXIXIXIXIXIXIXIXIXIXIXIXIXIXIXIXIXIXIXIXIXIXIXIXIXIXIXIXIXIXIXIXIX[ {.+X%XfXpXpXhXIXIXIXIXIXIXIXE.{.+X;X2XcXSXGXHXHXIXIXIXIX.X'.2XsXkXzXxXLXHXIXIXIXIXIXIXIXIXIXIXIXIXIXIXIXIXIXIXIXIXIXIXIXIXIXIXIXIXIXIXIXIXIXIXIXIXIXIXIXIXIXIXIXIXIX",
"IXIXIXIXIXIXIXIXIXIXIXIXIXIXIXIXIXIXIXIXIXIXIXIXIXIXIXIXIXIXIXIXIXIXIXIXIXIXIXIXIXIXIXIXIX[ Q.+X;XsXkXbXpXdXIXIXIXIXIXIX!./.{.;XsXkXmXJXHXHXIXIXIXIX].'.@X3XkXNXCXKXHXIXIXIXIXIXIXIXIXIXIXIXIXIXIXIXIXIXIXIXIXIXIXIXIXIXIXIXIXIXIXIXIXIXIXIXIXIXIXIXIXIXIXIXIXIX",
"IXIXIXIXIXIXIXIXIXIXIXIXIXIXIXIXIXIXIXIXIXIXIXIXIXIXIXIXIXIXIXIXIXIXIXIXIXIXIXIXIXIXIXIXIX[ Q.|.;X2XkXkXkXtXIXIXIXIXIXIX!.}.}.;XsXdXFXDXJXHXIXIXIXIX].+X%X3XaXhXMXLXJXIXIXIXIXIXIXIXIXIXIXIXIXIXIXIXIXIXIXIXIXIXIXIXIXIXIXIXIXIXIXIXIXIXIXIXIXIXIXIXIXIXIXIXIXIX",
"IXIXIXIXIXIXIXIXIXIXIXIXIXIXIXIXIXIXIXIXIXIXIXIXIXIXIXIXIXIXIXIXIXIXIXIXIXIXIXIXIXIXIXIXIX[ *.|.;X2XsXkXjXhXIXIXIXIXIXIX].}._.;X3XcXmXDXJXHXIXIXIXIXIX+X%X5XsXzXmXJXHXIXIXIXIXIXIXIXIXIXIXIXIXIXIXIXIXIXIXIXIXIXIXIXIXIXIXIXIXIXIXIXIXIXIXIXIXIXIXIXIXIXIXIXIXIX",
"IXIXIXIXIXIXIXIXIXIXIXIXIXIXIXIXIXIXIXIXIXIXIXIXIXIXIXIXIXIXIXIXIXIXIXIXIXIXIXIXIXIXIXIXIX^ T.(.;X4XjXkXkXhXIXIXIXIXIXIX[.{.}.;X5XlXMXSXGXHXKXIXIXIXIXOX;X5X5XzXZXHXHXIXIXIXIXIXIXIXIXIXIXIXIXIXIXIXIXIXIXIXIXIXIXIXIXIXIXIXIXIXIXIXIXIXIXIXIXIXIXIXIXIXIXIXIXIX",
"IXIXIXIXIXIXIXIXIXIXIXIXIXIXIXIXIXIXIXIXIXIXIXIXIXIXIXIXIXIXIXIXIXIXIXIXIXIXIXIXIXIXIXIXIX( *.}.oX4XaXhXhXlXlXIXIXIXIXIXIX].(.=X5XpXzXMXJXJXJXIXIXIXIX+X:X3XaXcXCXJXHXKXIXIXIXIXIXIXIXIXIXIXIXIXIXIXIXIXIXIXIXIXIXIXIXIXIXIXIXIXIXIXIXIXIXIXIXIXIXIXIXIXIXIXIXIX",
"IXIXIXIXIXIXIXIXIXIXIXIXIXIXIXIXIXIXIXIXIXIXIXIXIXIXIXIXIXIXIXIXIXIXIXIXIXIXIXIXIXIXIXIXIX} [ !.+X2XaXzXcXlXfXIXIXIXIXIXIX].(.OX%XsXlXMXDXJXJXIXIXIXIX~.+X3XpXdXMXGXHXHXIXIXIXIXIXIXIXIXIXIXIXIXIXIXIX X&XtXFXHXIXIXIXIXIXIXIXIXIXIXIXIXIXIXIXIXIXIXIXIXIXIXIXIX",
"IXIXIXIXIXIXIXIXIXIXIXIXIXIXIXIXIXIXIXIXIXIXIXIXIXIXIXIXIXIXIXIXIXIXIXIXIXIXIXIXIXIXIXIXIXIX[ !.XX3XaXpXlXzXbXIXIXIXIXIXIX[.W.OX%XsXbXvXZXGXJXIXIXIXIX+X2X3XaXcXMXJXKXHXIXIXIXIXIXIXIXIXIXIXIXIXIXIX.XOX#XpXGXHXIXIXIXIXIXIXIXIXIXIXIXIXIXIXIXIXIXIXIXIXIXIXIXIX",
"IXIXIXIXIXIXIXIXIXIXIXIXIXIXIXIXIXIXIXIXIXIXIXIXIXIXIXIXIXIXIXIXIXIXIXIXIXIXIXIXIXIXIXIXIXIX#.E..X;X3XfXbXlXbXpXIXIXIXIXIX[.!._.#X3XhXlXMXFXJXKXIXIXIX.X%X3X<XhXmXGXJXHXIXIXIXIXIXIXIXIXIXIXIXIXIXIX{.(.%XzXGXJXHXIXIXIXIXIXIXIXIXIXIXIXIXIXIXIXIXIXIXIXIXIXIXIX",
"IXIXIXIXIXIXIXIXIXIXIXIXIXIXIXIXIXIXIXIXIXIXIXIXIXIXIXIXIXIXIXIXIXIXIXIXIXIXIXIXIXIXIXIXIXIX#.!.{.;X3XfXjXkXkXfXIXIXIXIXIX[.!.W.XXsXcXjXxXCXGXKXIXIXIX{.%X%XgXfXMXGXGXHXIXIXIXIXIXIXIXIXIXIXIXIXIXIX-X{.:XvXGXHXHXIXIXIXIXIXIXIXIXIXIXIXIXIXIXIXIXIXIXIXIXIXIXIX",
"IXIXIXIXIXIXIXIXIXIXIXIXIXIXIXIXIXIXIXIXIXIXIXIXIXIXIXIXIXIXIXIXIXIXIXIXIXIXIXIXIXIXIXIXIXIX#.E.{.oX%XsXpXsXsXvXIXIXIXIXIX!.T.].=XsXpXdXtXCXFXHXIXIXIX!.;X4XsXbXMXGXJXKXIXIXIXIXIXIXIXIXIXIXIXIXIX{.}.{.gXAXFXVXHXIXIXIXIXIXIXIXIXIXIXIXIXIXIXIXIXIXIXIXIXIXIXIX",
"IXIXIXIXIXIXIXIXIXIXIXIXIXIXIXIXIXIXIXIXIXIXIXIXIXIXIXIXIXIXIXIXIXIXIXIXIXIXIXIXIXIXIXIXIXIX} *./.{.;X5XjXjX2XlXIXIXIXIXIX].Q.!.XX;XaXMXNXMXDXHXIXIXIX+X@X%X3XkXMXDXGXHXIXIXIXIXIXIXIXIXIXIXIXIXIX`.>XoX%XMXGXVXHXIXIXIXIXIXIXIXIXIXIXIXIXIXIXIXIXIXIXIXIXIXIXIX",
"IXIXIXIXIXIXIXIXIXIXIXIXIXIXIXIXIXIXIXIXIXIXIXIXIXIXIXIXIXIXIXIXIXIXIXIXIXIXIXIXIXIXIXIXIXIX( [ *.(.:XsXpXaX3XkXdXIXIXIXIX[.T.!.oX;XaXzXdXxXDXHXIXIXIX{.;X@XsXpXzXSXGXJXHXIXIXIXIXIXIXIXIXIXIXIXIX`.>X}.4XpXMXDXHXIXIXIXIXIXIXIXIXIXIXIXIXIXIXIXIXIXIXIXIXIXIXIX",
"IXIXIXIXIXIXIXIXIXIXIXIXIXIXIXIXIXIXIXIXIXIXIXIXIXIXIXIXIXIXIXIXIXIXIXIXIXIXIXIXIXIXIXIXIXIX{ ' Q.~.~.nXkXjX5XkXzXIXIXIXIXC.Q.!.(.=XaXpXcXmXGXJXBXIXIX(.+X@X3XjXzXmXFXHXHXIXIXIXIXIXIXIXIXIXIXIXIX`.oX=X2XjXMXGXHXIXIXIXIXIXIXIXIXIXIXIXIXIXIXIXIXIXIXIXIXIXIXIX",
"IXIXIXIXIXIXIXIXIXIXIXIXIXIXIXIXIXIXIXIXIXIXIXIXIXIXIXIXIXIXIXIXIXIXIXIXIXIXIXIXIXIXIXIXIXIXIX' [ W.XX:XkXcXfXfXkXIXIXIXIXIX[.T.}.;XsXhXvXMXJXJXKXIXIXXX{.+X3XpXlXCXSXHXHXIXIXIXIXIXIXIXIXIXIXIXIX).oX;XaXhXCXJXHXIXIXIXIXIXIXIXIXIXIXIXIXIXIXIXIXIXIXIXIXIXIXIX",
"IXIXIXIXIXIXIXIXIXIXIXIXIXIXIXIXIXIXIXIXIXIXIXIXIXIXIXIXIXIXIXIXIXIXIXIXIXIXIXIXIXIXIXIXIXIXIX~ [ [ {.:XsXfX9XbXkXhXIXIXIXIX=.W./.:X3XfXvXZXGXGXHXIXIX{.(.XX%XpXcXMXAXHXHXIXIXIXIXIXIXIXIXIXIXIXIX}.;X3XjXMXAXJXHXIXIXIXIXIXIXIXIXIXIXIXIXIXIXIXIXIXIXIXIXIXIXIX",
"IXIXIXIXIXIXIXIXIXIXIXIXIXIXIXIXIXIXIXIXIXIXIXIXIXIXIXIXIXIXIXIXIXIXIXIXIXIXIXIXIXIXIXIXIXIXIX{ ( %.T.].gXdXbXvXvXbXIXIXIXIX=.!.{.+X&XfXlXCXZXJXJXIXIXW.}.).2XnXcXhXCXLXHXIXIXIXIXIXIXIXIXIXIXIX|.).=X3XlXMXDXJXHXIXIXIXIXIXIXIXIXIXIXIXIXIXIXIXIXIXIXIXIXIXIXIX",
"IXIXIXIXIXIXIXIXIXIXIXIXIXIXIXIXIXIXIXIXIXIXIXIXIXIXIXIXIXIXIXIXIXIXIXIXIXIXIXIXIXIXIXIXIXIXIXH ( } [.8.p.tX&XxXdXdXIXIXIXIX=.T.Q.8.C.q +.@.U.rXV.$XIX].).}.;XkXvXzXCXFXHXIXIXIXIXIXIXIXIXIXIXIX]._.@XaXzXCXDXJXIXIXIXIXIXIXIXIXIXIXIXIXIXIXIXIXIXIXIXIXIXIXIXIX",
"IXIXIXIXIXIXIXIXIXIXIXIXIXIXIXIXIXIXIXIXIXIXIXIXIXIXIXIXIXIXIXIXIXIXIXIXIXIXIXIXIXIXIXIXIXIXIXIX{ | F t e @. .F O.k 3 IXIXIX| ` q p 9 f r G W j.L.k.C.Q.W./.;XaXNXMXmXSXHXHXIXIXIXIXIXIXIXIXIXIX{.}.4X3XdXxXGXHXIXIXIXIXIXIXIXIXIXIXIXIXIXIXIXIXIXIXIXIXIXIXIXIX",
"IXIXIXIXIXIXIXIXIXIXIXIXIXIXIXIXIXIXIXIXIXIXIXIXIXIXIXIXIXIXIXIXIXIXIXIXIXIXIXIXIXIXIXIXIXIXIXIX{ g B N B r ! ! R P s , IXIXIX$ - - - 4 C Z R R -.K 1.C.Q..X#XaXlXCXZXGXJXJXIXIXIXIXIXIXIXIXIXIX{._.@XkXlXCXFXHXIXIXIXIXIXIXIXIXIXIXIXIXIXIXIXIXIXIXIXIXIXIXIXIX",
"IXIXIXIXIXIXIXIXIXIXIXIXIXIXIXIXIXIXIXIXIXIXIXIXIXIXIXIXIXIXIXIXIXIXIXIXIXIXIXIXIXIXIXIXIXIXIXIXx r S 7 7 k N S C c a 8 1 IXIX@ 2 * 3 7 k v P T W W >.,.7.8.&X&XtXtXxXxX,XxXIXIXIXIXIXIXIXIXIXIX{.XX%XdXMXFXGXHXIXIXIXIXIXIXIXIXIXIXIXIXIXIXIXIXIXIXIXIXIXIXIXIX",
"IXIXIXIXIXIXIXIXIXIXIXIXIXIXIXIXIXIXIXIXIXIXIXIXIXIXIXIXIXIXIXIXIXIXIXIXIXIXIXIXIXIXIXIXIXIXIXIX8 8 N 8 8 6 k k v c 8 8 ; IXO 1 1 * 1 6 k C P Z R W c.O.1.7.7./ { K ! L { +.m.z.IXIXIXIXIXIXIXIX{.OX3XdXCXFXJXHXIXIXIXIXIXIXIXIXIXIXIXIXIXIXIXIXIXIXIXIXIXIXIXIX",
"IXIXIXIXIXIXIXIXIXIXIXIXIXIXIXIXIXIXIXIXIXIXIXIXIXIXIXIXIXIXIXIXIXIXIXIXIXIXIXIXIXIXIXIXIXIXIXIX5 3 k 3 8 8 6 6 k 5 8 , 1 O 1 1 * % 1 6 k b P v R C W D U.<.0 g r Z C U ! U j.I IXIXIXIXIXIXIX}.).=X5XlXCXJXJXHXIXIXIXIXIXIXIXIXIXIXIXIXIXIXIXIXIXIXIXIXIXIXIXIX",
"IXIXIXIXIXIXIXIXIXIXIXIXIXIXIXIXIXIXIXIXIXIXIXIXIXIXIXIXIXIXIXIXIXIXIXIXIXIXIXIXIXIXIXIXIXIXIXo 3 3 7 1 1 5 6 6 5 6 , 6 , 5 o 1 * * % 1 8 c v c j v j.S 2 9 9 = a n 6 C c Q -.t.IXIXIXIXIXIXIX_.oX=X3XhXSXJXJXHXIXIXIXIXIXIXIXIXIXIXIXIXIXIXIXIXIXIXIXIXIXIXIXIX",
"IXIXIXIXIXIXIXIXIXIXIXIXIXIXIXIXIXIXIXIXIXIXIXIXIXIXIXIXIXIXIXIXIXIXIXIXIXIXIXIXIXIXIXIXIXIX  - 1 3 8 1 1 1 6 6 6 < 6 , 8 % 1 o o & * , 1 6 k 6 c v Y Z 5 7 8 8 s s f f C J J w.IXIXIXIXIXIXIX`.XX4XaXAXAXJXHXHXIXIXIXIXIXIXIXIXIXIXIXIXIXIXIXIXIXIXIXIXIXIXIXIX",
"IXIXIXIXIXIXIXIXIXIXIXIXIXIXIXIXIXIXIXIXIXIXIXIXIXIXIXIXIXIXIXIXIXIXIXIXIXIXIXIXIXIXIXIXIXIX, & 1 1 8 , 8 8 6 6 5 5 o , o 1 o o O o 1 1 1 1 8 5 6 j c R j 5 5 1 < 3 2 4 a n J a.IXIXIXIXIXIXIX).XX4XaXvXFXJXHXIXIXIXIXIXIXIXIXIXIXIXIXIXIXIXIXIXIXIXIXIXIXIXIXIX",
"IXIXIXIXIXIXIXIXIXIXIXIXIXIXIXIXIXIXIXIXIXIXIXIXIXIXIXIXIXIXIXIXIXIXIXIXIXIXIXIXIXIXIXIXIXIX: 1 1 1 8 , 8 7 c c 1 , , o 1 , 1 o o o 1 1 o 1 1 1 , , 6 T R j 5 l 6 N 2 f a n J Q IXIXIXIXIXIX].(.@XsXcXMXCXHXHXIXIXIXIXIXIXIXIXIXIXIXIXIXIXIXIXIXIXIXIXIXIXIXIXIX",
"IXIXIXIXIXIXIXIXIXIXIXIXIXIXIXIXIXIXIXIXIXIXIXIXIXIXIXIXIXIXIXIXIXIXIXIXIXIXIXIXIXIXIXIXIXIX: 1 1 , 1 o 6 c v C a 7 8 6 8 8 % O o O o o o o 1 1 , s n 6 z.b : 5 5 5 2 2 c b Z w.IXIXIXIXIXIX!.(.4XsXhXzXSXJXHXIXIXIXIXIXIXIXIXIXIXIXIXIXIXIXIXIXIXIXIXIXIXIXIXIX",
"IXIXIXIXIXIXIXIXIXIXIXIXIXIXIXIXIXIXIXIXIXIXIXIXIXIXIXIXIXIXIXIXIXIXIXIXIXIXIXIXIXIXIXIXIXIX  3 1 1 1 % , 1 8 6 c 7 1 , 3 7 7 3 , o o o o o @ * 1 1 1 s v T 5 5 5 5 8 7 j z v e.IXIXIXIXIX[.E.OX3XcXlXxXZXHXHXIXIXIXIXIXIXIXIXIXIXIXIXIXIXIXIXIXIXIXIXIXIXIXIXIX",
"IXIXIXIXIXIXIXIXIXIXIXIXIXIXIXIXIXIXIXIXIXIXIXIXIXIXIXIXIXIXIXIXIXIXIXIXIXIXIXIXIXIXt.e.R Q IX& % * , % o , , 1 , , , , , 1 8 7 1 , , ; o o X o o o 3 3 1 7 o , j 5 5 7 j j l I IXIXIXIXIX&.].#XpXhXMXCXJXHXHXIXIXIXIXIXIXIXIXIXIXIXIXIXIXIXIXIXIXIXIXIXIXIXIXIX",
"IXIXIXIXIXIXIXIXIXIXIXIXIXIXIXIXIXIXIXIXIXIXIXIXIXIXIXIXIXIXIXIXIXIXIXIXIXIXIXIXIXI v v l I Z a * % % % , o ; ; O ; , o O o 1 1 8 5 1 1 > o o o X X 4 * * 1 1 3 7 8 3 3 s n k v IXIXIXIXD.C.vX X$XxXCXZXJXHXIXIXIXIXIXIXIXIXIXIXIXIXIXIXIXIXIXIXIXIXIXIXIXIXIXIX",
"IXIXIXIXIXIXIXIXIXIXIXIXIXIXIXIXIXIXIXIXIXIXIXIXIXIXIXIXIXIXIXIXIXIXIXIXIXIXIXIXIXR Y C R e.r.O 1 * 1 1 1 o o o ; ; o O O o o o , , , 1 > > @ @ * X * & & * 1 * 3 1 * 1 6 c k k v IXIXIX@.1.D.$X@.<.V.FXHXHXIXIXIXIXIXIXIXIXIXIXIXIXIXIXIXIXIXIXIXIXIXIXIXIXIXIX",
"IXIXIXIXIXIXIXIXIXIXIXIXIXIXIXIXIXIXIXIXIXIXIXIXIXIXIXIXIXIXIXIXIXIXIXIXIXIXIXIXIXJ Q T v m z., 1 * * * 1 o o o o o O O O o o o o o o o o o o o 1 o % % o 3 1 o ; > 1 1 8 7 7 7 % IXIXR A f 7 W ! K j.c.LXHXIXIXIXIXIXIXIXIXIXIXIXIXIXIXIXIXIXIXIXIXIXIXIXIXIXIX",
"IXIXIXIXIXIXIXIXIXIXIXIXIXIXIXIXIXIXIXIXIXIXIXIXIXIXIXy.w.Q R Q Q E Q Q R P P v Z -.W C P P A ; 1 * o * o o o o O O O O X X o o o o o O o o o o , , , 1 , 3 3 1 , 1 5 5 8 7 7 4 1 W , 6 k 6 6 v 7 r A W ! IXIXIXIXIXIXIXIXIXIXIXIXIXIXIXIXIXIXIXIXIXIXIXIXIXIXIX",
"IXIXIXIXIXIXIXIXIXIXIXIXIXIXIXIXIXIXIXIXIXIXIXIXIXf.e.m n T Y v P R R R < v m j j Q T   1 O % % o * * o @ @ o o O o o O X X X o o o o O o o o o O o ; O , , 1 1 , , 3 8 l j 8 7 N 4 f 7 z z a * c 8 N a ! IXIXIXIXIXIXIXIXIXIXIXIXIXIXIXIXIXIXIXIXIXIXIXIXIXIXIX",
"IXIXIXIXIXIXIXIXIXIXIXIXIXIXIXIXIXIXIXIXIXIXIXIXy.e.R T R C S A G S Z T Z P P P m P j O o &   1 o o o o o @ o O o O O O O O O X O o o O o ; ; o 1 1 5 O 6 ; 5 , & & 1 5 j 5 3 4 r L f 4 l l 3 4 6 v 6 Z Z r.IXIXIXIXIXIXIXIXIXIXIXIXIXIXIXIXIXIXIXIXIXIXIXIXIXIX",
"IXIXIXIXIXIXIXIXIXIXIXIXIXIXIXIXIXIXIXIXIXIXIXe.e.e.w.A ! O.n.$X$XD.m.j.J Z b P R b j O O o o 6 % O 1 O O 1 O O o O o o o O o 1 , % o o o o o % o 1 1 1 8 % 6 1 , 1 1 1 5 1 , 8 5 1 7 7 k k Z 7 c 6 C k W b IXIXIXIXIXIXIXIXIXIXIXIXIXIXIXIXIXIXIXIXIXIXIXIXIXIX",
"IXIXIXIXIXIXIXIXIXIXIXIXIXIXIXIXIXIXIXIXIXIXu.d.x.s.a.v.V. XC. X#X<X,X,XiXZ.J T Q P < 6 7 5 v Z o O o o @ 1 O o O O o ; o o ; 1 , % O O o o o o 1 , % 1 7 c 7 1 3 3 1 , , , ; , 1 1 5 1 6 1 6 a a c C v Z R IXIXIXIXIXIXIXIXIXIXIXIXIXIXIXIXIXIXIXIXIXIXIXIXIXIX",
"IXIXIXIXIXIXIXIXIXIXIXIXIXIXIXIXIXIXIXIXIXy.f.d.s.v.v.S.C.=.&.Q.].%X XA.iXmXiXW Z A T R C v R A o > 1 O O 1 O   O O o o o ; 1 o o ; ; 3 7 5 , o , , , 1 1 c 8 6 8 8 1 , , , 1 , , 6 1 1 6 6 8 7 a C Z P Y a.IXIXIXIXIXIXIXIXIXIXIXIXIXIXIXIXIXIXIXIXIXIXIXIXIXIX",
"IXIXIXIXIXIXIXIXIXIXIXIXIXIXIXIXIXIXIXIX8XG.t.z.v.v.U.S.D.=.%.]..X#X1XB.F.UXxXuX-.A T A Z P b Z o o o o 1 1 o O o o o 1 1 3 3 1 , o o 1 7 1 , 8 8 7 8 1 , 7 c c 6 8 8 1 ; , 8 1 , 6 6 7 8 c 6 , 7 6 c b T r.IXIXIXIXIXIXIXIXIXIXIXIXIXIXIXIXIXIXIXIXIXIXIXIXIXIX",
"IXIXIXIXIXIXIXIXIXIXIXIXIXIXIXIXIXIXIXIX8Xf.t.s.v.S.M.N.D.$.*.E.~.{.#X X XA.U.rXiX! Z T b r.t.P 1 o X o 1 O O o o o 1 5 1 1 1 5 5 , 1 N N 3 , k N Z , o 6 c Y 6 k k k 5 ; , 5 , 6 c C P c P T Z c 5 j j Y t.IXIXIXIXIXIXIXIXIXIXIXIXIXIXIXIXIXIXIXIXIXIXIXIXIXIX",
"IXIXIXIXIXIXIXIXIXIXIXIXIXIXIXIXIXIXIXyXG.e.t.j.c.S.F.A.B.o.' E.!.(.{.1Xq.A.A.,XiXU.W a T Y C Q 1 1 o O o 3 8 O o 1 7 7 , o 5 c 5 3 k W W 7 1 k T W 1 , N Z Q 6 c Z Z 6 5 k c 6 6 6 v v 6 j P R Z C l l c d.IXIXIXIXIXIXIXIXIXIXIXIXIXIXIXIXIXIXIXIXIXIXIXIXIXIX",
"IXIXIXIXIXIXIXIXIXIXIXIXIXIXIXIXIXIXIX7Xx.r.U c.l.F.A.A.N.} [ E._.W._.#X^.q.F.2.U.,XS.W T Z v j.o 1 1 o ; S A o ; k S N 1 1 k N 7 3 5 c c 1 , k v C , , 8 7 Z , c R T 6 6 P P j b T T j j c b Y T P P n v s.IXIXIXIXIXIXIXIXIXIXIXIXIXIXIXIXIXIXIXIXIXIXIXIXIXIX",
"IXIXIXIXIXIXIXIXIXIXIXIXIXIXIXIXIXIXIX6XR t.z.V.M.A.A.A.F.] ' E.W._.W.~.1Xq.q.A.F.U.U.! c P Z c.5 O O 1 o 3 7   o 7 S 5 o 1 7 8 1 1 1 6 7 1 , 6 C N , 8 7 N c , 6 R T , 6 T P < c r.T < P Q R T Q T r.P R a.IXIXIXIXIXIXIXIXIXIXIXIXIXIXIXIXIXIXIXIXIXIXIXIXIXIX",
"IXIXIXIXIXIXIXIXIXIXIXIXIXIXIXIXIXIXIXJ.w.r.z.V.F.A.A.A.F._ %.E.W././.~.#Xq.q.q.2.F.rX-.a c A c.o 1 o O o 8 1 O 1 7 C 8 ; 8 8 6 5 O 5 c 6 1 1 7 C Z 1 8 N N 8 , 6 P Y 6 < R P < Z P v < n T s.s.P t.g.s.P a.IXIXIXIXIXIXIXIXIXIXIXIXIXIXIXIXIXIXIXIXIXIXIXIXIXIX",
"IXIXIXIXIXIXIXIXIXIXIXIXIXIXIXIXIXIXyXG.E r.z.V.l.2.A.A.F.&.*.!.!././.W.'.0.q.A.A.A.U.>.J a S c.1 1 o o 1 3 1 o 1 7 N 8 o 8 8 8 5 ; 1 7 N 5 1 C T Z , 6 N N 5 5 c P Z 6 j r.P < v Z c < n Z r.P P s.z.z.a.R IXIXIXIXIXIXIXIXIXIXIXIXIXIXIXIXIXIXIXIXIXIXIXIXIXIX",
"IXIXIXIXIXIXIXIXIXIXIXIXIXIXIXIXIXIX0Xx.n Z z.V.A.F.F.A.) $.E.!.(.(.).W.'.^.q.q.A.S.U.>.S Z S o 1 o o o 1 1 1 o 3 7 c 8 o 8 8 6 5 , 5 7 T c 6 R R Z , 6 C c , 5 k T j < c Q v < v Z v 6 c b Q c c z.z.s.s.g.IXIXIXIXIXIXIXIXIXIXIXIXIXIXIXIXIXIXIXIXIXIXIXIXIXIX",
"IXIXIXIXIXIXIXIXIXIXIXIXIXIXIXIXIXIXeXd.Y Z v.U.A.1.9.0.X.*.{.(.}.).).~..X X0.9.A.A.U.j.f N A O o o O o 1 1 1 , 5 7 7 7 ; 8 8 6 6 , 1 1 A 5 ; c T Z , 6 v c , 5 k T j 6 c R 6 6 v Z c < n c r.n c R s.R x.g.IXIXIXIXIXIXIXIXIXIXIXIXIXIXIXIXIXIXIXIXIXIXIXIXIXIX",
"IXIXIXIXIXIXIXIXIXIXIXIXIXIXIXIXIXIX0Xd.m b -.U.S.n.F.$X#.^.(.-X}.}.(.W.W.~.0.q.F.S.c.W ! Z 8 O o o o O o 3 3 1 1 6 6 7 , 1 8 6 c 5 6 8 Z 6 , 6 Z C , 6 c c < , k T j k Z Q 5 k C P c < c c Q c 6 Q d.R s.x.IXIXIXIXIXIXIXIXIXIXIXIXIXIXIXIXIXIXIXIXIXIXIXIXIXIX",
"IXIXIXIXIXIXIXIXIXIXIXIXIXIXIXIXIXyX6XG.w.c J UXU.M.B.~ 8.{.(.-X).XX}.).W.^.8.0.l.S.c.A U C c , o 1 o O o 8 7 3 , 5 6 7 3 , 8 8 6 o 1 5 c 7 6 6 c Z 6 6 c v 6 < c A 6 6 T r.6 c P T v j C Z R c j v R Q T g.IXIXIXIXIXIXIXIXIXIXIXIXIXIXIXIXIXIXIXIXIXIXIXIXIXIX",
"IXIXIXIXIXIXIXIXIXIXIXIXIXIXIXIXIXwX7Xf.s.C - v.rXn.B.} 8.{.oX`.oX-X}._.W.E.Q.0.M.S.j.U A A v : ; o o o % 3 8 8 , , 6 7 a , 6 6 c 5 6 k v k 6 c c Z 6 6 v C j 6 k Z 6 6 A Q 6 c A T c c Z P v 6 b b s.n R d.IXIXIXIXIXIXIXIXIXIXIXIXIXIXIXIXIXIXIXIXIXIXIXIXIXIX",
"IXIXIXIXIXIXIXIXIXIXIXIXIXIXIXIXIX0XJ.f.t.Q S - M.,XN.} 8.!./.`.).).).(.{.E.&.g t c.T A A U Z : , o O o % 1 3 8 , , 6 7 N , c 5 6 1 1 7 c 8 < Z v Z 5 6 C Z j 6 6 Z k 6 Z Y 6 C R R c v Y R c 6 b P P v b G.z IXIXIXIXIXIXIXIXIXIXIXIXIXIXIXIXIXIXIXIXIXIXIXIXIX",
"IXIXIXIXIXIXIXIXIXIXIXIXIXIXIXIXwX0XJ.d.r.R Y a f S.$X) &.E.!.).`.oXXX].[.o.$ t - * 3 o X 7 C O ; o O o @ 1 1 3 , o 8 7 7 1 8 7 c 1 1 8 8 1 8 7 C v 6 5 c j.Z 6 N C Z , c Q v 6 s.R c v s.s.c b P t.w.z R s.m IXIXIXIXIXIXIXIXIXIXIXIXIXIXIXIXIXIXIXIXIXIXIXIXIX",
"IXIXIXIXIXIXIXIXIXIXIXIXIXIXIXIXeXqXG.w.Y P R A N 2 l.| =.*.T.!.W.(.+X[./ # 2 X 1 X * * X % 1 o o o O O o 1 1 1 1 o 8 7 7 , 3 8 7 1 1 7 8 1 1 3 C Q k , 6 Z T P 6 T P c c R v j r.Q v v s.Q T Z R w.v v P s.Z IXIXIXIXIXIXIXIXIXIXIXIXIXIXIXIXIXIXIXIXIXIXIXIXIX",
"IXIXIXIXIXIXIXIXIXIXIXIXIXIXIXIXeX6XG.w.P v P Z Z 7 f O.u %.*.R.~.!.[.q $ . 3 % 1 o o * o O o ; o o o O o 1 1 1 1 % 8 7 8 % 1 3 8 1 3 7 8 1 1 1 1 N v c , c T c c 7 s.c b s.P 6 Q a.T n R s.c T Y E P P R a.P e.IXIXIXIXIXIXIXIXIXIXIXIXIXIXIXIXIXIXIXIXIXIXIXIX",
"IXIXIXIXIXIXIXIXIXIXIXIXIXIXIXIXeX8XG.t.I n j 6 v Z 2 = +.( #.=.E.Q.^ p # 2 o , o @ * o o o ; ; o o o O o 1 1 1 1 % 8 7 8 , 3 8 3 1 3 7 7 3 3 1 8 , Y c , v Y T v , Z R Z P s.Z P z.Z 6 R s.c T Q r.n Q T d.Y z.IXIXIXIXIXIXIXIXIXIXIXIXIXIXIXIXIXIXIXIXIXIXIXIX",
"IXIXIXIXIXIXIXIXIXIXIXIXIXIXIXwX0XJ.f.e.I v k j j 6 N B w g ~ } $.( q $ # 1 O , O 1 o O o o o ; o o o o O o 1 , , % 3 8 3 , 3 8 3 1 3 8 7 7 6 8 6 7 T 6 j k 6 s.C < , j.Z 6 Y d.P s.R < r.a.R P d.E v R z.Y b z.IXIXIXIXIXIXIXIXIXIXIXIXIXIXIXIXIXIXIXIXIXIXIXIX",
"IXIXIXIXIXIXIXIXIXIXIXIXIXIXIXyX0XG.f.e.I v j 6 < < , A j.l.@.{ | { p 9   o 5 ; ; o o o o o O ; o o o o O o o % , % 8 3 3 o 3 3 3 1 3 8 7 a c 7 8 7 N 7 c 5 , A C c , R T Z 6 r.r.Q s.P R z.R n s.s.v r.z.Y 6 t.IXIXIXIXIXIXIXIXIXIXIXIXIXIXIXIXIXIXIXIXIXIXIXIX",
"IXIXIXIXIXIXIXIXIXIXIXIXIXIXIXwX7XG.f.e.I C j 5 , , Z c.Y.i.K H  .g t X 3 1 , O ; o o @ o O O o o o O o o O o 1 , % 8 3 3 o 3 3 7 3 3 7 a N N 7 N 6 7 c 7 5 N c Z J , c Q R b 6 r.z.w.g.P g.r.n a.s.E R z.T a.x.IXIXIXIXIXIXIXIXIXIXIXIXIXIXIXIXIXIXIXIXIXIXIXIX",
"IXIXIXIXIXIXIXIXIXIXIXIXIXIXIXwX6XG.t.R v v k k 5 Z Y.c.c.j.i.O.D L 2 1 o o ; ; o o o o O O o O o O o 1 o O o 1 1 , 8 3 3 , 3 8 7 8 8 7 N S N 7 6 c N N 7 5 6 k s.s 6 c v s.b n R g.r.Q R z.R R E a.R a.d.R a.x.IXIXIXIXIXIXIXIXIXIXIXIXIXIXIXIXIXIXIXIXIXIXIXIX",
"IXIXIXIXIXIXIXIXIXIXIXIXIXIX7XeXJ.f.e.P P c c 5 A c.rXL.z.c.i.i.! H f 8 O , O ; ; o @ o X X O o O o o o O O o 1 3 % 3 3 8 8 1 8 7 c 8 a c Z N 7 7 k k N 7 7 8 k N c 6 c c P c c Y R a.r.n w.d.P n qXP t.x.E s.f.IXIXIXIXIXIXIXIXIXIXIXIXIXIXIXIXIXIXIXIXIXIXIXIX",
"IXIXIXIXIXIXIXIXIXIXIXIXIXIX0XqXJ.d.w.P Z A 7 7 Y.rX9X7XH.z.j.i.O.K G 2 o ; 1 o o o o O X O O o o o o o O O o 1 1 % 3 3 8 7 3 8 N S N 7 N N S 7 7 c c N 7 7 8 k C s 6 c v Q c n r.T z.P b w.d.a.R d.z.t.G.b w.f.IXIXIXIXIXIXIXIXIXIXIXIXIXIXIXIXIXIXIXIXIXIXIXIX",
"IXIXIXIXIXIXIXIXIXIXIXIXIXIXwXqXG.a.r.T v N 3 i.rXuXiXrXL.Y.i.j.O.G G 2 1 1 1 O o o O X X X X o o o o o O o % 1 1 , 1 3 7 c 8 8 c N N 7 N N A N k N N S k k k c v C 6 6 Z c k 6 P Z Q P P r.a.a.H.P G.t.G.m a.f.IXIXIXIXIXIXIXIXIXIXIXIXIXIXIXIXIXIXIXIXIXIXIXIX",
"IXIXIXIXIXIXIXIXIXIXIXIXIXIXeX6Xx.w.R T C 8 c L.rXVXBXrXL.j.z.j.i.U A A 3 1 O o o o O O O X X o o o o o o o 1 3 3 1 1 3 c S a 3 N A Z k k k C k k c N N N N N S k C k v Z k Z c A Q Z Z b Y R R r.m x.G.x.w.d.h.IXIXIXIXIXIXIXIXIXIXIXIXIXIXIXIXIXIXIXIXIXIXIXIX",
"IXIXIXIXIXIXIXIXIXIXIXIXIXIX0XJ.d.w.P P Z 7 ! I.rXuXiXI.L.L.Y.z.j.j.! ! 1 o O * o o O O O o o o O o o o o 1 1 1 8 3 1 3 N S N 3 k A C N 7 c N k 7 k N N N N N N Z 6 A C c Z C c C Q Y b P v P n n R t.G.x.g.d.f.IXIXIXIXIXIXIXIXIXIXIXIXIXIXIXIXIXIXIXIXIXIXIXIX",
"IXIXIXIXIXIXIXIXIXIXIXIXIX7XqXG.w.r.P C C c c.I.I.I.7XL.c.L.c.L.Y.c.j.! 1 * 1 X o o o o O O O O O O o o o 1 1 1 7 7 1 3 a S S 8 8 S N S 7 N S S c N S N S N S N 5 c.N W W Z 1 A Z N C v P T P n Z Y e.e.g.w.a.f.IXIXIXIXIXIXIXIXIXIXIXIXIXIXIXIXIXIXIXIXIXIXIXIX",
"IXIXIXIXIXIXIXIXIXIXIXIXIXwXqXG.R w.P b j Z H.L.L.L.H.H.Y.L.I.I.I.L.v.v.1 1 3 O o o ; o o o o o O O o o o 1 1 1 8 7 3 1 7 N Z 7 k C S S k 7 N N c N C N Z S S N 5 , j.7 N 5 c c Z 6 6 s c Z Z b b n w.e.a.Y a.f.IXIXIXIXIXIXIXIXIXIXIXIXIXIXIXIXIXIXIXIXIXIXIXIX",
"IXIXIXIXIXIXIXIXIXIXIXIXIXwX6Xd.t.R j v j R H.H.H.H.L.z.c.I.uXiXrX6XL.I.3 % % 1 o ; ; o o o o o O o o o o 1 1 1 3 a 8 1 3 a S N 7 k N c N 7 C C 7 k C N S S S x 2 x U A 2 r B r V G j.v.H.R x.d.s.-.d.x.a.-.a.e.e.IXIXIXIXIXIXIXIXIXIXIXIXIXIXIXIXIXIXIXIXIXIXIX",
"IXIXIXIXIXIXIXIXIXIXIXIXIX0XJ.x.r.T c v j Q L.z.c.z.c.v.c.I.uXuXiXrXI.rXo 3 , o , o , % o O O o o o o o o o 1 3 1 7 k 1 , 7 v c N 3 a S 7 6 N C N 7 S S N N r @ t e i e e { 1...6.<.k.D.U.Z.Z.v.v.K.P.K.P.qXd.e.f.f.IXIXIXIXIXIXIXIXIXIXIXIXIXIXIXIXIXIXIXIXIXIX",
"IXIXIXIXIXIXIXIXIXIXIXIXIXqXJ.g.r.T C v k W z.j.j.i.j.v.c.I.iXuXiXiXrXrXuX1 O 3 % , o 1 o O o X o o o o o @ 1 3 3 7 k 8 1 8 k c S 8 8 a 8 8 c N N k S S 8 2 # t i u / | B.| ) _ 5.| 6.2.f P.J P.Z.v.P.P.v.K.x.G.d.f.f.IXIXIXIXIXIXIXIXIXIXIXIXIXIXIXIXIXIXIXIXIX",
"IXIXIXIXIXIXIXIXIXIXIXIXIX6XJ.e.R Z c k N T r.j.! W O.j.c.L.I.rXrXuXrXmXiXa 1 % & & o O o o o O o o o o o 1 1 3 8 7 7 7 8 1 8 7 N 8 3 7 7 7 c c c k N S N 4 @ O.{ u u | _ _ _ _ 7.` | 1.f U.P.P.P.J P.v.P.P.P.x.z.x.x.G.IXIXIXIXIXIXIXIXIXIXIXIXIXIXIXIXIXIXIXIX",
"IXIXIXIXIXIXIXIXIXIXIXIXwX6Xx.e.R P k j k C W U U G U O.j.j.V.L.I.rXuXVXU.>.-.- - X 4 X * o O o o o o O o 1 1 3 8 8 8 7 6 1 1 8 8 8 3 8 N c c c N c N S 7 8 X O.| / q X.9.q 7._ ` 7.6.1.D.U.S.P.P.K.P.P.K.P.P.E s.d.z.f.y.IXIXIXIXIXIXIXIXIXIXIXIXIXIXIXIXIXIXIX",
"IXIXIXIXIXIXIXIXIXIXIXIXyX6Xg.w.R m 6 k 7 N ! N x r S G L ! j.c.c.rXuXrXl.>.k.V.= = @ o o O O 1 o o O O o > 1 3 3 3 3 8 8 8 3 1 3 8 3 7 N c 7 c v c c N 7 N o f 7.=.u ~ 5.7.7.7.7.6.g f k.-.d v.P.P.d v.v.v.-.I.d.G.G.G.x.IXIXIXIXIXIXIXIXIXIXIXIXIXIXIXIXIXIXIX",
"IXIXIXIXIXIXIXIXIXIXIXIX0X6Xg.R m n 5 k k N ! B 4 4 2 f B G L ! k.c.U.U.>.M.M.k.<.k.@ 2 * O o O o o O O o 1 1 3 1 1 3 1 3 8 3 1 1 8 8 8 7 7 6 c c c c N a S 1 t +.7.+.+._ {  .g m.U.t t c.P.Z.v.s Y -.-.Z.b K.x.g.f.f.G.G.G.IXIXIXIXIXIXIXIXIXIXIXIXIXIXIXIXIXIX",
"IXIXIXIXIXIXIXIXIXIXIXIXqXJ.d.R P P j k k k U B r r 2 r r B B G ! j.c.c.k.V.m.M.k.k.= + o o 3 o o o O O o 1 1 3 1 1 3 3 1 2 1 1 3 8 8 3 8 8 8 a c N c 7 a 7 , 2 F  .O.k.t G ! V.c.L N S J -.-.-.d.E -.b M a.G.G.G.G.f.d.x.f.IXIXIXIXIXIXIXIXIXIXIXIXIXIXIXIXIXIX",
"IXIXIXIXIXIXIXIXIXIXIXIXeXG.g.E b b j 8 6 7 N W 2 2 # = = t t V V V >.l.m.S.n.m.1.k.<.= = X o @ o o O O % 1 1 3 1 1 3 2 1 1 1 1 1 8 8 8 8 8 7 7 6 N a 7 N 7 3 S * V.c.a Y.N Z 7 5 C Q C Z Y n n Y b x.Y E Y a.g.f.f.x.g.H.d.IXIXIXIXIXIXIXIXIXIXIXIXIXIXIXIXIXIX",
"IXIXIXIXIXIXIXIXIXIXIXwX6XJ.w.w.P n k k 5 3 N W r # 2 = # = r t V V K k.M.D.m.B.N.1.k.<.+ 2 @ @ o X o o o o 7 1 3 1 1 1 1 1 * 1 3 8 3 3 3 8 8 8 8 7 7 7 c 7 7 S 7 6 s & < P b Z v b T R v v Y Y E w.w.w.w.a.f.d.g.g.-.d.g.x.J.IXIXIXIXIXIXIXIXIXIXIXIXIXIXIXIXIX",
"IXIXIXIXIXIXIXIXIXIXIXeX6Xf.a.P P n j 7 5 8 2 L B # = = = # = # t t f <.S.D.V.m.n.n.k.O.k.# + 2 @ o o 1 o 1 o 1 1 1 1 1 * 1 * 1 3 3 3 3 3 8 8 3 8 7 7 a c 8 3 a c 6 T R 6 6 b Q P P T P c c Z P Y a.d.d.d.d.f.d.d.g.-.Q G.G.7XIXIXIXIXIXIXIXIXIXIXIXIXIXIXIXIXIX",
"IXIXIXIXIXIXIXIXIXIXIXwX6Xx.a.Y Z v j 7 5 7 * ! k.r + + + . + = = = t O.m.D.D.D.N.m.1.k.<.<.+ = * * o X * 1 1 , 1 1 1 1 * * 1 1 1 3 3 3 3 3 3 3 3 3 8 7 k 6 6 7 N 1 3 C Z Z Z Z T Q Q T P P T Q g.d.g.r.r.a.d.x.x.v.IXIXIXIXIXIXIXIXIXIXIXIXIXIXIXIXIXIXIXIXIXIX",
"IXIXIXIXIXIXIXIXIXIXIX0X7Xd.a.Y Z v j 7 7 3 8 k.V.D = + + + + # + + e >.m.V.D.D.D.n.m.1.1.<.<.= + * X @ X o 1 1 1 , o o @ * * 1 1 1 3 3 3 3 3 1 3 3 3 8 7 7 6 a 6 S N N c 7 c J 6 c c c c k 7 c P P b b c n P s.x.qXJ.IXIXIXIXIXIXIXIXIXIXIXIXIXIXIXIXIXIXIXIXIX",
"IXIXIXIXIXIXIXIXIXIXIX0XJ.d.Y Y b C j 6 7 o G S.k.! f @   * = X + + e >.M.V.D.D.N.B.n.2.k.1.k. .= + * * *   1 o ; ; ; o o ; * * o 1 1 3 3 3 3 1 3 1 3 3 8 8 7 6 6 3 3 a a 7 a a 6 a a 7 7 8 2 5 6 c C J J Z Z E Y x.7XIXIXIXIXIXIXIXIXIXIXIXIXIXIXIXIXIXIXIXIXIX",
"IXIXIXIXIXIXIXIXIXIXwX6XJ.a.w.Y b C k 8 8 o j.U.j.! G r @ X   @ + + g >.k.m.S.D.D.m.N.n.n.b.1.1.O.+ = X * 1   % o o o o o ; * * o 1 1 1 1 1 1 1 1 1 3 8 5 5 8 5 6 c C N J J S N a a 7 3 1 2 8 5 8 c N a c C b P m I f.IXIXIXIXIXIXIXIXIXIXIXIXIXIXIXIXIXIXIXIXIX",
"IXIXIXIXIXIXIXIXIXIXwX7XG.d.a.T Z C v 8 1 8 l.L.j.O.! ! V 4 X X . + O.k.k.l.M.D.D.D.n.N.n.9.B.+.<.k.  4 X o 1 O o o o ; o ; > @ o 1 1 1 * 1 1 1 1 * 3 3 1 3 7 5 N C C k S S 3 , 3 , , < , 6 k 6 6 k a a a c c v R e.m P IXIXIXIXIXIXIXIXIXIXIXIXIXIXIXIXIXIXIXIX",
"IXIXIXIXIXIXIXIXIXIX0X6Xd.a.r.Z Z C C 8 o V c.S.k.j.! G V W f * = # O.>.<.m.m.M.S.D.B.B.B.n.6.n.O.<.<.. = @ O 1 o o o o o > > > > 1 1 * * 1 1 1 1 * 3 3 1 5 7 7 W ; k C 1 5 3 1 1 & < 6 6 c v 6 k 6 7 C C 6 c T a.R t.a.e.IXIXIXIXIXIXIXIXIXIXIXIXIXIXIXIXIXIXIX",
"IXIXIXIXIXIXIXIXIXIX0XJ.d.w.Q Y v A a 8 @ G l.V.l.k.O.L L V G S V L O.O.<.m.n.B.n.B.B.n.n.B.n.b.,.1.<.# + 1 O % % o X o > > > ; ; o 1 1 1 1 1 1 3 5 1 o 1 2 8 7 T c 5 1 1 1 * * 1 - 1 4 7 8 6 c k k C c c Z 6 Z n b R t.f.IXIXIXIXIXIXIXIXIXIXIXIXIXIXIXIXIXIXIX",
"IXIXIXIXIXIXIXIXIXIX0XJ.d.w.m Z C N r = 9 O.+.b.+.l.k.>.A V f f G V K  .<.b.1.1.6.B.B.n.n.B.B.n.5.5...<.# + 8 o o o * & o o > > o o o o 1 1 1 1 , 1 1 1 8 r N k C c 8 3 2 2 2 2 = * - 1 1 1 3 6 k k k c Z Z C Z J b n P e.y.IXIXIXIXIXIXIXIXIXIXIXIXIXIXIXIXIXIX",
"IXIXIXIXIXIXIXIXIXeX6XG.d.w.w.P C B H $ $XC.+.7.+.V.U.j.W G G H V f B K <.b.1.1.1.n.B.n.n.n.B.B.,.6.1.O.<.+ * * X O o o o > > > > o o o @ 1 1 1 1 1 1 3 7 N 7 8 6 6 5 3 5 1 1 1 1 1 , , , , 1 5 6 6 6 c Z c W Z T C P w.P u.IXIXIXIXIXIXIXIXIXIXIXIXIXIXIXIXIXIX",
"IXIXIXIXIXIXIXIXIXwX6Xd.a.R b C U r 9 $X&X&X X&.+.M.I.i.W U K H ! S V K <.k.1.1.1.n.B.n.n.n.m.B.B.,.6.1. .>.. @ 1 1 o O o ; > o > o o @ @ 1 1 1 1 5 1 3 3 3 1 o o , 1 1 1 1 1 o 1 , , , , 5 5 < , 6 < n v 6 A A A Z C R R m u.IXIXIXIXIXIXIXIXIXIXIXIXIXIXIXIXIX",
"IXIXIXIXIXIXIXIXIXwX7Xx.a.R m P N H $X&X3X%X#X&.| m.U.v.A ! H H L V D L +.1.+...1.9.B.B.n.n.n.B.N.n.1.1.<. . .+ . o 1 , ; o o o @ > o o o 1 1 1 1 1 1 1 1 1 o o % 1 1 1 1 1 1 ; ; , , , , < 5 , 6 n s s 7 7 7 S V S J T R w.e.M IXIXIXIXIXIXIXIXIXIXIXIXIXIXIXIX",
"IXIXIXIXIXIXIXIXIXwXJ.d.a.P P C T x p  X3X@X+X^.X.1.L.c.U U H K B f B D <.1.<.,.1.1.n.n.n.n.n.B.n.N.n.1.1...{ F # o o ; ; o o o o o o o o o o o 1 1 1 1 o o o * * * o o ; 1 , , ; ; ; ; ; > > 1 % 3 - 2 r D r H B K ! -.s.R P t.t.IXIXIXIXIXIXIXIXIXIXIXIXIXIXIX",
"IXIXIXIXIXIXIXIXyX7XJ.a.w.R b b b 7 p  X5XOX{.Q.&...V.c.R S G U V f B K O.<...+.1.1.6.n.B.n.n.n.n.M.n.9.:...| O.K N 1 ; ; o o o o o o o o o o o 1 1 > 1 o o o * o o o o ; ; ; , ; ; o @ @ + # 9 9 0 y i i { { / { { {  .>.k.j.j.j.t.J.IXIXIXIXIXIXIXIXIXIXIXIXIX",
"IXIXIXIXIXIXIXIXwX6XG.g.w.Z P P n 6 e } <XOX.X^.&.| k.L.Q W A G L f f D O.+...,.6.6.6.B.B.n.n.k.N.m.N.9.5.X... .D S S U A 8 o X o o o o o o o o o O o o 1 o o o o o o 1 ; ; ; , ; o @ # # $ p q ^ ^ 8.[. X&XdXtXdXdXxXdXrXV.O.j.j.c.z.z.IXIXIXIXIXIXIXIXIXIXIXIX",
"IXIXIXIXIXIXIXIXwX6XG.d.r.P P v n , g 5..X@X+X~.=.{ F U.c.S W V L f f B O.O.O.+.1.6.5.6.B.n.n.n.n.M.N.9.7.;... .K B N U S N 2 X o o o o O o o 1 o o o o o o o @ % o O o > > ; @ @ + # p p q ( =.Q.].#X:X3XgX3XfXdXdXlXzXMXCXvXxXrXY.L.V.t.IXIXIXIXIXIXIXIXIXIXIX",
"IXIXIXIXIXIXIXIXeXJ.h.a.R P P P v : O...&X+X+X{.Q.=.H l.V.>.V ! G B f t K O.....,.6.7.6.b.b.n.n.m.M.N.B.6.5...|  .H r B S x * 1 O o o o O O o o o o o o o o o o o o o o @ @ o X = $ 0 u | 3.8.[.{.+X;X;X;X%X3XaXaXbXlXlXzXMXMXZXFXVXrXO.V.IXIXIXIXIXIXIXIXIXIXIX",
"IXIXIXIXIXIXIXIX7XG.G.d.w.R P P : C k.| <X2X;X@X].=.{ i.U.>.! L L S B f K O.O.| +.7.5.7.6.B.n.n.m.B.B.B.9.5.:... . .r r D r > 8 o o o o o O o o O O o o o O o o o o o o @ + @ # w 0 _ ) $.8.Q.!.(.).}.=X;X4X3XsXaXpXlXlXzXzXMXMXMXSXAXMXS.Y.IXIXIXIXIXIXIXIXIXIX",
"IXIXIXIXIXIXIXIX0XG.d.a.R R T C : U k...<X3X3X%X*Xb.b.+.V.l.>.O.U N B D O. .{ | ..7.7.5.6.B.n.n.n.n.B.N.B.9.,.:... .g t B r 8 8 o o o o o o o o O O O O o o O o o o O X + # 9 w g _ X.o.&.Q.Q.!.{._.oXXX=X@X2X5X3XpXjXlXhXzXhXNXNXAXSXZXZXrXIXIXIXIXIXIXIXIXIXIX",
"IXIXIXIXIXIXIXyX6XG.a.w.T R I l 8 k.k.| gXaX3X<X&X*Xw e O.c.>.! W B B D O.K F  ...7.7.7.6.9.9.9.6.n.m.B.N.n.1.,...| { e e f N 1 o O O O o o o O O O O O o o o O O X X + + # e g _ / } } %.*.*.E.!.}.oXoX}.=X;X2X2X3XsXpXcXcXhXhXzXNXzXZXZXZXxXIXIXIXIXIXIXIXIXIX",
"IXIXIXIXIXIXIXyX6XG.a.w.E R P 8 N k. .o. XpXpXlX/ g t r f k.O.j.U A B B K K { { ..,.5.7.6.6.9.9.6.n.n.M.N.M.n.1.....| g w r N o o O O O O O O O O O O O o o O X X X + # = 0 y g { ) } &.%.[ *.E.R.!.{.).oX=X=X=X4XsXnXfXgXhXkXlXhXvXNXMXZXFXAXuXIXIXIXIXIXIXIXIX",
"IXIXIXIXIXIXIXyX6XG.a.E P P v C j.m...+.X.dXhXq g f f 7 7 N k.O.U V V B K K F _ | X.X.5.6.6.9.B.9.b.n.M.M.M.n.1.:.o.| { e r 8 o ; o O O O O o o O O o o O O O X X + # = 0 e y u / ) ' &.#.[ *.Q.Q.!.!.{.(.XX}.=X;X3XgX3XaXhXaXpXcXhXlXNXCXCXZXFXLXIXIXIXIXIXIXIX",
"IXIXIXIXIXIXIXeXJ.a.w.R P P j A >.l.<.6.7.X.tXF f V 7 3 S S ! i.G r B D ! F g _ | X.5.5.7.5.6.6.B.b.n.m.M.M.n.9.,.o.| | g t @ o > o O O o o o @ O o o o O O X X + + # 9 w y u g ~ ( ( $.%.#.*.Q.*.Q.Q.{.{.oXXX=X;X;X3X3X5XaXpXaXpXhXcXlXzXvXCXCXFXKXIXIXIXIXIXIX",
"IXIXIXIXIXIXIX0XG.d.E R R P j S >.m.6.1.,.b.+.i r 2 7 3 a f A j.j.D f D K F { _ | ..X.,.5.5.7.6.6.9.9.n.m.M.N.n.1.:..._ { t   1 o o O O o o o O o o X X X X O X + # 9 9 0 i u u / ( ` ( ' $.%.#.*.E.E.!.!.).).oXXX=X;X4X2X3XsXfXsXcXkXlXbXzXlXMXMXCXLXIXIXIXIXIX",
"IXIXIXIXIXIXIX7Xx.d.s.m P m b N k.n.1.6.,.,. .r D 8 4 2 7 7 N j.j.L D D  .F g g | ..X.;.3.5.5.7.7.6.9.n.m.V.N.B.6.,...,.O.g @ X o o O O o o o o o X X X X X O X # # 9 0 e e y u ~ / / ( ` $.$.$.%.%.*.Q.!.!.(.OXOXoX-X;X4X2X5XsXsXaXsXfXkXhXfXlXlXNXvXCXiXIXIXIX",
"IXIXIXIXIXIXIX7Xx.Y Q Q P P j 7 >.n.1.6.,.,. .D G 4 * * - 4 8 G k.! D D  .F { { | | X.;.3.5.5.5.7.6.6.n.m.V.N.B.n.,.,... .  * 8 o o o o o o o o X X X . . X . + # $ p w e 0 w u u / / ( ( } } $.$.%.*.Q.E.T./.).}.oXoX=X@X4X3X3X3X3X3XaXfXjXfXhXhXcXvXAXVXVXIXIX",
"IXIXIXIXIXIXIX7Xd.d.b T R Y Z 7 O.B.6.,.,.1.>.L S S a 3 * 4 4 r ! ! D f K F F {  .| ..X.,.5.5.3.5.6.6.n.n.M.N.N.n.9...<.<.. X 1 ; o o o O o o o X   X X . X o @ # # 9 0 w w w y u / / ) ( ` ` ' $.%.*.Q.*.E.!.!.}.).XXXX2X@X@X3X3X3X3XfXgXaXpXjXpXhXlXlXvXFXFXIX",
"IXIXIXIXIXIXIXIXJ.w.Q Y Z Z Z 4 O.b.6.5.,.,.O.K S W T N & - = 4 f G D f  . .g g { | ..X.;.5.5.;.7.6.6.b.n.m.M.M.N.n.<.>.k.X @ O ; ; o o O O O O X X . X + . + # # 9 0 0 0 w y q u u / ( ) ( ` } $.$.%.*.*.Q.!.E.!.(.{.XX}.;X;X;X5X3X2X3X%X5XaXsXaXpXkXcXcXCXCXCX",
"IXIXIXIXIXIXIXIX7Xe.w.R Z T Z N K n.5.:.:.,.+.O.U A N c 3 * 2 2 2 N V V O. .F F { | ..X.:.,.;.;.5.7.6.b.n.m.m.M.M.N.<.<.  X 1 1 1 ; o o O O X O X X X X + + @ # + # 9 9 9 e y y u u / / ( / ` ` } ' %.*.*.*.E.Q.!.!.(.(.+XXXXX=X@X%X3X3X5X3X5X3XaX5XsXfXhXhXzXMX",
"IXIXIXIXIXIXIXIXIX8Xm n n m P k H n.1...o.:.:.O.! N 7 N N 7 k 8 1 1 4 f K K F { _ | ....X.;.;.;.,.7.6.6.b.n.m.N.V.m.l.<.  o 3 o ; o o o O O O O O . X . + # # # + # 9 9 9 w y y u u / / / / ( ( ` ' $.%.%.%.*.E.Q.!.!.(.).oXoXXX=X;X;X%X%X%X2X4X3XsX2XaXaXaXjXlX",
"IXIXIXIXIXIXIXIXIXIXIXG.e.I u.P U k.1.:.o.| {  .@.G V N N 8 k 5 3 * 2 B O.K F { g | ......:.;.;.,.7.6.6.b.n.m.V.S.m.M.k.X * o 1 ; o o O O O O O   O X . + # # $ 9 9 0 w 0 0 0 y w u u / / ) ( ` ( ' ' ' #.8.*.*.*.E.E.!.).).XXoXXX+X}.=X;X4X;X3X2X4X3X5XpXaXpXkX",
"IXIXIXIXIXIXIXIXIXIXIXIXIXIXIXIXz.<.:.| ] o.) { @.H B A N a c 7 o * 2 r K O.F { { _ | ....X.;.;.;.,.7.6.n.n.n.m.V.S.M.  * * o 1 o 1 o O O O O O X X X + # # # $ + t 0 9 0 w y y y q u ~ u / / ( / ` } } $.&.=.*.*.*.!.T.!.).).oXoX}.=XoX;X;X=X;X@X3X5X2X3X3XsXsX",
"IXIXIXIXIXIXIXIXIXIXIXIXIXIXIXIXIXl. .| ] _ | | @.{ B G r C a 1 3 1 1 4 K O.F F { _ | o.o.X.X.;.3.;.,.6.b.n.n.n.V.M.V.l.* X 1 3 O O O O o o o O X X X + @ # # 9 + 9 9 9 0 w e y i y u u u / / / ) ( ( } } ' } %.*.*.T.E.!.!.R.)._.oXoXoX{.;X+X;X;X%X2X%X2X3X3XfX",
"IXIXIXIXIXIXIXIXIXIXIXIXIXIXIXIXIXA K g _ _ ] ] |  .F K f a c C 8 3 1 4 G O.F { { _ | | o.X.X.;.3.;.,.,.6.b.n.m.V.M.M.S.  * @ X 1 o * O O O o o O O o + # = 9 9 # 0 9 0 w 0 e y i w u u u g ~ / ( ( ( } } ` } &.%.%.*.Q.T.~.!./.).).}.oXoXoX}.oX;X@X;X3X5X3X3X2X",
"IXIXIXIXIXIXIXIXIXIXIXIXIXIXIXIXIXIX! F g _ h h h g F K f 7 N v 6 8 7 4 D L F { { { | | | o.X.;.3.3.;.,.7.6.n.n.m.D.l.V.V.X = * @ X * o o O O O O O o + # 2 9 9 9 0 9 w e 0 y i y q u u y u u / / ( ( ( ( } } $.#.8.%.E.E.!.E.!.!./.}.).-X}.-X}.;X;X@X%X%X%X5X3X",
"IXIXIXIXIXIXIXIXIXIXIXIXIXIXIXIXIXIXIXU F g h h h g f D N U T C k 8 7 4 V D D F { _ | | | o.o...;.3.;.,.,.6.9.n.m.l.m.D.l.  + + @ + @ o o o o O O O X @ = 9 9 # 0 9 p w w w y y i w u u q u u / ~ / / / / ` } } &.$.#.8.*.*.E.E.E.!.!.(.).}.oXoXXXXX;X:X@X;X;X2X",
"IXIXIXIXIXIXIXIXIXIXIXIXIXIXIXIXIXIXIXIXU D  .F K G N ! N C k x k 8 8 1 V H g g { {  .| | o.o...X.X.;.;.,.,.6.n.n.M.V.m.V.m.+ + . # X X o O o , o O o @ 2 t t p t 9 p w w w y y i i g u q u u u ~ u ~ ( ( ( ) } ' &.#.%.*.*.*.Q.E.Q.T.(.(.).).OXoXXX=X;X;X=X=X;X",
"IXIXIXIXIXIXIXIXIXIXIXIXIXIXIXIXIXIXIXIXIXIXIXIXIXIXIXt.U S B B a 8 8 1 G D D g g _ | | | ......X.X.3.;.;.,.6.6.n.m.S.m.S.l.k.<.  2   @ o X O % o o o + # 9 t 9 t 9 9 w w w i w i i u u u u u u ~ u u / ) ( ) ` } $.&.%.%.%.*.*.*.T.E.T./.{.}._.oX-X}.=X;X=X=X=X",
"IXIXIXIXIXIXIXIXIXIXIXIXIXIXIXIXIXIXIXIXIXIXIXIXIXIXIXIXw.A ! 2 7 8 7 2 G D D g g g { | | ....o.o.X.;.;.;.,.,.6.n.n.M.S.m.V.k.1.<.>.. . + + X o o @ + + + = t t w 9 9 w w w i w i w u u u u u u u ~ ~ / / ) ) ( ` ' ' $.%.%.#.*.*.*.E.T.W.!.!.).).oXoXXXXX=X=X=X",
"IXIXIXIXIXIXIXIXIXIXIXIXIXIXIXIXIXIXIXIXIXIXIXIXIXIXIXIXy.e.A 4 7 1 3 3 2 D D g F g g _ | | +.| | o.X.X.3.3.;.7.9.n.N.N.M.M.n.1.,.:.,...:.$ . $ $ + + + $ # f t e w 0 y t e w y y i u u u u u u ~ u / / { ( ) ( ` } ' &.%.#.#.*.*.*.%.*.E.!.W./.).).).oXoX}.=X=X",
"IXIXIXIXIXIXIXIXIXIXIXIXIXIXIXIXIXIXIXIXIXIXIXIXIXIXIXIXIXIXIX6 3 S 8 4 2 . H D g 0 F { g .._ ......X.;.5.5.3.5.6.9.B.B.N.N.m.1.X.;.X.o.,.| ,.,.O.<.$ + + $ 9 g 0 w i y w e e w y y y u u u u u u u / / / / / _ ` ( ^ ' &.$.$.%.%.%.*.%.Q.E.Q.!.).}.).).oXoXoX=X",
"IXIXIXIXIXIXIXIXIXIXIXIXIXIXIXIXIXIXIXIXIXIXIXIXIXIXIXIXIXIXIXn 5 a 4 * 2 = D F g F 0 q g  .| | | | o.X.5.5.;.,.,.6.n.M.N.N.N.b.7.5.X.o.o.X.,.+.....<...:.n.$ y w p i w 9 y i w y y u u u u u u q u u / ~ _ / ) ` ` ( ' } ' ' ' %.*.*.*.Q.T.T.!.~.W.}./.oX}.XXXX",
"IXIXIXIXIXIXIXIXIXIXIXIXIXIXIXIXIXIXIXIXIXIXIXIXIXIXIXIXIXIXIXIXC 7 8 N 2 @ + D g w { g g | _ { _ | | o.X.3.;.,.,.1.n.M.M.N.N.b.,.o.o.X.X.X.,...,.,.| :.....,.,.+.0 i i y w i w y y u u u u u u u u u / ~ / / ) ( ` ` ( } ' #.#.' $.#.*.%.T.*.E.W.!.(.}.}.oXXXXX",
"IXIXIXIXIXIXIXIXIXIXIXIXIXIXIXIXIXIXIXIXIXIXIXIXIXIXIXIXIXIXIXIXO 7 3 o X 2 = +  .t g g h h _ _ | | | o.X.;.X.;.5.,.n.n.M.N.M.n.9.o.X.X.X.o.X.X.X.) 5.,.X.X.;.X.7.q 0 y y w w y y y i u u u u u u u ~ u / u ~ ~ / ( / ( } } &.$.' #.' %.%.*.*.E.*.!.!.T.(.(.).oX",
"IXIXIXIXIXIXIXIXIXIXIXIXIXIXIXIXIXIXIXIXIXIXIXIXIXIXIXIXIXIXIXIXIX1 7 1 7 1 . . K  .g g h _ ) ) | o.| o.X.;.;.;.,.,.9.n.M.V.V.B.6.o.;.o.o.X.5.X.3.;.X.X.X.o.3.3.X.g q q w 0 i w w w w y u y u u u u / u / u ~ u / ` ( ( ` ( } } $.#.#.$.%.%.*.*.*.!.T.!.W.{.(.oX",
"IXIXIXIXIXIXIXIXIXIXIXIXIXIXIXIXIXIXIXIXIXIXIXIXIXIXIXIXIXIXIXIXIX  a % o * X 2 + >.K  .| _ ..| | o...X.X.3.;.;.,.,.1.n.n.N.V.N.9.5.5.X.o.X.X.X.o.3.] X.4.;.4.X.5.+.g y i w w w w 0 0 y i i i u u u u u / / / / u ( ( ( ( ( ` } } ( ' ' %.$.*.*.*.[ E.E.T.!.(.).",
"IXIXIXIXIXIXIXIXIXIXIXIXIXIXIXIXIXIXIXIXIXIXIXIXIXIXIXIXIXIXIXIXT N 1 a 3 1 2 @ = . <.:...,.| ..o.X.;.;.3.3.;.;.:.:.,.6.n.M.V.M.B.5.;.;.o.&.X.3.X.o.;.o.o.4.&.o.X.,.q q u w i i y w 0 y u i i u u u q u u u u / ~ ( / ) ) ) ( ( } ' } $.$.$.$.%.*.%.*.*.T.(.!.{.",
"IXIXIXIXIXIXIXIXIXIXIXIXIXIXIXIXIXIXIXIXIXIXIXIXIXIXIXIXIXIXIXIXk 4 1 1 3 3 1 * @ = +.1.1.,.X.;.;.;.;.7.;.3.;.;.;.,.,.1.n.N.V.V.m.n.,.;.X.X.X.3.X.X.X.X.&.&.&.&.&.X.X.g q w w i i w i w u i i i i g u u u u u / / / / ~ ( ) / } ( ( ' } #.#.%.*.*.%.*.T.!.W.!./.",
"IXIXIXIXIXIXIXIXIXIXIXIXIXIXIXIXIXIXIXIXIXIXIXIXIXIXIXIXIXIXIXu.k 3 1 1 3 3 1 @ X = f 1.1.5.;.;.;.;.;.7.;.3.;.;.;.,.5.1.n.M.V.V.m.n.1.,...X.X.3.X.X.X.X.&.&.&.&.3.X.X./ q w i i i w i w u i i i y u u u u u u / / / / ~ ( ) ( } ( ) ` } ' ' #.%.%.%.*.*.E.R.R.!."
};
