/* XPM */
static const char *xpm__13_sgun_endreload1[] = {
/* columns rows colors chars-per-pixel */
"149 131 254 2 ",
"   c #050505",
".  c #0A0B06",
"X  c #050B0A",
"o  c #0C0C0C",
"O  c #080806",
"+  c #120E0C",
"@  c #160B05",
"#  c #0D110D",
"$  c #0D1206",
"%  c #13120D",
"&  c #1B120D",
"*  c #171709",
"=  c #0D0D11",
"-  c #0B0B17",
";  c #110E12",
":  c #120F1A",
">  c #0D1213",
",  c #0D1418",
"<  c #131313",
"1  c #1A1514",
"2  c #151914",
"3  c #1A1A15",
"4  c #15151A",
"5  c #1A161A",
"6  c #151A1B",
"7  c #1B1B1B",
"8  c #27160C",
"9  c #231B15",
"0  c #2C1B13",
"q  c #231D1B",
"w  c #271917",
"e  c #331D14",
"r  c #270A02",
"t  c #1D211C",
"y  c #1B2115",
"u  c #23221D",
"i  c #2B231C",
"p  c #27271A",
"a  c #34241C",
"s  c #3B251B",
"d  c #382719",
"f  c #372E14",
"g  c #1C1D22",
"h  c #171A25",
"j  c #231E23",
"k  c #251E29",
"l  c #341E20",
"z  c #1C2224",
"x  c #1B242B",
"c  c #1B2627",
"v  c #1E2732",
"b  c #232223",
"n  c #2B2423",
"m  c #2C2A24",
"M  c #24242A",
"N  c #2A252C",
"B  c #242A2C",
"V  c #2B2A2C",
"C  c #242A24",
"Z  c #332B25",
"A  c #3C2B22",
"S  c #332C2B",
"D  c #362926",
"F  c #2C322A",
"G  c #33322D",
"H  c #3C332C",
"J  c #3B3728",
"K  c #242B34",
"L  c #2C2C32",
"P  c #282734",
"I  c #322C33",
"U  c #352E38",
"Y  c #2C3234",
"T  c #2B343B",
"R  c #283438",
"E  c #333334",
"W  c #3B3434",
"Q  c #33343A",
"!  c #3A353B",
"~  c #3C3A3D",
"^  c #363A37",
"/  c #442A1E",
"(  c #47271A",
")  c #552A1A",
"_  c #4E321B",
"`  c #442C22",
"'  c #4B2D22",
"]  c #462D28",
"[  c #532C23",
"{  c #4D3325",
"}  c #4C352A",
"|  c #463629",
" . c #533424",
".. c #553926",
"X. c #5B3C25",
"o. c #543B2B",
"O. c #5B3D2A",
"+. c #573428",
"@. c #463B36",
"#. c #543D33",
"$. c #5A3C34",
"%. c #522C32",
"&. c #663A29",
"*. c #663C34",
"=. c #6D372D",
"-. c #532619",
";. c #3C4437",
":. c #67451C",
">. c #5D422D",
",. c #5A4029",
"<. c #5A592B",
"1. c #49453A",
"2. c #544234",
"3. c #5C4433",
"4. c #53443B",
"5. c #5D4B3C",
"6. c #5A4839",
"7. c #585939",
"8. c #48492F",
"9. c #61432C",
"0. c #684229",
"q. c #7A482B",
"w. c #614533",
"e. c #634C3B",
"r. c #644736",
"t. c #794937",
"y. c #665837",
"u. c #745531",
"i. c #5D6238",
"p. c #66663A",
"a. c #756939",
"s. c #6E703A",
"d. c #58421B",
"f. c #2D3845",
"g. c #343B44",
"h. c #3C3C42",
"j. c #363947",
"k. c #313650",
"l. c #423D44",
"z. c #473E44",
"x. c #543F44",
"c. c #3B4348",
"v. c #3A4954",
"b. c #394B58",
"n. c #374063",
"m. c #444244",
"M. c #4B4444",
"N. c #44444A",
"B. c #4A454B",
"V. c #4C4A4C",
"C. c #474B47",
"Z. c #554B46",
"A. c #5C534B",
"S. c #585648",
"D. c #4D4D53",
"F. c #434956",
"G. c #524D53",
"H. c #4A5359",
"J. c #5D5B5C",
"K. c #585656",
"L. c #4C5449",
"P. c #634E42",
"I. c #684947",
"U. c #655344",
"Y. c #695544",
"T. c #64564A",
"R. c #65594C",
"E. c #6A594B",
"W. c #685748",
"Q. c #645A53",
"!. c #6A5C52",
"~. c #645D5A",
"^. c #74554C",
"/. c #5C6355",
"(. c #5A6248",
"). c #686748",
"_. c #746C46",
"`. c #797647",
"'. c #686657",
"]. c #756658",
"[. c #777656",
"{. c #6C7255",
"}. c #485866",
"|. c #595964",
" X c #4C5268",
".X c #635E62",
"XX c #556676",
"oX c #51656E",
"OX c #696768",
"+X c #766C67",
"@X c #757466",
"#X c #7A7777",
"$X c #6B6C73",
"%X c #834C37",
"&X c #95553B",
"*X c #8A4F30",
"=X c #8C5F38",
"-X c #8A5A49",
";X c #975B45",
":X c #865B53",
">X c #A25D46",
",X c #867A55",
"<X c #8E6B4E",
"1X c #A8654C",
"2X c #AC6B53",
"3X c #B36D55",
"4X c #B6735A",
"5X c #AC7155",
"6X c #8E776F",
"7X c #A77668",
"8X c #B17667",
"9X c #C17D6A",
"0X c #7E8261",
"qX c #888556",
"wX c #908656",
"eX c #8F8C70",
"rX c #BA8775",
"tX c #B79074",
"yX c #A18D5B",
"uX c #C78B75",
"iX c #C8927B",
"pX c #CA8B71",
"aX c #657788",
"sX c #737A8B",
"dX c #5F758A",
"fX c #817C80",
"gX c #74869A",
"hX c #6C8593",
"jX c #7A8CA5",
"kX c #7E92A8",
"lX c #898888",
"zX c #9B999A",
"xX c #8F8D8E",
"cX c #B0968E",
"vX c #A5A393",
"bX c #8A95AA",
"nX c #A7A7A8",
"mX c #A7A09A",
"MX c #C89585",
"NX c #CF9489",
"BX c #D8AB9A",
"VX c #D4AD9B",
"CX c #E3B19A",
"ZX c #D6ADA4",
"AX c #DAB3A5",
"SX c #CFB4AE",
"DX c #E6B5A4",
"FX c #D0C7B9",
"GX c #AEB1C7",
"HX c #C7BCC7",
"JX c #CEC9CA",
"KX c #DBD1DD",
"LX c #BCC5D5",
"PX c None",
/* pixels */
"PXPXPXPXPXPXPXPXPXPXPXPXPXPXPXPXPXPXPXPXPXPXPXPXPXPXPXPXPXPXPXPXPXPXPXPXPXPXPXPXPXPXPXPXPXPXPXPXPXPXPXPXPXPXPXPXPXPXPXPXPXPXPXPXPXPXPXPXPXPXPXPXPXPXPXPXPXPXPXPXPXPXPXPXPXPXPXPXPXPXPXPXPXPXPXPXPXPXPXPXPXPXPXPXPXPXPXPXPXPXPXPXPXPXPXPXPXPXPXPXPXPXPXPXPXPXPXPXPXPXPXPXPXPXPXPXPXPXPXPXPXPXPXPXPXPXPXPXPX",
"PXPXPXPXPXPXPXPXPXPXPXPXPXPXPXPXPXPXPXPXPXPXPXPXPXPXPXPXPXPXPXPXPXPXPXPXPXPXPXPXPXPXPXPXPXPXPXPXPXPXPXPXPXPXPXPXPXPXPXPXPXPXPXPXPXPXPXPXPXPXPXPXPXPXPXPXPXPXPXPXPXPXPXPXPXPXPXPXPXPXPXPXPXPXPXPXPXPXPXPXPXPXPXPXPXPXPXPXPXPXPXPXPXPXPXPXPXPXPXPXPXPXPXPXPXPXPXPXPXPXPXPXPXPXPXPXPXPXPXPXPXPXPXPXPXPXPXPXPX",
"PXPXPXPXPXPXPXPXPXPXPXPXPXPXPXPXPXPXPXPXPXPXPXPXPXPXPXPXPXPXPXPXPXPXPXPXPXPXPXPXPXPXPXPXPXPXPXPXPXPXPXPXPXPXPXPXPXPXPXPXPXPXPXPXPXPXPXPXPXPXPXPXPXPXPXPXPXPXPXPXPXPXPXPXPXPXPXPXPXPXPXPXPXPXPXPXPXPXPXPXPXPXPXPXPXPXPXPXPXPXPXPXPXPXPXPXPXPXPXPXPXPXPXPXPXPXPXPXPXPXPXPXPXPXPXPXPXPXPXPXPXPXPXPXPXPXPXPXPX",
"PXPXPXPXPXPXPXPXPXPXPXPXPXPXPXPXPXPXPXPXPXPXPXPXPXPXPXPXPXPXPXPXPXPXPXPXPXPXPXPXPXPXPXPXPXPXPXPXPXPXPXPXPXPXPXPXPXPXPXPXPXPXPXPXPXPXPXPXPXPXPXPXPXPXPXPXPXPXPXPXPXPXPXPXPXPXPXPXPXPXPXPXPXPXPXPXPXPXPXPXPXPXPXPXPXPXPXPXPXPXPXPXPXPXPXPXPXPXPXPXPXPXPXPXPXPXPXPXPXPXPXPXPXPXPXPXPXPXPXPXPXPXPXPXPXPXPXPXPX",
"PXPXPXPXPXPXPXPXPXPXPXPXPXPXPXPXPXPXPXPXPXPXPXPXPXPXPXPXPXPXPXPXPXPXPXPXPXPXPXPXPXPXPXPXPXPXPXPXPXPXPXPXPXPXPXPXPXPXPXPXPXPXPXPXPXPXPXPXPXPXPXPXPXPXPXPXPXPXPXPXPXPXPXPXPXPXPXPXPXPXPXPXPXPXPXPXPXPXPXPXPXPXPXPXPXPXPXPXPXPXPXPXPXPXPXPXPXPXPXPXPXPXPXPXPXPXPXPXPXPXPXPXPXPXPXPXPXPXPXPXPXPXPXPXPXPXPXPXPX",
"PXPXPXPXPXPXPXPXPXPXPXPXPXPXPXPXPXPXPXPXPXPXPXPXPXPXPXPXPXPXPXPXPXPXPXPXPXPXPXPXPXPXPXPXPXPXPXPXPXPXPXPXPXPXPXPXPXPXPXPXPXPXPXPXPXPXPXPXPXPXPXPXPXPXPXPXPXPXPXPXPXPXPXPXPXPXPXPXPXPXPXPXPXPXPXPXPXPXPXPXPXPXPXPXPXPXPXPXPXPXPXPXPXPXPXPXPXPXPXPXPXPXPXPXPXPXPXPXPXPXPXPXPXPXPXPXPXPXPXPXPXPXPXPXPXPXPXPXPX",
"PXPXPXPXPXPXPXPXPXPXPXPXPXPXPXPXPXPXPXPXPXPXPXPXPXPXPXPXPXPXPXPXPXPXPXPXPXPXPXPXPXPXPXPXPXPXPXPXPXPXPXPXPXPXPXPXPXPXPXPXPXPXPXPXPXPXPXPXPXPXPXPXPXPXPXPXPXPXPXPXPXPXPXPXPXPXPXPXPXPXPXPXPXPXPXPXPXPXPXPXPXPXPXPXPXPXPXPXPXPXPXPXPXPXPXPXPXPXPXPXPXPXPXPXPXPXPXPXPXPXPXPXPXPXPXPXPXPXPXPXPXPXPXPXPXPXPXPXPX",
"PXPXPXPXPXPXPXPXPXPXPXPXPXPXPXPXPXPXPXPXPXPXPXPXPXPXPXPXPXPXPXPXPXPXPXPXPXPXPXPXPXPXPXPXPXPXPXPXPXPXPXPXPXPXPXPXPXPXPXPXPXPXPXPXPXPXPXPXPXPXPXPXPXPXPXPXPXPXPXPXPXPXPXPXPXPXPXPXPXPXPXPXPXPXPXPXPXPXPXPXPXPXPXPXPXPXPXPXPXPXPXPXPXPXPXPXPXPXPXPXPXPXPXPXPXPXPXPXPXPXPXPXPXPXPXPXPXPXPXPXPXPXPXPXPXPXPXPXPX",
"PXPXPXPXPXPXPXPXPXPXPXPXPXPXPXPXPXPXPXPXPXPXPXPXPXPXPXPXPXPXPXPXPXPXPXPXPXPXPXPXPXPXPXPXPXPXPXPXPXPXPXPXPXPXPXPXPXPXPXPXPXPXPXPXPXPXPXPXPXPXPXPXPXPXPXPXPXPXPXPXPXPXPXPXPXPXPXPXPXPXPXPXPXPXPXPXPXPXPXPXPXPXPXPXPXPXPXPXPXPXPXPXPXPXPXPXPXPXPXPXPXPXPXPXPXPXPXPXPXPXPXPXPXPXPXPXPXPXPXPXPXPXPXPXPXPXPXPXPX",
"PXPXPXPXPXPXPXPXPXPXPXPXPXPXPXPXPXPXPXPXPXPXPXPXPXPXPXPXPXPXPXPXPXPXPXPXPXPXPXPXPXPXPXPXPXPXPXPXPXPXPXPXPXPXPXPXPXPXPXPXPXPXPXPXPXPXPXPXPXPXPXPXPXPXPXPXPXPXPXPXPXPXPXPXPXPXPXPXPXPXPXPXPXPXPXPXPXPXPXPXPXPXPXPXPXPXPXPXPXPXPXPXPXPXPXPXPXPXPXPXPXPXPXPXPXPXPXPXPXPXPXPXPXPXPXPXPXPXPXPXPXPXPXPXPXPXPXPXPX",
"PXPXPXPXPXPXPXPXPXPXPXPXPXPXPXPXPXPXPXPXPXPXPXPXPXPXPXPXPXPXPXPXPXPXPXPXPXPXPXPXPXPXPXPXPXPXPXPXPXPXPXPXPXPXPXPXPXPXPXPXPXPXPXPXPXPXPXPXPXPXPXPXPXPXPXPXPXPXPXPXPXPXPXPXPXPXPXPXPXPXPXPXPXPXPXPXPXPXPXPXPXPXPXPXPXPXPXPXPXPXPXPXPXPXPXPXPXPXPXPXPXPXPXPXPXPXPXPXPXPXPXPXPXPXPXPXPXPXPXPXPXPXPXPXPXPXPXPXPX",
"PXPXPXPXPXPXPXPXPXPXPXPXPXPXPXPXPXPXPXPXPXPXPXPXPXPXPXPXPXPXPXPXPXPXPXPXPXPXPXPXPXPXPXPXPXPXPXPXPXPXPXPXPXPXPXPXPXPXPXPXPXPXPXPXPXPXPXPXPXPXPXPXPXPXPXPXPXPXPXPXPXPXPXPXPXPXPXPXPXPXPXPXPXPXPXPXPXPXPXPXPXPXPXPXPXPXPXPXPXPXPXPXPXPXPXPXPXPXPXPXPXPXPXPXPXPXPXPXPXPXPXPXPXPXPXPXPXPXPXPXPXPXPXPXPXPXPXPXPX",
"PXPXPXPXPXPXPXPXPXPXPXPXPXPXPXPXPXPXPXPXPXPXPXPXPXPXPXPXPXPXPXPXPXPXPXPXPXPXPXPXPXPXPXPXPXPXPXPXPXPXPXPXPXPXPXPXPXPXPXPXPXPXPXPXPXPXPXPXPXPXPXPXPXPXPXPXPXPXPXPXPXPXPXPXPXPXPXPXPXPXPXPXPXPXPXPXPXPXPXPXPXPXPXPXPXPXPXPXPXPXPXPXPXPXPXPXPXPXPXPXPXPXPXPXPXPXPXPXPXPXPXPXPXPXPXPXPXPXPXPXPXPXPXPXPXPXPXPXPX",
"PXPXPXPXPXPXPXPXPXPXPXPXPXPXPXPXPXPXPXPXPXPXPXPXPXPXPXPXPXPXPXPXPXPXPXPXPXPXPXPXPXPXPXPXPXPXPXPXPXPXPXPXPXPXPXPXPXPXPXPXPXPXPXPXPXPXPXPXPXPXPXPXPXPXPXPXPXPXPXPXPXPXPXPXPXPXPXPXPXPXPXPXPXPXPXPXPXPXPXPXPXPXPXPXPXPXPXPXPXPXPXPXPXPXPXPXPXPXPXPXPXPXPXPXPXPXPXPXPXPXPXPXPXPXPXPXPXPXPXPXPXPXPXPXPXPXPXPXPX",
"PXPXPXPXPXPXPXPXPXPXPXPXPXPXPXPXPXPXPXPXPXPXPXPXPXPXPXPXPXPXPXPXPXPXPXPXPXPXPXPXPXPXPXPXPXPXPXPXPXPXPXPXPXPXPXPXPXPXPXPXPXPXPXPXPXPXPXPXPXPXPXPXPXPXPXPXPXPXPXPXPXPXPXPXPXPXPXPXPXPXPXPXPXPXPXPXPXPXPXPXPXPXPXPXPXPXPXPXPXPXPXPXPXPXPXPXPXPXPXPXPXPXPXPXPXPXPXPXPXPXPXPXPXPXPXPXPXPXPXPXPXPXPXPXPXPXPXPXPX",
"PXPXPXPXPXPXPXPXPXPXPXPXPXPXPXPXPXPXPXPXPXPXPXPXPXPXPXPXPXPXPXPXPXPXPXPXPXPXPXPXPXPXPXPXPXPXPXPXPXPXPXPXPXPXPXPXPXPXPXPXPXPXPXPXPXPXPXPXPXPXPXPXPXPXPXPXPXPXPXPXPXPXPXPXPXPXPXPXPXPXPXPXPXPXPXPXPXPXPXPXPXPXPXPXPXPXPXPXPXPXPXPXPXPXPXPXPXPXPXPXPXPXPXPXPXPXPXPXPXPXPXPXPXPXPXPXPXPXPXPXPXPXPXPXPXPXPXPXPX",
"PXPXPXPXPXPXPXPXPXPXPXPXPXPXPXPXPXPXPXPXPXPXPXPXPXPXPXPXPXPXPXPXPXPXPXPXPXPXPXPXPXPXPXPXPXPXPXPXPXPXPXPXPXPXPXPXPXPXPXPXPXPXPXPXPXPXPXPXPXPXPXPXPXPXPXPXPXPXPXPXPXPXPXPXPXPXPXPXPXPXPXPXPXPXPXPXPXPXPXPXPXPXPXPXPXPXPXPXPXPXPXPXPXPXPXPXPXPXPXPXPXPXPXPXPXPXPXPXPXPXPXPXPXPXPXPXPXPXPXPXPXPXPXPXPXPXPXPXPX",
"PXPXPXPXPXPXPXPXPXPXPXPXPXPXPXPXPXPXPXPXPXPXPXPXPXPXPXPXPXPXPXPXPXPXPXPXPXPXPXPXPXPXPXPXPXPXPXPXPXPXPXPXPXPXPXPXPXPXPXPXPXPXPXPXPXPXPXPXPXPXPXPXPXPXPXPXPXPXPXPXPXPXPXPXPXPXPXPXPXPXPXPXPXPXPXPXPXPXPXPXPXPXPXPXPXPXPXPXPXPXPXPXPXPXPXPXPXPXPXPXPXPXPXPXPXPXPXPXPXPXPXPXPXPXPXPXPXPXPXPXPXPXPXPXPXPXPXPXPX",
"PXPXPXPXPXPXPXPXPXPXPXPXPXPXPXPXPXPXPXPXPXPXPXPXPXPXPXPXPXPXPXPXPXPXPXPXPXPXPXPXPXPXPXPXPXPXPXPXPXPXPXPXPXPXPXPXPXPXPXPXPXPXPXPXPXPXPXPXPXPXPXPXPXPXPXPXPXPXPXPXPXPXPXPXPXPXPXPXPXPXPXPXPXPXPXPXPXPXPXPXPXPXPXPXPXPXPXPXPXPXPXPXPXPXPXPXPXPXPXPXPXPXPXPXPXPXPXPXPXPXPXPXPXPXPXPXPXPXPXPXPXPXPXPXPXPXPXPXPX",
"PXPXPXPXPXPXPXPXPXPXPXPXPXPXPXPXPXPXPXPXPXPXPXPXPXPXPXPXPXPXPXPXPXPXPXPXPXPXPXPXPXPXPXPXPXPXPXPXPXPXPXPXPXPXPXPXPXPXPXPXPXPXPXPXPXPXPXPXPXPXPXPXPXPXPXPXPXPXPXPXPXPXPXPXPXPXPXPXPXPXPXPXPXPXPXPXPXPXPXPXPXPXPXPXPXPXPXPXPXPXPXPXPXPXPXPXPXPXPXPXPXPXPXPXPXPXPXPXPXPXPXPXPXPXPXPXPXPXPXPXPXPXPXPXPXPXPXPXPX",
"PXPXPXPXPXPXPXPXPXPXPXPXPXPXPXPXPXPXPXPXPXPXPXPXPXPXPXPXPXPXPXPXPXPXPXPXPXPXPXPXPXPXPXPXPXPXPXPXPXPXPXPXPXPXPXPXPXPXPXPXPXPXPXPXPXPXPXPXPXPXPXPXPXPXPXPXPXPXPXPXPXPXPXPXPXPXPXPXPXPXPXPXPXPXPXPXPXPXPXPXPXPXPXPXPXPXPXPXPXPXPXPXPXPXPXPXPXPXPXPXPXPXPXPXPXPXPXPXPXPXPXPXPXPXPXPXPXPXPXPXPXPXPXPXPXPXPXPXPX",
"PXPXPXPXPXPXPXPXPXPXPXPXPXPXPXPXPXPXPXPXPXPXPXPXPXPXPXPXPXPXPXPXPXPXPXPXPXPXPXPXPXPXPXPXPXPXPXPXPXPXPXPXPXPXPXPXPXPXPXPXPXPXPXPXPXPXPXPXPXPXPXPXPXPXPXPXPXPXPXPXPXPXPXPXPXPXPXPXPXPXPXPXPXPXPXPXPXPXPXPXPXPXPXPXPXPXPXPXPXPXPXPXPXPXPXPXPXPXPXPXPXPXPXPXPXPXPXPXPXPXPXPXPXPXPXPXPXPXPXPXPXPXPXPXPXPXPXPXPX",
"PXPXPXPXPXPXPXPXPXPXPXPXPXPXPXPXPXPXPXPXPXPXPXPXPXPXPXPXPXPXPXPXPXPXPXPXPXPXPXPXPXPXPXPXPXPXPXPXPXPXPXPXPXPXPXPXPXPXPXPXPXPXPXPXPXPXPXPXPXPXPXPXPXPXPXPXPXPXPXPXPXPXPXPXPXPXPXPXPXPXPXPXPXPXPXPXPXPXPXPXPXPXPXPXPXPXPXPXPXPXPXPXPXPXPXPXPXPXPXPXPXPXPXPXPXPXPXPXPXPXPXPXPXPXPXPXPXPXPXPXPXPXPXPXPXPXPXPXPX",
"PXPXPXPXPXPXPXPXPXPXPXPXPXPXPXPXPXPXPXPXPXPXPXPXPXPXPXPXPXPXPXPXPXPXPXPXPXPXPXPXPXPXPXPXPXPXPXPXPXPXPXPXPXPXPXPXPXPXPXPXPXPXPXPXPXPXPXPXPXPXPXPXPXPXPXPXPXPXPXPXPXPXPXPXPXPXPXPXPXPXPXPXPXPXPXPXPXPXPXPXPXPXPXPXPXPXPXPXPXPXPXPXPXPXPXPXPXPXPXPXPXPXPXPXPXPXPXPXPXPXPXPXPXPXPXPXPXPXPXPXPXPXPXPXPXPXPXPXPX",
"PXPXPXPXPXPXPXPXPXPXPXPXPXPXPXPXPXPXPXPXPXPXPXPXPXPXPXPXPXPXPXPXPXPXPXPXPXPXPXPXPXPXPXPXPXPXPXPXPXPXPXPXPXPXPXPXPXPXPXPXPXPXPXPXPXPXPXPXPXPXPXPXPXPXPXPXPXPXPXPXPXPXPXPXPXPXPXPXPXPXPXPXPXPXPXPXPXPXPXPXPXPXPXPXPXPXPXPXPXPXPXPXPXPXPXPXPXPXPXPXPXPXPXPXPXPXPXPXPXPXPXPXPXPXPXPXPXPXPXPXPXPXPXPXPXPXPXPXPX",
"PXPXPXPXPXPXPXPXPXPXPXPXPXPXPXPXPXPXPXPXPXPXPXPXPXPXPXPXPXPXPXPXPXPXPXPXPXPXPXPXPXPXPXPXPXPXPXPXPXPXPXPXPXPXPXPXPXPXPXPXPXPXPXPXPXPXPXPXPXPXPXPXPXPXPXPXPXPXPXPXPXPXPXPXPXPXPXPXPXPXPXPXPXPXPXPXPXPXPXPXPXPXPXPXPXPXPXPXPXPXPXPXPXPXPXPXPXPXPXPXPXPXPXPXPXPXPXPXPXPXPXPXPXPXPXPXPXPXPXPXPXPXPXPXPXPXPXPXPX",
"PXPXPXPXPXPXPXPXPXPXPXPXPXPXPXPXPXPXPXPXPXPXPXPXPXPXPXPXPXPXPXPXPXPXPXPXPXPXPXPXPXPXPXPXPXPXPXPXPXPXPXPXPXPXPXPXPXPXPXPXPXPXPXPXPXPXPXPXPXPXPXPXPXPXPXPXPXPXPXPXPXPXPXPXPXPXPXPXPXPXPXPXPXPXPXPXPXPXPXPXPXPXPXPXPXPXPXPXPXPXPXPXPXPXPXPXPXPXPXPXPXPXPXPXPXPXPXPXPXPXPXPXPXPXPXPXPXPXPXPXPXPXPXPXPXPXPXPXPX",
"PXPXPXPXPXPXPXPXPXPXPXPXPXPXPXPXPXPXPXPXPXPXPXPXPXPXPXPXPXPXPXPXPXPXPXPXPXPXPXPXPXPXPXPXPXPXPXPXPXPXPXPXPXPXPXPXPXPXPXPXPXPXPXPXPXPXPXPXPXPXPXPXPXPXPXPXPXPXPXPXPXPXPXPXPXPXPXPXPXPXPXPXPXPXPXPXPXPXPXPXPXPXPXPXPXPXPXPXPXPXPXPXPXPXPXPXPXPXPXPXPXPXPXPXPXPXPXPXPXPXPXPXPXPXPXPXPXPXPXPXPXPXPXPXPXPXPXPXPX",
"PXPXPXPXPXPXPXPXPXPXPXPXPXPXPXPXPXPXPXPXPXPXPXPXPXPXPXPXPXPXPXPXPXPXPXPXPXPXPXPXPXPXPXPXPXPXPXPXPXPXPXPXPXPXPXPXPXPXPXPXPXPXPXPXPXPXPXPXPXPXPXPXPXPXPXPXPXPXPXPXPXPXPXPXPXPXPXPXPXPXPXPXPXPXPXPXPXPXPXPXPXPXPXPXPXPXPXPXPXPXPXPXPXPXPXPXPXPXPXPXPXPXPXPXPXPXPXPXPXPXPXPXPXPXPXPXPXPXPXPXPXPXPXPXPXPXPXPXPX",
"PXPXPXPXPXPXPXPXPXPXPXPXPXPXPXPXPXPXPXPXPXPXPXPXPXPXPXPXPXPXPXPXPXPXPXPXPXPXPXPXPXPXPXPXPXPXPXPXPXPXPXPXPXPXPXPXPXPXPXPXPXPXPXPXPXPXPXPXPXPXPXPXPXPXPXPXPXPXPXPXPXPXPXPXPXPXPXPXPXPXPXPXPXPXPXPXPXPXPXPXPXPXPXPXPXPXPXPXPXPXPXPXPXPXPXPXPXPXPXPXPXPXPXPXPXPXPXPXPXPXPXPXPXPXPXPXPXPXPXPXPXPXPXPXPXPXPXPXPX",
"PXPXPXPXPXPXPXPXPXPXPXPXPXPXPXPXPXPXPXPXPXPXPXPXPXPXPXPXPXPXPXPXPXPXPXPXPXPXPXPXPXPXPXPXPXPXPXPXPXPXPXPXPXPXPXPXPXPXPXPXPXPXPXPXPXPXPXPXPXPXPXPXPXPXPXPXPXPXPXPXPXPXPXPXPXPXPXPXPXPXPXPXPXPXPXPXPXPXPXPXPXPXPXPXPXPXPXPXPXPXPXPXPXPXPXPXPXPXPXPXPXPXPXPXPXPXPXPXPXPXPXPXPXPXPXPXPXPXPXPXPXPXPXPXPXPXPXPXPX",
"PXPXPXPXPXPXPXPXPXPXPXPXPXPXPXPXPXPXPXPXPXPXPXPXPXPXPXPXPXPXPXPXPXPXPXPXPXPXPXPXPXPXPXPXPXPXPXPXPXPXPXPXPXPXPXPXPXPXPXPXPXPXPXPXPXPXPXPXPXPXPXPXPXPXPXPXPXPXPXPXPXPXPXPXPXPXPXPXPXPXPXPXPXPXPXPXPXPXPXPXPXPXPXPXPXPXPXPXPXPXPXPXPXPXPXPXPXPXPXPXPXPXPXPXPXPXPXPXPXPXPXPXPXPXPXPXPXPXPXPXPXPXPXPXPXPXPXPXPX",
"PXPXPXPXPXPXPXPXPXPXPXPXPXPXPXPXPXPXPXPXPXPXPXPXPXPXPXPXPXPXPXPXPXPXPXPXPXPXPXPXPXPXPXPXPXPXPXPXPXPXPXPXPXPXPXPXPXPXPXPXPXPXPXPXPXPXPXPXPXPXPXPXPXPXPXPXPXPXPXPXPXPXPXPXPXPXPXPXPXPXPXPXPXPXPXPXPXPXPXPXPXPXPXPXPXPXPXPXPXPXPXPXPXPXPXPXPXPXPXPXPXPXPXPXPXPXPXPXPXPXPXPXPXPXPXPXPXPXPXPXPXPXPXPXPXPXPXPXPX",
"PXPXPXPXPXPXPXPXPXPXPXPXPXPXPXPXPXPXPXPXPXPXPXPXPXPXPXPXPXPXPXPXPXPXPXPXPXPXPXPXPXPXPXPXPXPXPXPXPXPXPXPXPXPXPXPXPXPXPXPXPXPXPXPXPXPXPXPXPXPXPXPXPXPXPXPXPXPXPXPXPXPXPXPXPXPXPXPXPXPXPXPXPXPXPXPXPXPXPXPXPXPXPXPXPXPXPXPXPXPXPXPXPXPXPXPXPXPXPXPXPXPXPXPXPXPXPXPXPXPXPXPXPXPXPXPXPXPXPXPXPXPXPXPXPXPXPXPXPX",
"PXPXPXPXPXPXPXPXPXPXPXPXPXPXPXPXPXPXPXPXPXPXPXPXPXPXPXPXPXPXPXPXPXPXf.f.c.oXaXGXPXPXPXPXPXPXPXPXPXPXPXPXPXPXPXPXPXPXPXPXPXPXPXPXPXPXPXPXPXPXPXPXPXPXPXPXPXPXPXPXPXPXPXPXPXPXPXPXPXPXPXPXPXPXPXPXPXPXPXPXPXPXPXPXPXPXPXPXPXPXPXPXPXPXPXPXPXPXPXPXPXPXPXPXPXPXPXPXPXPXPXPXPXPXPXPXPXPXPXPXPXPXPXPXPXPXPXPXPX",
"PXPXPXPXPXPXPXPXPXPXPXPXPXPXPXPXPXPXPXPXPXPXPXPXPXPXPXPXPXPXPXPXPXh x x z c T  XGXPXPXPXPXPXPXPXPXPXPXPXPXPXPXPXPXPXPXPXPXPXPXPXPXPXPXPXPXPXPXPXPXPXPXPXPXPXPXPXPXPXPXPXPXPXPXPXPXPXPXPXPXPXPXPXPXPXPXPXPXPXPXPXPXPXPXPXPXPXPXPXPXPXPXPXPXPXPXPXPXPXPXPXPXPXPXPXPXPXPXPXPXPXPXPXPXPXPXPXPXPXPXPXPXPXPXPXPX",
"PXPXPXPXPXPXPXPXPXPXPXPXPXPXPXPXPXPXPXPXPXPXPXPXPXPXPXPXPXPXPXPXPXf.v K R c c.H.lXPXPXPXPXPXPXPXPXPXPXPXPXPXPXPXPXPXPXPXPXPXPXPXPXPXPXPXPXPXPXPXPXPXPXPXPXPXPXPXPXPXPXPXPXPXPXPXPXPXPXPXPXPXPXPXPXPXPXPXPXPXPXPXPXPXPXPXPXPXPXPXPXPXPXPXPXPXPXPXPXPXPXPXPXPXPXPXPXPXPXPXPXPXPXPXPXPXPXPXPXPXPXPXPXPXPXPXPX",
"PXPXPXPXPXPXPXPXPXPXPXPXPXPXPXPXPXPXPXPXPXPXPXPXPXPXPXPXPXPXPXPXPXf.j.R K R c.F.OXhX#XnXPXPXPXPXPXPXPXPXPXPXPXPXPXPXPXPXPXPXPXPXPXPXPXPXPXPXPXPXPXPXPXPXPXPXPXPXPXPXPXPXPXPXPXPXPXPXPXPXPXPXPXPXPXPXPXPXPXPXPXPXPXPXPXPXPXPXPXPXPXPXPXPXPXPXPXPXPXPXPXPXPXPXPXPXPXPXPXPXPXPXPXPXPXPXPXPXPXPXPXPXPXPXPXPXPX",
"PXPXPXPXPXPXPXPXPXPXPXPXPXPXPXPXPXPXPXk.k.K K j.j.g.j.j.f.v x v K g.j.h x K Y T C t C N.sXXXaX X$XsXgXLXLXKXPXPXPXPXPXPXPXPXPXPXPXPXPXPXPXPXPXPXPXPXPXPXPXPXPXPXPXPXPXPXPXPXPXPXPXPXPXPXPXPXPXPXPXPXPXPXPXPXPXPXPXPXPXPXPXPXPXPXPXPXPXPXPXPXPXPXPXPXPXPXPXPXPXPXPXPXPXPXPXPXPXPXPXPXPXPXPXPXPXPXPXPXPXPXPX",
"PXPXPXPXPXPXPXPXPXPXPXPXPXPXPXPXPXv.f.x v R K M M L Q Y 6 c c 6 B L T - - - , , Y Y z B z K h h 6 c ^ C.L.lXKXPXPXPXPXPXPXPXPXPXPXPXPX:X-X;X;X;X7XPXPXPXPXPXPXPXPXPXPXPXPXPXPXPXPXPXPXPXPXPXPXPXPXPXPXPXPXPXPXPXPXPXPXPXPXPXPXPXPXPXPXPXPXPXPXPXPXPXPXPXPXPXPXPXPXPXPXPXPXPXPXPXPXPXPXPXPXPXPXPXPXPXPXPXPX",
"PXPXPXPXPXPXPXPXPXPXPXPXPXPXPXPXv.R R L B Q z b Y b C E C Y z F M B 6 X X X X , K K K K B V V E E E ^ C ^ Y H.bXKXPXPXPXPXPXPXPXPXPXI.*.=.=.=.&.^.-X-X7X7XPXPXPXPXPXPXPXPXPXPXPXPXPXPXPXPXPXPXPXPXPXPXPXPXPXPXPXPXPXPXPXPXPXPXPXPXPXPXPXPXPXPXPXPXPXPXPXPXPXPXPXPXPXPXPXPXPXPXPXPXPXPXPXPXPXPXPXPXPXPXPXPX",
"PXPXPXPXPXPXPXPXPXPXPXPXPXPXPXk.j.T g.L ^ ^ K.#X@X@XK.m.^ V Y M Q K 4 > X   , h K R K M u 1.'.@X{.eX'.@X1.L Q H.bXKXPXPXPXPXPXPXPXPX$.&.&.+.=.*.t.t.q.;X4X1XNXPXPXPXPXPXPXPXPXPXPXPXPXPXPXPXPXPXPXPXPXPXPXPXPXPXPXPXPXPXPXPXPXPXPXPXPXPXPXPXPXPXPXPXPXPXPXPXPXPXPXPXPXPXPXPXPXPXPXPXPXPXPXPXPXPXPXPXPXPXPX",
"PXPXPXPXPXPXPXPXPXPXPXPXPXPXk.k. Xj.g.D./.@XeX0XeXeXeXeXnXJ.k Q T L g 4 6 , g B x z C L.{.eXeXeXeXeXvXvXvXxXJ.c.H.bXJXPXPXPXPXPXPXPX] ' +.*.[ *.r.&.t.q.&X;X8X7XcXcXPXPXPXPXPXPXPXPXPXPXPXPXPXPXPXPXPXPXPXPXPXPXPXPXPXPXPXPXPXPXPXPXPXPXPXPXPXPXPXPXPXPXPXPXPXPXPXPXPXPXPXPXPXPXPXPXPXPXPXPXPXPXPXPXPXPXPX",
"PXPXPXPXPXPXPXPXPXPXPXPXPXn.v.v.c.|.K./.'.[.{.[.p.).[.).vXJXnXh.M Y Y M K L M Y C G 1.{.0X`.s.s.,X,X6X6XeXcXJX'.C.K.xXKXPXPXPXPXPXPXPX{  .[ %.[ r.&.&.%X%Xq.*X&XMXrXtXAXPXPXPXPXPXPXPXPXPXPXPXPXPXPXPXPXPXPXPXPXPXPXPXPXPXPXPXPXPXPXPXPXPXPXPXPXPXPXPXPXPXPXPXPXPXPXPXPXPXPXPXPXPXPXPXPXPXPXPXPXPXPXPXPXPX",
"PXPXPXPXPXPXPXPXPXPXPXPXdX Xv.F.V.C.'.'.).{.[.).`.)._.).).eXFXvX1.C Y B K T M B p (.`.`.`.s.p.`.<Xq.t.t.t.-X-X<X6X6Xe.FXKXPXPXPXPXPXPXO.( [ [ +.&.=.=.t.%X%X*X5XpXuXBXDXFXPXPXPXPXPXPXPXPXPXPXPXPXPXPXPXPXPXPXPXPXPXPXPXPXPXPXPXPXPXPXPXPXPXPXPXPXPXPXPXPXPXPXPXPXPXPXPXPXPXPXPXPXPXPXPXPXPXPXPXPXPXPXPXPX",
"PXPXPXPXPXPXPXPXPXPXPXPXXXv.g.c.L.J.{.'.).).).[.p._.p.`.[.i.[.vXvX;.F Y K g.Y F 1.{.s.s.`.`.i.y.&.q.) &.&.&.%Xq.t.<X^.<X7X7XPXPXPXPXPXPXPXI.%.I.+.&.t.=.=.%X*X5X1XiXiXBXAXJXPXPXPXPXPXPXPXPXPXPXPXPXPXPXPXPXPXPXPXPXPXPXPXPXPXPXPXPXPXPXPXPXPXPXPXPXPXPXPXPXPXPXPXPXPXPXPXPXPXPXPXPXPXPXPXPXPXPXPXPXPXPXPX",
"PXPXPXPXPXPXPXPXPXPXPXbX}.T g.c.'.'.).{.7.)._.`.`.`.s.s._.p.p.qXvX'.E B K L B F '.).p.s.`.`._.,X .+.*.+.*.O.) 0.&.0.t.t.-X8XrXMXAXcXPXPXPXPXPXPX3. .) r.*.=.%X;X4X3XuXCXZXAXSXPXPXPXPXPXPXPXPXPXPXPXPXPXPXPXPXPXPXPXPXPXPXPXPXPXPXPXPXPXPXPXPXPXPXPXPXPXPXPXPXPXPXPXPXPXPXPXPXPXPXPXPXPXPXPXPXPXPXPXPXPXPX",
"PXPXPXPXPXPXPXPXPXPXPXsXF.R g.L.S.'.).).).).,X_.yXyX`.`.s.s.`.<.@XxXJ.V T B C 1.).i.s.`.`._.`.eX..) ( +.( +.*.+.+.0.&.q.;X8XuXuXuXBXPXPXPXPXPXPXPX#.o.O.*.*.=.;X;X8XMXAXSXSXSXPXPXPXPXPXPXPXPXPXPXPXPXPXPXPXPXPXPXPXPXPXPXPXPXPXPXPXPXPXPXPXPXPXPXPXPXPXPXPXPXPXPXPXPXPXPXPXPXPXPXPXPXPXPXPXPXPXPXPXPXPXPX",
"PXPXPXPXPXPXPXPXPXPXPX$Xj.g.D.J.S.'.'.).).)._.yX,X,Xa.,X,X_.<._.).0X#Xh.M Y p 7.i.p.p.p.a.,XyXyX5X-.) ) ( [ ' [ O.+.&.&.;X2X2XiXuXuXBXcXPXPXPXPXPXPXPX%.+.&.t.q.<X-X:X} W @.Q.@.PXPXPXPXPXPXPXPXPXPXPXPXPXPXPXPXPXPXPXPXPXPXPXPXPXPXPXPXPXPXPXPXPXPXPXPXPXPXPXPXPXPXPXPXPXPXPXPXPXPXPXPXPXPXPXPXPXPXPXPXPX",
"PXPXPXPXPXPXPXPXPXPXPX$XT Q D.J.{.).'.).{.).eX<X=Xu.a.u.,X<.).p.<.[.lXC.M z p 7.i.`.qX`.`.qXyX<Xq.*X&.) ) ) '  .{ O. .&.;X;X4X2XiXMXrXVXcXPXPXPXPXPXPXPXI. .) r. .8 0 1 M L m.@.| ^.7XMXcXPXPXPXPXPXPXPXPXPXPXPXPXPXPXPXPXPXPXPXPXPXPXPXPXPXPXPXPXPXPXPXPXPXPXPXPXPXPXPXPXPXPXPXPXPXPXPXPXPXPXPXPXPXPXPXPX",
"PXPXPXPXPXPXPXPXPXPXbX|.g.g.V.J.S.7.'.).E.E.<Xu.q.q.q.=X<Xa.p.p._.).@XN.P g C (.p.p.p._.,X,XyXu.*X*X*X*X) ) ( / (  .+.[ t.;X4X4X2XrXcXZXSXnXPXPXPXPXPXPXPX$.r.s 8 & 1 j N L ! ~ @.} { 7X<X8XNXMXPXPXPXPXPXPXPXPXPXPXPXPXPXPXPXPXPXPXPXPXPXPXPXPXPXPXPXPXPXPXPXPXPXPXPXPXPXPXPXPXPXPXPXPXPXPXPXPXPXPXPXPXPX",
"PXPXPXPXPXPXPXPXPXPXbXF.x K D.J.S.{.{._._._.,.-X%Xq.u.:.wXy.p.p.p.).@XC.M L u S.{.<.`.`.`.,X,X:.*X*X*X*X=X<X ._ _ _  .[ &.t.t.;X<Xt. .6.W l.l.7 PXPXPXPXPX] o.s & 6 7 5 5 M ! N.m.W @.^.-X5XpXpXCXDXPXPXPXPXPXPXPXPXPXPXPXPXPXPXPXPXPXPXPXPXPXPXPXPXPXPXPXPXPXPXPXPXPXPXPXPXPXPXPXPXPXPXPXPXPXPXPXPXPXPXPX",
"PXPXPXPXPXPXPXPXPXPXgXv.K B H.OX'.8.7.).).y._.9.-Xu.:.u.wX,Xi.i.p.).@Xm.P T 7 /.[.p.s._.`.,XwXy.:.X.:.a.a.`.[.y.f / / ' [ *.t.^.&.e a H W @.b E t V PXPXPXM.| @ + > o + < 5 M ! Q M I #.:X7XpXpXBXAXSXPXPXPXPXPXPXPXPXPXPXPXPXPXPXPXPXPXPXPXPXPXPXPXPXPXPXPXPXPXPXPXPXPXPXPXPXPXPXPXPXPXPXPXPXPXPXPXPXPXPX",
"PXPXPXPXPXPXPXPXPXPXgXv.T z h.#X'.S.[.{.[._.,X_.d.u.a.wX`.).(.).).).'.E f.P 6 1.eXi.<.<.a.,X,XyXeX_.`.`.`.qX`.p._.f f ` ' ' O.( d a D j q b b 7 u 7 g PXPXPXi @ # > % 3 9 1 4 g x h K W ^.7X5X4X) #.2.+XPXPXPXPXPXPXPXPXPXPXPXPXPXPXPXPXPXPXPXPXPXPXPXPXPXPXPXPXPXPXPXPXPXPXPXPXPXPXPXPXPXPXPXPXPXPXPXPXPX",
"PXPXPXPXPXPXPXPXPXbXdX}.R z Y #XeX7.S.7.p.[._.`.wXqXqXqX`.p.p.<.7.'.J.L T K z p eXqX<.p.`.`.`.,X[.eX[.qXwX`.qXs.p.).].| a ` o.@ & n j 7 p y b z z g 4 ; K.PX+ & O o % $ $ % < 6 , h 6 n Z.6X^.+.s S H q I N PXPXPXPXPXPXPXPXPXPXPXPXPXPXPXPXPXPXPXPXPXPXPXPXPXPXPXPXPXPXPXPXPXPXPXPXPXPXPXPXPXPXPXPXPXPXPX",
"PXPXPXPXPXPXPXPXPXkXaXv.c.Y , L.eX).y.p.).i.p.`.qXqX`._._.p.p.7.S.'.~ U P K B 3 J 0X_.<.<.<.s.`.qXqX[.`.qX`.<.`.].@X@.H | i A & q < j M 2 2 7 6 4 = o 6 g g o O + . + + * % % # # t 4 7 1 H l 0 q M b S n I U PXPXPXPXPXPXPXPXPXPXPXPXPXPXPXPXPXPXPXPXPXPXPXPXPXPXPXPXPXPXPXPXPXPXPXPXPXPXPXPXPXPXPXPXPXPX",
"PXPXPXPXPXPXPXPXPXgXXXb.T T B 3 ).eXp.<.<.<.p.s.s.`.s.p.<.p.p.).'.K.L K K T B t $ J eX).<.p.<.s.a.a._.y.y.<.p.).@XG.I ! S S & 1 % 4 7 g 2 2 7 6 6 < > < 4 4 < % o 4 4 o % 2 * $ 2 * 3 7 3 b m.V 7 M M j k N G m.PXPXPXPXPXPXPXPXPXPXPXPXPXPXPXPXPXPXPXPXPXPXPXPXPXPXPXPXPXPXPXPXPXPXPXPXPXPXPXPXPXPXPXPXPX",
"PXPXPXPXPXPXPXPXbXjXXXb.T Y B t * [.[.p.<.p.p.<.<.<.p.p._.7.p.).'.L b B x K x B V . W {.[.7.<.<.y.<.y.<.<.7.).'.D.Q Q L l.n + + % < 3 6 6 g 7 7 7 6 6 6 4 4 < 1 4 P L b < O o * % * 3 3 3 7 ^ ^ 7 7 2 4 b N G ~ PXPXPXPXPXPXPXPXPXPXPXPXPXPXPXPXPXPXPXPXPXPXPXPXPXPXPXPXPXPXPXPXPXPXPXPXPXPXPXPXPXPXPXPXPX",
"PXPXPXPXPXPXPXPXkXhX}.c.R Y Y F p * 7.eX{.7.).).R.7.S.7.S.(.).S.~ g K T R T T K K P < M K.{.).).7.i.<.p.{.'.K.~ M M Q P |.4 + 1 < # < 2 4 4 6 3 4 4 4 < o o o # X , 4 < 6 7 3 3 q m b u u # % 2 $ * < < 7 u M j.PXPXPXPXPXPXPXPXPXPXPXPXPXPXPXPXPXPXPXPXPXPXPXPXPXPXPXPXPXPXPXPXPXPXPXPXPXPXPXPXPXPXPXPXPX",
"PXPXPXPXPXPXPXPXgXaX}.f.c B B B B z 2 m '.@X'.R.4.S.S.S.C.K.1.C M Q g.c.N.c.c.K P P P g g G.@X{.{.{.(.7.L.L.c.~ D.D.U D.|.g < % 4 # % < 4 4 4 < 6 4 = o o % o o , , > > 4 < + + < 7 4 g V 3 % * % 3 6 7 b u b j.PXPXPXPXPXPXPXPXPXPXPXPXPXPXPXPXPXPXPXPXPXPXPXPXPXPXPXPXPXPXPXPXPXPXPXPXPXPXPXPXPXPXPXPXPX",
"PXPXPXPXPXPXPXPXgXaX}.f.c c z h c x c z z F M.OXOX.XG.D.c.C.D.D.D.|.|.$X$X|.|.F.g.T P L D.J.K.'./.OXC.m u o S S S W G.$XOX> < X < o o % < 4 4 6 g 4 % $ % < ; o X # # # % o + 4 4 4 ; 4 6 6 2 % 4 4 4 h M u q N PXPXPXPXPXPXPXPXPXPXPXPXPXPXPXPXPXPXPXPXPXPXPXPXPXPXPXPXPXPXPXPXPXPXPXPXPXPXPXPXPXPXPXPXPX",
"PXPXPXPXPXPXPXgXgXXXb.f.v c 6 h x h x x g V ~ V.N.U L L L M L Q h.h.D.|.D.H.H.D.N.D.V.D.G.m.Z.C.C.C.@.% + o o + 1 o M M m.4 , 4 > = o % < < 4 4 4 < % $ . o o = # # O O . O O o o = = ; = 4 2 2 < 4 : h 7 7 u b N.PXPXPXPXPXPXPXPXPXPXPXPXPXPXPXPXPXPXPXPXPXPXPXPXPXPXPXPXPXPXPXPXPXPXPXPXPXPXPXPXPXPXPXPX",
"PXPXPXPXPXPXPXbXgXoXv.f.v c 4 4 : : h L B.G.M.G V M j g N M j q 7 M ~ G.OXOX$XOX$XJ.Z.A.1.@.1.@.4.Q.V.j 1 + < = = 5 = 6 6 b : : : = o o = > % # = < $ . O o = ; o + + o X X X > o o o < o # X # * < g g 1 3 p C c.PXPXPXPXPXPXPXPXPXPXPXPXPXPXPXPXPXPXPXPXPXPXPXPXPXPXPXPXPXPXPXPXPXPXPXPXPXPXPXPXPXPXPXPX",
"PXPXPXPXPXPXPXgXaX}.v.f.x B g 6 4 : L V..X@.W V N V k M k k q k 5 M k D.xXlXlX#XOXZ.Z.'.).'.Z.S.Z.~.K.n ; 4 o ; 4 = < g 4 M D.: ; = o o = < % $ o X     o = = ; + + o o o o X X o o O o o < X < % . < 4 % 3 t y Y PXPXPXPX].-X=X5XtXtXFXPXPXPXPXPXPXPXPXPXPXPXPXPXPXPXPXPXPXPXPXPXPXPXPXPXPXPXPXPXPXPXPXPX",
"PXPXPXPXPXPXPXgXaX}.f.T B z g g 4 M |.J.G.V.~ ! Q I L N k N N k j j N G.OXJ.M.G n @.'.S.8.7.S.S.S S M.N ; 4 ; o = 4 ; < g Q D.5 = < o = o < o o o o   O ; ; o o o o o o o o o o o o o o o o < # 2 2 4 = 2 < % 7 7 4 PXPXT.^.:X:X7XMXVXAXSXPXPXPXPXPXPXPXPXPXPXPXPXPXPXPXPXPXPXPXPXPXPXPXPXPXPXPXPXPXPXPXPX",
"PXPXPXPXPXPXsXjXXXv.f.Y x z h 4 M J.lX$XV.N.B.l.! I N N N N P N k k I G.! O . + 9 Z.xXeXZ S.eXFX1.j N W 5 1 + 5 4 4 5 6 < Q G.; = 4 = o o o o o o o o o o o o o o o o o o o o o < o o o < o 4 < b M 7 7 > > > 6 7 q 9 0 A ] I.^.cXAXVXZXSXPXPXPXPXPXPXPXPXPXPXPXPXPXPXPXPXPXPXPXPXPXPXPXPXPXPXPXPXPXPXPXPX",
"PXPXPXPXPXPXsXgXoXv.g.R B B 6 M |.lXlX#X.XG.V.~ ~ U I U N N L Q I M U $X~ + q W u q Z.lXzXFXFXOXW N N m.N 1 5 5 7 j 5 M N k D.zXg   o o o o   o o o o   o o o o o o o o o o o o < o o o < < < < 6 b t 7 < 6 6 6 X 1 3 q i e a a ' +.].VXSXHXPXPXPXPXPXPXPXPXPXPXPXPXPXPXPXPXPXPXPXPXPXPXPXPXPXPXPXPXPXPXPX",
"PXPXPXPXPXPXjXaX}.v.g.K M M 4 c.lXnXzXlX$XG.B.B.~ I N I N N N I N M m.lX~ 5 q @.n O u G '.L.W b + N E B.B.; 7 5 M 7 j N j ~ K.~.  7 o o o o o o o o o   o O o + o < 4 < o o o o 4 o o 4 6 b % o 6 7 V 4 z z 4 , 6 < 6 3 3 i 9 0 A s } !.SXHXPXPXPXPXPXPXPXPXPXPXPXPXPXPXPXPXPXPXPXPXPXPXPXPXPXPXPXPXPXPXPX",
"PXPXPXPXPXPXkXdXb.c.T B M g 6 OXlXHXHXxXOXG.V.G.l.! I I I U U L ^ I |.sXU 5 5 V I + < 1 7 4 < 5 5 I m.B.$XV 4 N M N k n E l.l.K.sX4 < o   <   o o o     O O o 4 4 4 < < o o o 4 b 4 o 7 u E < o 6 g E < L Q 6 6 6 , 6 V M N 7 q q Z H Z @.OXPXPXPXPXPXPXPXPXPXPXPXPXPXPXPXPXPXPXPXPXPXPXPXPXPXPXPXPXPXPXPX",
"PXPXPXPXPXPXjXXXv.f.Y B K g ^ lXlXnXnX#XOX.XJ.G.V.l.h.! U U ! ! ! E $XJ.V 7 k N 4 I M 4 ; ; j g g I B.N J.J.k N M N I @.B.B.~ m.~.  1 o   o o o o o o   O O o 7 < < < 4 < o o < 6 6 o 6 4 V < o < 7 B = M h.g g B B 6 E Y z F V 6 b u E G m.sXPXPXPXPXPXPXPXPXPXPXPXPXPXPXPXPXPXPXPXPXPXPXPXPXPXPXPXPXPXPX",
"PXPXPXPXPXsXsXoXk.R B c M g G.#X#X#X#XOX.XOXOXOXJ.D.B.l.! ! h.m.~ V.#XK.M 4 j g M 7 ! I N N N j M ! B.L V.$XK.m.E W K.$XOXG.K.K.J.+ + < o o o o X < < o   o 4 q o o o 6 6 o o o < 6 o < o 6 4 o 4 z M o 6 Y g = M h.g Y ^ z Y ^ B > 7 M ^ m.OXPXPXPXPXPXPXPXPXPXPXPXPXPXPXPXPXPXPXPXPXPXPXPXPXPXPXPXPXPXPX",
"PXPXPXPXPXkXaXoXk.K c M g M OXOX$XOX|.OXJ.$X#X#XsX.XD.G.G.V.V.V.J.J.|.~ 5 M L M 4 N I ! Q N N V U I ! N.h.Q K.V.B.K.#XlXfXOX~.Z.M.J.  o <   o O o 6 6 o   o 5 j 4 o o < < o o < 4 6 o o 6 b b o < 7 V > g M E = 6 ^ g M ^ c Y c.Y Y z 6 M N.OXPXPXPXPXPXPXPXPXPXPXPXPXPXPXPXPXPXPXPXPXPXPXPXPXPXPXPXPXPXPX",
"PXPXPXPXPXgXaX}.g.R x M h T OXJ.|.J.|.G.J.#XzXzXlX#XOX#X|.OX$XOXOX|.G.N = N L k j N ! L ~ ! V N ! ! l.V.l.~ U D.OX#XlXmXmX#XOXK.B.C.. < o O o o = = E o o o < 6 6 o o o o o o o < 6 4 o V M V o 6 2 z < o b E < 6 m.6 z Y z B Y C.^ B z M Q OXPXPXPXPXPXPXPXPXPXPXPXPXPXPXPXPXPXPXPXPXPXPXPXPXPXPXPXPXPXPX",
"PXPXPXPXPXjXXXH.f.K z M g ! J.G.K.D.K.G.J.#XnXJXzXxX#XxXzXlXlXfX.X~ N j 4 N L L L I Q N E ! U U ! Q B.V.U l.M l.+X#XzXmXlX#X+XZ.C.~ < o o o o   o o M o o o < 4 4 o o o o % o o o 6 6 o q 6 M < X 2 t > o 7 L 6 g ^ b g L E 7 B ~ ^ ~ Q N ~ G.PXPXPXPXPXPXPXPXPXPXPXPXPXPXPXPXPXPXPXPXPXPXPXPXPXPXPXPXPXPX",
"PXPXPXPXPXjXXXv.g.R x x x Q V.1.m.N.V.V.J.#XzXzXnXmXlXzXzXxX#XZ.~ k 5 M M N N U ! E E N I W ! ! Q h.h.B.M U N ! m.M.Z.'.#X+XQ.A.M.G S + + O o o o o 4 o o o < < o   o o o < o o o 4 7 < < 4 7 < # < 2 < < 6 V 6 q E M 4 M ~ 4 V E M ~ V.I B.K.PXPXPXPXPXPXPXPXPXPXPXPXPXPXPXPXPXPXPXPXPXPXPXPXPXPXPXPXPXPX",
"PXPXPXPXPXaXoXT T K x g g I m.l.E E l.C.G.J.#XlXlXnXnXJXzXJ.W @.Z S E ~ N j N N ! I I V V I ! @.! N.l.V.M N ~ B.B.OXG.@.K.'.M.M.@.S W % + O o o o o o o o o o o o o o o o < o   o < b 4 o 1 6 2 > > 6 z < 2 V 4 1 E N < M E j N ~ ~ j h.|.L m.PXPXPXPXPXPXPXPXPXPXPXPXPXPXPXPXPXPXPXPXPXPXPXPXPXPXPXPXPXPX",
"PXPXPXPXbXaX}.g.R K h h g V W E E V V ^ M.G.'.+X#XlXzXFX#X@.W @.Z.M.A.Q.S j I N ! I N V N N E ~ l.h.G.B.M V m.~.M.G.~.Q.K.!.Z.Z G m n + o o o   o = o > o o o % o o o   o o < o o < b 1 o 1 6 7 # 4 b V 6 4 M M 4 b L 6 V E M g E C.b L Q D.E PXPXPXPXPXPXPXPXPXPXPXPXPXPXPXPXPXPXPXPXPXPXPXPXPXPXPXPXPXPX",
"PXPXPXPXbXaXv.T R M h h g M S M 5 N E E S W 1.Z.~.lXmXxXA.1.K.A.Z.Z.4.Z.@.n ; n ! ! N L M M L ! l.l.V.m.M N ~.lXOXM.Z.Q.Q.R.A.i u i 3 % o o o   X o o > > X o % o o o   o o < o o < 7 1 o < 4 M M o 6 ~ V 7 M ^ z 6 Y 6 g ^ M 4 E E 4 h.h.b K.PXPXPXPXPXPXPXPXPXPXPXPXPXPXPXPXPXPXPXPXPXPXPXPXPXPXPXPXPXPX",
"PXPXPXPXjXaXv.T c z h h g b W V q 1 1 n n m S m.Z.Q.#X+XM.A.~.4.4.A.2.4.A.@.< n I l.U N k M N I h.D.l.B.N N #XmX~.'.OXA.A.A.T.i % 9 1 % O o o = X o o o < o o o o o o o o o < o o o 1 4 < o < 7 M N = 4 c.E = c.Y g V V 4 E Y 6 P h.g Q c.t 1.PXPXPXPXPXPXPXPXPXPXPXPXPXPXPXPXPXPXPXPXPXPXPXPXPXPXPXPXPXPX",
"PXPXPXPXkXXXv.R B B h k 5 5 U M q w 1 q q Z m S H 4.K.~.1.~.Q.Q.2.2.5.4.4.Z.m 1 N m.! I M N N N E m.B.B.j E OXmXOX#X#XA.Q.A.!.H $ 1 % . o <   o o O o O < <   o o o O o o o 4 < o o < 4 7 < o < N b b < = ~ L 6 Y B V N.7 Y c.g T Q g L ^ b E c.PXPXPXPXPXPXPXPXPXPXPXPXPXPXPXPXPXPXPXPXPXPXPXPXPXPXPXPXPX",
"PXPXPXPXhXoXv.R x c 6 x 4 5 S S 1 & 1 1 + 9 9 n Z Z 4.A.A.'.T.R.A.6.2.2.2.4.4.9 q ! l.U M N N N M I l.m.j j '.lXJ.#XxXOXK.A.!.Z.% < < o % o o O O O O X X o o o   o o o o o o < o O o 6 4 < o o 6 6 M 6 < 6 E b 4 V L h.Q B D.P L h.E M Q Q C N.H.PXPXPXPXPXPXPXPXPXPXPXPXPXPXPXPXPXPXPXPXPXPXPXPXPXPXPXPX",
"PXPXPXbXaXoXj.j.B c 6 h 4 h n S 9 & & & & 9 9 9 i Z J 4.'.+XT.E.W.5.2.2.o.2.6.H 9 N h.! M M N N N N U ! N j V.#XK.#XeXxX'.Q.A.'.S = b ; o < o o . O O X X o o o o o o o o o o < 3 o o < 4 6 < X > 4 z 7 # < M M 4 4 ~ ^ ^ ^ Q Q z Y h.M ! E b E g.PXPXPXPXPXPXPXPXPXPXPXPXPXPXPXPXPXPXPXPXPXPXPXPXPXPXPXPX",
"PXPXPXbXaXv.g.L B c 6 6 4 5 5 S m & & + + + % & 9 9 a 4.T.].].R.W.U.6.2.o.2.4.@.n q I h.L j N N I I N N N k B.#XB.OX#XxX6XT.T.+XV.I = 4 =   = o o o O X X X X o o o o o o o o 4 1 % o o < 6 6 4 # 4 6 b + o 6 V b < b V V g L K.V h.N.Y Y V.t ;.Q PXPXPXPXPXPXPXPXPXPXPXPXPXPXPXPXPXPXPXPXPXPXPXPXPXPXPXPX",
"PXPXPXkXaXH.c.M B c z 6 g 4 < W M.q % @ & @ $ & & @ 9 4.A.].].'.W.U.U.3.2.3.#.#.@.n M ~ ! N b M L L k k j j @..XV.K.6X#XxX!.!.].$XOX|.g = ;   o o o O O o o X o o o o o o o o < < < < + < 6 7 4 + 1 4 b < o % b V 3 o V ~ 7 4 Y m.^ N.Q F 1.F ^ h.k.PXPXPXPXPXPXPXPXPXPXPXPXPXPXPXPXPXPXPXPXPXPXPXPXPXPXPX",
"PXPXPXgX$Xv.c.K B c z 6 g < 6 C.K.S 1 . % % % + @ @ 9 1.R.!.'.].].E.U.r.r.r.#.2.4.H n V h.^ V N M k k j j k N I l.G.$X#XeX6X!.~.xX|.$X: - : X > o o O O O O O O o o o < o o o < 6 4 4 < < 7 7 < % < % 7 3 + + 3 ^ 7 4 < V E < M E z L K.E C.C.B N.P PXPXPXPXPXPXPXPXPXPXPXPXPXPXPXPXPXPXPXPXPXPXPXPXPXPXPX",
"PXPXPXjXoXc.R R K c z 6 6 < F '.Z.W u @ O @ + @ + . 9 4.U.E.].].].!.P.e.e.r.3.2.@.4.H n E ~ V b g g N M j N N k I N.J.#X#XxX+X+XlXbX|.h h : X X o o o O O O o o o o o o < o o o 4 6 6 < o 4 7 6 % % % 1 q % % * b o 7 < b ^ 4 M ~ ^ 6 B m.C OXh.H.P F.PXPXPXPXPXPXPXPXPXPXPXPXPXPXPXPXPXPXPXPXPXPXPXPXPXPX",
"PXPXkXdXXXv.g.K K c z 6 < < m.+X1.@.G q + $ . . & . i 4.4.W.].].!.!.U.Y.Y.r.r.#.} 4.@.n S W V b j 7 N N j k I h.h.l.G.$X#XlXeX+XsXlXsX$X- - = = o o o o o o o o o o o o < < % o o 6 7 4 o < 7 u < < < 1 7 < < < M < o 4 M E 6 < h.Q Q 4 E C.Y Q  XF.N.PXPXPXPXPXPXPXPXPXPXPXPXPXPXPXPXPXPXPXPXPXPXPXPXPXPX",
"PXPXkXaXH.F.T T v x z 6 + 1 L.+XZ.@.W W n 3 . . O % J Z.6.W.U.!.].].W.E.Y.e.Y.6.2.2.@.H S W E V m 3 q q w q k ~ l.~ h.G.#XxXmX+XsXxXxX|.- 4   = o o X X o X o o o o o o < 4 < o < 4 6 4 % < 3 4 4 % ; 3 4 % < < q 4 6 4 6 E 7 < L h.L h B c.C.B F.|.h.PXPXPXPXPXPXPXPXPXPXPXPXPXPXPXPXPXPXPXPXPXPXPXPXPXPX",
"PXPXgXaXH.T g.T K v b b & 0 Q.~.A.M.W S W m u % $ & | #.Z.W.W.U.].'.E.W.W.U.U.e.3.3.2.} Z D @.S i 0 8 8 8 0 n n E ! l.V.OXlXnX@XOXzX4 = < = o o X o o o o o o o o o o o < 6 6 < < < 6 7 4 4 4 4 4 < < 2 4 > < 4 4 6 6 b M L 6 4 P g.^ g L ~ ~ V j.N.h.PXPXPXPXPXPXPXPXPXPXPXPXPXPXPXPXPXPXPXPXPXPXPXPXPXPX",
"PXPXkXXXH.g.R T v K j & @ ] P.!.Z.M.@.H S S V m S Z @.@.4.U.P.U.E.R.T.E.U.U.U.e.6.3.o.#.} 0 @.M.3.2.^.Y.Y.0 0 D n ! E ^ J.$XxXxXj 5 4 4 o < X   X o o o o o o o o o o o < 3 6 4 < < 6 7 6 < < 4 4 < < 4 4 < > < g 4 6 M ^ F b 5 L L b g I h.~ z h.h.L N.PXPXPXPXPXPXPXPXPXPXPXPXPXPXPXPXPXPXPXPXPXPXPXPXPX",
"PXPXsXXXc.R f.x v K n w r O.o.P.Z.A.A.W S m b b G S H @.2.U.3.5.5.T.T.W.U.U.W.U.2.U.o.3.} s E.] $. . .[ r.$.^.+XD D W N C.#Xo < <   < + X   X o o o o o o o o o o < o o < 4 6 6 < < 4 7 6 < < 3 6 < > 4 6 4 > , 4 6 o 4 M.V 7 4 h.N N u I Q M V Q N.K.K PXPXPXPXPXPXPXPXPXPXPXPXPXPXPXPXPXPXPXPXPXPXPXPXPX",
"PXkXaXoXv.T Y K v M w @ 7X:Xr.r.#.A.+X@.W S V m m n n H 4.P.2.6.5.T.E.E.U.U.W.U.e.3.r.o.$.#.} o.( X.&. .+.+.*.I.+XH M.z.5 6 7 3 % 7 O o #   X o o o o o = o = = o < < < % < 4 6 3 4 < 4 4 < < 4 6 4 < < 4 < < < 6 7 7 6 W q S n ~ l.m m V D.M V ~ m.h.L c.PXPXPXPXPXPXPXPXPXPXPXPXPXPXPXPXPXPXPXPXPXPXPXPX",
"PXgXhXb.v.R B Y P k w 6XrX5X-X*.#.T.6XM.H S E G G S m Z Z.6.2.6.5.Y.W.E.T.T.E.W.E.3.3.e. .' o.o.[ ) ) ) &.+.$.#.} 4.& q q 4 ; O o O o % O < o   X o o o o o o = o < 4 < < < < 4 6 6 < < 4 4 < < < < < < < < 4 4 < u 1 1 1.m i Z i S Z 4.Z.G.B.~ 1.;.;.^ c.g.PXPXPXPXPXPXPXPXPXPXPXPXPXPXPXPXPXPXPXPXPXPXPX",
"PXsXaX}.T Y Y x L N 6X7X8X9X2Xt.$.A.+XZ.n S V V S m m Z Z.4.#.3.3.e.U.U.T.T.R.W.U.Y.e.>. .3.` '  . .)  .) [ _ ' #.@ & + < o 4 o 4 O < o   X X o X o o o o o o = o < 4 < < < < < 4 7 4 % 4 4 % o < 4 6 6 6 6 6 1 b 1 1 m 1.@.A.A.@XZ.+X'.A.'.OX@X'.@XOXL.1.C.c.H.F.j.PXPXPXPXPXPXPXPXPXPXPXPXPXPXPXPXPXPXPX",
"PXbXoXb.g.Y B B M n r <XpX4X2X%X#.4.].Q.S G E G b n i Z 4.6.2.2.w.r.e.U.W.T.R.W.W.Y.3.Y.>. .o.d ( ( ( o.( o.{ ` @ @ & < < 6 X o o o = o =   o o o X X o o o o o o < < 4 4 < < < < 6 4 % 4 < < 6 7 7 7 7 7 7 3 1 3 Z 4.1.@.a A | f 2.i 6.J 4.S.p 7.1.1.C /.;./.OXL.c.H. XPXPXPXPXPXPXPXPXPXPXPXPXPXPXPXPXPX",
"kXhXXXv.T Y B B B q r -XpX2X1X%X*.@.!.A.S b E V N m q Z #.6.2.o.w.w.w.U.W.U.T.U.W.Y.Y.e.o.} { { 3./ ' / { ( ` 0 8 & % % # o o o o o ; o   =   o o X X o o o o o o < < 4 4 4 < < < 1 < o < < 4 M M M 7 5 1 3 1 % 1 i 1.i 0 a 2.@.J A f | 7.8.J J S.S.S.S.F (.;.;./.C.H.H. XPXPXPXPXPXPXPXPXPXPXPXPXPXPXPXPX",
"hXaX}.c.g.R x c x o 0 O.8X2X>X%X*.} 2.+XW F E S I q i Z 2.#.} 2.r.r.r.U.W.U.A.U.W.W.U.e.3.o...{ s ( / ( { / s & & + % + o o o o o o = o o o o o o o o o o o o o o < < < < < < < < < < < 4 7 M V 6 4 4 5 7 7 6 1 1 O u Z.J p J 6.8.| 7.8.S.7.1.1.S.S./.L./.L.{.S./.L.^ K.H.$XPXPXPXPXPXPXPXPXPXPXPXPXPXPXPX",
"gXdX}.v.f.Y K K z o a o.1X8X1X1X=.' s +XL.F G V I n i p @.@.} #.r.e.r.e.U.U.U.A.E.E.W.U.r.2.o.{ ( / s ` s ` 8 & + + ; + = o o o o o o o o o o o o o o o o o o o o < < < < < < < < < < 4 6 q u q < < 4 6 6 6 6 1 % *   H R.| 8.J 8.J 8.8.1.y $ /.S.y ;.F S.;.(./.J @X;.F C.H.|.PXPXPXPXPXPXPXPXPXPXPXPXPXPX",
"hXXX}.v.f.K K K g 4 2.{ 8X8X1X1X-X+.s T.Q.@.E W I m u q J @.} o.3.w.r.r.U.U.U.U.U.W.W.Y.e.3.o.{ { ' ` s ` ` a & + + ; = = o o o o o o o o o o o o o o o o % o o < < < < < 4 4 4 < 4 4 6 7 7 6 < > < 4 6 6 6 6 6 1 1 . 1 1.1.p f 8.p S.S.Q.1.3 y 1.p F u F C y ;.G K./.C.N.D.F. XPXPXPXPXPXPXPXPXPXPXPXPXPX",
"hXoXH.v.g.R R K o n 2...rX9X9X8X-XI.` 4.+X1.@.S S m n i H @.| { O.r.r.3.P.Y.U.A.U.U.W.W.U.e.2.o.{ } e s s a a & + + = = = ; + o o o o o o o o o o o o o o o o o < < < < < < < < < 4 6 6 7 6 4 + < 4 6 6 6 6 6 7 7 + 3 1 1 1.i 1.1.* H p 3 p m u t G G C F C C F ^ E N.c.$Xc.K.H.XXPXPXPXPXPXPXPXPXPXPXPXPX",
"hXoXF.c.T T f.K = S 4.+.uXNXuX7X:XI.$.4.~.K.@.z.E m n p | | | { o.r.r.3.e.Y.U.U.U.U.W.W.Y.U.3.#.o.o./ / s 0 a 9 + = = = = = + o o o o o o o o o o o o o o o < < < < < < < < < < < 4 1 1 6 3 4 4 3 3 6 3 6 6 6 6 5 < + b 7 G i 3 * N G m b E b 7 z b M E Y ^ L.^ E ^ h.H.H.C.D.D.|.PXPXPXPXPXPXPXPXPXPXPXPX",
"hX}.v.j.R T R h g @.A.[ iXNXMXuXrX:X0 w W K.M.@.W m n p H | ` { o.r.r.3.r.U.U.U.e.U.W.W.W.U.5.3.o.' { 8 s a m 3 < > > > ; + + o o o o o o o o o o o o o o o o < < < < < < < < < < 4 4 4 4 6 6 6 7 6 3 3 6 7 7 7 j q O < 7 u G m b 7 1 E E ^ E L V V V ! Y N.H.m.m.N.|.H.h.c.;.c.H.PXPXPXPXPXPXPXPXPXPXPXPX",
"dX}.c.j.T R K h j Z.2.O.-XNXNXNX( s 0 0 n C.M.B.W m n p H J A { ..>.r.3.e.e.U.U.5.U.U.W.W.E.U.6.2.o.{ s 0 @.m V < < > = ; ; + o + o o o o o o o o o o o o o o < o < < < < < < 4 < 4 4 4 6 6 7 7 7 3 6 6 7 7 7 7 4 4 b 6 7 2 < 3 M 4 M L V E D.L N L h.P C.N.D.V.m.K.g.N.N.N.h.N.H.$XPXPXPXPXPXPXPXPXPXPXPX",
"aX}.g.T Y K K z m.A.| $.&.MXVX( ( e 8 9 u b m.z.S n n p H | s / { ..3.3.w.e.e.Y.e.U.U.W.E.E.U.5.2.{ ' ` 0 8 9 W 4 < > > ; ; + o + o o < o o o o o o o o o o o o o o < < < 4 4 4 4 4 3 6 7 7 7 7 7 7 7 7 7 7 7 7 b 6 7 b 6 C b M g V g g V M V h.~ ! V ~ Q Q ^ ^ ~ ! K.H.|.D.H.F. XaXPXPXPXPXPXPXPXPXPXPXPX",
"XXv.j.K Y K h M N.A.@.e.w.*.VXe a m 9 3 u V W @.S n u i | A e } {  .>.r.w.w.e.e.U.U.U.W.W.E.T.Z.2.O.{ { s 8 w q 6 < 4 > < o . % o o = < < o o o o o o o o o o o < o < < 4 4 4 < 4 4 1 6 7 7 6 6 7 7 u 7 7 6 6 g 6 g 7 b B V B b b V L b 6 b b 4 < 4 4 4 6 b N V M M Q N.c.PXPXPXPXPXPXPXPXPXPXPXPXPXPXPXPX",
"}.v.g.T Y c h B m.Q.A.6.r.r.#.a 9 3 3 t t 7 V Z.@.S m m H J ` ( {  .O.3.w.w.e.e.e.U.P.U.W.E.R.U.3.3.o.{ ` 0 9 n b 4 > = < < % O o o = < < o o o o o o o o < < < < o < < < 4 4 4 1 1 1 6 7 7 7 6 u u u u 7 7 7 g 7 g 6 g 6 V E Y E V 6 o < 4 6 4 4 4 4 4 4 6 7 b L M N b Y c.PXPXPXPXPXPXPXPXPXPXPXPXPXPXPX",
"H.v.j.L K Y h z 1.A.5.5.r.r.a a G 2 2 6 t 7 7 m.C.W m m H A ` / { o.O.3.w.w.r.r.e.e.U.e.W.E.!.E.e.r.o.o.} a & u b 4 < 4 = < < o o o = < < o o o < < < o < < < < < % < < < 4 4 4 6 6 6 6 7 7 7 7 b b b b b b b u g 7 6 M ~ M < < 4 < < < 3 3 3 3 6 6 6 7 7 7 7 7 b I Q B B B Y PXPXPXPXPXPXPXPXPXPXPXPXPXPX",
"H.c.R Q Y K c z M.A.5.5.r.2.1.p C 2 > # 2 t q S Z.W m Z H A ] ` { o.o.3.w.w.w.r.e.e.U.5.U.R.!.E.Y.3.2.o.o.A 8 9 q 5 < 6 < o < < o o < < < % % < < < < < < < < < < < < < < 4 4 4 6 6 6 6 7 7 7 q 7 b b b b b b 7 6 7 Y 7 V 6 B 4 < 4 6 3 < < 3 3 7 7 7 7 t t t t b L M V M E F M PXPXPXPXPXPXPXPXPXPXPXPXPX",
"b.g.T Q K c Y 4 @.T.U.>.>.2.1.G C B z 6 > 4 q q W W m i H A ` ( {  .o.>.w.w.w.w.w.e.U.5.U.E.!.E.E.3.3.2.o.} a 9 9 7 4 4 6 < < < % < < < < < < < < < < < % < < < < < < < < 4 3 6 6 6 6 6 6 7 7 b g b b b M M u 7 6 7 M 7 m.b u b b 7 6 3 3 7 7 3 7 3 6 6 6 7 6 6 7 V L ~ L E ;.E x PXPXPXPXPXPXPXPXPXPXPXPX",
"oXR g.K v R B 7 @.U.w.w.w.3.4.H G Y C z 4 < 9 9 9 S m p H J ` s { } o.#.3.w.w.>.w.w.e.e.U.E.Q.R.E.5.5.3.o.#.| 0 9 q V 4 4 6 4 < < < < < < < < < < < < < < < < < < < < < 4 4 3 6 6 6 6 6 6 7 7 b b b M M M M 7 6 7 V V 6 < 4 N b b 6 5 q M 7 3 3 7 3 2 4 6 6 6 6 3 4 g N ^ E ;.u B P PXPXPXPXPXPXPXPXPXPXPX",
"aXf.R Y R R 6 V @.W.3.r.&.O.4.G V b z g 6 5 1 1 1 i m i @.| | ` ` { o.O.O.3.9.>.w.w.r.U.U.T.T.!.E.U.5.3.o.o.} A 0 9 W q 4 4 7 4 < < < < < 4 4 < < < < < < < < < < < 4 4 4 4 4 6 6 7 7 7 7 7 7 b b M V M M M b 7 b b + < 4 3 6 b N j 7 7 7 4 4 6 7 6 2 4 6 7 g 7 6 7 M b Y L ~ ;.F Y x PXPXPXPXPXPXPXPXPXPX",
"PXXXK c c c T g m P.e. .O.+.} 4.W b V b 7 j 1 5 1 . 3 i H | ` ` ` { o.o.O.>.9.>.w.w.3.U.Z.U.T.!.E.E.r.6.3.o.o.| A @ H b 6 4 g < < 4 < < < < < > < < < < < < < < < < 4 4 < < < 3 7 7 7 7 7 7 b b M V V M M V M b 7 3 1 q 7 7 u 6 7 j g 6 5 7 6 < 7 6 4 4 6 6 6 6 7 b g g B M b E m.F c.K PXPXPXPXPXPXPXPXPX",
"PXPXaXH.K R M M W Z.e.....O.[ ] | V V B z g 6 4 o 2 3 i @.| ` ` ` ` o.o.o.>.>.9.>.>.w.5.P.A.T.R.!.!.U.3.O.>.>...` 8 i q g 6 6 g 5 1 4 4 < > > < < < < 3 % < < 4 < 4 4 4 < < 3 3 7 7 g 7 7 7 q b b b M V V N M M b b b b b u t 7 b 7 7 7 q 1 1 1 3 7 6 7 4 7 6 6 6 7 t z b z F F C ^ g.j.f.PXPXPXPXPXPXPXPX",
"PXPXPXPXPXPXPXPXG.Z.2._  .+.( +.| n b M M z z 6 # % % 9 H | ` ` ` / o.o.o.,.>.>.>.>.3.5.U.U.W.R.Q.!.W.6.>.>.O...o./ 8 Z M 4 4 M j M 7 = 4 6 < > > < o % 7 < 4 = < < 4 < < < 3 6 6 7 7 g 7 7 j b b b M N N M b b b b b b b u 7 7 7 7 q 7 q 7 7 1 7 7 7 6 6 4 5 7 q 3 1 b b u u C b Y ~ g.j.k.PXPXPXPXPXPXPX",
"PXPXPXPXPXPXPXPXPXB.| _ _ ( +.( ` A m N M z b % 2 * % q S @.` / ` / } o.o.O.O.>.>.>.>.5.U.U.W.T.!.!.W.P.r.>.O.o. .#.A q u 6 g 4 5 q j M V 6 = 6 < 4 3 % o 6 = 7 < < 4 4 4 4 6 6 6 6 7 7 7 7 k M b b b b M b b M b b b g 7 7 7 u 7 7 7 7 7 7 6 6 7 4 4 < 7 1 1 9 8 0 w A e a 0 a i n q E N.H.F.PXPXPXPXPXPX",
"PXPXPXPXPXPXPXPXPXl.| f f / / ' ` f D W N 4 u p 3 * < j S | / f ` / { o.o.o.O.>.>.>.>.3.e.U.U.U.!.!.E.Y.e.w.,.O.o.{ | 0 n b 5 4 q q 6 4 7 g 7 6 < 7 + 7 4 4 < > < < 4 4 4 4 4 6 6 6 7 7 7 j k M g 7 7 b b b M M b b b b 7 7 7 7 7 7 7 6 6 6 6 4 4 < 1 1 9 & & 8 s ' O.+.+.[  .( s a a 1 N B c. XPXPXPXPXPX",
"PXPXPXPXPXPXPXPXPXPXS f f f d s d d Z H n q m m 3 < 4 q Z H A / | ` { }  ...X.>.>.>.>.3.5.e.U.U.Q.Q.!.E.Y.w.>.,.O.{ | A 9 i 1 1 1 < 1 6 1 q m n 3 & 3 1 < 4 = 6 < < < < 4 4 4 4 6 7 3 7 g g j M b u u b b b b M u b b b q 7 7 7 7 7 6 4 4 6 6 4 6 3 1 & @ 8 a ' r.t.t.t.t.-Xt.&.) ) s A 9 N C K  XPXPXPXPX",
"PXPXPXPXPXPXPXPXPXPXPXH f 0 d 0 a A Z Z i n Z u t 6 6 7 Z Z f A ` ` } } { ....,.>.>.>.>.3.r.e.Y.T.R.E.E.Y.r.>.>...O.o.| 8 @ 0 q q + + 1 % & n H 0 Z.& @ 1 7 < < < < < < 4 4 4 4 6 3 3 3 g g b b M b b b b 7 7 b 7 b b b b 7 7 7 6 6 6 6 6 6 6 6 1 3 & 9 e { 3.t.t.%Xt.;X;X;X;X;X;Xq.) ( s i m E j.F.PXPXPX",
"PXPXPXPXPXPXPXPXPXPXPXPXI Z S S | 0 k W I q 9 p t 3 6 < S i f f d ` } } { ....X.O.>.>.>.>.w.e.U.T.T.E.E.W.P.3.>.O...o.o.{ @ 8 0 Z Z m i Z H i 8 a 6.Z.A.% $ 7 < 4 4 % % < 2 * * 6 6 3 3 7 g t y b b b b b 7 7 t z b b b q 7 7 6 6 6 6 6 6 4 1 1 % 9 a ] 3.t.t.t.t.q.;X;X4X;X4X4X5X8X-X-XO./ 8 @.V g.F.PXPX",
"PXPXPXPXPXPXPXPXPXPXPXPXPXPXPXPXPXPXPXU L I N 7 7 3 5 < W Z f a d A } { { o.....X.X.>.>.>.>.w.r.U.R.!.!.E.U.r.3.>.>.....o.#.8 @ @ 0 0 0 0 @ @ e #.P.} 5.].% % 1 5 1 * * < 2 < < 6 6 3 3 7 7 y y t 7 b b b b b b b b b b 7 7 6 6 6 < 4 6 6 1 < & Z | #.o.&.&.t.t.&X>X1X5X4X2X3X3XpXiX5X7X7X:X( A S E h.H.PX",
"PXPXPXPXPXPXPXPXPXPXPXPXPXPXPXPXPXPXPXPXL L L g b 7 3 3 G n Z m a a ` { { o.O. ...O.O.>.9.>.>.e.U.T.E.!.E.W.P.2.>.O.....O.3.3.} d 8 8 0 8 8 ( #.3.o.3.6.U.].'.+ < 1 1 % > < X X 4 6 3 3 g q 3 3 u 7 7 b b b b b b q 7 7 6 6 6 6 6 5 < 1 1 1 n D | | o.w.t.t.%X;X&X&X4X2X3XpXpXpXpXuXDXrXAXcX7X3.@.W @.h.|.",
"PXPXPXPXPXPXPXPXPXPXPXPXPXPXPXPXPXPXPXPXk.f.K h > 7 < 3 3 V S q a d a ` ` ` o.O. ...O.O.>.>.>.r.U.U.E.!.E.E.U.3.>.X.X.X.O.O.2.o.2.o.o.2.3.3.>.O.9...>.r.e.5.+X].+X5 < o - PXPXPX  < 7 7 6 4 < b 7 7 7 7 b b 7 7 7 7 7 7 3 4 4 6 7 7 1 9 q n D A ` #.&.t.%X%X;X;X&X4X3X4XpXpXuXuXuXuXCXBXBXAXZXAX].2.1.@.l.",
"PXPXPXPXPXPXPXPXPXPXPXPXPXPXPXPXPXPXPXPXPXPXPX6 u t 7 5 = ; M A a 0 d d ` } /  . ...X.O.>.>.>.>.e.U.W.!.!.!.U.r.w.X.X.X.....O.3.o.O.O.>.O.O.O. .X.X...>.Y.e.].].~.#XPXPXPXPXPXPXPX  < 7 g g g 4 7 7 7 7 7 b 7 6 7 6 6 1 4 4 4 6 1 q 9 w n A ] ` O.w.*.t.q.&X1X>X4X2X3X1X3XpXuXiXuXiXtXBXAXVXBXZXAX6X2.M.B.",
"PXPXPXPXPXPXPXPXPXPXPXPXPXPXPXPXPXPXPXPXPXPXPXh < 2 6 4 4 g V m a s 0 a s / o.{  . ...O.9.9.>.>.3.e.U.E.Q.!.W.e.r.>.X.&.X...O.>.O.O.O.O...O.9.0.X.0.9...r.e.].].+X~.PXPXPXPXPXPXPX% < 5 b g 4 g 6 7 7 7 7 7 7 6 6 6 4 4 1 6 6 7 1 w w 0 a A }  .+.&.t.%Xt.1X&X&X3X3X3X4XpXuXiXrXiXtXBXBXBXAXAXZXVXSXSXI.x.",
"PXPXPXPXPXPXPXPXPXPXPXPXPXPXPXPXPXPXPXPXPXPXPXPXz z < b = o o m a 0 s s e ` ` { ' { { ..O.>.>.>.3.r.U.E.Q.!.E.P.3.>.X.X.X.O.>.O.9.....X.O.>.9.X.&.&.9.O.3.3.E.].].Q.|.PXPXPXPXPXPX% 3 u 4 4 h g 5 6 7 6 6 7 7 6 1 4 4 6 6 6 7 7 q q 0 a s (  .O.&.0.t.t.q.;X&X>X>X2X3X3X3X5XuXuXrXrXtXBXtXVXAXVXZXAXSXSX!.",
"PXPXPXPXPXPXPXPXPXPXPXPXPXPXPXPXPXPXPXPXPXPXPXPXX g 7 3 < < + + H a 0 s s d ` s ` { {  .O.>.>.>.w.r.U.W.R.!.!.U.3.O.X.X.X.O.>...O.X.O.9.>.X.X.X.9.X.X.9.w.r.e.P.T.A.J.PXPXPXPXPXh 7 * % q j 4 6 6 6 6 6 6 6 7 7 4 4 6 7 7 7 6 6 q w 0 a / (  . .X.0.&.%X;X;X;X&X4X3X4X3X4XiXpXiXiXrXCXtXBXVXBXAXAXZXZXZXSX",
"PXPXPXPXPXPXPXPXPXPXPXPXPXPXPXPXPXPXPXPXPXPXPXPXPXh < . 3 o #   | A s 0 s ` / { {  .o.o.O.>.>.>.3.w.P.U.R.!.!.W.r.>...X.X.O.O.O...X.O.&.....>.9.X.9.9.X.>.r.P.E.E.Q.A.PXPXPXPXPXh 4 * * 1 6 7 3 7 6 6 7 7 6 6 7 7 6 7 7 7 6 6 3 q 0 0 s ( /  . .&.0.&.q.%X;X;X;X&X4X3X2X3X2X3XiXpXiXrXuXDXAXBXBXBXAXAXZXVX",
"PXPXPXPXPXPXPXPXPXPXPXPXPXPXPXPXPXPXPXPXPXPXPXPXPXh 4 3 # . % + @ | @.A | } ' { { o.o.o.O.>.>.>.O.>.r.U.T.!.!.W.Y.3.O.O.X...O.O.O...X.X.O.>.9.X.X.9.>.O.r.r.2.P.W.R.Q.V.PXPXPXPXh 6 * * 7 7 3 3 7 4 4 6 6 4 4 7 b u 7 7 7 3 7 3 9 a a s ( /  . .X.&.t.%Xq.%X;X;X;X*X4X3X3X4X3X3XpXuXiXiXrXrXBXBXCXBXBXVXZX",
"PXPXPXPXPXPXPXPXPXPXPXPXPXPXPXPXPXPXPXPXPXPXPXPXf.g 4 6 6 4 < % % @ Z.| 2.O. . ...>.O.w.>.>.O.>.>.>.r.5.R.Q.!.!.U.e.>.>...O...w...X.X.X.O.X.X.X.9.,.>.>.>.r.r.P.W.T.'.G.PXPXPXPX4 4 3 3 1 4 4 2 6 6 6 3 3 7 q q n q 9 1 9 & 8 0 0 a e s / '  . .+.*.&.t.%X%X;X;X;X&X2X1X1X4X3XpX3XpXuXuXCXiXBXiXBXAXBXZXVX",
"PXPXPXPXPXPXPXPXPXPXPXPXPXPXPXPXPXPXPXPXPXPXPXPXP 4 4 4 4 4 < % o 1 4.5.3.O.9.9.O.>.>.w.>.>.X.9.>.>.5.6.R.Q.!.!.U.U.3.>...O...3.O...X.X.X.X.X.X.9.,.>.>.>.w.r.e.W.R.Q.A.Z.PXPX2 6 4 6 6 1 4 3 3 6 6 6 6 7 7 q q q 1 & & 8 8 w 0 0 a e / / '  . .+.*.&.t.t.t.%X;X&X;X>X1X3X3X3X4X2XpXiXuXuXrXMXBXBXZXVXAXVX",
"PXPXPXPXPXPXPXPXPXPXPXPXPXPXPXPXPXPXPXPXPXPXPXM g < < 4 4 4 < % % % 9 6.r.w.w.X.>.>.>.r.>.>.X.X.>.>.3.6.W.R.Q.R.W.Y.w.>.X.O...3.O.O.X.O.X.&.&.&.9.,.>.>.>.w.w.e.U.R.T.A.K.PXPX7 6 6 6 6 4 1 7 7 6 6 6 7 7 7 3 3 1 & & & 8 8 0 0 e d s / / / ' [ +.*.&.t.t.q.*X&X;X;X&X1X4X3X3X2X2X4XpXiXuXNXrXMXMXBXBXAXVX"
};
