/* XPM */
static const char *xpm__14_sgun_endreload2[] = {
/* columns rows colors chars-per-pixel */
"141 112 256 2 ",
"   c #060605",
".  c #0B0C04",
"X  c #0B0B0B",
"o  c #080906",
"O  c #140C05",
"+  c #130D0C",
"@  c #190A05",
"#  c #0D110D",
"$  c #0B1207",
"%  c #14120D",
"&  c #1B120C",
"*  c #161308",
"=  c #0D0D11",
"-  c #0C0C16",
";  c #120D13",
":  c #190E1A",
">  c #0D1213",
",  c #0C1518",
"<  c #131313",
"1  c #1B1514",
"2  c #151A14",
"3  c #1C1B14",
"4  c #15151A",
"5  c #1A161B",
"6  c #151A1C",
"7  c #1B1B1C",
"8  c #26150B",
"9  c #231A15",
"0  c #231C1C",
"q  c #281B18",
"w  c #351D16",
"e  c #210D0B",
"r  c #1D221B",
"t  c #24221D",
"y  c #2B231D",
"u  c #282617",
"i  c #33241C",
"p  c #3B251C",
"a  c #39271A",
"s  c #33341C",
"d  c #151B22",
"f  c #1C1D21",
"g  c #1B1B27",
"h  c #1A1A2F",
"j  c #221E23",
"k  c #251C27",
"l  c #301F2B",
"z  c #1D2224",
"x  c #1D232A",
"c  c #1C2726",
"v  c #1D2733",
"b  c #232224",
"n  c #2B2423",
"m  c #2C2A24",
"M  c #24242A",
"N  c #2A252B",
"B  c #242A2C",
"V  c #2B2A2C",
"C  c #242924",
"Z  c #322623",
"A  c #332A25",
"S  c #3C2C23",
"D  c #332C2B",
"F  c #38292A",
"G  c #28312C",
"H  c #34322C",
"J  c #3C322C",
"K  c #383525",
"L  c #242B33",
"P  c #2C2C32",
"I  c #272936",
"U  c #322C32",
"Y  c #372D35",
"T  c #2C3234",
"R  c #2B333B",
"E  c #293638",
"W  c #343235",
"Q  c #3B3433",
"!  c #34343A",
"~  c #3A353B",
"^  c #343A3C",
"/  c #3C3A3C",
"(  c #393A34",
")  c #472A1B",
"_  c #542C1C",
"`  c #4B321E",
"'  c #59361C",
"]  c #65371C",
"[  c #432E22",
"{  c #4B2D22",
"}  c #422C2A",
"|  c #572E27",
" . c #4C3324",
".. c #43342C",
"X. c #4C352A",
"o. c #473628",
"O. c #523524",
"+. c #543A26",
"@. c #543B2B",
"#. c #5B3D2B",
"$. c #5A3627",
"%. c #443A33",
"&. c #433C3B",
"*. c #483935",
"=. c #533D32",
"-. c #573C36",
";. c #4A2E38",
":. c #653928",
">. c #6C3C31",
",. c #441C12",
"<. c #3B423B",
"1. c #354535",
"2. c #5D422D",
"3. c #58442B",
"4. c #5B5B2B",
"5. c #4D423B",
"6. c #48463A",
"7. c #554134",
"8. c #5D4433",
"9. c #53443B",
"0. c #5C4A3B",
"q. c #5A4837",
"w. c #5A5837",
"e. c #4A4A31",
"r. c #61422D",
"t. c #6A4429",
"y. c #655A2A",
"u. c #614534",
"i. c #624A35",
"p. c #634D3B",
"a. c #674437",
"s. c #7A4736",
"d. c #65563C",
"f. c #78502F",
"g. c #686739",
"h. c #726E3A",
"j. c #64552A",
"k. c #2D3B43",
"l. c #2C3545",
"z. c #3D3C42",
"x. c #343A46",
"c. c #30344D",
"v. c #423C42",
"b. c #453A46",
"n. c #5A3C46",
"m. c #3D4243",
"M. c #374549",
"N. c #3A4854",
"B. c #384C51",
"V. c #3E5261",
"C. c #444344",
"Z. c #4B4444",
"A. c #45444B",
"S. c #4A454B",
"D. c #494B49",
"F. c #5C4D43",
"G. c #544A47",
"H. c #595649",
"J. c #484A53",
"K. c #544D54",
"L. c #46535A",
"P. c #555354",
"I. c #5A5758",
"U. c #4E5649",
"Y. c #644D44",
"T. c #645344",
"R. c #695444",
"E. c #64564A",
"W. c #695649",
"Q. c #66594D",
"!. c #6A5A4C",
"~. c #665C43",
"^. c #655A52",
"/. c #6A5D52",
"(. c #645958",
"). c #785449",
"_. c #596249",
"`. c #5C6357",
"'. c #686748",
"]. c #746C47",
"[. c #787747",
"{. c #696557",
"}. c #72675A",
"|. c #777857",
" X c #6B7347",
".X c #495968",
"XX c #585B65",
"oX c #4A506A",
"OX c #635C65",
"+X c #645F7A",
"@X c #566369",
"#X c #566775",
"$X c #4C6169",
"%X c #686769",
"&X c #756A67",
"*X c #777567",
"=X c #686972",
"-X c #797676",
";X c #6E716C",
":X c #854B39",
">X c #8A5130",
",X c #88592C",
"<X c #975945",
"1X c #885D4F",
"2X c #85794A",
"3X c #857C54",
"4X c #90684C",
"5X c #AC6E56",
"6X c #837975",
"7X c #91776B",
"8X c #AF7665",
"9X c #A35C47",
"0X c #C37B69",
"qX c #7D8352",
"wX c #7C8171",
"eX c #888555",
"rX c #958B5B",
"tX c #A78A5E",
"yX c #88896A",
"uX c #898778",
"iX c #968F6E",
"pX c #BC8B77",
"aX c #AC866D",
"sX c #C68C79",
"dX c #C89077",
"fX c #667888",
"gX c #71778B",
"hX c #5A6D81",
"jX c #877E85",
"kX c #768799",
"lX c #74828E",
"zX c #7B8BA5",
"xX c #7D94A5",
"cX c #8A8887",
"vX c #948986",
"bX c #959795",
"nX c #B6958D",
"mX c #A3A397",
"MX c #A9A78D",
"NX c #8796AF",
"BX c #A5A5A4",
"VX c #A8AEBA",
"CX c #C99889",
"ZX c #D4AD99",
"AX c #D0B2AB",
"SX c #E0ABA7",
"DX c #C7C7B5",
"FX c #E9C0BE",
"GX c #ACB1C6",
"HX c #D9BAC2",
"JX c #B6C5D8",
"KX c #BBCDE4",
"LX c #C4C7C6",
"PX c #D6CDDA",
"IX c #BFC6BE",
"UX c None",
/* pixels */
"UXUXUXUXUXUXUXUXUXUXUXUXUXUXUXUXUXUXUXUXUXUXUXUXUXUXUXUXUXUXUXUXUXUXUXUXUXUXUXUXUXUXUXUXUXUXUXUXUXUXUXUXUXUXUXUXUXUXUXUXUXUXUXUXUXUXUXUXUXUXUXUXUXUXUXUXUXUXUXUXUXUXUXUXUXUXUXUXUXUXUXUXUXUXUXUXUXUXUXUXUXUXUXUXUXUXUXUXUXUXUXUXUXUXUXUXUXUXUXUXUXUXUXUXUXUXUXUXUXUXUXUXUXUXUXUXUXUXUXUXUX",
"UXUXUXUXUXUXUXUXUXUXUXUXUXUXUXUXUXUXUXUXUXUXUXUXUXUXUXUXUXUXUXUXUXUXUXUXUXUXUXUXUXUXUXUXUXUXUXUXUXUXUXUXUXUXUXUXUXUXUXUXUXUXUXUXUXUXUXUXUXUXUXUXUXUXUXUXUXUXUXUXUXUXUXUXUXUXUXUXUXUXUXUXUXUXUXUXUXUXUXUXUXUXUXUXUXUXUXUXUXUXUXUXUXUXUXUXUXUXUXUXUXUXUXUXUXUXUXUXUXUXUXUXUXUXUXUXUXUXUXUXUX",
"UXUXUXUXUXUXUXUXUXUXUXUXUXUXUXUXUXUXUXUXUXUXUXUXUXUXUXUXUXUXUXUXUXUXUXUXUXUXUXUXUXUXUXUXUXUXUXUXUXUXUXUXUXUXUXUXUXUXUXUXUXUXUXUXUXUXUXUXUXUXUXUXUXUXUXUXUXUXUXUXUXUXUXUXUXUXUXUXUXUXUXUXUXUXUXUXUXUXUXUXUXUXUXUXUXUXUXUXUXUXUXUXUXUXUXUXUXUXUXUXUXUXUXUXUXUXUXUXUXUXUXUXUXUXUXUXUXUXUXUXUX",
"UXUXUXUXUXUXUXUXUXUXUXUXUXUXUXUXUXUXUXUXUXUXUXUXUXUXUXUXUXUXUXUXUXUXUXUXUXUXUXUXUXUXUXUXUXUXUXUXUXUXUXUXUXUXUXUXUXUXUXUXUXUXUXUXUXUXUXUXUXUXUXUXUXUXUXUXUXUXUXUXUXUXUXUXUXUXUXUXUXUXUXUXUXUXUXUXUXUXUXUXUXUXUXUXUXUXUXUXUXUXUXUXUXUXUXUXUXUXUXUXUXUXUXUXUXUXUXUXUXUXUXUXUXUXUXUXUXUXUXUXUX",
"UXUXUXUXUXUXUXUXUXUXUXUXUXUXUXUXUXUXUXUXUXUXUXUXUXUXUXUXUXUXUXUXUXUXUXUXUXUXUXUXUXUXUXUXUXUXUXUXUXUXUXUXUXUXUXUXUXUXUXUXUXUXUXUXUXUXUXUXUXUXUXUXUXUXUXUXUXUXUXUXUXUXUXUXUXUXUXUXUXUXUXUXUXUXUXUXUXUXUXUXUXUXUXUXUXUXUXUXUXUXUXUXUXUXUXUXUXUXUXUXUXUXUXUXUXUXUXUXUXUXUXUXUXUXUXUXUXUXUXUXUX",
"UXUXUXUXUXUXUXUXUXUXUXUXUXUXUXUXUXUXUXUXUXUXUXUXUXUXUXUXUXUXUXUXUXUXUXUXUXUXUXUXUXUXUXUXUXUXUXUXUXUXUXUXUXUXUXUXUXUXUXUXUXUXUXUXUXUXUXUXUXUXUXUXUXUXUXUXUXUXUXUXUXUXUXUXUXUXUXUXUXUXUXUXUXUXUXUXUXUXUXUXUXUXUXUXUXUXUXUXUXUXUXUXUXUXUXUXUXUXUXUXUXUXUXUXUXUXUXUXUXUXUXUXUXUXUXUXUXUXUXUXUX",
"UXUXUXUXUXUXUXUXUXUXUXUXUXUXUXUXUXUXUXUXUXUXUXUXUXUXUXUXUXUXUXUXUXUXUXUXUXUXUXUXUXUXUXUXUXUXUXUXUXUXUXUXUXUXUXUXUXUXUXUXUXUXUXUXUXUXUXUXUXUXUXUXUXUXUXUXUXUXUXUXUXUXUXUXUXUXUXUXUXUXUXUXUXUXUXUXUXUXUXUXUXUXUXUXUXUXUXUXUXUXUXUXUXUXUXUXUXUXUXUXUXUXUXUXUXUXUXUXUXUXUXUXUXUXUXUXUXUXUXUXUX",
"UXUXUXUXUXUXUXUXUXUXUXUXUXUXUXUXUXUXUXUXUXUXUXUXUXUXUXUXUXUXUXUXUXUXUXUXUXUXUXUXUXUXUXUXUXUXUXUXUXUXUXUXUXUXUXUXUXUXUXUXUXUXUXUXUXUXUXUXUXUXUXUXUXUXUXUXUXUXUXUXUXUXUXUXUXUXUXUXUXUXUXUXUXUXUXUXUXUXUXUXUXUXUXUXUXUXUXUXUXUXUXUXUXUXUXUXUXUXUXUXUXUXUXUXUXUXUXUXUXUXUXUXUXUXUXUXUXUXUXUXUX",
"UXUXUXUXUXUXUXUXUXUXUXUXUXUXUXUXUXUXUXUXUXUXUXUXUXUXUXUXUXUXUXUXUXUXUXUXUXUXUXUXUXUXUXUXUXUXUXUXUXUXUXUXUXUXUXUXUXUXUXUXUXUXUXUXUXUXUXUXUXUXUXUXUXUXUXUXUXUXUXUXUXUXUXUXUXUXUXUXUXUXUXUXUXUXUXUXUXUXUXUXUXUXUXUXUXUXUXUXUXUXUXUXUXUXUXUXUXUXUXUXUXUXUXUXUXUXUXUXUXUXUXUXUXUXUXUXUXUXUXUXUX",
"UXUXUXUXUXUXUXUXUXUXUXUXUXUXUXUXUXUXUXUXUXUXUXUXUXUXUXUXUXUXUXUXUXUXUXUXUXUXUXUXUXUXUXUXUXUXUXUXUXUXUXUXUXUXUXUXUXUXUXUXUXUXUXUXUXUXUXUXUXUXUXUXUXUXUXUXUXUXUXUXUXUXUXUXUXUXUXUXUXUXUXUXUXUXUXUXUXUXUXUXUXUXUXUXUXUXUXUXUXUXUXUXUXUXUXUXUXUXUXUXUXUXUXUXUXUXUXUXUXUXUXUXUXUXUXUXUXUXUXUXUX",
"UXUXUXUXUXUXUXUXUXUXUXUXUXUXUXUXUXUXUXUXUXUXUXUXUXUXUXUXUXUXUXUXUXUXUXUXUXUXUXUXUXUXUXUXUXUXUXUXUXUXUXUXUXUXUXUXUXUXUXUXUXUXUXUXUXUXUXUXUXUXUXUXUXUXUXUXUXUXUXUXUXUXUXUXUXUXUXUXUXUXUXUXUXUXUXUXUXUXUXUXUXUXUXUXUXUXUXUXUXUXUXUXUXUXUXUXUXUXUXUXUXUXUXUXUXUXUXUXUXUXUXUXUXUXUXUXUXUXUXUXUX",
"UXUXUXUXUXUXUXUXUXUXUXUXUXUXUXUXUXUXUXUXUXUXUXUXUXUXUXUXUXUXUXUXUXUXUXUXUXUXUXUXUXUXUXUXUXUXUXUXUXUXUXUXUXUXUXUXUXUXUXUXUXUXUXUXUXUXUXUXUXUXUXUXUXUXUXUXUXUXUXUXUXUXUXUXUXUXUXUXUXUXUXUXUXUXUXUXUXUXUXUXUXUXUXUXUXUXUXUXUXUXUXUXUXUXUXUXUXUXUXUXUXUXUXUXUXUXUXUXUXUXUXUXUXUXUXUXUXUXUXUXUX",
"UXUXUXUXUXUXUXUXUXUXUXUXUXUXUXUXUXUXUXUXUXUXUXUXUXUXUXUXUXUXUXUXUXUXUXUXUXUXUXUXUXUXUXUXUXUXUXUXUXUXUXUXUXUXUXUXUXUXUXUXUXUXUXUXUXUXUXUXUXUXUXUXUXUXUXUXUXUXUXUXUXUXUXUXUXUXUXUXUXUXUXUXUXUXUXUXUXUXUXUXUXUXUXUXUXUXUXUXUXUXUXUXUXUXUXUXUXUXUXUXUXUXUXUXUXUXUXUXUXUXUXUXUXUXUXUXUXUXUXUXUX",
"UXUXUXUXUXUXUXUXUXUXUXUXUXUXUXUXUXUXUXUXUXUXUXUXUXUXUXUXUXUXUXUXUXUXUXUXUXUXUXUXUXUXUXUXUXUXUXUXUXUXUXUXUXUXUXUXUXUXUXUXUXUXUXUXUXUXUXUXUXUXUXUXUXUXUXUXUXUXUXUXUXUXUXUXUXUXUXUXUXUXUXUXUXUXUXUXUXUXUXUXUXUXUXUXUXUXUXUXUXUXUXUXUXUXUXUXUXUXUXUXUXUXUXUXUXUXUXUXUXUXUXUXUXUXUXUXUXUXUXUXUX",
"UXUXUXUXUXUXUXUXUXUXUXUXUXUXUXUXUXUXUXUXUXUXUXUXUXUXUXUXUXUXUXUXUXUXUXUXUXUXUXUXUXUXUXUXUXUXUXUXUXUXUXUXUXUXUXUXUXUXUXUXUXUXUXUXUXUXUXUXUXUXUXUXUXUXUXUXUXUXUXUXUXUXUXUXUXUXUXUXUXUXUXUXUXUXUXUXUXUXUXUXUXUXUXUXUXUXUXUXUXUXUXUXUXUXUXUXUXUXUXUXUXUXUXUXUXUXUXUXUXUXUXUXUXUXUXUXUXUXUXUXUX",
"UXUXUXUXUXUXUXUXUXUXUXUXUXUXUXUXUXUXUXUXUXUXUXUXUXUXUXUXUXUXUXUXUXUXUXUXUXUXUXUXUXUXUXUXUXUXUXUXUXUXUXUXUXUXUXUXUXUXUXUXUXUXUXUXUXUXUXUXUXUXUXUXUXUXUXUXUXUXUXUXUXUXUXUXUXUXUXUXUXUXUXUXUXUXUXUXUXUXUXUXUXUXUXUXUXUXUXUXUXUXUXUXUXUXUXUXUXUXUXUXUXUXUXUXUXUXUXUXUXUXUXUXUXUXUXUXUXUXUXUXUX",
"UXUXUXUXUXUXUXUXUXUXUXUXUXUXUXUXUXUXUXUXUXUXUXUXUXUXUXUXUXUXUXUXUXUXUXUXUXUXUXc.c.N.XXgXVXUXUXUXUXUXUXUXUXUXUXUXUXUXUXUXUXUXUXUXUXUXUXUXUXUXUXUXUXUXUXUXUXUXUXUXUXUXUXUXUXUXUXUXUXUXUXUXUXUXUXUXUXUXUXUXUXUXUXUXUXUXUXUXUXUXUXUXUXUXUXUXUXUXUXUXUXUXUXUXUXUXUXUXUXUXUXUXUXUXUXUXUXUXUXUXUX",
"UXUXUXUXUXUXUXUXUXUXUXUXUXUXUXUXUXUXUXUXUXUXUXUXUXUXUXUXUXUXUXUXUXUXUXUXUXUXI x > G x k..XGXUXUXUXUXUXUXUXUXUXUXUXUXUXUXUXUXUXUXUXUXUXUXUXUXUXUXUXUXUXUXUXUXUXUXUXUXUXUXUXUXUXUXUXUXUXUXUXUXUXUXUXUXUXUXUXUXUXUXUXUXUXUXUXUXUXUXUXUXUXUXUXUXUXUXUXUXUXUXUXUXUXUXUXUXUXUXUXUXUXUXUXUXUXUXUX",
"UXUXUXUXUXUXUXUXUXUXUXUXUXUXUXUXUXUXUXUXUXUXUXUXUXUXUXUXUXUXUXUXUXUXUXUXUXUXR L R B L E #XlXUXUXUXUXUXUXUXUXUXUXUXUXUXUXUXUXUXUXUXUXUXUXUXUXUXUXUXUXUXUXUXUXUXUXUXUXUXUXUXUXUXUXUXUXUXUXUXUXUXUXUXUXUXUXUXUXUXUXUXUXUXUXUXUXUXUXUXUXUXUXUXUXUXUXUXUXUXUXUXUXUXUXUXUXUXUXUXUXUXUXUXUXUXUXUX",
"UXUXUXUXUXUXUXUXUXUXUXUXUXUXUXUXUXUXUXUXUXUXUXUXUXUXUXUXUXUXUXUXUXUXUXUXUXUXR m.B B G J.M.@XlXfXVXUXUXUXUXUXUXUXUXUXUXUXUXUXUXUXUXUXUXUXUXUXUXUXUXUXUXUXUXUXUXUXUXUXUXUXUXUXUXUXUXUXUXUXUXUXUXUXUXUXUXUXUXUXUXUXUXUXUXUXUXUXUXUXUXUXUXUXUXUXUXUXUXUXUXUXUXUXUXUXUXUXUXUXUXUXUXUXUXUXUXUXUX",
"UXUXUXUXUXUXUXUXUXUXUXUXUXUXUXUXUXUXUXUXUXUXUXUXc.R x.l.l.c.l.c.N.v v L g B x.^ B z x x E B z B M.lXXX#XXX=XkXNXJXKXKXUXUXUXUXUXUXUXUXUXUXUXUXUXUXUXUXUXUXUXUXUXUXUXUXUXUXUXUXUXUXUXUXUXUXUXUXUXUXUXUXUXUXUXUXUXUXUXUXUXUXUXUXUXUXUXUXUXUXUXUXUXUXUXUXUXUXUXUXUXUXUXUXUXUXUXUXUXUXUXUXUXUX",
"UXUXUXUXUXUXUXUXUXUXUXUXUXUXUXUXUXUXUXUXUXUXN.k.B r B B L L L x.L L d x d x L x.X   > , , E T c z x T M 6 6 b E B.B.lXJXUXUXUXUXUXUXUXUXUXUXUXUXUXUXUXUXUXUXUXUXUXUXUXUXUXUXUXUXUXUXUXUXUXUXUXUXUXUXUXUXUXUXUXUXUXUXUXUXUXUXUXUXUXUXUXUXUXUXUXUXUXUXUXUXUXUXUXUXUXUXUXUXUXUXUXUXUXUXUXUXUX",
"UXUXUXUXUXUXUXUXUXUXUXUXUXUXUXUXUXUXUXUXUXc.l.L T T T M b C C C P L T z E x R 6   o X # , g E B x z t D A ( %.( ( ^ ^ L.kXJXUXUXUXUXUXUXUXUXUXUXUXUXUXUXUXUXUXUXUXUXUXUXUXUXUXUXUXUXUXUXUXUXUXUXUXUXUXUXUXUXUXUXUXUXUXUXUXUXUXUXUXUXUXUXUXUXUXUXUXUXUXUXUXUXUXUXUXUXUXUXUXUXUXUXUXUXUXUXUX",
"UXUXUXUXUXUXUXUXUXUXUXUXUXUXUXUXUXUXUXUXc.c.R ^ T ( <.I.*XwX|.H.D.W C B E L R , X $   > x v L x C m 6.{.*X}.7X}.{.6.( ^ L.lXPXUXUXUXUXUXUXUXUXUXUXUXUXUXUXUXUXUXUXUXUXUXUXUXUXUXUXUXUXUXUXUXUXUXUXUXUXUXUXUXUXUXUXUXUXUXUXUXUXUXUXUXUXUXUXUXUXUXUXUXUXUXUXUXUXUXUXUXUXUXUXUXUXUXUXUXUXUXUX",
"UXUXUXUXUXUXUXUXUXUXUXUXUXUXUXUXUXUXUXl.M.J.D.m.D.U.|.yXqXiXyXiXuXBXH.m W T R d 6 6 < z I L b C 1.|.iXyXiXiXiXMXMXmXcXP.M.@XlXJXUXUXUXUXUXUXUXUXUXUXUXUXUXUXUXUXUXUXUXUXUXUXUXUXUXUXUXUXUXUXUXUXUXUXUXUXUXUXUXUXUXUXUXUXUXUXUXUXUXUXUXUXUXUXUXUXUXUXUXUXUXUXUXUXUXUXUXUXUXUXUXUXUXUXUXUXUX",
"UXUXUXUXUXUXUXUXUXUXUXUXUXUXUXUXUXUXc.M.M.C.C.P.{.{.|. X|.g.h.|.}.bXDXmXH V I I I x M I L z H 6.|.eX|.].[.3X3XeX].iXmXDX;XL.N.zXKXUXUXUXUXUXUXUXUXUXUXUXUXUXUXUXUXUXUXUXUXUXUXUXUXUXUXUXUXUXUXUXUXUXUXUXUXUXUXUXUXUXUXUXUXUXUXUXUXUXUXUXUXUXUXUXUXUXUXUXUXUXUXUXUXUXUXUXUXUXUXUXUXUXUXUXUX",
"UXUXUXUXUXUXUXUXUXUXUXUXUXUXUXUXUX.XoXN.J.L.U.%X{.{.'.|.'.'.[.'.'. XyXDXMX<.V x.R L R I B m H.|.[.[.[.h.h. X[.h.h.g.iXDXIX-XN.oXKXKXUXUXUXUXUXUXUXUXUXUXUXUXUXUXUXUXUXUXUXUXUXUXUXUXUXUXUXUXUXUXUXUXUXUXUXUXUXUXUXUXUXUXUXUXUXUXUXUXUXUXUXUXUXUXUXUXUXUXUXUXUXUXUXUXUXUXUXUXUXUXUXUXUXUXUX",
"UXUXUXUXUXUXUXUXUXUXUXUXUXUXUXUXUX#XN.c.J.J.%X`._.'.'.'.|.].].g.'.|. X[.iXMXH T I I l.R H e.'.h.h.[.h.g.4.g.h.h.[.qX|.|.DXLX=Xx..XJXUXUXUXUXUXUXUXUXUXUXUXUXUXUXUXUXUXUXUXUXUXUXUXUXUXUXUXUXUXUXUXUXUXUXUXUXUXUXUXUXUXUXUXUXUXUXUXUXUXUXUXUXUXUXUXUXUXUXUXUXUXUXUXUXUXUXUXUXUXUXUXUXUXUXUX",
"UXUXUXUXUXUXUXUXUXUXUXUXUXUXUXUXNX.Xk.k.A.%X`.{.'.'.'.'.3X].[.].].].g. XqXMX;XC I I R V K '. X4.g.h.g.h.2X3XrXrXeXh. X XiXDXmX`.J.JXKXUXUXUXUXUXUXUXUXUXUXUXUXUXUXUXUXUXUXUXUXUXUXUXUXUXUXUXUXUXUXUXUXUXUXUXUXUXUXUXUXUXUXUXUXUXUXUXUXUXUXUXUXUXUXUXUXUXUXUXUXUXUXUXUXUXUXUXUXUXUXUXUXUXUX",
"UXUXUXUXUXUXUXUXUXUXUXUXUXUXUXUXgXL.L m.U.U.{.'.'.'.'.[.[.rXrX2X[.g.]. X4.|.uX%X^ I I b 1.'.g.g.[.[.h.2XrXrXtXtXiXeX[.[.yXyXMXuXD.fXJXUXUXUXUXUXUXUXUXUXUXUXUXUXUXUXUXUXUXUXUXUXUXUXUXUXUXUXUXUXUXUXUXUXUXUXUXUXUXUXUXUXUXUXUXUXUXUXUXUXUXUXUXUXUXUXUXUXUXUXUXUXUXUXUXUXUXUXUXUXUXUXUXUXUX",
"UXUXUXUXUXUXUXUXUXUXUXUXUXUXUXUXfXc.M.D._._.'.'.'.].'.].rXeX2Xh.2X[.[.w.[. XyX;X/ M V m H.'.w.g.g.h.[.tXtX4X4X4X2XrXeXeX].eXMXMXm.L.JXUXUXUXUXUXUXUXUXUXUXUXUXUXUXUXUXUXUXUXUXUXUXUXUXUXUXUXUXUXUXUXUXUXUXUXUXUXUXUXUXUXUXUXUXUXUXUXUXUXUXUXUXUXUXUXUXUXUXUXUXUXUXUXUXUXUXUXUXUXUXUXUXUXUX",
"UXUXUXUXUXUXUXUXUXUXUXUXUXUXUXUXhXc.R U.H.'.'.'.'.'.~.iX3Xf.f.h.y.2Xg.'.g.w.*XcXC.M b 3 '.'.].eX|.[.3XtX4X,X,X,X4XtX2XrX|.3X3XuX`.M.NXUXUXUXUXUXUXUXUXUXUXUXUXUXUXUXUXUXUXUXUXUXUXUXUXUXUXUXUXUXUXUXUXUXUXUXUXUXUXUXUXUXUXUXUXUXUXUXUXUXUXUXUXUXUXUXUXUXUXUXUXUXUXUXUXUXUXUXUXUXUXUXUXUXUX",
"UXUXUXUXUXUXUXUXUXUXUXUXUXUXUXNXoXl.! P.I.H.H.'.'.'.}.].f.f.f.f.h.[.g.g.].'.{.-XC.M b m Q.'.g.g. X[.2XtX>X>X>X>X,X4XeXh.2X[.[.iX@XB.kXUXUXUXUXUXUXUXUXUXUXUXUXUXUXUXUXUXUXUXUXUXUXUXUXUXUXUXUXUXUXUXUXUXUXUXUXUXUXUXUXUXUXUXUXUXUXUXUXUXUXUXUXUXUXUXUXUXUXUXUXUXUXUXUXUXUXUXUXUXUXUXUXUXUX",
"UXUXUXUXUXUXUXUXUXUXUXUXUXUXUXkXoXI P P.I.H.'.|.'.}.'.+.1X<Xt.,Xy.rXg.h.g.'.{.;XC.P 7 t H. Xh.[.[.[.3X5X] >X>X>X,Xf.2X[.h.3X].MXI.M.gXUXUXUXUXUXUXUXUXUXUXUXUXUXUXUXUXUXUXUXUXUXUXUXUXUXUXUXUXUXUXUXUXUXUXUXUXUXUXUXUXUXUXUXUXUXUXUXUXUXUXUXUXUXUXUXUXUXUXUXUXUXUXUXUXUXUXUXUXUXUXUXUXUXUX",
"UXUXUXUXUXUXUXUXUXUXUXUXUXUXUXkXN.L B C.*X'.w.H.'.'.~.].' f.,X' y.eX[.g.d.'.{.;XC.z b C H.|.d.g.h.qXeX2Xt.] ' ' f.].[. X|.|.|.*XL.k.#XUXUXUXUXUXUXUXUXUXUXUXUXUXUXUXUXUXUXUXUXUXUXUXUXUXUXUXUXUXUXUXUXUXUXUXUXUXUXUXUXUXUXUXUXUXUXUXUXUXUXUXUXUXUXUXUXUXUXUXUXUXUXUXUXUXUXUXUXUXUXUXUXUXUX",
"UXUXUXUXUXUXUXUXUXUXUXUXUXUXUXlXB.L T ( *X'.w.'.|.|.'.3X].3.y.h.rXh.[.4.g. X'.{.W T T 3 6.uXg.g.4.h.[.eXtXrX2X[.[.[.eX[.g._.'.*XM.k..XUXUXUXUXUXUXUXUXUXUXUXUXUXUXUXUXUXUXUXUXUXUXUXUXUXUXUXUXUXUXUXUXUXUXUXUXUXUXUXUXUXUXUXUXUXUXUXUXUXUXUXUXUXUXUXUXUXUXUXUXUXUXUXUXUXUXUXUXUXUXUXUXUXUX",
"UXUXUXUXUXUXUXUXUXUXUXUXUXUXNXfXL.E z t 6XuXd.d.w.].[.g.[.eXrXrXeX[.g.g.w.w.{.U.W T b t 3 uXyX4.y.h.2X[.[.eXrXeXeX[.[.[. X'.'._.^ l..XUXUXUXUXUXUXUXUXUXUXUXUXUXUXUXUXUXUXUXUXUXUXUXUXUXUXUXUXUXUXUXUXUXUXUXUXUXUXUXUXUXUXUXUXUXUXUXUXUXUXUXUXUXUXUXUXUXUXUXUXUXUXUXUXUXUXUXUXUXUXUXUXUXUX",
"UXUXUXUXUXUXUXUXUXUXUXUXUXUXzXfXM.M.G z G.uX}.w.g.g.g.g.[.eXqX].g.[.h.g.w.w.}.6.T B z V < ( 6X'.y.y.y.4.[.qXqX[.h.eX[.4.].'.*X6.T k..XUXUXUXUXUXUXUXUXUXUXUXUXUXUXUXUXUXUXUXUXUXUXUXUXUXUXUXUXUXUXUXUXUXUXUXUXUXUXUXUXUXUXUXUXUXUXUXUXUXUXUXUXUXUXUXUXUXUXUXUXUXUXUXUXUXUXUXUXUXUXUXUXUXUX",
"UXUXUXUXUXUXUXUXUXUXUXUXUXUXgX#XV.E R B 5 {.uX'.w.4.4.4.h. XqXg.g.d.g.w. X{.H.m z R E z m . 6.yXd.d.4.4.[.h.g.h.y.y.y.d.].*X6.G G k..XUXUXUXUXUXUXUXUXUXUXUXUXUXUXUXUXUXUXUXUXUXUXUXUXUXUXUXUXUXUXUXUXUXUXUXUXUXUXUXUXUXUXUXUXUXUXUXUXUXUXUXUXUXUXUXUXUXUXUXUXUXUXUXUXUXUXUXUXUXUXUXUXUXUX",
"UXUXUXUXUXUXUXUXUXUXUXUXUXNXkX#XB.x.k.L M b {.yX'.4.g.h.4.4.4.'.'.'.w.'.{.{.m b L x L L B C # K *X}.'.w.w.4.y.4.y.y.d.'.{.U.m T T k.UXUXUXUXUXUXUXUXUXUXUXUXUXUXUXUXUXUXUXUXUXUXUXUXUXUXUXUXUXUXUXUXUXUXUXUXUXUXUXUXUXUXUXUXUXUXUXUXUXUXUXUXUXUXUXUXUXUXUXUXUXUXUXUXUXUXUXUXUXUXUXUXUXUXUX",
"UXUXUXUXUXUXUXUXUXUXUXUXUXkXkX.XM.L R L R b 7 H.*X|.g.'.w.w.H.H._.w._.{.H.( b M R L l.l.L B B 6 m C.;X{.{.H.~.w.'.].}.H.&.B L R B L.UXUXUXUXUXUXUXUXUXUXUXUXUXUXUXUXUXUXUXUXUXUXUXUXUXUXUXUXUXUXUXUXUXUXUXUXUXUXUXUXUXUXUXUXUXUXUXUXUXUXUXUXUXUXUXUXUXUXUXUXUXUXUXUXUXUXUXUXUXUXUXUXUXUXUX",
"UXUXUXUXUXUXUXUXUXUXUXUXUXkXfX.XM.v L L M B z 2 K {.|.'.H.H.G.G.U.H.H.6.m b T m.N.N.J.l.L M P M 6 L D.-X;X*X{.Q.H.H.G.C.A.A.N.x.J.UXUXUXUXUXUXUXUXUXUXUXUXUXUXUXUXUXUXUXUXUXUXUXUXUXUXUXUXUXUXUXUXUXUXUXUXUXUXUXUXUXUXUXUXUXUXUXUXUXUXUXUXUXUXUXUXUXUXUXUXUXUXUXUXUXUXUXUXUXUXUXUXUXUXUXUX",
"UXUXUXUXUXUXUXUXUXUXUXUXUXkXhX.Xk.B d 6 d x B r r 2 K G.&X&XOXK.D.D.D.C.D.I.XXXX=XXXXXXXL.x.E x T A.I.I.I.I.%XD.N 7 1 z V ^ M.L.=XUXUXUXUXUXUXUXUXUXUXUXUXUXUXUXUXUXUXUXUXUXUXUXUXUXUXUXUXUXUXUXUXUXUXUXUXUXUXUXUXUXUXUXUXUXUXUXUXUXUXUXUXUXUXUXUXUXUXUXUXUXUXUXUXUXUXUXUXUXUXUXUXUXUXUXUX",
"UXUXUXUXUXUXUXUXUXUXUXUXzXkX$XV.E V z d z 6 6 z b 7 D v.b.b.b.Y V B V T ~ z.v.J.XXXXL.L.J.J.A.D.U.U.D.P.D.S.J.^ 7 = = > > = ; j P J.gXUXUXUXUXUXUXUXUXUXUXUXUXUXUXUXUXUXUXUXUXUXUXUXUXUXUXUXUXUXUXUXUXUXUXUXUXUXUXUXUXUXUXUXUXUXUXUXUXUXUXUXUXUXUXUXUXUXUXUXUXUXUXUXUXUXUXUXUXUXUXUXUXUXUX",
"UXUXUXUXUXUXUXUXUXUXUXUXzXlX.XV.M.B c , = 4 4 6 M P.K.S.v.Y N k j M V j 5 4 j z.J.=X%X=X@X-X%XP.H.e.K %.6.D.I.J.5 = < X X 1 < ; < 5 x.+XUXUXUXUXUXUXUXUXUXUXUXUXUXUXUXUXUXUXUXUXUXUXUXUXUXUXUXUXUXUXUXUXUXUXUXUXUXUXUXUXUXUXUXUXUXUXUXUXUXUXUXUXUXUXUXUXUXUXUXUXUXUXUXUXUXUXUXUXUXUXUXUXUX",
"UXUXUXUXUXUXUXUXUXUXUXUXkXfX.XB.E c z z d 4 = V I.OXz.! P N N g M M M j j j 7 M I.cXcXbX-X%XG.Z.{.|.}.G.G.G.OXK.M < < X X < < < 0 b N A.=XgXUXUXUXUXUXUXUXUXUXUXUXUXUXUXUXUXUXUXUXUXUXUXUXUXUXUXUXUXUXUXUXUXUXUXUXUXUXUXUXUXUXUXUXUXUXUXUXUXUXUXUXUXUXUXUXUXUXUXUXUXUXUXUXUXUXUXUXUXUXUXUX",
"UXUXUXUXUXUXUXUXUXUXUXUXkXfXV.M.k.R x d d 4 P OXI.K.S.C.! W ^ B M V N k k k 5 b P.%XP.D.H t %.&XH.e.e.H.H.D D K.N X ; 4 ; ; X < 1 1 P OXH.%XUXUXUXUXUXUXUXUXUXUXUXUXUXUXUXUXUXUXUXUXUXUXUXUXUXUXUXUXUXUXUXUXUXUXUXUXUXUXUXUXUXUXUXUXUXUXUXUXUXUXUXUXUXUXUXUXUXUXUXUXUXUXUXUXUXUXUXUXUXUXUX",
"UXUXUXUXUXUXUXUXUXUXUXkXkX#XB.M.L v x M 4 M OX-X=XI.C./ A.W C T M V P N U n 0 D Z.&.+   & t H.uXuXK H.uXDX6.0 V / 5 4 : ; 4 < 4 < 0 U K.uX-XgXUXUXUXUXUXUXUXUXUXUXUXUXUXUXUXUXUXUXUXUXUXUXUXUXUXUXUXUXUXUXUXUXUXUXUXUXUXUXUXUXUXUXUXUXUXUXUXUXUXUXUXUXUXUXUXUXUXUXUXUXUXUXUXUXUXUXUXUXUXUX",
"UXUXUXUXUXUXUXUXUXUXUXfXkX#XB.M.L L I g z %XcXcX-X(.K.K.v.~ ! P P N k N ~ W j ~ %X~ % 1 ~ 0 3 I.vXmXDXLX;XD n n C.N : 5 5 1 j 7 f M N K.cXmXcXjXUXUXUXUXUXUXUXUXUXUXUXUXUXUXUXUXUXUXUXUXUXUXUXUXUXUXUXUXUXUXUXUXUXUXUXUXUXUXUXUXUXUXUXUXUXUXUXUXUXUXUXUXUXUXUXUXUXUXUXUXUXUXUXUXUXUXUXUXUX",
"UXUXUXUXUXUXUXUXUXUXUXxXfX.XB.^ R L d > z.cXBXBXcX%XP.S.v.~ ~ Y U N N U n Y b C.cX&.1 0 / N X 1 W I.P.( 3 3 N W S.K.; : k N b 7 b M ~ K.%XBXBX-XUXUXUXUXUXUXUXUXUXUXUXUXUXUXUXUXUXUXUXUXUXUXUXUXUXUXUXUXUXUXUXUXUXUXUXUXUXUXUXUXUXUXUXUXUXUXUXUXUXUXUXUXUXUXUXUXUXUXUXUXUXUXUXUXUXUXUXUXUX",
"UXUXUXUXUXUXUXUXUXUXUXkXfXN.k.E L R d z =XbXIXLXcX%XK.K.v.S.Y V Y U U Y U / N OX6XD < 0 U N 7 < ; 3 < 1 0 < n K.K.=XP 4 j b 7 C V V ~ v.J.gXcXwXuXUXUXUXUXUXUXUXUXUXUXUXUXUXUXUXUXUXUXUXUXUXUXUXUXUXUXUXUXUXUXUXUXUXUXUXUXUXUXUXUXUXUXUXUXUXUXUXUXUXUXUXUXUXUXUXUXUXUXUXUXUXUXUXUXUXUXUXUX",
"UXUXUXUXUXUXUXUXUXUXUXkX#XN.M.B x B d z.-XlXBXBX-X%X%XI.K.K.v.~ U ! U ~ v.~ U -X%XN 7 j j j b V ; 1 j 1 5 j ~ ~ V I.OXP j V N N ( G.Z.~ b.XX%X*X-XUXUXUXUXUXUXUXUXUXUXUXUXUXUXUXUXUXUXUXUXUXUXUXUXUXUXUXUXUXUXUXUXUXUXUXUXUXUXUXUXUXUXUXUXUXUXUXUXUXUXUXUXUXUXUXUXUXUXUXUXUXUXUXUXUXUXUXUX",
"UXUXUXUXUXUXUXUXUXUXzXlX.Xk.^ L B B z I.gX-XgX-X=XOX=XXX%XXXP.C./ z.v.v.A.z.K.-XI.M k N k 5 j U ~ j k N N k ~ A.! J.=XP.C.W / P.%X%XI.I.P.(.I.{.=XUXUXUXUXUXUXUXUXUXUXUXUXUXUXUXUXUXUXUXUXUXUXUXUXUXUXUXUXUXUXUXUXUXUXUXUXUXUXUXUXUXUXUXUXUXUXUXUXUXUXUXUXUXUXUXUXUXUXUXUXUXUXUXUXUXUXUXUX",
"UXUXUXUXUXUXUXUXUXUXNXfX.Xk.L L z d M I.%X=X=XXXXXOX%X-XgX-XXXK.P.C.A.S.S.K.%XXX~ f j N N j b W Y U U N V U ! ~ A.b.x.S.K.C.K.-XvX-XOXOXK.Z.D.K.OXUXUXUXUXUXUXUXUXUXUXUXUXUXUXUXUXUXUXUXUXUXUXUXUXUXUXUXUXUXUXUXUXUXUXUXUXUXUXUXUXUXUXUXUXUXUXUXUXUXUXUXUXUXUXUXUXUXUXUXUXUXUXUXUXUXUXUXUX",
"UXUXUXUXUXUXUXUXUXUXNXfXL.k.R z z 6 ! @XXX%XOXOXJ.%X-XBXbXcX-X;X-X%X=X=X%X%X%XS.N 5 N V M j N W Y b.~ N U ~ ! z.z.b.! W P.;X-XcXmXmX6X&XP.K.J.J.I.-XUXUXUXUXUX1X1X1X1X1X8XUXUXUXUXUXUXUXUXUXUXUXUXUXUXUXUXUXUXUXUXUXUXUXUXUXUXUXUXUXUXUXUXUXUXUXUXUXUXUXUXUXUXUXUXUXUXUXUXUXUXUXUXUXUXUXUX",
"UXUXUXUXUXUXUXUXUXUXkX#XL.k.L L M 4 ! I.I.P.S.I.I.I.-XBXLXmXcX-XcXcXcXcX-XOX~ U k : P U P P W W N Y ~ ~ U ~ ! b.J.! z.j C.%X-XvXmXvX*X&XI.S.v.! / =XUXUXUXUX).t.:.t.] t.:X<X>X5X8XUXUXUXUXUXUXUXUXUXUXUXUXUXUXUXUXUXUXUXUXUXUXUXUXUXUXUXUXUXUXUXUXUXUXUXUXUXUXUXUXUXUXUXUXUXUXUXUXUXUXUXUX",
"UXUXUXUXUXUXUXUXUXUXzX#XB.x.L x z b ! D.A.A.A.K.K.OX-XBXBXBXmXcXbXBXcX-XK.~ N j 0 N U M U ~ P W V P ~ v.W ~ v.v.A.M Y D %.&.Y.F.I.uX&X(.K.&.W T W gXUXUXUXUX;.$.:._ >.>.:Xs.:X<X8X5XCXUXUXUXUXUXUXUXUXUXUXUXUXUXUXUXUXUXUXUXUXUXUXUXUXUXUXUXUXUXUXUXUXUXUXUXUXUXUXUXUXUXUXUXUXUXUXUXUXUXUX",
"UXUXUXUXUXUXUXUXUXUXhX@X^ E R L d 7 T C.z.~ ~ ~ S.P.OX6XcXcXmXmXLXmXI.&.Q Y n U v.k 0 N W ~ / P V V P ~ v.~ z.A.A.b N %.G.Y.Y.9.G.G.&XY.9.5.A V ! =XUXUXUXUXF $.$.| :.$.>.s.s.:X<X<X8X9XdXCXUXUXUXUXUXUXUXUXUXUXUXUXUXUXUXUXUXUXUXUXUXUXUXUXUXUXUXUXUXUXUXUXUXUXUXUXUXUXUXUXUXUXUXUXUXUXUX",
"UXUXUXUXUXUXUXUXUXzXfXL.1.G L g d 6 B ^ W P W ~ / &.P.I.%X-XcXmXLX-X&.H &.Z.G.I.I.Y 9 N U P ! M B V N W v.v.z.K.C.N b Z.^.=.7X7XY./.).-.p o.i Z ;.OXUXUXUXUXUX) | _ ) +.#.] :.:X:Xs.s.9XpXpXCXAXUXUXUXUXUXUXUXUXUXUXUXUXUXUXUXUXUXUXUXUXUXUXUXUXUXUXUXUXUXUXUXUXUXUXUXUXUXUXUXUXUXUXUXUXUX",
"UXUXUXUXUXUXUXUXUXNXlXM.1.G x g z d b W b 0 n n D &.%.Z.I.(.vXmXcXP.Z.G./.H.5.G.G.&.n 5 b W ~ P b M M n W v.S.A.C.N 7 (.6X).a.).).1X1X4XaX7X8 w [ 6XUXUXUXUXUXu.| | {  .' t.t.s.s.s.s.5XdXsXSXFXFXUXUXUXUXUXUXUXUXUXUXUXUXUXUXUXUXUXUXUXUXUXUXUXUXUXUXUXUXUXUXUXUXUXUXUXUXUXUXUXUXUXUXUXUX",
"UXUXUXUXUXUXUXUXUXkXfXM.E c x x d d b / b 7 3 3 q 9 F Z &.D.I.6X-X&.H.^.9.5.F.9.9.G.%.1 9 / z.W M M M k U v.J.C.S.b Q 6X-.8.| :.$.:.:Xf.t.4X4X1X8X8XUXUXUXUXUXUXUX-.#.$.:.' :.s.>.s.f.5X5XdXdXZXZXAXUXUXUXUXUXUXUXUXUXUXUXUXUXUXUXUXUXUXUXUXUXUXUXUXUXUXUXUXUXUXUXUXUXUXUXUXUXUXUXUXUXUXUX",
"UXUXUXUXUXUXUXUXUXzX#XB.E c x g d d f W V 0 9 9 9 y y A Q Q Z.P.(.G././.E.F.q.7.F.9.F.F 1 V z.~ P M N U N Y S.S.z.b Y &X*.@.>.:.$.$.' t.] ] f.:X>X8XaXpXZXpXUXUXUXUXUXUXY.:.| :.>.:.:X<X5X5XpXZXZXDXHXUXUXUXUXUXUXUXUXUXUXUXUXUXUXUXUXUXUXUXUXUXUXUXUXUXUXUXUXUXUXUXUXUXUXUXUXUXUXUXUXUXUX",
"UXUXUXUXUXUXUXUXUXkX.XM.E G g d g d 6 b V 1 & * 9 * 9 9 q D D D.^.H.{.!.T.Y.p.7.=.X.F.5.0 0 ~ v.U N N U l k U v.A.j n ^.} X._ _ O.` $.$.| ).:.:.9X5XsXdXpXZXUXUXUXUXUXUXUXn.| :.>.>.>.<X<X5XCXZXZXZXAXUXUXUXUXUXUXUXUXUXUXUXUXUXUXUXUXUXUXUXUXUXUXUXUXUXUXUXUXUXUXUXUXUXUXUXUXUXUXUXUXUXUX",
"UXUXUXUXUXUXUXUXNXfX.XM.G c g h d 4 5 t &.3 9 & * * & q q y n Q G.^.{.Q.!.R.q.0.@.7.7.9.J 0 N ! ~ P k k Y U N Y W U 3 I.6X} { { ) ` $.| -.| $.s.<X5X8XsXpXCXZXnXUXUXUXUXUXUXUX| | s.:.:X4X1X1X{ { -.E.b.UXUXUXUXUXUXUXUXUXUXUXUXUXUXUXUXUXUXUXUXUXUXUXUXUXUXUXUXUXUXUXUXUXUXUXUXUXUXUXUXUX",
"UXUXUXUXUXUXUXUXxXfXV.k.L L x g d f < 9 A y 3 & @ @ O & * 3 q F 5.Q.&X{.Q.E.T.q.@.@.7.=.%.Z 0 W z.V j N P N Y N N N 7 v.6XZ.G.S [ { { | $._ :.:.<X>X8X5XdXsXpXZXnXUXUXUXUXUXUXUXn.$._ a.{ w y 3 n J b.v.&.(.7XnXCXUXUXUXUXUXUXUXUXUXUXUXUXUXUXUXUXUXUXUXUXUXUXUXUXUXUXUXUXUXUXUXUXUXUXUXUX",
"UXUXUXUXUXUXUXUXkXfX.XM.E v x d d 5 3 & J 9.t + O O O * * 3 & 9 5.F.}.}.}.E.T.T.i.8.8.=.7.%.n n ~ W V M N N V N k N m &.(.Z.OXjX*.{ { $.,.$._ :.s.<X5X8X5XsXnXAXZXnXUXUXUXUXUXUXUX-.u. .8 + 6 z b U ~ v.Y -.$.8X5X5XdXsXUXUXUXUXUXUXUXUXUXUXUXUXUXUXUXUXUXUXUXUXUXUXUXUXUXUXUXUXUXUXUXUXUX",
"UXUXUXUXUXUXUXUXzXfXN.k.L L x d d 6 1 3 G.(.m % O + * . . . . q 5.H.{.}.}./.E.R.p.8.8.=.9.9.J n Y / ~ N N V k N 5 5 0 b Y v.S.&X6XuX=.{ ) { O._ ] s.:X<X1X).{ X.} -.&.V UXUXUXUXUX;.-.w e 3 < > 6 B R A.z.%.w 1X<X5XsXdXSXHXUXUXUXUXUXUXUXUXUXUXUXUXUXUXUXUXUXUXUXUXUXUXUXUXUXUXUXUXUXUXUX",
"UXUXUXUXUXUXUXUXzX#XN.l.L L x d d z X D {.U.W t o O & O . *   q 5.F././.&X{.W.R.p.q.u.q.=.9.*.J m W ~ N j k f M N j V b N v.C.(.-X6XvXW.=. .) O._ | ).s.a.p S %.;.U m V ! M UXUXUXG.*.e O 1 # 2 > 6 z k.^ U } -.1X8XdXpXZXAXAXUXUXUXUXUXUXUXUXUXUXUXUXUXUXUXUXUXUXUXUXUXUXUXUXUXUXUXUXUXUX",
"UXUXUXUXUXUXUXzXfX#XN.M.L L x d 6 6 X 6.;X6./ V j O o . * & . Z 0.0.T./.*X{.E.!.R.p.p.p.=.X.=.%.Z m ~ U k j f j M 5 b U ~ ~ v.P.&X-XcXuX&XS [ { { ) $.) w i t 7 b N t r 7 M I UXUXUX9 + + < o * 2 # 6 z z 7 Y S ).7X5XaX_ @.0.&XUXUXUXUXUXUXUXUXUXUXUXUXUXUXUXUXUXUXUXUXUXUXUXUXUXUXUXUXUX",
"UXUXUXUXUXUXUXzXfX.XM.M.L L M d 6 > 0 D.&XD.<.W ~ n 1 .     O *.9.0.T.Q.}.}./.!.!.T.p.R.q.@.7.%.Q Z Y ~ V b k j b 7 f V v./ v.v.P.-XvXBX&X6XvXS S o.X.e 8 y 7 b b z b C 2 1 f 1 UXUXX X = # o $ * $ 2 2 , 6 7 n -.7XR.#.w a p q Q k UXUXUXUXUXUXUXUXUXUXUXUXUXUXUXUXUXUXUXUXUXUXUXUXUXUXUX",
"UXUXUXUXUXUXUXzXfX.Xk.^ L L B z 6 X Z F.{.G.Z.^ U Y F n * O 1 *.*.0.Q.F.Q.{.}.W.W.T.p.R.p.8.q.=.%.F Z Q W b f 7 7 j 7 f V U v.v.D.;XcXBX-X&XvXuXJ q S 8 1 < B 6 r 2 r < 7 1 % < 3 3 < = = X o . . X % < 2 2 % 0 9 *.Z e l F 0 H 9 Z D UXUXUXUXUXUXUXUXUXUXUXUXUXUXUXUXUXUXUXUXUXUXUXUXUXUX",
"UXUXUXUXUXUXUXkX#XL.k.x.L M B C 0 O S Y./.9.G./ W D m Z y A F *.%.7.T.T.T.R.!.E.W.W.R.R.p.q.p.=.5.%.n J &.N 7 5 5 j f M P V U ! / J.-XcXbX&X6XvXF A 9 O < < z 6 2 2 < 7 4 < < < 2 < 2 o = > < ; < 1 + < % # r < 7 0 S.N f N M f y i A S.UXUXUXUXUXUXUXUXUXUXUXUXUXUXUXUXUXUXUXUXUXUXUXUXUX",
"UXUXUXUXUXUXUXlX#XM.E E x L z b 9 @ @.#.u.F.H.D./ W n m y H F J ..0.F.9.0.0.W.W.R.R.R.R.R.i.8.7.7.*.F Z Q D j M j f V V M P U ! U K.%XcXcX&X&XvX%.q O % 1 < 6 d 6 7 7 7 7 7 7 4 2 % 2 2 < N ! g : : : < 1 2 2 2 7 b P z.d 6 d f q q n S.UXUXUXUXUXUXUXUXUXUXUXUXUXUXUXUXUXUXUXUXUXUXUXUXUX",
"UXUXUXUXUXUXNXfX$XB.L L R R 7 n @ 7X1X>.a.=.H.&XZ.W F F A m y A J 0.F.q.q.0.R.W.W.R.R.W.R.p.q.8.@.=...Z Z Y U j V j M ~ / W ~ v.v.Z.%XcXvX-X(.6XvXO 0 % o > = z > < 4 1 1 5 1 < 4 X # . . < d - k g f 7 7 z r z z > < d > 6 6 < j 5 D / UXUXUXUXUXUXUXUXUXUXUXUXUXUXUXUXUXUXUXUXUXUXUXUXUX",
"UXUXUXUXUXUXzXfXB.B.E G L L M 9 7XaX8X4X:.#./.-XC.m F A A H m A K 0.0.7.7.0.T.R.W.R.R.!.!.R.p.q.7.@.*.S n Y ~ N 5 f j / z.V W C.C.&.P.&XcXjXK.&XvXq + . 3 6 = 5 = 1 4 4 1 < % X = X X X X X 4 5 : : 4 1 1 2 6 7 C 6 < > < < 3 1 k M b ! UXUXUXUXUXUXUXUXUXUXUXUXUXUXUXUXUXUXUXUXUXUXUXUXUX",
"UXUXUXUXUXUXzXfXL.E E L L M b 6XaXpX8X5Xs.| E.&XG.D Q Z m A m y A 9.9.7.=.0.p.R.R.R.T.R.!.W.T.p.p.@.@...F A Q ~ k f 4 V v.v.~ ~ &.Z.C.I.-XvX-X&XvX& % . X X ; = < 4 5 5 5 < % # < ; = = X X X < = X # # # % < < 6 7 7 < < % % 1 M I z x UXUXUXUXUXUXUXUXUXUXUXUXUXUXUXUXUXUXUXUXUXUXUXUXUX",
"UXUXUXUXUXUXzX$XL.E L L M P b & 4XsX0X5X:X$.F.{.I.V J Z Z m t t A 5.9.7.@.q.p.p.R.R.T.T.E.!.R.p.p.@.X.X...Z A / V j 4 7 ~ S.~ U D ~ W K.%XcXvX}.&X& . 3 X < = ; + < 4 4 4 < % % X ; ; = X X o . X $ $ # X X X % = < < < 1 3 % < d g b x UXUXUXUXUXUXUXUXUXUXUXUXUXUXUXUXUXUXUXUXUXUXUXUXUX",
"UXUXUXUXUXNXkX#XM.M.R L M V < e 1XdX5X<X:X>...%XI.V Z J J Z t m F 5.9.7.7.8.i.i.R.R.E.T.T.Q.!.T.i.2.O.o...Z n Q V j 7 5 b W V Y W W C.I.%XvXvX6X*Xq % # o # ; + + % ; - = X . . o ; ; = + % # $ o o o . X X X X X < X < < 3 < 5 b 7 r C c.UXUXUXUXUXUXUXUXUXUXUXUXUXUXUXUXUXUXUXUXUXUXUXUX",
"UXUXUXUXUXNXfX$XM.1.v L M f 7 w | sX5X9X:X>.*.Z.%Xv.D Y J D 0 b D 6.9.@.8.u.i.i.T.R.E.F.F.E.Q.R.p.i.@.X...F n n W b 5 1 j U U N D N / C.I.cXvXuXE.&XBXo # X X ; + + = = X o o o X - ; X . . o   o X X X ; + ; + X X # # > X < 4 < 5 u r P UXUXUXUX).1X4X8XnXZXFXUXUXUXUXUXUXUXUXUXUXUXUXUX",
"UXUXUXUXUXzXfX$XM.1.E x L M   S a.<X0X5X<Xs.) J &XK.Y D D Q n 0 m %.*.o.8.u.p.i.p.R.R.T.F.T.Q.!.R.i.2.@.X.[ Z 0 V V 0 5 5 n Q N b n N m C.-XvXvX(.{.*X3 $ X X + X X X X X X o X = = + + . . X X X X X X ; ; + + + o % # 7 # < < < 1 $ 3 1 j UXUXW.).:X4X5XpXZXAXPXUXUXUXUXUXUXUXUXUXUXUXUX",
"UXUXUXUXUXzX#XV.B.E G G x d ; *.$.8X8X5X9X:X:.) Y.(.v.V ~ D n t q %.*.X.=.8.p.p.u.p.R.T.T.R.!.E.Q.F.q.@.O.o.S q M B f 4 1 0 D n 0 t N W / P.vX-X^.^.*X+ X < X ; X X X X X X # X X X + X X   # X X = X X < ; X X 1 X < < b N 7 6 < 2 % 2 1 7 7 n y X.Y.p.nXAXAXAXFXUXUXUXUXUXUXUXUXUXUXUXUX",
"UXUXUXUXUXgX#XL.L.E E G B = n 9.-.8XsX8X5X>Xs._ 9.&XC.z.~ W m t q J %...X.-.a.u.i.p.R.p.T.R.E.Q.^.H.p.2.+.O.[ y f V b 1 < 1 n F m m H H D G.cX*X^.9.^.vX1 X X X X X X X X X X X X X X X X X < X < < X X < X X > X < < < 7 b b 5 7 > 6 > < 2 < 0 n 1 Z S } } }.AXAXAXUXUXUXUXUXUXUXUXUXUXUX",
"UXUXUXUXUXlX.XL.B.R E G B X Q F.$.CXsXsX8X9X1X#...&XK.v.~ Q n y y %.%...X.=.u.u.i.p.R.R.T.T.R.Q.^.E.T.8.#.+.o.i 3 M M 5 1 1 q &.D Q ~ Q H %.&XvX-X*.E.&X+ % X o X X X X X X o X X X o X X 1 1 X X X X < < X X 1 1 b < # 5 7 N 7 7 6 7 < 7 < 1 t t 3 9 q F %.Z.9.AXAXUXUXUXUXUXUXUXUXUXUXUX",
"UXUXUXUXNXfX@XM.x.R G E d 5 5.9.{ pXCXCXpX8X1X8 i &.P.v.&.~ t n y ....[ X.@.8.a.u.p.p.R.T.p.T.E.Q.Q.T.p.2.@.X.S q 0 M f 5 1 0 &.G.H ~ 6.Q 6.{.6X6X..F.}.uX+ X < X X X X X X o X o X X 5 1 1 < < < X X 1 7 1 < 5 b W # X 2 r V 4 U / 4 < 7 = f N N C 0 b y n Z *.*.&XUXUXUXUXUXUXUXUXUXUXUX",
"UXUXUXUXNXfX.Xk.k.R R L d U G.7.#.1XCXZXCX{ w y 9 0 Z.Z.Z.Q n y y J J S o.@.-.u.i.i.p.R.T.p.T.R.!.Q.!.T.8.#.@.o.i 9 b j 7 5 0 D &./ W H &.D.G.&X&X*.%.E.6X9   + X X X X X X X o o o X r 1 X X 1 1 X X 1 7 5 X < 5 N X X 1 7 N X f z.d g P V 7 B B M V b 5 n 0 D J 5.-XUXUXUXUXUXUXUXUXUXUX",
"UXUXUXUXzXfXB.M.l.L R x g v.G.7.#.$.CXZX) S q 9 0 0 Z G.&.A m t y J S p {  .@.8.i.u.p.p.T.p.T.R.!.!./.E.0.3.O. .[ q 9 j f 7 0 n V V W ~ D / Z.^.^.9.9.H.{.O * O X X X X X X < o X X < b 1 X X 5 1 X X X 1 1 X X X 7 1 X 2 7 N = f U g ; z z.d ^ m.z ^ m.b b 5 n Q Q %XUXUXUXUXUXUXUXUXUXUX",
"UXUXUXUXNX@XB.k.R L L d P C.E.q.i.2.#.nXp q n 7 b t 0 %.&.F Z t n J J S {  .@.#.u.i.q.p.p.p.T.T.R.E.!.Q.0.q.+.`  .p 9 7 b f b n &.&.W W ~ &.&.G.^.9.i F.H.&XO   X X o X X < b X X X 6 7 1 X < 1 < X X X 1 7 < < 7 7 b < 5 5 B < 7 M U < 7 C.4 M z.c T m.T B d 7 7 I.;XUXUXUXUXUXUXUXUXUXUX",
"UXUXUXUXkX$XM.R l.R L d P Z.E.p.u.u.R.=.q A < d 6 3 m F G.*.D n n J J S o.o.@.#.8.8.8.i.p.p.p.p.T.R.!.^.T.0.2.+.`  .9 3 b f 0 b &.P.Z./ ~ K.(.H.H.^.S 9.F./.9 O X X o X X 1 V < o X 5 5 1 X ; X X X < X 1 7 < # W 7 N < 1 1 b < < 7 W 4 4 m.z 6 T z z ! D.m.P d b ! %XUXUXUXUXUXUXUXUXUXUX",
"UXUXUXUXlXL.B.R L R L 6 b Z.T.i.p.i.=...q U g 6 6 2 0 y *.G.H D m J S [ a  .+.@.u.u.i.q.p.p.p.p.p.E././.Q.T.u.#.$. .i 9 b b 7 0 0 D W D W / &.&.G./.*...H.(.. & X X X X o 1 7 X X X 1 1 < X X X X < o < X 1 7 X 5 b b < X < 7 < < 7 W 7 7 / d 6 V / 6 B m.W m.! B ^ oXUXUXUXUXUXUXUXUXUXUX",
"UXUXUXUXlXB.k.M.R I B x 7 Z.R.8.i.8.8.=.n P z , 6 < 0 q F Z.~ m m J S o.[ @.@.O.2.8.8.8.q.p.p.p.p.R./.^.Q.T.u.#.$. .p q 3 0 0 3 1 0 0 b N U Y Q &.G.5...*.Q.&X& + X X X o = 1 X X X < 1 X X o X X < X X X 1 b < X < 7 1 X 1 7 < o z T # 7 / V < M ! z M ! V P D.T L.J.UXUXUXUXUXUXUXUXUXUX",
"UXUXUXUXfXL.k.L l.L L B < *.R.i.i.8.8.9.Z V P z 6 X 3 9 9 Q ~ m m J S ..S X.+.O.2.2.2.2.8.i.p.p.p.R.Q.Q.Q.E.p.2.2.#.X.i 1 q m 0 7 7 7 0 M N V Y %.K.F.i 5.F.{.O X X X X o X X X X X X < X o o X X X X X X < b < # < 5 5 X 1 r 5 < 2 V > b b b 1 b W M b W / b z.P.R J.UXUXUXUXUXUXUXUXUXUX",
"UXUXUXUXUX.Xk.c.l.R B C C 6.T.8.8.8.=.9.F D W B z # 1 0 3 n V m y J J S p {  .@.2.2.8.8.8.u.p.p.p.R.E.Q./.!.T.8.2.#.@.{ q 9 b b 3 7 5 5 f b N D Z Q Z.*.%.G.^.O X X X X X X X < X X X > = X o X X X X X X < b 1 < 1 5 b < < 7 V 6 < b m X T b 7 N N M j W D.b M z.J.x.UXUXUXUXUXUXUXUXUXUX",
"UXUXUXUXUXkXc.l.l.R T z t H T.R.@.2.@.-.*.A n b B 6 1 7 3 1 7 m y %.....[ {  .+.#.#.2.2.2.8.u.p.p.T.R.E./.!.R.0.8.2.$.O.p 9 3 n 3 7 1 : 7 M N N N %.I.J F I.9 % X X X X X X X < < X X X < X X X X X < X X < 7 1 X 1 6 b 7 < < W T b M W z b B f M V M f W / 7 W z.x XXUXUXUXUXUXUXUXUXUXUX",
"UXUXUXUXUXUXfXh h g E V b Z T.7.@.2.O.@.=.J y b z z 7 5 5 < 1 t n %...S [ [  .+.+.$.2.2.8.8.u.p.p.T.T.R.!./.Q.T.q.2.#.#.@.i 3 n 0 0 1 < j P U V j Q &.&.F &.9 + o X X X X o o X 1 X X X X X X o X X < X X X 5 1 < < X 5 V b < 7 / V 7 C.V 7 W M 7 W P 4 T W 4 ^ M.x ( UXUXUXUXUXUXUXUXUXUX",
"UXUXUXUXUXUXUXUXoXl.z r b Q ^.7.@.O.O.{ X...Z m z z f 7 5 ; < 1 y ..J p [ )  .O.+.+.2.2.u.8.u.p.p.T.R.R.Q./.^.E.q.2.#.#.+.p q 7 n 0 1 4 j N V N V j %.K.Q %.1 + X X X X X o o X < X X X X X X X X X < < X X < 1 7 < X < N N 5 = < / M < z.V W z.g T z.d P ^ x L z.M ( / UXUXUXUXUXUXUXUXUX",
"UXUXUXUXUXUXUXUXUXUXUXUXUXS.G.=.@.` ` ` { } i y C b z b 5 ; 1 < 3 J %.J ..) ) O.O.O.$.2.2.2.2.u.q.p.T.R.E.^.^.Q.0.8.r.#.+.@.J 9 n t 0 0 j f j V b N D G.Q &.& % X X X X X X X X X X X o o X X X X X < 1 X X X < 1 < < X 1 7 b 5 4 4 ! M 4 M ! z./ z D.P B ^ P L ! P y D.J.UXUXUXUXUXUXUXUX",
"UXUXUXUXUXUXUXUXUXUXUXUXUXUXS... .) ) ` ` } p S n 0 M f 4 < X < 3 J %.J [ p {  .+.@.#.2.r.r.r.2.i.p.R.R.E.^.^.E.Y.8.2.2.@.@.X.i q q 0 0 ; 7 d g j V b &.&.J 3 + X X X X X o X X X X X X X X X X X o X < 1 < X X 1 2 < X > 5 5 b X < V V < 7 ^ ! ! z.! ! M W / M x.! r ( x.UXUXUXUXUXUXUXUX",
"UXUXUXUXUXUXUXUXUXUXUXUXUXUXb.Q o.) ) ) { o.S i Q n j M b 7 5 1 0 Z J J S [ [  .O.O.@.#.:.r.r.2.u.i.p.T.E.^./.!.!.p.u.8.@.@.@.o.q n t < f 7 5 7 d 4 n D F y & & X X X X X o X X X X X X X X X X X X X 1 1 < X X < 5 7 < < 1 5 b 5 X 4 V b X f ! j j P I.P / C.^ R J.t ( R UXUXUXUXUXUXUXUX",
"UXUXUXUXUXUXUXUXUXUXUXUXUXUXUXx.F w p a a p S A F k g I M 4 4 < t m J ..S o.[  . .O.+.#.r.r.r.r.u.i.p.T.T.Q.^./.!.R.i.8.#.#.@.X.w q q 1 1 5 7 < 1 1 0 q q i F.O + X X X X X X X X X X X X X X X X X X < < < X X < 5 b 2 < 1 1 b < X ; b W < < N m.6 6 / m.^ A.z.M C.H ( z.I UXUXUXUXUXUXUX",
"UXUXUXUXUXUXUXUXUXUXUXUXUXUXUXUX;.F p a p i i A H V I R V 7 f 7 1 F F J S o.)  . .O.O.@.#.r.r.2.r.u.p.T.E.E.E.Q.W.R.p.2.2.#.$.+...q 1 n 0 % + 1 1 9 & A ..8 %.9 + X X X X X X X o X X X X X X X X X X > 1 1 < < < 1 7 1 < < < 7 X < < 1 W 7 1 5 T V < M V b P P.W Z.<.T m.l.UXUXUXUXUXUXUX",
"UXUXUXUXUXUXUXUXUXUXUXUXUXUXUXUXUX%.K a F F u u K m g M r 3 5 < + J y A i p [  . . .O.O.@.#.#.2.2.2.u.p.R.E.Q./.!.!.p.u.u.#.$.@.-.J @ * y J Z A i Z S q 8 S 0.q + X X X X X X X X X X X X X X X < > X # 1 5 5 1 < 1 5 5 < < < 7 5 < % < N 1 < < f W 4 z m.^ d b C./ =X^ P.I c.UXUXUXUXUXUX",
"UXUXUXUXUXUXUXUXUXUXUXUXUXUXUXUXUXUXUXUXUXUXUXUXH m P M r u 3 1 % Q A i i p )  . .O.O.+.+.#.#.2.r.2.8.0.Y.T.Q./.!.!.R.u.r.#.$.#.X.9.=.8 @ @ 8 8 8 i @ @ w =.0.G.% X X X X X X X X X X X X X X X < < # X < 5 5 1 > < 7 7 < > < 5 5 < < < 7 < < < N ! z > ^ ^ P 6 G m.I x.XXJ.oXUXUXUXUXUXUX",
"UXUXUXUXUXUXUXUXUXUXUXUXUXUXUXUXUXUXUXUXUXUXUXUXUXI ^ B 7 r 1 0 3 m A A i i p )  . .+.@.+.@.#.2.r.r.2.8.q.F.E.Q.!.!.R.i.r.:.:.:.u.O.8.0.@.a a 8 8 w 8 X.=.7.9.9.+ X X X X X X X X o X X X X X < < < < > > 1 5 5 < X 5 5 < X < 1 < 1 < 1 7 6 7 4 4 V 4 d B m.E 6 T A.J.x z.P.x.UXUXUXUXUXUX",
"UXUXUXUXUXUXUXUXUXUXUXUXUXUXUXUXUXUXUXUXUXUXUXUXUXc.x.x 6 f < 0 7 % Z F i i i p )  .O.O.O.O.+.#.#.#.2.8.0.Y.T.Q.!.!.W.p.u.:.:.:.$.:.#.#.2.8.@.@.=.@.7.7.*.9.& & % X X X X X X X X X X X X X X X X 1 5 1 < 1 7 7 5 X 1 1 < < < 1 2 < X < 7 < 4 b V W f > P T T z B m.x.I m.m.^ UXUXUXUXUXUX",
"UXUXUXUXUXUXUXUXUXUXUXUXUXUXUXUXUXUXUXUXUXUXUXUXUXUXUXUXd d 7 1 3 % & n i S 8 p a )  .O.O.@.@.@.#.r.r.2.q.p.T.Q.Q.!.!.q.u.r.s.s.s.$.$.:.#.O.8.@.@.F.=.9.y & % % % X X X X X X X X X X X X X X X < 1 5 1 < < 6 7 5 < < 6 5 < < 1 4 < < < 7 4 < P W W j 4 P P V 6 B m.x.g ^ <.T A.UXUXUXUXUX",
"UXUXUXUXUXUXUXUXUXUXUXUXUXUXUXUXUXUXUXUXUXUXUXUXUXUXUXUXM d b 7 < 7 o %.A y S e a a ) `  . .O.@.$.r.r.2.8.0.Y.E.!.E.T.) @._ a._ :.>.s.1X$.2.@.7.7.=.q q + + + X X X X X X X X X X X X X X < < X < 1 5 5 < < 1 5 7 < > < 1 < < 4 4 > = < b f = < C.V 7 1 z.W f b P x.M T ^ / I.B UXUXUXUXUX",
"UXUXUXUXUXUXUXUXUXUXUXUXUXUXUXUXUXUXUXUXUXUXUXUXUXUXUXUXUX7 r 2 7 < % . Z A 8 S p a ) ) ` `  .O.+.:.r.2.2.8.0.T.R.}.=.=.) _ O.| :._ t.f.1X@.q.7.q q O + % ; < X X X X X X X X X X X X X < < < < X < 5 5 1 1 1 1 1 < < 1 1 1 < < 6 4 4 < < 5 5 1 / b V 0 6.W C V P J.P M / A.D.z x.UXUXUXUX",
"UXUXUXUXUXUXUXUXUXUXUXUXUXUXUXUXUXUXUXUXUXUXUXUXUXUXUXUXUX# t 2 5 < X % + J q i a a ) ) ` ` `  .O.#.r.2.2.8.i.T.R.!.X.) +.{ _ _ :.:._ O.O.7.@ & & 1 % + < X < X X X X X X X X X X X X X < < < < > < 1 1 5 5 1 < < < 1 1 1 < < < 4 < < 4 f 0 7 t ~ F n H y J F &.P.K.C.C.( C.^ ^ z.x.UXUXUX",
"UXUXUXUXUXUXUXUXUXUXUXUXUXUXUXUXUXUXUXUXUXUXUXUXUXUXUXUXUXUX4 < X 1 1 + . J S p a p ) ) `  .O.+.+.#.r.r.r.2.8.p.T.!.W.[ X.` $.) _ _ _ O.o.@ & 9 3 < ; X < X = X X X X X X X X X X X X X < < < < < < < 1 6 5 1 < 5 1 > X > < 1 1 1 z < 1 b < + Z 6.6.9.H.*X9.}.}.H.}.{.*X{.{.;XU.6.<.M..XoX",
"UXUXUXUXUXUXUXUXUXUXUXUXUXUXUXUXUXUXUXUXUXUXUXUXUXUXUXUXUXUX4 7 4 < X + + O 9...[ o. . . .O.@.@.#.2.2.2.r.2.2.i.p.!.}./.p { { $._ ) -.p @ O % X X X = X < X % X X X X X X X X X X X X X < < < < 1 < < < 1 5 1 < 1 < > 1 7 b 7 7 < 6 7 1 3 H Z.*.J i 5.K K e.8 0.s w.e.s H.6.6.u _.1.U.`.<.",
"UXUXUXUXUXUXUXUXUXUXUXUXUXUXUXUXUXUXUXUXUXUXUXUXUXUXUXUXUXI 7 5 7 6 1 X 1 & . 9.7.=.@.@.@.@.@.#.8.8.2.#.r.2.2.8.T.0.Q./.0.[ ) { $.{ p i * % 5 > 4 > > X X X X X X X X X X X X X X X X X < < < < 1 < < < < < < < < < 7 b b b 7 7 7 2 2 < % Z 6.q u a o.e.[ ` S o.w.e.e.K H.U.H.`.s U.1.e.*X",
"UXUXUXUXUXUXUXUXUXUXUXUXUXUXUXUXUXUXUXUXUXUXUXUXUXUXUXUXUXh 7 # < > 7 + + & & 9.q.8.8.8.u.8.8.8.u.u.#.2.r.r.2.i.q.!./.E.}.) ) { ) X.p @ & < X = > = = X = % X o X X X X X X X X X X X X X < < < < 1 < < X X < < < 7 B N 7 < < 5 2 r < 1 %   u F.5.8 o.q.o.3.q.q.3.3.w.e.H.`.H.U._._. Xw.w."
};
