/* XPM */
static const char *xpm__15_sgun_endreload3[] = {
/* columns rows colors chars-per-pixel */
"141 112 254 2 ",
"   c #0B0908",
".  c #130B04",
"X  c #130C0B",
"o  c #170A06",
"O  c #0D110B",
"+  c #1B130C",
"@  c #13120D",
"#  c #0E0E14",
"$  c #130E15",
"%  c #0D1112",
"&  c #141314",
"*  c #1B1413",
"=  c #1D1A15",
"-  c #14151A",
";  c #1A151C",
":  c #15191C",
">  c #1C1A1C",
",  c #151915",
"<  c #27160C",
"1  c #241B14",
"2  c #221C1C",
"3  c #291B15",
"4  c #331B12",
"5  c #1E221A",
"6  c #2B221D",
"7  c #24241D",
"8  c #34241C",
"9  c #3D2A1D",
"0  c #392519",
"q  c #2B311D",
"w  c #1C1C22",
"e  c #181A25",
"r  c #161D32",
"t  c #231E23",
"y  c #241E29",
"u  c #201D31",
"i  c #1C2123",
"p  c #1C232C",
"a  c #1D282A",
"s  c #1C2532",
"d  c #242224",
"f  c #2B2523",
"g  c #2C2A25",
"h  c #24242B",
"j  c #2A252B",
"k  c #242A2D",
"l  c #2C2A2C",
"z  c #252A25",
"x  c #332B25",
"c  c #3C2D23",
"v  c #332C2C",
"b  c #352826",
"n  c #2C312C",
"m  c #34312D",
"M  c #3C332C",
"N  c #393527",
"B  c #242C33",
"V  c #2D2B32",
"C  c #262836",
"Z  c #322D33",
"A  c #382E37",
"S  c #2B333B",
"D  c #283337",
"F  c #353235",
"G  c #3A3434",
"H  c #3C3B34",
"J  c #34333A",
"K  c #3A353B",
"L  c #3E3A3C",
"P  c #333A3A",
"I  c #422D1D",
"U  c #4A2C1D",
"Y  c #52341D",
"T  c #432E22",
"R  c #492E25",
"E  c #443123",
"W  c #4B3425",
"Q  c #43342C",
"!  c #4C392C",
"~  c #4C3728",
"^  c #523524",
"/  c #543A26",
"(  c #5C3C26",
")  c #543B2B",
"_  c #5C3E2A",
"`  c #56352A",
"'  c #443B34",
"]  c #4C3C32",
"[  c #423C3C",
"{  c #443938",
"}  c #533E32",
"|  c #5A3E30",
" . c #542F26",
".. c #613E2A",
"X. c #663F31",
"o. c #593010",
"O. c #5D422D",
"+. c #5A4327",
"@. c #494439",
"#. c #544134",
"$. c #5D4433",
"%. c #53443B",
"&. c #5B4639",
"*. c #5D4A3C",
"=. c #594A38",
"-. c #5B5A38",
";. c #54572C",
":. c #61412C",
">. c #654924",
",. c #614633",
"<. c #624935",
"1. c #634C3B",
"2. c #674739",
"3. c #65563A",
"4. c #735632",
"5. c #5D6338",
"6. c #686639",
"7. c #75683B",
"8. c #6D6F3A",
"9. c #78481A",
"0. c #1D2745",
"q. c #262A45",
"w. c #2D3B43",
"e. c #2C3544",
"r. c #3D3B43",
"t. c #343A46",
"y. c #363A55",
"u. c #2F2F50",
"i. c #363968",
"p. c #141443",
"a. c #423D43",
"s. c #433E49",
"d. c #423E59",
"f. c #364349",
"g. c #3B4956",
"h. c #34464D",
"j. c #3D4368",
"k. c #454343",
"l. c #4A4443",
"z. c #4A454B",
"x. c #4C4A4B",
"c. c #484847",
"v. c #544B44",
"b. c #534B4B",
"n. c #574A44",
"m. c #5C544C",
"M. c #585648",
"N. c #494A54",
"B. c #514D53",
"V. c #574E54",
"C. c #46535C",
"Z. c #545254",
"A. c #5B5554",
"S. c #595859",
"D. c #4A5248",
"F. c #634E42",
"G. c #694E41",
"H. c #645344",
"J. c #695445",
"K. c #65564A",
"L. c #69564A",
"P. c #655A4D",
"I. c #6A5A4C",
"U. c #695A45",
"Y. c #645B52",
"T. c #6A5C52",
"R. c #645C59",
"E. c #715D4F",
"W. c #5D6152",
"Q. c #686548",
"!. c #736A47",
"~. c #6D7546",
"^. c #787747",
"/. c #696656",
"(. c #756857",
"). c #777757",
"_. c #6F7355",
"`. c #454D67",
"'. c #485868",
"]. c #595866",
"[. c #515578",
"{. c #625E63",
"}. c #665F78",
"|. c #576778",
" X c #696668",
".X c #746B67",
"XX c #777568",
"oX c #6A6976",
"OX c #716C72",
"+X c #7C7574",
"@X c #7D7A7C",
"#X c #797578",
"$X c #697372",
"%X c #8A4B2B",
"&X c #8A4F25",
"*X c #90594B",
"=X c #86784A",
"-X c #8F7051",
";X c #AD6A54",
":X c #817877",
">X c #8C7A69",
",X c #B57769",
"<X c #A55645",
"1X c #C47A6B",
"2X c #7D8366",
"3X c #82824E",
"4X c #888656",
"5X c #948557",
"6X c #868869",
"7X c #88877A",
"8X c #97916E",
"9X c #AB8B6C",
"0X c #A58C5C",
"qX c #C9877C",
"wX c #545886",
"eX c #5B6688",
"rX c #696787",
"tX c #66768C",
"yX c #7B7886",
"uX c #6A7796",
"iX c #777899",
"pX c #696C90",
"aX c #7579A6",
"sX c #6F79A8",
"dX c #645E86",
"fX c #817A87",
"gX c #807AA9",
"hX c #73859D",
"jX c #7784A8",
"kX c #7B86B4",
"lX c #8C8585",
"zX c #8A8789",
"xX c #938C8B",
"cX c #948A86",
"vX c #8C8997",
"bX c #989893",
"nX c #A79C96",
"mX c #A5A793",
"MX c #898BAF",
"NX c #A29DA6",
"BX c #A49DB7",
"VX c #A6A4A6",
"CX c #AEABB5",
"ZX c #9BA696",
"AX c #CB958A",
"SX c #D9A79A",
"DX c #C3C6B7",
"FX c #A7A8D5",
"GX c #BAC1E8",
"HX c #BAC0DA",
"JX c #C8C8C6",
"KX c #C3C8F2",
"LX c #BCC4B7",
"PX c None",
/* pixels */
"PXPXPXPXPXPXPXPXPXPXPXPXPXPXPXPXPXPXPXPXPXPXPXPXPXPXPXPXPXPXPXPXPXPXPXPXPXPXPXPXPXPXPXPXPXPXPXPXPXPXPXPXPXPXPXPXPXPXPXPXPXPXPXPXPXPXPXPXPXPXPXPXPXPXPXPXPXPXPXPXPXPXPXPXPXPXPXPXPXPXPXPXPXPXPXPXPXPXPXPXPXPXPXPXPXPXPXPXPXPXPXPXPXPXPXPXPXPXPXPXPXPXPXPXPXPXPXPXPXPXPXPXPXPXPXPXPXPXPXPXPX",
"PXPXPXPXPXPXPXPXPXPXPXPXPXPXPXPXPXPXPXPXPXPXPXPXPXPXPXPXPXPXPXPXPXPXPXPXPXPXPXPXPXPXPXPXPXPXPXPXPXPXPXPXPXPXPXPXPXPXPXPXPXPXPXPXPXPXPXPXPXPXPXPXPXPXPXPXPXPXPXPXPXPXPXPXPXPXPXPXPXPXPXPXPXPXPXPXPXPXPXPXPXPXPXPXPXPXPXPXPXPXPXPXPXPXPXPXPXPXPXPXPXPXPXPXPXPXPXPXPXPXPXPXPXPXPXPXPXPXPXPXPX",
"PXPXPXPXPXPXPXPXPXPXPXPXPXPXPXPXPXPXPXPXPXPXPXPXPXPXPXPXPXPXPXPXPXPXPXPXPXPXPXPXPXPXPXPXPXPXPXPXPXPXPXPXPXPXPXPXPXPXPXPXPXPXPXPXPXPXPXPXPXPXPXPXPXPXPXPXPXPXPXPXPXPXPXPXPXPXPXPXPXPXPXPXPXPXPXPXPXPXPXPXPXPXPXPXPXPXPXPXPXPXPXPXPXPXPXPXPXPXPXPXPXPXPXPXPXPXPXPXPXPXPXPXPXPXPXPXPXPXPXPXPX",
"PXPXPXPXPXPXPXPXPXPXPXPXPXPXPXPXPXPXPXPXPXPXPXPXPXPXPXPXPXPXPXPXPXPXPXPXPXPXPXPXPXPXPXPXPXPXPXPXPXPXPXPXPXPXPXPXPXPXPXPXPXPXPXPXPXPXPXPXPXPXPXPXPXPXPXPXPXPXPXPXPXPXPXPXPXPXPXPXPXPXPXPXPXPXPXPXPXPXPXPXPXPXPXPXPXPXPXPXPXPXPXPXPXPXPXPXPXPXPXPXPXPXPXPXPXPXPXPXPXPXPXPXPXPXPXPXPXPXPXPXPX",
"PXPXPXPXPXPXPXPXPXPXPXPXPXPXPXPXPXPXPXPXPXPXPXPXPXPXPXPXPXPXPXPXPXPXPXPXPXPXPXPXPXPXPXPXPXPXPXPXPXPXPXPXPXPXPXPXPXPXPXPXPXPXPXPXPXPXPXPXPXPXPXPXPXPXPXPXPXPXPXPXPXPXPXPXPXPXPXPXPXPXPXPXPXPXPXPXPXPXPXPXPXPXPXPXPXPXPXPXPXPXPXPXPXPXPXPXPXPXPXPXPXPXPXPXPXPXPXPXPXPXPXPXPXPXPXPXPXPXPXPXPX",
"PXPXPXPXPXPXPXPXPXPXPXPXPXPXPXPXPXPXPXPXPXPXPXPXPXPXPXPXPXPXPXPXPXPXPXPXPXPXPXPXPXPXPXPXPXPXPXPXPXPXPXPXPXPXPXPXPXPXPXPXPXPXPXPXPXPXPXPXPXPXPXPXPXPXPXPXPXPXPXPXPXPXPXPXPXPXPXPXPXPXPXPXPXPXPXPXPXPXPXPXPXPXPXPXPXPXPXPXPXPXPXPXPXPXPXPXPXPXPXPXPXPXPXPXPXPXPXPXPXPXPXPXPXPXPXPXPXPXPXPXPX",
"PXPXPXPXPXPXPXPXPXPXPXPXPXPXPXPXPXPXPXPXPXPXPXPXPXPXPXPXPXPXPXPXPXPXPXPXPXPXPXPXPXPXPXPXPXPXPXPXPXPXPXPXPXPXPXPXPXPXPXPXPXPXPXPXPXPXPXPXPXPXPXPXPXPXPXPXPXPXPXPXPXPXPXPXPXPXPXPXPXPXPXPXPXPXPXPXPXPXPXPXPXPXPXPXPXPXPXPXPXPXPXPXPXPXPXPXPXPXPXPXPXPXPXPXPXPXPXPXPXPXPXPXPXPXPXPXPXPXPXPXPX",
"PXPXPXPXPXPXPXPXPXPXPXPXPXPXPXPXPXPXPXPXPXPXPXPXPXPXPXPXPXPXPXPXPXPXPXPXPXPXPXPXPXPXPXPXPXPXPXPXPXPXPXPXPXPXPXPXPXPXPXPXPXPXPXPXPXPXPXPXPXPXPXPXPXPXPXPXPXPXPXPXPXPXPXPXPXPXPXPXPXPXPXPXPXPXPXPXPXPXPXPXPXPXPXPXPXPXPXPXPXPXPXPXPXPXPXPXPXPXPXPXPXPXPXPXPXPXPXPXPXPXPXPXPXPXPXPXPXPXPXPXPX",
"PXPXPXPXPXPXPXPXPXPXPXPXPXPXPXPXPXPXPXPXPXPXPXPXPXPXPXPXPXPXPXPXPXPXPXPXPXPXPXPXPXPXPXPXPXPXPXPXPXPXPXPXPXPXPXPXPXPXPXPXPXPXPXPXPXPXPXPXPXPXPXPXPXPXPXPXPXPXPXPXPXPXPXPXPXPXPXPXPXPXPXPXPXPXPXPXPXPXPXPXPXPXPXPXPXPXPXPXPXPXPXPXPXPXPXPXPXPXPXPXPXPXPXPXPXPXPXPXPXPXPXPXPXPXPXPXPXPXPXPXPX",
"PXPXPXPXPXPXPXPXPXPXPXPXPXPXPXPXPXPXPXPXPXPXPXPXPXPXPXPXPXPXPXPXPXPXPXPXPXPXPXPXPXPXPXPXPXPXPXPXPXPXPXPXPXPXPXPXPXPXPXPXPXPXPXPXPXPXPXPXPXPXPXPXPXPXPXPXPXPXPXPXPXPXPXPXPXPXPXPXPXPXPXPXPXPXPXPXPXPXPXPXPXPXPXPXPXPXPXPXPXPXPXPXPXPXPXPXPXPXPXPXPXPXPXPXPXPXPXPXPXPXPXPXPXPXPXPXPXPXPXPXPX",
"PXPXPXPXPXPXPXPXPXPXPXPXPXPXPXPXPXPXPXPXPXPXPXPXPXPXPXPXPXPXPXPXPXPXPXPXPXPXPXPXPXPXPXPXPXPXPXPXPXPXPXPXPXPXPXPXPXPXPXPXPXPXPXPXPXPXPXPXPXPXPXPXPXPXPXPXPXPXPXPXPXPXPXPXPXPXPXPXPXPXPXPXPXPXPXPXPXPXPXPXPXPXPXPXPXPXPXPXPXPXPXPXPXPXPXPXPXPXPXPXPXPXPXPXPXPXPXPXPXPXPXPXPXPXPXPXPXPXPXPXPX",
"PXPXPXPXPXPXPXPXPXPXPXPXPXPXPXPXPXPXPXPXPXPXPXPXPXPXPXPXPXPXPXPXPXPXPXPXPXPXPXPXPXPXPXPXPXPXPXPXPXPXPXPXPXPXPXPXPXPXPXPXPXPXPXPXPXPXPXPXPXPXPXPXPXPXPXPXPXPXPXPXPXPXPXPXPXPXPXPXPXPXPXPXPXPXPXPXPXPXPXPXPXPXPXPXPXPXPXPXPXPXPXPXPXPXPXPXPXPXPXPXPXPXPXPXPXPXPXPXPXPXPXPXPXPXPXPXPXPXPXPXPX",
"PXPXPXPXPXPXPXPXPXPXPXPXPXPXPXPXPXPXPXPXPXPXPXPXPXPXPXPXPXPXPXPXPXPXPXPXPXPXPXPXPXPXPXPXPXPXPXPXPXPXPXPXPXPXPXPXPXPXPXPXPXPXPXPXPXPXPXPXPXPXPXPXPXPXPXPXPXPXPXPXPXPXPXPXPXPXPXPXPXPXPXPXPXPXPXPXPXPXPXPXPXPXPXPXPXPXPXPXPXPXPXPXPXPXPXPXPXPXPXPXPXPXPXPXPXPXPXPXPXPXPXPXPXPXPXPXPXPXPXPXPX",
"PXPXPXPXPXPXPXPXPXPXPXPXPXPXPXPXPXPXPXPXPXPXPXPXPXPXPXPXPXPXPXPXPXPXPXPXPXPXPXPXPXPXPXPXPXPXPXPXPXPXPXPXPXPXPXPXPXPXPXPXPXPXPXPXPXPXPXPXPXPXPXPXPXPXPXPXPXPXPXPXPXPXPXPXPXPXPXPXPXPXPXPXPXPXPXPXPXPXPXPXPXPXPXPXPXPXPXPXPXPXPXPXPXPXPXPXPXPXPXPXPXPXPXPXPXPXPXPXPXPXPXPXPXPXPXPXPXPXPXPXPX",
"PXPXPXPXPXPXPXPXPXPXPXPXPXPXPXPXPXPXPXPXPXPXPXPXPXPXPXPXPXPXPXPXPXPXPXPXPXPXPXPXPXPXPXPXPXPXPXPXPXPXPXPXPXPXPXPXPXPXPXPXPXPXPXPXPXPXPXPXPXPXPXPXPXPXPXPXPXPXPXPXPXPXPXPXPXPXPXPXPXPXPXPXPXPXPXPXPXPXPXPXPXPXPXPXPXPXPXPXPXPXPXPXPXPXPXPXPXPXPXPXPXPXPXPXPXPXPXPXPXPXPXPXPXPXPXPXPXPXPXPXPX",
"PXPXPXPXPXPXPXPXPXPXPXPXPXPXPXPXPXPXPXPXPXPXPXPXPXPXPXPXPXPXPXPXPXPXPXPXPXPXPXPXPXPXPXPXPXPXPXPXPXPXPXPXPXPXPXPXPXi.i.j.wXsXFXPXPXPXPXPXPXPXPXPXPXPXPXPXPXPXPXPXPXPXPXPXPXPXPXPXPXPXPXPXPXPXPXPXPXPXPXPXPXPXPXPXPXPXPXPXPXPXPXPXPXPXPXPXPXPXPXPXPXPXPXPXPXPXPXPXPXPXPXPXPXPXPXPXPXPXPXPXPX",
"PXPXPXPXPXPXPXPXPXPXPXPXPXPXPXPXPXPXPXPXPXPXPXPXPXPXPXPXPXPXPXPXPXPXPXPXPXPXPXPXPXPXPXPXPXPXPXPXPXPXPXPXPXPXPXPXi.0.r s C u.[.FXPXPXPXPXPXPXPXPXPXPXPXPXPXPXPXPXPXPXPXPXPXPXPXPXPXPXPXPXPXPXPXPXPXPXPXPXPXPXPXPXPXPXPXPXPXPXPXPXPXPXPXPXPXPXPXPXPXPXPXPXPXPXPXPXPXPXPXPXPXPXPXPXPXPXPXPXPX",
"PXPXPXPXPXPXPXPXPXPXPXPXPXPXPXPXPXPXPXPXPXPXPXPXPXPXPXPXPXPXPXPXPXPXPXPXPXPXPXPXPXPXPXPXPXPXPXPXPXPXPXPXPXPXPXPX0.q.B D k t.'.jXPXPXPXPXPXPXPXPXPXPXPXPXPXPXPXPXPXPXPXPXPXPXPXPXPXPXPXPXPXPXPXPXPXPXPXPXPXPXPXPXPXPXPXPXPXPXPXPXPXPXPXPXPXPXPXPXPXPXPXPXPXPXPXPXPXPXPXPXPXPXPXPXPXPXPXPXPX",
"PXPXPXPXPXPXPXPXPXPXPXPXPXPXPXPXPXPXPXPXPXPXPXPXPXPXPXPXPXPXPXPXPXPXPXPXPXPXPXPXPXPXPXPXPXPXPXPXPXPXPXPXPXPXPXPXu.g.k z F f.g.|.iXpXFXPXPXPXPXPXPXPXPXPXPXPXPXPXPXPXPXPXPXPXPXPXPXPXPXPXPXPXPXPXPXPXPXPXPXPXPXPXPXPXPXPXPXPXPXPXPXPXPXPXPXPXPXPXPXPXPXPXPXPXPXPXPXPXPXPXPXPXPXPXPXPXPXPXPX",
"PXPXPXPXPXPXPXPXPXPXPXPXPXPXPXPXPXPXPXPXPXPXPXPXPXPXPXPXPXPXPXPXPXPXPXPXPXPXPXPXPXPXj.u.u.y.i.i.y.j.j.u.q.u.0.0.t.w.> z z n D B p C y.iXpXwXwXeXjXjXGXGXKXPXPXPXPXPXPXPXPXPXPXPXPXPXPXPXPXPXPXPXPXPXPXPXPXPXPXPXPXPXPXPXPXPXPXPXPXPXPXPXPXPXPXPXPXPXPXPXPXPXPXPXPXPXPXPXPXPXPXPXPXPXPXPXPX",
"PXPXPXPXPXPXPXPXPXPXPXPXPXPXPXPXPXPXPXPXPXPXPXPXPXPXPXPXPXPXPXPXPXPXPXPXPXPXPXPX[.u.q.C C C C s q.e.S e C C e s w.w.%   O @ % D w.p p C h u r r s g.g.'.iXKXPXPXPXPXPXPXPXPXPXPXPXPXPXPXPXPXPXPXPXPXPXPXPXPXPXPXPXPXPXPXPXPXPXPXPXPXPXPXPXPXPXPXPXPXPXPXPXPXPXPXPXPXPXPXPXPXPXPXPXPXPXPXPX",
"PXPXPXPXPXPXPXPXPXPXPXPXPXPXPXPXPXPXPXPXPXPXPXPXPXPXPXPXPXPXPXPXPXPXPXPXPXPXPXj.q.e.D k n l d k d k d j j V p S B e   %     , k a a V d f m m n P P P t.e.`.hXGXPXPXPXPXPXPXPXPXPXPXPXPXPXPXPXPXPXPXPXPXPXPXPXPXPXPXPXPXPXPXPXPXPXPXPXPXPXPXPXPXPXPXPXPXPXPXPXPXPXPXPXPXPXPXPXPXPXPXPXPXPX",
"PXPXPXPXPXPXPXPXPXPXPXPXPXPXPXPXPXPXPXPXPXPXPXPXPXPXPXPXPXPXPXPXPXPXPXPXPXPXj.y.e.J P m H M.XX7X_.W.M.F h k S B B -     % % : B B k g x @.U.)._.6X/./.l.J f.C.hXKXPXPXPXPXPXPXPXPXPXPXPXPXPXPXPXPXPXPXPXPXPXPXPXPXPXPXPXPXPXPXPXPXPXPXPXPXPXPXPXPXPXPXPXPXPXPXPXPXPXPXPXPXPXPXPXPXPXPXPXPX",
"PXPXPXPXPXPXPXPXPXPXPXPXPXPXPXPXPXPXPXPXPXPXPXPXPXPXPXPXPXPXPXPXPXPXPXPXPXi.y.C.f.k.c.m.).2X6X6X8X6X7XmXS.V V S D : w - : e C B i g @./.8X8X8X6X6XmXmXnXxXS.f.'.iXKXPXPXPXPXPXPXPXPXPXPXPXPXPXPXPXPXPXPXPXPXPXPXPXPXPXPXPXPXPXPXPXPXPXPXPXPXPXPXPXPXPXPXPXPXPXPXPXPXPXPXPXPXPXPXPXPXPXPXPX",
"PXPXPXPXPXPXPXPXPXPXPXPXPXPXPXPXPXPXPXPXPXPXPXPXPXPXPXPXPXPXPXPXPXPXPXPXi.j.g.c.D.M._.Q.XX/.).Q.~.)./.mXDXVXF k k J k B B C J w q -.).>X).^.^.^.3X3X!.8XmXJX$X'.`.jXGXPXPXPXPXPXPXPXPXPXPXPXPXPXPXPXPXPXPXPXPXPXPXPXPXPXPXPXPXPXPXPXPXPXPXPXPXPXPXPXPXPXPXPXPXPXPXPXPXPXPXPXPXPXPXPXPXPXPX",
"PXPXPXPXPXPXPXPXPXPXPXPXPXPXPXPXPXPXPXPXPXPXPXPXPXPXPXPXPXPXPXPXPXPXPXwX`.N.N.c.D._.W.Q./.>X-.^.!.^.Q._.7XCXVXk.V P B s B B j l M.).).).!.6.^.^.^.8.6.!.7XJXJX$XN.C.KXGXPXPXPXPXPXPXPXPXPXPXPXPXPXPXPXPXPXPXPXPXPXPXPXPXPXPXPXPXPXPXPXPXPXPXPXPXPXPXPXPXPXPXPXPXPXPXPXPXPXPXPXPXPXPXPXPXPX",
"PXPXPXPXPXPXPXPXPXPXPXPXPXPXPXPXPXPXPXPXPXPXPXPXPXPXPXPXPXPXPXPXPXPXPXeX`.e.f.Z.W././.Q.Q.Q.=X6.^.6.6.4X5._.mXbXH k B B S F g @.!.^.8.^.^.8.;.;.8.^.^.)._.XXJXLX$XP |.HXPXPXPXPXPXPXPXPXPXPXPXPXPXPXPXPXPXPXPXPXPXPXPXPXPXPXPXPXPXPXPXPXPXPXPXPXPXPXPXPXPXPXPXPXPXPXPXPXPXPXPXPXPXPXPXPXPX",
"PXPXPXPXPXPXPXPXPXPXPXPXPXPXPXPXPXPXPXPXPXPXPXPXPXPXPXPXPXPXPXPXPXPXMX`.e.f.k.W._.Q./.M.Q.(.=X^.^.7.^.6.6.8.4XmXXXF B B a z N Q.!.6.8.~.8.8.8.5X4X8X4X6.~.~.6XDXmXS.f.HXGXPXPXPXPXPXPXPXPXPXPXPXPXPXPXPXPXPXPXPXPXPXPXPXPXPXPXPXPXPXPXPXPXPXPXPXPXPXPXPXPXPXPXPXPXPXPXPXPXPXPXPXPXPXPXPXPX",
"PXPXPXPXPXPXPXPXPXPXPXPXPXPXPXPXPXPXPXPXPXPXPXPXPXPXPXPXPXPXPXPXPXPXuX`.w.D Z.M.Q./.Q.Q.Q.!.!.0X0X=X7.7.8.^.;.4X7XS.P D k 7 @.Q.Q.6.^.^.~.^.5X0X5X5X0X4X^.8.3X8X8XbXf.uXGXPXPXPXPXPXPXPXPXPXPXPXPXPXPXPXPXPXPXPXPXPXPXPXPXPXPXPXPXPXPXPXPXPXPXPXPXPXPXPXPXPXPXPXPXPXPXPXPXPXPXPXPXPXPXPXPX",
"PXPXPXPXPXPXPXPXPXPXPXPXPXPXPXPXPXPXPXPXPXPXPXPXPXPXPXPXPXPXPXPXPXPXaXy.S D.W.W.Q.Q.Q.(.Q.(.8X5X=X7.=X7.8.5.!.~.6X+Xf.k n n =.Q.6.!.6.8.^.5X9X-X;X;X-X5X3X4X^.4XmXZXC.N.KXPXPXPXPXPXPXPXPXPXPXPXPXPXPXPXPXPXPXPXPXPXPXPXPXPXPXPXPXPXPXPXPXPXPXPXPXPXPXPXPXPXPXPXPXPXPXPXPXPXPXPXPXPXPXPXPX",
"PXPXPXPXPXPXPXPXPXPXPXPXPXPXPXPXPXPXPXPXPXPXPXPXPXPXPXPXPXPXPXPXPXPX|.w.P D.S././.Q.I.U.!.8X=X4.=X4.4.=X7.3.!.;.XX7Xk.: i z M.!.^.3X~.^.=X0X-X&X&X&X;X0X=X8X8._.6X2XS.g.aXPXPXPXPXPXPXPXPXPXPXPXPXPXPXPXPXPXPXPXPXPXPXPXPXPXPXPXPXPXPXPXPXPXPXPXPXPXPXPXPXPXPXPXPXPXPXPXPXPXPXPXPXPXPXPXPX",
"PXPXPXPXPXPXPXPXPXPXPXPXPXPXPXPXPXPXPXPXPXPXPXPXPXPXPXPXPXPXPXPXPXkX'.S P D.W.M.M.Q.Q.(.!.U.7.4.>.4.7.=X6.6.!.Q.Q.XXc.l 7 7 K.Q.6.6.8.^.=X0X&X%X&X&X9.-X=X6.4X)._.7X Xg.MXPXPXPXPXPXPXPXPXPXPXPXPXPXPXPXPXPXPXPXPXPXPXPXPXPXPXPXPXPXPXPXPXPXPXPXPXPXPXPXPXPXPXPXPXPXPXPXPXPXPXPXPXPXPXPXPX",
"PXPXPXPXPXPXPXPXPXPXPXPXPXPXPXPXPXPXPXPXPXPXPXPXPXPXPXPXPXPXPXPXPXjX`.B k Z.M.M./.).Q.Q.!.=.3.7.4.>.>.5X7.6.6.Q./.XX@.z 7 6 Q._.5.~.^.^.5X-Xo.%X%X&X4.7.^.6.~.~._.mXS.t.iXPXPXPXPXPXPXPXPXPXPXPXPXPXPXPXPXPXPXPXPXPXPXPXPXPXPXPXPXPXPXPXPXPXPXPXPXPXPXPXPXPXPXPXPXPXPXPXPXPXPXPXPXPXPXPXPX",
"PXPXPXPXPXPXPXPXPXPXPXPXPXPXPXPXPXPXPXPXPXPXPXPXPXPXPXPXPXPXPXPXPXjXj.C h Z././.@.-._.Q.=.Q.+.!.4.>.7.5X=X6.6.Q.Q.XXk.g 7 = Q.).5.~.8.=X5X=X4.o.o.o.4.7.=X^.^.2X).2Xc.t.eXPXPXPXPXPXPXPXPXPXPXPXPXPXPXPXPXPXPXPXPXPXPXPXPXPXPXPXPXPXPXPXPXPXPXPXPXPXPXPXPXPXPXPXPXPXPXPXPXPXPXPXPXPXPXPXPX",
"PXPXPXPXPXPXPXPXPXPXPXPXPXPXPXPXPXPXPXPXPXPXPXPXPXPXPXPXPXPXPXPXPXjXg.e.i H 7XQ.M.!.^.).!.=X!.+.3.7.5X^.6.6.Q.Q./. XF V l = @.7XQ.;.3.8.^.=X8X0X=X5X=X7.4X^.6.6._._.c.y.[.PXPXPXPXPXPXPXPXPXPXPXPXPXPXPXPXPXPXPXPXPXPXPXPXPXPXPXPXPXPXPXPXPXPXPXPXPXPXPXPXPXPXPXPXPXPXPXPXPXPXPXPXPXPXPXPX",
"PXPXPXPXPXPXPXPXPXPXPXPXPXPXPXPXPXPXPXPXPXPXPXPXPXPXPXPXPXPXPXPXjXtX'.e.p l XX6X-.-.;.6.=X7.^.5X5X-X5X^.6.-.-.M./.Z.J V k d > 7X6X3.3.!.^.3X3X3X8X^.4X4X^.=X!.!./.S.f.t.[.PXPXPXPXPXPXPXPXPXPXPXPXPXPXPXPXPXPXPXPXPXPXPXPXPXPXPXPXPXPXPXPXPXPXPXPXPXPXPXPXPXPXPXPXPXPXPXPXPXPXPXPXPXPXPXPX",
"PXPXPXPXPXPXPXPXPXPXPXPXPXPXPXPXPXPXPXPXPXPXPXPXPXPXPXPXPXPXPXPXjXtXg.w.w.- c.cXQ.5.8.6.8.3.=X=X4X^.8.6.6.!.5.M./.k.J B h V - N 6X!.6.-.;.6.^.3X3X^.^.5X^.-.!.!.+Xr.J e.wXPXPXPXPXPXPXPXPXPXPXPXPXPXPXPXPXPXPXPXPXPXPXPXPXPXPXPXPXPXPXPXPXPXPXPXPXPXPXPXPXPXPXPXPXPXPXPXPXPXPXPXPXPXPXPXPX",
"PXPXPXPXPXPXPXPXPXPXPXPXPXPXPXPXPXPXPXPXPXPXPXPXPXPXPXPXPXPXPXPXhX|.g.w.S B , W.8X5.5.;.;.6.6.^.^.6.6.6.6.-.M./.Z.z k k k k n O N 6X-.-.Q.;.8.~.6.8.5.5.6.6.6.).Z.S S q.pXPXPXPXPXPXPXPXPXPXPXPXPXPXPXPXPXPXPXPXPXPXPXPXPXPXPXPXPXPXPXPXPXPXPXPXPXPXPXPXPXPXPXPXPXPXPXPXPXPXPXPXPXPXPXPXPX",
"PXPXPXPXPXPXPXPXPXPXPXPXPXPXPXPXPXPXPXPXPXPXPXPXPXPXPXPXPXPXPXsXjX|.h.h.S S z 5 W.6XQ.-.Q.Q.-.-.;.6.~.5.-.Q._./.m i k S k i D i O q XX_.-.6.;.-.3.3.;.-.;.Q./.@.z D q.y.PXPXPXPXPXPXPXPXPXPXPXPXPXPXPXPXPXPXPXPXPXPXPXPXPXPXPXPXPXPXPXPXPXPXPXPXPXPXPXPXPXPXPXPXPXPXPXPXPXPXPXPXPXPXPXPXPX",
"PXPXPXPXPXPXPXPXPXPXPXPXPXPXPXPXPXPXPXPXPXPXPXPXPXPXPXPXPXPXPXkXhX'.w.D S h l 7 7 @.).).Q.Q.M.-.-.-.-.5.Q.Q.M.H > V B B S P a k z , z D..XQ.Q.-.-.=.Q.).Q.W.H 7 l V q.wXPXPXPXPXPXPXPXPXPXPXPXPXPXPXPXPXPXPXPXPXPXPXPXPXPXPXPXPXPXPXPXPXPXPXPXPXPXPXPXPXPXPXPXPXPXPXPXPXPXPXPXPXPXPXPXPXPX",
"PXPXPXPXPXPXPXPXPXPXPXPXPXPXPXPXPXPXPXPXPXPXPXPXPXPXPXPXPXPXPXjXtX'.h.s a k l l z , H /..X/./.=.M.M.M.M.Z.c.F l J t.N.N.N.w.B B k h , z b..X.X.X/.Y.m.M.x.c.k.c.c.n `.PXPXPXPXPXPXPXPXPXPXPXPXPXPXPXPXPXPXPXPXPXPXPXPXPXPXPXPXPXPXPXPXPXPXPXPXPXPXPXPXPXPXPXPXPXPXPXPXPXPXPXPXPXPXPXPXPXPX",
"PXPXPXPXPXPXPXPXPXPXPXPXPXPXPXPXPXPXPXPXPXPXPXPXPXPXPXPXPXPXPXjXuX'.w.s a : , d w i > , l D././.R.Z.x.c.x.x.N.B.].].oX].'.].C.S V V Z B.Z.S.R.Y. Xv.f 2 > w j V H Z.rXPXPXPXPXPXPXPXPXPXPXPXPXPXPXPXPXPXPXPXPXPXPXPXPXPXPXPXPXPXPXPXPXPXPXPXPXPXPXPXPXPXPXPXPXPXPXPXPXPXPXPXPXPXPXPXPXPXPX",
"PXPXPXPXPXPXPXPXPXPXPXPXPXPXPXPXPXPXPXPXPXPXPXPXPXPXPXPXPXPXaXjX|.g.w.a k i , w h C w h V L c.k.F V j j V V J r.r.N.].].C.Z.N.N.B.x.Z.x.c.M.v.b.v.G @ & X # $ : - w C d.gXPXPXPXPXPXPXPXPXPXPXPXPXPXPXPXPXPXPXPXPXPXPXPXPXPXPXPXPXPXPXPXPXPXPXPXPXPXPXPXPXPXPXPXPXPXPXPXPXPXPXPXPXPXPXPXPX",
"PXPXPXPXPXPXPXPXPXPXPXPXPXPXPXPXPXPXPXPXPXPXPXPXPXPXPXPXPXPXkXhX'.g.t.a i w - & - # h N.B.z.K j d w t j h e - - j J Z.oX X XS.OX/.A.b.m.' H @.@.m.b.2 @ # X   $ # e e w J rXPXPXPXPXPXPXPXPXPXPXPXPXPXPXPXPXPXPXPXPXPXPXPXPXPXPXPXPXPXPXPXPXPXPXPXPXPXPXPXPXPXPXPXPXPXPXPXPXPXPXPXPXPXPXPX",
"PXPXPXPXPXPXPXPXPXPXPXPXPXPXPXPXPXPXPXPXPXPXPXPXPXPXPXPXPXPXjXtX'.h.w.B w : - -   J ]. Xs.V V V V h h j d t w > > t S.zXzXxX:X X@.v./.m./.M.v.M.Y.Y.6   X &   & e - ; ; g s.rXaXPXPXPXPXPXPXPXPXPXPXPXPXPXPXPXPXPXPXPXPXPXPXPXPXPXPXPXPXPXPXPXPXPXPXPXPXPXPXPXPXPXPXPXPXPXPXPXPXPXPXPXPXPX",
"PXPXPXPXPXPXPXPXPXPXPXPXPXPXPXPXPXPXPXPXPXPXPXPXPXPXPXPXPXPXjXtXC.w.D B p i : - j S.{.B.N.z.K J V d y h t d j t t d Z. XA.c.M f @./.m.@.v.m.M.x x [ g   * *   # $ # t * x A.].rXPXPXPXPXPXPXPXPXPXPXPXPXPXPXPXPXPXPXPXPXPXPXPXPXPXPXPXPXPXPXPXPXPXPXPXPXPXPXPXPXPXPXPXPXPXPXPXPXPXPXPXPXPX",
"PXPXPXPXPXPXPXPXPXPXPXPXPXPXPXPXPXPXPXPXPXPXPXPXPXPXPXPXPXuXjX|.h.f.D B p e - h  X@X Xx.x.s.r.r.A Z Z Z j l V w t Z B.K * X X f M.7X7XN S.7XJXH t l L ; $ $ $ - # * 1 X G b.@XfXpXPXPXPXPXPXPXPXPXPXPXPXPXPXPXPXPXPXPXPXPXPXPXPXPXPXPXPXPXPXPXPXPXPXPXPXPXPXPXPXPXPXPXPXPXPXPXPXPXPXPXPXPX",
"PXPXPXPXPXPXPXPXPXPXPXPXPXPXPXPXPXPXPXPXPXPXPXPXPXPXPXPXPXsXhX|.h.f.B B B e w {.lXzX@XS.Z.k.s.r.A Z Z j y Z J V t J  XL $ t v 2 1 m.lXnXJXJX XJ d d z.j : : t : 2 6 1 2 j V.zXNXvXpXPXPXPXPXPXPXPXPXPXPXPXPXPXPXPXPXPXPXPXPXPXPXPXPXPXPXPXPXPXPXPXPXPXPXPXPXPXPXPXPXPXPXPXPXPXPXPXPXPXPXPX",
"PXPXPXPXPXPXPXPXPXPXPXPXPXPXPXPXPXPXPXPXPXPXPXPXPXPXPXPXPXjXtXg.h.P S k p # z.zXNXNXxXOXZ.r.x.J K l Z j Z j Z V h z.zXa.; t a.d   2 [ S.Z.L j & j J B.z.: ; y t z = 2 j K z. XVXNXyXPXPXPXPXPXPXPXPXPXPXPXPXPXPXPXPXPXPXPXPXPXPXPXPXPXPXPXPXPXPXPXPXPXPXPXPXPXPXPXPXPXPXPXPXPXPXPXPXPXPXPX",
"PXPXPXPXPXPXPXPXPXPXPXPXPXPXPXPXPXPXPXPXPXPXPXPXPXPXPXPXPXjXtXC.f.S B k w i  XzXJXJXzX XB.Z.r.z.F V Z j Z Z Z J J S.#XZ $ ; Z v = @   & & & * & Z z.z.OXj # d f 7 z f F K z.Z.OX7XzXaXPXPXPXPXPXPXPXPXPXPXPXPXPXPXPXPXPXPXPXPXPXPXPXPXPXPXPXPXPXPXPXPXPXPXPXPXPXPXPXPXPXPXPXPXPXPXPXPXPXPX",
"PXPXPXPXPXPXPXPXPXPXPXPXPXPXPXPXPXPXPXPXPXPXPXPXPXPXPXPXPXjX|.g.w.D B k : P yXzXNXVX#X X XS.S.x.r.L K F F K J r.K OXOXj ; y y t g f = = > 2 t > K s.j {.{.j j t d F G z.B.a.s. X XyXiXPXPXPXPXPXPXPXPXPXPXPXPXPXPXPXPXPXPXPXPXPXPXPXPXPXPXPXPXPXPXPXPXPXPXPXPXPXPXPXPXPXPXPXPXPXPXPXPXPXPX",
"PXPXPXPXPXPXPXPXPXPXPXPXPXPXPXPXPXPXPXPXPXPXPXPXPXPXPXPXsXiX'.f.S B k k w Z.yX#XyXOX X XOXS. X].B.k.L F a.k.r.s.z.#XS.t t l t & f v v f f d j d F a.F x.OXB.a.G L Z..XOXV.B.A.A.S.{.rXPXPXPXPXPXPXPXPXPXPXPXPXPXPXPXPXPXPXPXPXPXPXPXPXPXPXPXPXPXPXPXPXPXPXPXPXPXPXPXPXPXPXPXPXPXPXPXPXPXPX",
"PXPXPXPXPXPXPXPXPXPXPXPXPXPXPXPXPXPXPXPXPXPXPXPXPXPXPXPXkXuX'.w.D a k e j ]. X XOX].{.S. XyXOX@X{.Z.S.k.z.z.z.V.{.{.L : j h t w d G G Z l j V F Z r.s.s.K z.B.z.B.@XxX@XOX Xb.b.Z.B.].PXPXPXPXPXPXPXPXPXPXPXPXPXPXPXPXPXPXPXPXPXPXPXPXPXPXPXPXPXPXPXPXPXPXPXPXPXPXPXPXPXPXPXPXPXPXPXPXPXPX",
"PXPXPXPXPXPXPXPXPXPXPXPXPXPXPXPXPXPXPXPXPXPXPXPXPXPXPXPXMXtX'.w.D p p e V  XS.{.S.S.B.{.#XVXVXzX#X X@X XOX X X XS.z.j $ j h V y j v Z K L j j F L s.z.s.K K Z. X@XlXVXNX#X.XV.b.c.s.B.pXPXPXPXPXPXPXPXPXPXPXPXPXPXPXPXPXPXPXPXPXPXPXPXPXPXPXPXPXPXPXPXPXPXPXPXPXPXPXPXPXPXPXPXPXPXPXPXPXPX",
"PXPXPXPXPXPXPXPXPXPXPXPXPXPXPXPXPXPXPXPXPXPXPXPXPXPXPXPXkX|.g.w.D p p e J S.B.Z.S.S.B.].@XVXJXbXxX#XzXzXxXxX+X{.K v d ; j Z V j F F j F a.F Z K J r.z.Z s.y a. X#XxXnXxX+X.XA.b.G G L rXPXPXPXPXPXPXPXPXPXPXPXPXPXPXPXPXPXPXPXPXPXPXPXPXPXPXPXPXPXPXPXPXPXPXPXPXPXPXPXPXPXPXPXPXPXPXPXPXPX",
"PXPXPXPXPXPXPXPXPXPXPXPXPXPXPXPXPXPXPXPXPXPXPXPXPXPXPXPXjX|.g.w.B k h p J B.z.k.k.z.S.S.@XVXNXVXNXxXVXNXzX+XV.L f > t y Z V j J Z G j l r.r.K J a.s.z.h j J K x.b.b.Y.+X.XR.v.l.m F F oXPXPXPXPXPXPXPXPXPXPXPXPXPXPXPXPXPXPXPXPXPXPXPXPXPXPXPXPXPXPXPXPXPXPXPXPXPXPXPXPXPXPXPXPXPXPXPXPXPX",
"PXPXPXPXPXPXPXPXPXPXPXPXPXPXPXPXPXPXPXPXPXPXPXPXPXPXPXPXuX'.h.S B k e e J z.r.K F a.c.b.R.@XzXxXVXNXJXNX XG G v f v [ t j j j r.F V V V V L s.K s.z.z.j Z K s.V.A.v.l.Y.R.%.v.' v F m oXPXPXPXPXPXPXPXPXPXPXPXPXPXPXPXPXPXPXPXPXPXPXPXPXPXPXPXPXPXPXPXPXPXPXPXPXPXPXPXPXPXPXPXPXPXPXPXPXPX",
"PXPXPXPXPXPXPXPXPXPXPXPXPXPXPXPXPXPXPXPXPXPXPXPXPXPXPXaXuX'.w.e.s w p - V F Z v v G L k.b.R..X#XlXVXLX+X[ G [ { b.A.V.G * j Z l J V j j j Z r.a.r.B.s.d j a. Xz.V.R.m./.Y.v.x M v f l oXPXPXPXPXPXPXPXPXPXPXPXPXPXPXPXPXPXPXPXPXPXPXPXPXPXPXPXPXPXPXPXPXPXPXPXPXPXPXPXPXPXPXPXPXPXPXPXPXPX",
"PXPXPXPXPXPXPXPXPXPXPXPXPXPXPXPXPXPXPXPXPXPXPXPXPXPXPXkXuXh.w.D s e e e j J j f d f l m [ @.b./.zXVXxXb.@.m.m.K.n.n.l.v.f * j K L Z j j j j J s.z.z.z.y j  XxXZ.b.m.m.M.Y.m.6 6 * l J rXPXPXPXPXPXPXPXPXPXPXPXPXPXPXPXPXPXPXPXPXPXPXPXPXPXPXPXPXPXPXPXPXPXPXPXPXPXPXPXPXPXPXPXPXPXPXPXPXPX",
"PXPXPXPXPXPXPXPXPXPXPXPXPXPXPXPXPXPXPXPXPXPXPXPXPXPXPXkXtXf.w.B a e - e w r.f > > = 6 6 v v [ D.R.OX Xl.P.Y.n.%.] %.n.v.[ 2 2 K a.K j y j j Z a.B.s.z.j Z @XVX X.XY.Y.m.Y.m.x o 2 : y.gXPXPXPXPXPXPXPXPXPXPXPXPXPXPXPXPXPXPXPXPXPXPXPXPXPXPXPXPXPXPXPXPXPXPXPXPXPXPXPXPXPXPXPXPXPXPXPXPXPX",
"PXPXPXPXPXPXPXPXPXPXPXPXPXPXPXPXPXPXPXPXPXPXPXPXPXPXPXkX|.g.w.s p e e w - F f = = 1 2 1 f f v G l.A./.l.Y.K.K.n.*.*.n.%.n.b + v a.r.V y j j j F a.z.a.j Z  XVX X#X+XR.Y.n.R.H . * j [.PXPXPXPXPXPXPXPXPXPXPXPXPXPXPXPXPXPXPXPXPXPXPXPXPXPXPXPXPXPXPXPXPXPXPXPXPXPXPXPXPXPXPXPXPXPXPXPXPXPX",
"PXPXPXPXPXPXPXPXPXPXPXPXPXPXPXPXPXPXPXPXPXPXPXPXPXPXPXjX'.h.S a a e i - - l m * * * * + 1 6 6 x x ' m.m.(.K.J.&.1.! ] %.n.] 1 2 K a.Z y j j j j Z a.s.d d A.xXR.+XxX.Xm.m.R.v.+ * C PXPXPXPXPXPXPXPXPXPXPXPXPXPXPXPXPXPXPXPXPXPXPXPXPXPXPXPXPXPXPXPXPXPXPXPXPXPXPXPXPXPXPXPXPXPXPXPXPXPXPX",
"PXPXPXPXPXPXPXPXPXPXPXPXPXPXPXPXPXPXPXPXPXPXPXPXPXPXkXuX'.f.S B a : : - : d G = + + X + + 1 1 6 g M v.P.(.H.L.E.&.&.&.#.] n.G * j L K j h j j j l Z a.d t Z.@XA.#XxXlXY.R.Y.R.f & ].PXPXPXPXPXPXPXPXPXPXPXPXPXPXPXPXPXPXPXPXPXPXPXPXPXPXPXPXPXPXPXPXPXPXPXPXPXPXPXPXPXPXPXPXPXPXPXPXPXPXPX",
"PXPXPXPXPXPXPXPXPXPXPXPXPXPXPXPXPXPXPXPXPXPXPXPXPXPXkXtXC.w.B B p e : i % , F f + + . o . + + 1 1 x @.P.XX(.L.H.H.&.#.] %.] ' b 2 K a.V d h j V Z l j f d a.#Xz.{.#XcX+XY.A..Xb.r.PXPXPXPXPXPXPXPXPXPXPXPXPXPXPXPXPXPXPXPXPXPXPXPXPXPXPXPXPXPXPXPXPXPXPXPXPXPXPXPXPXPXPXPXPXPXPXPXPXPXPXPX",
"PXPXPXPXPXPXPXPXPXPXPXPXPXPXPXPXPXPXPXPXPXPXPXPXPXPXjXuX'.w.D B a e : & = & G b.2 o . o . . + + + 1 @.m.T.(.(.J.J.*.*.&.#.} ) ! 3 f [ Z j j w V Z > f f t z. Xz.].@X+X7X/.R.R.OXPXPXPXPXPXPXPXPXPXPXPXPXPXPXPXPXPXPXPXPXPXPXPXPXPXPXPXPXPXPXPXPXPXPXPXPXPXPXPXPXPXPXPXPXPXPXPXPXPXPXPXPXPX",
"PXPXPXPXPXPXPXPXPXPXPXPXPXPXPXPXPXPXPXPXPXPXPXPXPXPXkXtXC.w.S B p w w , @ = b.V.G +   . . . o X o 1 %.P.T.(.(./.P.H.n.*.&.#.#.| Q f m K F j h w > l 2 * t h V r.Z. X+XcX:XR./.vXPXPXPXPXPXPXPXPXPXPXPXPXPXPXPXPXPXPXPXPXPXPXPXPXPXPXPXPXPXPXPXPXPXPXPXPXPXPXPXPXPXPXPXPXPXPXPXPXPXPXPXPXPX",
"PXPXPXPXPXPXPXPXPXPXPXPXPXPXPXPXPXPXPXPXPXPXPXPXPXPXjX|.g.S B B p w : , O l  Xb.G 2 . . o o X . . 1 @.K.I.(.(.(.I.K.M.*.&.$.$.| %.v f F r.j h > w l d 2 j j j J N.S.fX:XcX.X.XvXvXPXPXPXPXPXPXPXPXPXPXPXPXPXPXPXPXPXPXPXPXPXPXPXPXPXPXPXPXPXPXPXPXPXPXPXPXPXPXPXPXPXPXPXPXPXPXPXPXPXPXPXPX",
"PXPXPXPXPXPXPXPXPXPXPXPXPXPXPXPXPXPXPXPXPXPXPXPXPXkXuX|.g.w.B B p i : & @ @..Xc.{ v 2 X     X X . 6 %.n.I.T.(.(.I.K.J.H.*.&.#.! ] ] x f a.V w d d t d d y F r.J r.B.OXOXcXcX.XfXvXiXPXPXPXPXPXPXPXPXPXPXPXPXPXPXPXPXPXPXPXPXPXPXPXPXPXPXPXPXPXPXPXPXPXPXPXPXPXPXPXPXPXPXPXPXPXPXPXPXPXPXPX",
"PXPXPXPXPXPXPXPXPXPXPXPXPXPXPXPXPXPXPXPXPXPXPXPXPXMXtX'.g.f.B B p a i O * M. Xb.[ L G f * X .   . M n.n.K.J.I.(.I.I.I.J.H.1.$.) ] } Q f G F h h w d t ; ; j K r.r.z.B.:XcXVX.X@XzXvXPXPXPXPXPXPXPXPXPXPXPXPXPXPXPXPXPXPXPXPXPXPXPXPXPXPXPXPXPXPXPXPXPXPXPXPXPXPXPXPXPXPXPXPXPXPXPXPXPXPXPX",
"PXPXPXPXPXPXPXPXPXPXPXPXPXPXPXPXPXPXPXPXPXPXPXPXPXaXtX`.w.w.B a B h > . 6 P./.A.k.K G G m 6 * X * ' %.%.P.H.L.E.E.I.L.J.H.H.1.$.&.! ] b f G K d w w w w w t j K r.r.z.OXlXnX+XXXcXvXiXPXPXPXPXPXPXPXPXPXPXPXPXPXPXPXPXPXPXPXPXPXPXPXPXPXPXPXPXPXPXPXPXPXPXPXPXPXPXPXPXPXPXPXPXPXPXPXPXPXPX",
"PXPXPXPXPXPXPXPXPXPXPXPXPXPXPXPXPXPXPXPXPXPXPXPXPXjXtXg.e.w.D B B w * . E H.Y.v.M.L l l v x f v b ' ' %.T.H.L.U.I.L.J.J.H.J.H.$.1.) } Q b v a.h w & : d t y j j Z Z a.B.:XxXcX.X+XzXvXPXPXPXPXPXPXPXPXPXPXPXPXPXPXPXPXPXPXPXPXPXPXPXPXPXPXPXPXPXPXPXPXPXPXPXPXPXPXPXPXPXPXPXPXPXPXPXPXPXPX",
"PXPXPXPXPXPXPXPXPXPXPXPXPXPXPXPXPXPXPXPXPXPXPXPXPXMX'.g.S S a B h > < < W _ H.%.M.x.L m g f j v M v M %.H.#.*.*.L.J.J.J.J.L.H.$.$.$.) ] c f L V h h t t y j Z l Z F Z N. XlXxX/..XcXzXiXPXPXPXPXPXPXPXPXPXPXPXPXPXPXPXPXPXPXPXPXPXPXPXPXPXPXPXPXPXPXPXPXPXPXPXPXPXPXPXPXPXPXPXPXPXPXPXPXPX",
"PXPXPXPXPXPXPXPXPXPXPXPXPXPXPXPXPXPXPXPXPXPXPXPXjXuX'.g.S D B B d b o >X*XX.,.} m..Xk.n g G j v f b M n.n.&.&.*.U.L.K.H.J.L.H.1.$.1.| } ] b f G j w j h j L [ Z L L r.z.{.zXxX+Xm.7XzXvXPXPXPXPXPXPXPXPXPXPXPXPXPXPXPXPXPXPXPXPXPXPXPXPXPXPXPXPXPXPXPXPXPXPXPXPXPXPXPXPXPXPXPXPXPXPXPXPXPX",
"PXPXPXPXPXPXPXPXPXPXPXPXPXPXPXPXPXPXPXPXPXPXPXPXkXtX'.g.S B B k j + >X9X*X*X` | P.XXk.m l v v G v v M %.*.#.&.&.H.U.L.J.J.L.U.H.1.1.#.) ] c f v K j : : t G a.v v k.z.s.B.OXlX:XY./.lXBXPXPXPXPXPXPXPXPXPXPXPXPXPXPXPXPXPXPXPXPXPXPXPXPXPXPXPXPXPXPXPXPXPXPXPXPXPXPXPXPXPXPXPXPXPXPXPXPXPX",
"PXPXPXPXPXPXPXPXPXPXPXPXPXPXPXPXPXPXPXPXPXPXPXPXjXtXC.h.D B B k d >X,X9X1X;X4./ m.XX@.m m l l m f f c %.*.#.#.&.1.H.U.J.J.J.U.U.J.<.&.) ! Q b x G K w : ; d s.[ G [ k.a.k.S.#XxXXX/.zXCXMXPXPXPXPXPXPXPXPXPXPXPXPXPXPXPXPXPXPXPXPXPXPXPXPXPXPXPXPXPXPXPXPXPXPXPXPXPXPXPXPXPXPXPXPXPXPXPXPX",
"PXPXPXPXPXPXPXPXPXPXPXPXPXPXPXPXPXPXPXPXPXPXPXPXjX|.g.f.D B B j f < *XqX1X;X*X( %. XD.v m v l l 2 6 v %.*.} #.&.1.H.U.J.H.H.J.U.U.1.1.#.! ! c b f [ l t ; ; K l.G l l F L z. XlX7X/..XzXBXPXPXPXPXPXPXPXPXPXPXPXPXPXPXPXPXPXPXPXPXPXPXPXPXPXPXPXPXPXPXPXPXPXPXPXPXPXPXPXPXPXPXPXPXPXPXPXPX",
"PXPXPXPXPXPXPXPXPXPXPXPXPXPXPXPXPXPXPXPXPXPXPXaXhX|.g.w.B B B h ; < *XAX;X<X*X` } Y.R.m g m v v f f v @.%.! #.&.1.1.U.J.H.H.H.U.L.J.1.$.) W Q 8 f G Z d : ; d G Z Z F G k.Z. XlXcXXX+XzXNXBXPXPXPXPXPXPXPXPXPXPXPXPXPXPXPXPXPXPXPXPXPXPXPXPXPXPXPXPXPXPXPXPXPXPXPXPXPXPXPXPXPXPXPXPXPXPXPX",
"PXPXPXPXPXPXPXPXPXPXPXPXPXPXPXPXPXPXPXPXPXPXPXkXuX'.g.w.D B B d % 3 X.1X;X<X%X2.R v. X[ x v v v z f x ] %.! | $.1.1.H.U.J.H.3.U.L.L.1.1.) W ! b f f Z d > > ; v Z j v m K a.S.lXlXlXA.+XVXVXPXPXPXPXPXPXPXPXPXPXPXPXPXPXPXPXPXPXPXPXPXPXPXPXPXPXPXPXPXPXPXPXPXPXPXPXPXPXPXPXPXPXPXPXPXPXPX",
"PXPXPXPXPXPXPXPXPXPXPXPXPXPXPXPXPXPXPXPXPXPXPXjXtXC.g.P D B B i % f 2.;X1X;X*XX.R M  XA.G b m l t > f ' #.! ) $.1.&.F.H.J.H.3.J.L.L.H.1.O.) ~ T 6 6 v h w : * l A h f z l l l.:XxXcXY./.XXVXFXPXPXPXPXPXPXPXPXPXPXPXPXPXPXPXPXPXPXPXPXPXPXPXPXPXPXPXPXPXPXPXPXPXPXPXPXPXPXPXPXPXPXPXPXPXPX",
"PXPXPXPXPXPXPXPXPXPXPXPXPXPXPXPXPXPXPXPXPXPXPXkX|.g.g.S B B k : - M  .,X,X;X;X4.) 8 A.R.[ b K v l f 6 M ] W ) &.&.$.1.H.H.H.3.J.I.K.L.1.$.O.W W 8 3 f j d ; $ t Z j f 2 g F H R.zX:XH.I.XXbXBXPXPXPXPXPXPXPXPXPXPXPXPXPXPXPXPXPXPXPXPXPXPXPXPXPXPXPXPXPXPXPXPXPXPXPXPXPXPXPXPXPXPXPXPXPXPX",
"PXPXPXPXPXPXPXPXPXPXPXPXPXPXPXPXPXPXPXPXPXPXPXuX|.'.h.f.P k V % z %. .qX1X1X,X*X2.~ ] .Xl.{ { m f f 2 Q ! E ~ _ $.$.,.1.J.1.F.H.P.P.L.H.<.O._ W Q 3 t k i ; ; * j v f x x v G x.+X:XP.=./.7XVXBXPXPXPXPXPXPXPXPXPXPXPXPXPXPXPXPXPXPXPXPXPXPXPXPXPXPXPXPXPXPXPXPXPXPXPXPXPXPXPXPXPXPXPXPXPX",
"PXPXPXPXPXPXPXPXPXPXPXPXPXPXPXPXPXPXPXPXPXPXPXjX'.g.h.S S D h % g %. .AXqXqX,X-X2.#.!  XR.[ [ v f f 6 ' ! E ! _ ,.,.<.1.J.J.H.H.P.Y.I.U.1.,._ ` Q b > d h ; * * t a.M M ' M v a.OXlXXX@.M.XXnXBXPXPXPXPXPXPXPXPXPXPXPXPXPXPXPXPXPXPXPXPXPXPXPXPXPXPXPXPXPXPXPXPXPXPXPXPXPXPXPXPXPXPXPXPXPX",
"PXPXPXPXPXPXPXPXPXPXPXPXPXPXPXPXPXPXPXPXPXPXsXuX'.h.h.D S S e , v.] _ 9XAXAX,X9X-X4 3 [ b.l.{ { f f 6 Q Q c W ) ,.,.,.<.H.U.H.F.K.K.L.L.1.<.$.) ! Q 2 > j > * * t K v.M N ' L l.A.:X:X' %./.cXNXPXPXPXPXPXPXPXPXPXPXPXPXPXPXPXPXPXPXPXPXPXPXPXPXPXPXPXPXPXPXPXPXPXPXPXPXPXPXPXPXPXPXPXPXPX",
"PXPXPXPXPXPXPXPXPXPXPXPXPXPXPXPXPXPXPXPXPXPXMXtX'.f.w.S S B - l @.! ) *XAXSXSX0 4 3 1 3 b.x.[ G f x b Q Q c E ~ #.$.,.<.1.J.J.F.H.H.I.L.H.1.,.) ) Q 6 = d t ; 2 t Z G ' H v k.l.R..X.XQ #.K.:XNXFXPXPXPXPXPXPXPXPXPXPXPXPXPXPXPXPXPXPXPXPXPXPXPXPXPXPXPXPXPXPXPXPXPXPXPXPXPXPXPXPXPXPXPXPX",
"PXPXPXPXPXPXPXPXPXPXPXPXPXPXPXPXPXPXPXPXPXPXjXuXC.w.D D B i i L v.*.| ,.AXAX4 9 3 f 2 * v a.@.m f f b M c 9 I W ) O.<.,.1.1.J.H.H.H.I.I.L.H.1._ ) T E 1 * d 2 > t d G 6 m M f [ c.A.Y.@.' m.T.zXBXPXPXPXPXPXPXPXPXPXPXPXPXPXPXPXPXPXPXPXPXPXPXPXPXPXPXPXPXPXPXPXPXPXPXPXPXPXPXPXPXPXPXPXPX",
"PXPXPXPXPXPXPXPXPXPXPXPXPXPXPXPXPXPXPXPXPXPXjX|.g.f.D B h i l k.m.=.O._ 2.nX0 8 M X t j t [ @.g f 6 f M c 9 9 W / O.<.,.$.1.H.H.H.H.K.P.I.J.1.#._ U ! 8 + 2 t w ; v G G G m G [ [ b.m.%.Q n.m..XvXMXPXPXPXPXPXPXPXPXPXPXPXPXPXPXPXPXPXPXPXPXPXPXPXPXPXPXPXPXPXPXPXPXPXPXPXPXPXPXPXPXPXPXPX",
"PXPXPXPXPXPXPXPXPXPXPXPXPXPXPXPXPXPXPXPXPXPXkX'.g.f.D D p e j k.P.&.1.,.1.} 3 f   d : t t l x.@.m g b Q Q T 9 ! / O.,.,.$.$.1.H.F.F.H.P.P.I.H.$.$.^ ^ E 1 * d w j * [ S.x.H Z b.A.A.Y.m.b #.n. XxXMXPXPXPXPXPXPXPXPXPXPXPXPXPXPXPXPXPXPXPXPXPXPXPXPXPXPXPXPXPXPXPXPXPXPXPXPXPXPXPXPXPXPXPX",
"PXPXPXPXPXPXPXPXPXPXPXPXPXPXPXPXPXPXPXPXPXPXuX[.g.w.D S k e h l.H.&.1.$.&.c 6 g > w e : t f H c.G g f M Q c 0 W ) _ $.,.$.,.1.1.1.1.H.P.T.T.I.1.,.O.Y ^ 8 + d d w 2 f l l F v a.[ ' v.R.' %.n.K..XyXPXPXPXPXPXPXPXPXPXPXPXPXPXPXPXPXPXPXPXPXPXPXPXPXPXPXPXPXPXPXPXPXPXPXPXPXPXPXPXPXPXPXPX",
"PXPXPXPXPXPXPXPXPXPXPXPXPXPXPXPXPXPXPXPXPXPXaX`.y.B w.S B k e l.L.$.1.&.} #.6 l d - $ ; t 2 g c.' g f M M c 9 ~ ^ ) _ O.,.,.,.1.1.1.H.K.Y.Y.P.J.$.O./ ^ T 3 * w f * > ; > z z l F m ' m.%.c %.m..X#XrXPXPXPXPXPXPXPXPXPXPXPXPXPXPXPXPXPXPXPXPXPXPXPXPXPXPXPXPXPXPXPXPXPXPXPXPXPXPXPXPXPXPX",
"PXPXPXPXPXPXPXPXPXPXPXPXPXPXPXPXPXPXPXPXPXPXuXj.y.S w.k B V > [ J.$.1.,.#.%.x l k w ; ; ; ; 7 G M f f M M T I W W ) _ O.,.,.$.<.1.1.H.K.Y.Y.P.K.1.O.( / W 8 1 > f 2 > > t d d l l v G v.v.b %.*./.+XyXPXPXPXPXPXPXPXPXPXPXPXPXPXPXPXPXPXPXPXPXPXPXPXPXPXPXPXPXPXPXPXPXPXPXPXPXPXPXPXPXPXPX",
"PXPXPXPXPXPXPXPXPXPXPXPXPXPXPXPXPXPXPXPXPXPXPX|.y.S D k D 5 @ @.U.1.$.$.#.#.M g V V h ; $ * * = m g x ' M c 9 I W ) _ O.,.,.$.,.<.1.F.H.K.Y.Y.I.3.$.( ( ) T 6 * f f ; ; > - > f f l v [ b.c #.*.I..X:XrXPXPXPXPXPXPXPXPXPXPXPXPXPXPXPXPXPXPXPXPXPXPXPXPXPXPXPXPXPXPXPXPXPXPXPXPXPXPXPXPXPX",
"PXPXPXPXPXPXPXPXPXPXPXPXPXPXPXPXPXPXPXPXPXPXPXpXu.D S V l z 5 N J.1._ _ _ | Q x z z d : ; 2 = = 2 6 f ' M c c T W ) _ _ $.$.$.,.$.1.F.F.H.P.Y.P.H.$.O.O.) ~ c 1 1 f ; ; - $ > t f f f m v.' Q =.H.(.+XfXPXPXPXPXPXPXPXPXPXPXPXPXPXPXPXPXPXPXPXPXPXPXPXPXPXPXPXPXPXPXPXPXPXPXPXPXPXPXPXPXPX",
"PXPXPXPXPXPXPXPXPXPXPXPXPXPXPXPXPXPXPXPXPXPXPXPXeXq.r C C k l g M.&._ _ _ ) ! N f 7 d w > 2 * @ * 2 f ' M c T T W ) ) _ O.O.O.O.$.<.1.F.H.P.Y.P.K.1.,.$._ _ W 0 + 6 t > - - d j l l j v [ l.b #.=.(.+XfXPXPXPXPXPXPXPXPXPXPXPXPXPXPXPXPXPXPXPXPXPXPXPXPXPXPXPXPXPXPXPXPXPXPXPXPXPXPXPXPXPX",
"PXPXPXPXPXPXPXPXPXPXPXPXPXPXPXPXPXPXPXPXPXPXPXPXPXaX[.q.u.q.u r.n.*._ / / U W c x z z d > > & O & 2 6 ' M b c 9 E ~ ) ) O.O.O.O.,.<.1.G.J.K.P./.P.H.1.$._ _ / E < 6 f t : : d l l j j j { b.c #.*.J..X#XrXPXPXPXPXPXPXPXPXPXPXPXPXPXPXPXPXPXPXPXPXPXPXPXPXPXPXPXPXPXPXPXPXPXPXPXPXPXPXPXPX",
"PXPXPXPXPXPXPXPXPXPXPXPXPXPXPXPXPXPXPXPXPXPXPXPXPXPXPXPXPXPXPX[.b.#._ ^ ^ U I c x 7 z d w d > - X * * M Q c E E T W ) / _ O.:.O.$.$.<.G.J.K.P.Y.P.K.1.$.,.( ^ W 9 1 f d w : > > z d h j A v.Q ! F.*..X:XiXPXPXPXPXPXPXPXPXPXPXPXPXPXPXPXPXPXPXPXPXPXPXPXPXPXPXPXPXPXPXPXPXPXPXPXPXPXPXPXPX",
"PXPXPXPXPXPXPXPXPXPXPXPXPXPXPXPXPXPXPXPXPXPXPXPXPXPXPXPXPXPXPXPXz.Q ~ U Y U I W M g g z w i > % & * * M Q c E I I W ) / _ O.:.:.O.O.$.1.J.H.K.P.Y.P.F.&.,.O./ / #.3 3 j t > - > > d t y v { ' c &.*./.:XyXrXPXPXPXPXPXPXPXPXPXPXPXPXPXPXPXPXPXPXPXPXPXPXPXPXPXPXPXPXPXPXPXPXPXPXPXPXPXPXPX",
"PXPXPXPXPXPXPXPXPXPXPXPXPXPXPXPXPXPXPXPXPXPXPXPXPXPXPXPXPXPXPXPXy.{ T 0 R U  .R Q b v l w d 7 > - > 2 x Q T 9 I I W W ^ ) ( :.:.O.O.,.<.1.F.K.P.P.Y.K.*.$.O.( / ) Q 3 6 f ; , > , - - w 2 v x 8 } H.F..X+XyXPXPXPXPXPXPXPXPXPXPXPXPXPXPXPXPXPXPXPXPXPXPXPXPXPXPXPXPXPXPXPXPXPXPXPXPXPXPXPX",
"PXPXPXPXPXPXPXPXPXPXPXPXPXPXPXPXPXPXPXPXPXPXPXPXPXPXPXPXPXPXPXPXPXt.A 9 0 U 4 0 8 M M 2 z z d w # > 2 v E 9 E W I ~ W W ) _ :.:.:.:.,.,.1.1.J.I.P.Y.P.H.&.$.( / ) ! 8 < 6 = X d - w > & 2 2 6 c %.F.K.(.(.+XdXPXPXPXPXPXPXPXPXPXPXPXPXPXPXPXPXPXPXPXPXPXPXPXPXPXPXPXPXPXPXPXPXPXPXPXPXPXPX",
"PXPXPXPXPXPXPXPXPXPXPXPXPXPXPXPXPXPXPXPXPXPXPXPXPXPXPXPXPXPXPXPXPXPXe.{ 8 4 9 8 8 q x 7 z F C w e w * x b 9 I I I ~ W W ) / ( ( :.O.O.O.1.H.J.K.P.Y.I.H.1.$.( _ W } ! 1 + f 2 @ & O * @ 1 x c < } &.F.(./.+XiXPXPXPXPXPXPXPXPXPXPXPXPXPXPXPXPXPXPXPXPXPXPXPXPXPXPXPXPXPXPXPXPXPXPXPXPXPXPX",
"PXPXPXPXPXPXPXPXPXPXPXPXPXPXPXPXPXPXPXPXPXPXPXPXPXPXPXPXPXPXPXPXPXPXPXe.a.A A A j f l n > j y w e : X b 8 9 I 9 T ~ W W ) / ( ( O.O.O.O.,.1.H.J.K.P.I.I.1.,.O._ _ ! ) 9 o + f M x g x b b 1 3 9 1.&.1.!./..XyXPXPXPXPXPXPXPXPXPXPXPXPXPXPXPXPXPXPXPXPXPXPXPXPXPXPXPXPXPXPXPXPXPXPXPXPXPXPX",
"PXPXPXPXPXPXPXPXPXPXPXPXPXPXPXPXPXPXPXPXPXPXPXPXPXPXPXPXPXPXPXPXPXPXPXPXPXPXPXPXPXPX`.C C j = f > : & G b 8 0 9 I W W ~ ) ^ / / O.O.O.O.$.<.F.H.K.T./.I.H.1.,.( ) _ ) #.! < . . 1 3 1 < o o 4 | ,.$.$.U./. X#X}.PXPXPXPXPXPXPXPXPXPXPXPXPXPXPXPXPXPXPXPXPXPXPXPXPXPXPXPXPXPXPXPXPXPXPXPXPX",
"PXPXPXPXPXPXPXPXPXPXPXPXPXPXPXPXPXPXPXPXPXPXPXPXPXPXPXPXPXPXPXPXPXPXPXPXPXPXPXPXPXPXPXu.t.J 2 = > > ; v b 8 8 0 9 E E ~ ) ) ) / / _ O.O.O.$.1.H.I.P.T.I.U.1.$.( ( O./ #.&.&.] 8 < < 4 4 < E $.| ) O.O.1.T./..XyXPXPXPXPXPXPXPXPXPXPXPXPXPXPXPXPXPXPXPXPXPXPXPXPXPXPXPXPXPXPXPXPXPXPXPXPXPX",
"PXPXPXPXPXPXPXPXPXPXPXPXPXPXPXPXPXPXPXPXPXPXPXPXPXPXPXPXPXPXPXPXPXPXPXPXPXPXPXPXPXPXPXi.u.C w = , - , = 6 c 8 0 4 9 I W ! ~ ) ) / _ O.O.O.$.&.*.J.K.P.I.L.1.,.O.:.Y / O./ ! $.&.) #.) _ ,._ ^ O.O.,.<.1.I.T./.OXPXPXPXPXPXPXPXPXPXPXPXPXPXPXPXPXPXPXPXPXPXPXPXPXPXPXPXPXPXPXPXPXPXPXPXPXPX",
"PXPXPXPXPXPXPXPXPXPXPXPXPXPXPXPXPXPXPXPXPXPXPXPXPXPXPXPXPXPXPXPXPXPXPXPXPXPXPXPXPXPXPXPXPXPXu w w > >   * b 8 c 4 0 0 T W W ! ) / / O.O.O.O.$.&.J.I.P.I.L.H.1.$.( ..:.^ _ $./ _ $.) O._ O.( :./ ( ( O.<.H.(./. XPXPXPXPXPXPXPXPXPXPXPXPXPXPXPXPXPXPXPXPXPXPXPXPXPXPXPXPXPXPXPXPXPXPXPXPXPX",
"PXPXPXPXPXPXPXPXPXPXPXPXPXPXPXPXPXPXPXPXPXPXPXPXPXPXPXPXPXPXPXPXPXPXPXPXPXPXPXPXPXPXPXPXPXPXq.e w , > &   M b 8 9 4 0 0 I W ~ ~ ) / _ O.:.O.O.$.*.H.I.I.I.K.F.,.( ( ( ( ( O._ _ _ _ _ ( ( ( O.( ( ( O.<.1.!.)..X}.PXPXPXPXPXPXPXPXPXPXPXPXPXPXPXPXPXPXPXPXPXPXPXPXPXPXPXPXPXPXPXPXPXPXPXPX",
"PXPXPXPXPXPXPXPXPXPXPXPXPXPXPXPXPXPXPXPXPXPXPXPXPXPXPXPXPXPXPXPXPXPXPXPXPXPXPXPXPXPXPXPXPXPXPXr w w > X ;   b b < 9 0 I T 9 9 I W ^ / O.:.O.O.$.&.H.I.P.P.L.F.$.( ( ( ( ( ( ( ( / ( ( ( ( ..O.( :.( :.$.$.H.Q.Y.{.[.PXPXPXPXPXPXPXPXPXPXPXPXPXPXPXPXPXPXPXPXPXPXPXPXPXPXPXPXPXPXPXPXPXPXPX",
"PXPXPXPXPXPXPXPXPXPXPXPXPXPXPXPXPXPXPXPXPXPXPXPXPXPXPXPXPXPXPXPXPXPXPXPXPXPXPXPXPXPXPXPXPXPXPXp.e - , % %   X M 8 c 0 4 0 I T W W W ^ _ :.:.O.$.&.H.H.I.I.I.H.&._ ( ( ( ( ( ( / ( ( ( ( ( ( :.( ..( O.O.O.1.L.K.Y.].PXPXPXPXPXPXPXPXPXPXPXPXPXPXPXPXPXPXPXPXPXPXPXPXPXPXPXPXPXPXPXPXPXPXPX",
"PXPXPXPXPXPXPXPXPXPXPXPXPXPXPXPXPXPXPXPXPXPXPXPXPXPXPXPXPXPXPXPXPXPXPXPXPXPXPXPXPXPXPXPXPXPXPXPXu > - , % >   M c 4 0 0 I W W W W W ^ ( :.:.O.O.$.*.H.I.T.T.K.1.O.( / / ( ( ( / ( ( ( ( ( ( :.:...( ..O.O.1.J.P.P.S.PXPXPXPXPXPXPXPXPXPXPXPXPXPXPXPXPXPXPXPXPXPXPXPXPXPXPXPXPXPXPXPXPXPXPX",
"PXPXPXPXPXPXPXPXPXPXPXPXPXPXPXPXPXPXPXPXPXPXPXPXPXPXPXPXPXPXPXPXPXPXPXPXPXPXPXPXPXPXPXPXPXPXPXPXw ; % # &   & @ %.] T ~ / U U ^ ) / / ( :.:.:.O.$.*.H.I.T.T.T.H.$.O._ ( / ( ( / ( ( ( ( ( ( O.:...:.( O.:.<.F.K.P.A.].PXPXPXPXPXPXPXPXPXPXPXPXPXPXPXPXPXPXPXPXPXPXPXPXPXPXPXPXPXPXPXPXPXPX",
"PXPXPXPXPXPXPXPXPXPXPXPXPXPXPXPXPXPXPXPXPXPXPXPXPXPXPXPXPXPXPXPXPXPXPXPXPXPXPXPXPXPXPXPXPXPXPXy.w ; w - - - > X   %.W O./ / / ) O.O.O.:.:.:.O.O.O.*.M.K.Y.T.T.L.1.O.O.O./ ( :.( ( ( ( ( ( ( O.O...:.( O.,.1.F.I.P.Y.S.PXPXPXPXPXPXPXPXPXPXPXPXPXPXPXPXPXPXPXPXPXPXPXPXPXPXPXPXPXPXPXPXPXPX",
"PXPXPXPXPXPXPXPXPXPXPXPXPXPXPXPXPXPXPXPXPXPXPXPXPXPXPXPXPXPXPXPXPXPXPXPXPXPXPXPXPXPXPXPXPXPXPXq.: # e - # e   @ + *.1.O./ :.,._ #.$.,.:.:.( O.O.O.=.*.H.Y.R.T.I.H.$.O.O./ ( :.( ( / ( ( ( _ O.:._ :.( O.<.1.F.I.I.P.A.].PXPXPXPXPXPXPXPXPXPXPXPXPXPXPXPXPXPXPXPXPXPXPXPXPXPXPXPXPXPXPXPXPX",
"PXPXPXPXPXPXPXPXPXPXPXPXPXPXPXPXPXPXPXPXPXPXPXPXPXPXPXPXPXPXPXPXPXPXPXPXPXPXPXPXPXPXPXPXPXPXu.e - & $ - : # % @ + o &.,.<.:.:._ #.$.,.:.:.( ( O.$.$.*.m.Y.R.T.K.J.$.O.O./ _ :.( ( ( ( O.O.O.O.:._ :.+.+.2.<.*.K.H.P.m.].PXPXPXPXPXPXPXPXPXPXPXPXPXPXPXPXPXPXPXPXPXPXPXPXPXPXPXPXPXPXPXPXPX"
};
