/* XPM */
static const char *xpm__2_sgun_startshoot1[] = {
/* columns rows colors chars-per-pixel */
"116 132 256 2 ",
"   c #0B0302",
".  c #0B0606",
"X  c #120A03",
"o  c #140D0B",
"O  c #180C0A",
"+  c #1B140C",
"@  c #17120A",
"#  c #090415",
"$  c #160D14",
"%  c #1B1514",
"&  c #1C161B",
"*  c #1E191B",
"=  c #191615",
"-  c #23160D",
";  c #231C1C",
":  c #241916",
">  c #301D16",
",  c #27221C",
"<  c #36251B",
"1  c #25200C",
"2  c #1C1924",
"3  c #160E2D",
"4  c #231D23",
"5  c #241D28",
"6  c #281A3A",
"7  c #252125",
"8  c #2B2324",
"9  c #26222A",
"0  c #2B242B",
"q  c #2E292C",
"w  c #2B2926",
"e  c #332B2C",
"r  c #372926",
"t  c #3A322E",
"y  c #2E2A34",
"u  c #2A2635",
"i  c #322D33",
"p  c #332D3A",
"a  c #392C37",
"s  c #3C3434",
"d  c #35313C",
"f  c #3B343B",
"g  c #3E393B",
"h  c #363235",
"j  c #1D2625",
"k  c #7B0B08",
"l  c #7C140A",
"z  c #690A19",
"x  c #780C16",
"c  c #791318",
"v  c #6A1214",
"b  c #571437",
"n  c #560F2E",
"m  c #691428",
"M  c #761526",
"N  c #661535",
"B  c #6C0E27",
"V  c #4B342C",
"C  c #47352A",
"Z  c #5C3B2C",
"A  c #54382D",
"S  c #433B3C",
"D  c #483936",
"F  c #543C33",
"G  c #5B3D32",
"H  c #553A39",
"J  c #422C27",
"K  c #623E32",
"L  c #613D2E",
"P  c #5B2717",
"I  c #4A413D",
"U  c #5B4135",
"Y  c #55433B",
"T  c #5B443B",
"R  c #59473A",
"E  c #574C32",
"W  c #644234",
"Q  c #68473A",
"!  c #724C3D",
"~  c #6D4B34",
"^  c #351758",
"/  c #3A3543",
"(  c #393646",
")  c #3B3852",
"_  c #322A4A",
"`  c #311B5F",
"'  c #561945",
"]  c #4C184C",
"[  c #433C44",
"{  c #443A4A",
"}  c #473B54",
"|  c #56394F",
" . c #562854",
".. c #3E4150",
"X. c #4C4443",
"o. c #4A444A",
"O. c #5D4B44",
"+. c #534B4A",
"@. c #574846",
"#. c #5C524D",
"$. c #484656",
"%. c #534B59",
"&. c #5B5456",
"*. c #4D595A",
"=. c #644B45",
"-. c #734E42",
";. c #714F4E",
":. c #64524C",
">. c #695249",
",. c #765143",
"<. c #785548",
"1. c #685957",
"2. c #745755",
"3. c #726459",
"4. c #4A4864",
"5. c #595767",
"6. c #54516B",
"7. c #635E69",
"8. c #635B72",
"9. c #5C616F",
"0. c #6B6568",
"q. c #736B6B",
"w. c #746A66",
"e. c #79736B",
"r. c #686775",
"t. c #797474",
"y. c #746D74",
"u. c #840C03",
"i. c #8A0E03",
"p. c #840D0C",
"a. c #880B0A",
"s. c #8B1303",
"d. c #84120C",
"f. c #8B130B",
"g. c #871506",
"h. c #931402",
"j. c #9C1B03",
"k. c #961909",
"l. c #860D13",
"z. c #831314",
"x. c #881616",
"c. c #961814",
"v. c #930D08",
"b. c #A31C02",
"n. c #A61C06",
"m. c #A11C16",
"M. c #9A2308",
"N. c #942710",
"B. c #A42303",
"V. c #AB2402",
"C. c #AD2B02",
"Z. c #A8270A",
"A. c #B32B03",
"S. c #BB2C01",
"D. c #B52908",
"F. c #BC3303",
"G. c #B93409",
"H. c #A82713",
"J. c #B93515",
"K. c #B0320A",
"L. c #861424",
"P. c #C33403",
"I. c #CB3B02",
"U. c #C73908",
"Y. c #D33D02",
"T. c #D53C07",
"R. c #C93A13",
"E. c #C73106",
"W. c #B94801",
"Q. c #AF5303",
"!. c #916936",
"~. c #AD6F2E",
"^. c #A25A1B",
"/. c #CA4504",
"(. c #D34203",
"). c #DB4302",
"_. c #D7470A",
"`. c #D84713",
"'. c #CC4F09",
"]. c #E34B0A",
"[. c #E44E14",
"{. c #CE710B",
"}. c #CF6223",
"|. c #815C4C",
" X c #8E7555",
".X c #867868",
"XX c #857B76",
"oX c #97776C",
"OX c #A57A73",
"+X c #C27B4B",
"@X c #B88929",
"#X c #D6900D",
"$X c #E6920A",
"%X c #DAAB14",
"&X c #EBB718",
"*X c #F0B014",
"=X c #CC9532",
"-X c #D5AA2D",
";X c #F5AE2A",
":X c #EF9630",
">X c #F4CF18",
",X c #F9F21A",
"<X c #F1D330",
"1X c #FBE828",
"2X c #FAF427",
"3X c #F2ED35",
"4X c #DACD33",
"5X c #97875A",
"6X c #B0904F",
"7X c #958A79",
"8X c #918871",
"9X c #A6966F",
"0X c #B0A874",
"qX c #B9A951",
"wX c #C5944D",
"eX c #CAAF4E",
"rX c #F7B34B",
"tX c #DCB86D",
"yX c #D7CF52",
"uX c #F7D24E",
"iX c #E8E845",
"pX c #EFEB4D",
"aX c #D6CF71",
"sX c #EDD169",
"dX c #E7E46D",
"fX c #DDE14E",
"gX c #BFC27F",
"hX c #757788",
"jX c #71728D",
"kX c #5C5484",
"lX c #847A8C",
"zX c #827BA3",
"xX c #7C838C",
"cX c #888787",
"vX c #989588",
"bX c #989795",
"nX c #8C8C93",
"mX c #A7A799",
"MX c #AEAD90",
"NX c #9495AD",
"BX c #B8B9A7",
"VX c #B0AEAD",
"CX c #9DA29A",
"ZX c #C7BB8C",
"AX c #C3BCB0",
"SX c #E1BD81",
"DX c #BEC3A5",
"FX c #CFC98E",
"GX c #C8C9B7",
"HX c #CFCEAF",
"JX c #E3D690",
"KX c #B0B3C8",
"LX c #CFCEC5",
"PX c #BBC1CE",
"IX c None",
"UX c black",
/* pixels */
"IXIXIXIXIXIXIXIXIXIXIXIXIXIXIXIXIXIXIXIXIXIXIXIXIXIXIXIXIXIXIXIXIXIXIXIXIXIXIXIXIXIXIXIXIXIXIXIXIXIXIXIXIXIXIXIXIXIXIXIXIXIXIXIXIXIXIXIXIXIXIXIXIXIXIXIXIXIXIXIXIXIXIXIXIXIXIXIXIXIXIXIXIXIXIXIXIXIXIXIXIXIXIXIXIXIXIXIXIXIXIXIXIXIXIXIX",
"IXIXIXIXIXIXIXIXIXIXIXIXIXIXIXIXIXIXIXIXIXIXIXIXIXIXIXIXIXIXIXIXIXIXIXIXIXIXIXIXIXIXIXIXIXIXIXIXIXIXIXIXIXIXIXIXIXIXIXIXIXIXIXIXIXIXIXIXIXIXIXIXIXIXIXIXIXIXIXIXIXIXIXIXIXIXIXIXIXIXIXIXIXIXIXIXIXIXIXIXIXIXIXIXIXIXIXIXIXIXIXIXIXIXIXIX",
"IXIXIXIXIXIXIXIXIXIXIXIXIXIXIXIXIXIXIXIXIXIXIXIXIXIXIXIXIXIXIXIXIXIXIXIXIXIXIXIXIXIXIXIXIXIXIXIXIXIXIXIXIXIXIXIXIXIXIXIXIXIXIXIXIXIXIXIXIXIXIXIXIXIXIXIXIXIXIXIXIXIXIXIXIXIXIXIXIXIXIXIXIXIXIXIXIXIXIXIXIXIXIXIXIXIXIXIXIXIXIXIXIXIXIXIX",
"IXIXIXIXIXIXIXIXIXIXIXIXIXIXIXIXIXIXIXIXIXIXIXIXIXIXIXIXIXIXIXIXIXIXIXIXIXIXIXIXIXIXIXIXIXIXIXIXIXIXIXIXIXIXIXIXIXIXIXIXIXIXIXIXIXIXIXIXIXIXIXIXIXIXIXIXIXIXIXIXIXIXIXIXIXIXIXIXIXIXIXIXIXIXIXIXIXIXIXIXIXIXIXIXIXIXIXIXIXIXIXIXIXIXIXIX",
"IXIXIXIXIXIXIXIXIXIXIXIXIXIXIXIXIXIXIXIXIXIXIXIXIXIXIXIXIXIXIXIXIXIXIXIXIX` IXIX` IX' IX' IXIXIXIXIXIXIXIXIXIXIXIXIXIX` IX^ IXIXIXIXIXIXIXIXIXIXIXIXIXIXIXIXIXIXIXIXIXIXIXIXIXIXIXIXIXIXIXIXIXIXIXIXIXIXIXIXIXIXIXIXIXIXIXIXIXIXIXIXIXIX",
"IXIXIXIXIXIXIXIXIXIXIXIXIXIXIXIXIXIXIXIXIXIXIXIXIXIXIXIXIXIXIXIXIXIXIXIXIXIXIX^ IXIXn B m IXIX' n ' IXIXIXIXIXIXIXIX` IXIXIXb N m b ' IXIXIXIXIXIXIXIXIXIXIXIXIXIXIXIXIXIXIXIXIXIXIXIXIXIXIXIXIXIXIXIXIXIXIXIXIXIXIXIXIXIXIXIXIXIXIXIXIX",
"IXIXIXIXIXIXIXIXIXIXIXIXIXIXIXIXIXIXIXIXIXIXIXIXIXIXIXIXIXIXIXIXIXIXIXIXIXIXIXIX' m M M z v m B M B  .IXIXIXIXIXIXIXIXIXIXIXm v M z B B m n IXIXIXIXIXIXIXIXIXIXIXIXIXIXIXIXIXIXIXIXIXIXIXIXIXIXIXIXIXIXIXIXIXIXIXIXIXIXIXIXIXIXIXIXIXIX",
"IXIXIXIXIXIXIXIXIXIXIXIXIXIXIXIXIXIXIXIXIXIXIXIXIXIXIXIXIXIXIXIXIXIXIXIXIXIXIXIXIXm x l l x.c z.l.x n IXIXIXIXIXIXIXIXIXIXb M l k c k x.k c N b IX` IXIXIXIXIXIXIXIXIXIXIXIXIXIXIXIXIXIXIXIXIXIXIXIXIXIXIXIXIXIXIXIXIXIXIXIXIXIXIXIXIXIX",
"IXIXIXIXIXIXIXIXIXIXIXIXIXIXIXIXIXIXIXIXIXIXIXIXIXIXIXIXIXIXIXIXIXIXIXIXIXIXIXIX' m z.f.u.s.x.k i.g.c b IXIXIXIXIXIXIXIXb m c d.d.f.d.a.d.p.x N IXIXIXIXIXIXIXIXIXIXIXIXIXIXIXIXIXIXIXIXIXIXIXIXIXIXIXIXIXIXIXIXIXIXIXIXIXIXIXIXIXIXIXIX",
"IXIXIXIXIXIXIXIXIXIXIXIXIXIXIXIXIXIXIXIXIXIXIXIXIXIXIXIXIXIXIXIXIXIXIXIXIXIXIXIXIXM k h.j.i.s.c.i.u.z.n IXIXIXIXIXIXIXIXIXx k f.i.s.g.i.s.i.p.M IXIXIXIXIXIXIXIXIXIXIXIXIXIXIXIXIXIXIXIXIXIXIXIXIXIXIXIXIXIXIXIXIXIXIXIXIXIXIXIXIXIXIXIX",
"IXIXIXIXIXIXIXIXIXIXIXIXIXIXIXIXIXIXIXIXIXIXIXIXIXIXIXIXIXIXIXIXIXIXIXIXIXIXIX' M z.f.h.h.j.k.c.v.l.x.n IXIXIXIXIXIXIXb c v.c.c.c.k.f.f.k.h.a.M N IXIXIXIXIXIXIXIXIXIXIXIXIXIXIXIXIXIXIXIXIXIXIXIXIXIXIXIXIXIXIXIXIXIXIXIXIXIXIXIXIXIXIX",
"IXIXIXIXIXIXIXIXIXIXIXIXIXIXIXIXIXIXIXIXIXIXIXIXIXIXIXIX] b b ' b b ] IXIXIXIXn x f.k.h.j.B.n.k.v.a.z.m IXIXIXIXIXIXIXN x.v.v.c.k.c.c.k.k.k.a.c n IXIXIXIXIXIXIXIXIXIXIXIXIXIXIXIXIXIXIXIXIXIXIXIXIXIXIXIXIXIXIXIXIXIXIXIXIXIXIXIXIXIXIX",
"IXIXIXIXIXIXIXIXIXIXIXIXIXIXIXIXIXIXIXIXIXb m N b IXIXIXIXb  .b n m z m z z M L.z.d.s.j.j.j.h.h.g.u.l v v n  .IXIXIXIXB z.f.k.s.k.k.k.k.h.h.g.c ' IXIXIXIXIXIXIXIXIXIXIXIXIXIXIXIXIXIXIXIXIXIXIXIXIXIXIXIXIXIXIXIXIXIXIXIXIXIXIXIXIXIXIX",
"IXIXIXIXIXIXIXIXIXIXIXIXIXIXIXIXIXIXIXIXb B c x m IXIX' n IXIXIXIXM c k d.f.u.i.f.m.H.Z.B.Z.C.Z.M.s.k l c c z M N m M x z.c.M.Z.Z.Z.j.j.j.h.g.c IXIXIXIXIXIXIXIXIXIXIXIXIXIXIXIXIXIXIXIXIXIXIXIXIXIXIXIXIXIXIXIXIXIXIXIXIXIXIXIXIXIXIXIX",
"IXIXIXIXIXIXIXIXIXIXIXIXIXIXIXIXIXIXIXIXB x B m IXn N M c c c z IXz l f.k.k.h.n.H.H.Z.K.K.Z.K.K.Z.h.u.p.x x x z.x.c.g.f.f.N.B.K.D.K.A.C.B.M.d.x n ] IXIXIXIXIXIXIXIXIXIXIXIXIXIXIXIXIXIXIXIXIXIXIXIXIXIXIXIXIXIXIXIXIXIXIXIXIXIXIXIXIXIX",
"IXIXIXIXIXIXIXIXIXIXIXIXIXIXIXIXIXIXIX] n B IXIXm M c x k u.z.x B M l g.k.b.b.b.b.B.K.F.D.J.J.D.D.b.v.p.k k a.i.i.n.Z.B.H.M.V.G.A.S.P.F.G.Z.f.c B IXIXIXIXIXIXIXIXIXIXIXIXIXIXIXIXIXIXIXIXIXIXIXIXIXIXIXIXIXIXIXIXIXIXIXIXIXIXIXIXIXIXIX",
"IXIXIXIXIXIXIXIXIXIXIXIXIXIXIXIXIXIXIXIXIXb IXm c l l d.a.u.p.x c x z.u.u.h.h.B.C.A.F./.U.`.P.P.A.b.i.u.d.d.d.f.v.v.j.B.D.P.P.I.U.S.S.S.A.D.H.f.z.x M m m n b IXIXIXIXIXIXIXIXIXIXIXIXIXIXIXIXIXIXIXIXIXIXIXIXIXIXIXIXIXIXIXIXIXIXIXIXIX",
"IXIXIXIXIXIXIXIXIXIXIXIXIXIXIXIXIXIXIXIXIXIXn c k g.u.f.f.l.x.x z.x k k u.h.B.K.R./._.`.(.I.`.T.P.D.k.f.f.d.p.a.l.v.h.B.G._._.`._./.T.R.E.D.B.h.a.p.p.k z.c z N IXIXIXIXIXIXIXIXIXIXIXIXIXIXIXIXIXIXIXIXIXIXIXIXIXIXIXIXIXIXIXIXIXIXIXIX",
"IXIXIXIXIXIXIXIXIXIXIXIXIXIXIXIXIXIXIXIXIXIXN c c.s.B.h.a.L.z IXx k z.f.g.s.h.b.R.R.`.T.(.).I._.U.C.j.c.f.x.c.c.c.a.g.h.C.U.I.Y.I./.T.T.T.R.K.Z.f.c.f.u.d.z.x z ' IXIXIXIXIXIXIXIXIXIXIXIXIXIXIXIXIXIXIXIXIXIXIXIXIXIXIXIXIXIXIXIXIXIXIX",
"IXIXIXIXIXIXIXIXIXIXIXIXIX^ IXIXIXIXIXIXIXIXM l.c.k.b.h.f.c B B c l d.d.u.i.h.b.D.E.P.`.E.T.T.I.F.B.h.h.f.f.k.k.c.c.k.M.C.F.P.I.I.(.T.T._.U.A.B.k.c.i.f.i.u.z.c m b IXIXIXIXIXIXIXIXIXIXIXIXIXIXIXIXIXIXIXIXIXIXIXIXIXIXIXIXIXIXIXIXIXIX",
"IXIXIXIXIXIXIXIXIXIXIXIXIXIXIX^ IXb N N m z l.c.c.H.k.c.a.p.IXv l u.s.g.f.k.H.J.J.`.R.`.T.T.I.I.U.A.H.H.c.M.B.B.B.B.H.H.K.J.R.`.I.(.(.(.Y.I.F.H.k.c.i.f.s.u.d.k x m n IXIXIXIXIXIXIXIXIXIXIXIXIXIXIXIXIXIXIXIXIXIXIXIXIXIXIXIXIXIXIXIXIX",
"IXIXIXIXIXIXIXIXIXIXIXIXIXIXIXIXN c x c x.d.v.c.H.n.H.m.k.k c c k s.k.M.H.H.H.Z.B.h.V.S.E.T.T.S.A.B.j.k.h.b.C.C.j.j.b.j.j.B.V.F./.(.I.I.P.P.A.M.k.c.f.c.s.g.f.k x B ' IXIXIXIXIXIXIXIXIXIXIXIXIXIXIXIXIXIXIXIXIXIXIXIXIXIXIXIXIXIXIXIXIX",
"IXIXIXIXIXIXIXIXIXIX` IX` IXIX] m c N.k.s.j.j.n.H.J.Z.n.H.f.k d.k.Z.M.M.M.M.Z.j.B.B.j.C.`.S.R.b.V.B.j.j.b.V.G.F.C.C.D.Z.B.B.V.S.F.S.S.S.S.F.C.j.g.f.f.g.g.g.f.c m IXIXIXIXIXIXIXIXIXIXIXIXIXIXIXIXIXIXIXIXIXIXIXIXIXIXIXIXIXIXIXIXIXIXIX",
"IXIXIXIXIXIXIXIXIXIXIXIXIXIXIX' M l s.j.h.M.b.D.Z.J.A.R.b.h.f.f.j.V.B.B.B.B.H.Z.K.B.B.V.C.C.G.G.V.Z.K.H.V.D.G.A.A.A.S.D.G.G.S.U.U.U.T.U.S.A.B.h.u.p.a.f.k.f.d.c m IXIXIXIXIXIXIXIXIXIXIXIXIXIXIXIXIXIXIXIXIXIXIXIXIXIXIXIXIXIXIXIXIXIXIX",
"IXIXIXIXIXIXIXIXIXIXIXIXIXIXIXb m d.k.i.M.s.A.F.R.F.T.S.n.b.M.M.K.G.D.D.G.C.C.C.C.J.C.A.K.C.G.C.D.D.G.C.G.U.F.`.P.P.T.T.S.R.T.U.U.U.R.P.P.P.G.Z.f.u.u.k.N.f.u.z.c n IXIXIXIXIXIXIXIXIXIXIXIXIXIXIXIXIXIXIXIXIXIXIXIXIXIXIXIXIXIXIXIXIXIX",
"IXIXIXIXIXIXIXIXIXIXIXIXIXIXIX' M x.i.n.M.j.G.U.`.(.Y.Y.P.V.b.J.G.P.S.P.U.A.A.G.F.A.V.V.b.V.V.R.E.b.C.C.W.W.'._.I.Y.P.I.`.P.E.`.`.U.I.T.I.P.A.H.k.i.s.k.M.M.f.x.c n IXIXIXIXIXIXIXIXIXIXIXIXIXIXIXIXIXIXIXIXIXIXIXIXIXIXIXIXIXIXIXIXIXIX",
"IXIXIXIXIXIXIXIXIXIXIXIXIXIXIXIXN l.a.n.h.A.A.[.(.(.(.I.I.A.D.R.U.U.P.I.I.I.I.I.T.`.P.S.A.S.n.E.R.S.W.W.sX:XC.(.].]._.(.E.Y.P.(.I._.(.]._.I.R.V.j.h.j.B.H.Z.s.k M IXIXIXIXIXIXIXIXIXIXIXIXIXIXIXIXIXIXIXIXIXIXIXIXIXIXIXIXIXIXIXIXIXIXIX",
"IXIXIXIXIXIXIXIXIXIXIXIXIXIXIXIXIXx L.a.j.G.R.T.(.[.I./.S.F.S.P.P.I.I.Y.I._._.(.I.T.P.E.P.E.P.S.P.(.W.Q.sX=XK._.Y.Y.(._.`._.).(.].(.].Y.Y.T._.R.G.V.V.V.G.G.j.d.x m b IXIXIXIXIXIXIXIXIXIXIXIXIXIXIXIXIXIXIXIXIXIXIXIXIXIXIXIXIXIXIXIXIX",
"IXIXIXIXIXIXIXIXIXIXIXIXIXIXIXIXIXIXx l.f.J.R.T.`.T.U.P.F.A.U.I.`.`.`.].(.(.Y.).[.I.I._.I.I._.P.I.S.F.W.rX{.C./._.Y./.P.[.T.Y.Y./.'.(.).).Y.`.U.F.A.A.S.P.R.V.i.k c m B m m b IXIXIXIXIXIXIXIXIXIXIXIXIXIXIXIXIXIXIXIXIXIXIXIXIXIXIXIXIX",
"IXIXIXIXIXIXIXIXIXIXIXIXIXIXIXIXb N L.x.N.M.R.S.U.U.A.G.B.G.T.T.Y.Y.Y.Y.).].(.Y.Y.I.I.P./././.'././.G.;X{.Q.{.'.W.'./.'.I.I.).].'././.(.(._.P.I.U.P.I.(._.`.D.h.u.k z.k k x.M b IXIXIXIXIXIXIXIXIXIXIXIXIXIXIXIXIXIXIXIXIXIXIXIXIXIXIXIX",
"IXIXIXIXIXIXIXIXIXIXIXIXIXb n m c l c.u.N.M.C.E.E.S.G.B.C.F.T.Y.].]._.Y.).].Y.I.P._././.'.'.W.W.W.:X;X;X;X#X%X<X<X<XC.W.W.W.'.'.'.W././._.I.P.`.U.U.I.(./.P.J.k.g.x.a.v.f.k x M ' IXIXIXIXIXIXIXIXIXIXIXIXIXIXIXIXIXIXIXIXIXIXIXIXIXIXIX",
"IXIXIXIXIXIXIXIXIXIXIX] ' N z k l g.u.k.g.u.s.j.D.V.V.V.U.T.T.[.Y.(.).Y.).I.F./.W.W.W.:X;X;XrX;X;X$X$X*X*X>X1X,X,X1X<X;X$X:X;XuXuXuXuXQ.W././.F.U.U.I._.(.P.R.H.u.f.f.v.u.f.p.x z ' IXIXIXIXIXIXIXIXIXIXIXIXIXIXIXIXIXIXIXIXIXIXIXIXIXIX",
"IXIXIXIXIXIXIXIXIXIXIX^ IXIXz x.g.g.p.x.k l u.M.n.n.K.A./.I.).)._.I.I.P.I.F.Q.Q.;X;X;X;X&X;X&X;X*X$X$X*X>X>X,X,X,X,X1X&X$X$X*X<X1X1X1X3XuXQ.W.F.R.`.Y.(././.G.H.v.c.f.s.s.u.d.x x m IXIXIXIXIXIXIXIXIXIXIXIXIXIXIXIXIXIXIXIXIXIXIXIXIXIX",
"IXIXIXIXIXIXIXIXIXIXIXIX^ IXz p.k f.k p.d.d.g.k.b.n.D.F.I.(.).].I.`.I.P.P.W.uX<X<X<X>X&X&X&X&X&X*X$X$X$X*X>X,X,X,X,X2X>X*X$X$X&X>X2X2X3XpXuXQ.W.P.`.(.).(._.E.Z.k.m.M.M.h.g.p.k p.v IXIXIXIXIXIXIXIXIXIXIXIXIXIXIXIXIXIXIXIXIXIXIXIXIXIX",
"IXIXIXIXIXIXIXIXIXIX` IXIXN l.v.g.d.a.a.u.i.h.h.b.A.F.I.I._.Y.).(.I.S.I.'.rXuX<X3X1X>X&X*X*X&X&X;X$X{.$X*X>X1X,X,X,X2X1X>X*X#X#X&X<X1X1X3XpXuXQ.'.I.(.).Y.T.S.b.k.M.n.n.h.f.k x k m IXIXIXIXIXIXIXIXIXIXIXIXIXIXIXIXIXIXIXIXIXIXIXIXIXIX",
"IXIXIXIXIXIXIXIXIXIXIXIXIXb c u.z.k x.f.u.s.h.j.b.A.F./.(.].Y.Y._.S.T.F.{.rXuXpX3X1X>X>X*X*X*X&X;X*X$X$X*X*X>X1X2X,X2X2X1X>X%X#X#X&X<X3X3X3XpXuXQ./.I.].).T.G.B.j.M.Z.n.i.f.k l.x.B IXIXIXIXIXIXIXIXIXIXIXIXIXIXIXIXIXIXIXIXIXIXIXIXIXIX",
"IXIXIXIXIXIXIXIXIXIXIXIXIXIXN m m B x c.f.M.n.n.V.A.F.U.(._.Y.).T.S.E._.Q.uXpX3X2X2X1X>X*X*X*X&X&X;X#X{.$X*X&X<X1X2X2X2X2X<X&X%X#X#X&X<X3X3XpXiXuXQ.'.).Y.U.A.V.M.Z.J.Z.i.f.u.p.p.M IXIXIXIXIXIXIXIXIXIXIXIXIXIXIXIXIXIXIXIXIXIXIXIXIXIX",
"IXIXIXIXIXIXIXIXIXIXIXIXIXIXIX] IXIXx a.x.f.c.h.D.S.R.T.(.Y.Y.).I.P.T./.Q.4X3X3X2X2X1X>X*X*X*X&X&X;X$X{.{.#X;X<X<X2X2X2X3X3X<X%X#X#X#X-X<X3X4XpXpXuXQ./.[.P.G.b.M.Z.J.Z.h.s.g.u.l.z IXIXIXIXIXIXIXIXIXIXIXIXIXIXIXIXIXIXIXIXIXIXIXIXIXIX",
"IXIXIXIXIXIXIXIXIXIXIXIXIXIXIXIXIXIXx i.x.x.N.H.V.P._.Y.).].).(.P./.T./.{.uXiX3X2X2X1X>X*X*X%X%X%X;X-X#X{.{.:X-X4X3X3X3X3X3X3X4X-X=X@X@X-XuXpXpXiXpXuXQ./.P.J.b.B.B.F.G.Z.u.d.k p.v IXb b IXIXIXIXIXIXIXIXIXIXIXIXIXIXIXIXIXIXIXIXIXIXIX",
"IXIXIXIXIXIXIXIXIXIXIXIXIXIXIXIXIX] m M c l N.H.G._._.Y.).].).I./.I.).(.Q.uX<X3X3X2X1X>X&X&X%X%X%X-X-X=X}.{.}.=X-X4X3XiXiXiXiXyXeX=X@X~.=X-XyXfXpXiXpXuXQ.W.G.V.G.A.I.R.J.u.x.k k l v m m n IXIXIXIXIXIXIXIXIXIXIXIXIXIXIXIXIXIXIXIXIXIX",
"IXIXIXIXIXIXIXIXIXIXIXIXIXIXIXIX' b IXIXM d.h.Z.K.`.I.(.(.`.Y.Y.F._.Y.(.'.;X4XiX3X3X3X<X%X%X%X#X-X=X=XeX=X~.^.=X=X-XyXfXpXpXpXfXyXeX@X~.~.wXeXyXfXfXpXuXuXQ.W.G.U._.P.`.K.i.p.l.u.k k l k m IXIXIXIXIXIXIXIXIXIXIXIXIXIXIXIXIXIXIXIXIXIX",
"IXIXIXIXIXIXIXIXIXIXIXIXIXIXIXIXN IXIXIXB f.v.b.V.`._._.`.R.I._.I.P.).]./.Q.uXiX3X3X3X<X-X-X-X=X=X=X=XqXwX~.^.~.@XqXeXyXdXdXdXdXyXeX6X~.~.~.@XqXyXfXfXfXdXsXN.C.P._.`.U.V.c.a.f.u.g.u.f.k x.N IXIXIXIXIXIXIXIXIXIXIXIXIXIXIXIXIXIXIXIXIX",
"IXIXIXIXIXIXIXIXIXIXIXIXIXIXIXIXn z IXn x.u.Z.B.A.P._.(.T.U./.U.U.P.T.I.(.Q.-XiXiXiXiXiX4X-X=X=X=XwX6X6X6X6X!.!.~.6X6XeXaXaXdXdXdXyXeX6X!.!.!.6XqXqXdXdXsXsXsXQ.W.(.P.`.J.j.s.g.u.f.l.l.p.k x N IXIXIXIXIXIXIXIXIXIXIXIXIXIXIXIXIXIXIXIX",
"IXIXIXIXIXIXIXIXIXIXIXIXIXIXIXIXM c z v d.h.k.j.V.F.P.S.`.G.A.F.S.E.T.).(.'.uXfXiXpXpXfXyXqXwX6X6X6X6X6X6X5X5X!.!. X5X9X0XaXJXJXaXaXqX6X5X!.!.!.6X6XqXaXsXsXsXsXQ.'.[.R.b.H.k N.f.a.l.l.x l.c m IXIXIXIXIXIXIXIXIXIXIXIXIXIXIXIXIXIXIXIX",
"IXIXIXIXIXIXIXIXIXIXIXIXIXIXb IXz x c IXs.k.h.h.k.b.G.R.J.D.A.V.U.P.P.).).'.rXyXfXpXdXfXyXqX6X6X5X X X5X5X5X8X X! |. X5X9X0XFXJXJXFXgX0X5X X!.~ !. X6XqXaXaXdXsXsXN./.R.Z.k.f.x.f.a.p.l.L.M m b IXIXIXIXIXIXIXIXIXIXIXIXIXIXIXIXIXIXIXIX",
"IXIXIXIXIXIXIXIXIXIXIXIX] ' b N M k c z.u.h.c.f.u.k.b.Z.H.H.B.A.A.S.`.I.)./.-XyXfXdXdXdXeX6X6X X X X X X8X8X.X.X;.;.3..X8X9XMXFXJXHXFXMX9X5X X<.! !  X6XqXaXaXaXaXsXM.K.h.s.d.x.f.f.u.x.M n IXIXIXIXIXIXIXIXIXIXIXIXIXIXIXIXIXIXIXIXIXIX",
"IXIXIXIXIXIXIXIXIXIXIXIXIXIXIXIXm IXc z.f.a.p.x.d.l s.B.j.H.D.A.F.A./._.`./.rXeXaXdXdXaXaX6X5X X X.X.X.X.Xe..XXXw.:.#.3..X8X0XMXFXHXHXDXMX7X8X.X-.! <. X9X9X0XJXFXSXtXl N.g.k d.u.f.c.x b IXIX^ IXIXIXIXIXIXIXIXIXIXIXIXIXIXIXIXIXIXIXIX",
"IXIXIXIXIXIXIXIXIXIXIXIXIX` ` IXb m x x.p.p.L.x l l k.Z.H.Z.V.V.C.A./.I.T.'.^.eXaXaXJXJXaX9X5X X.Xw..Xw.w.e.XXXXt.&.X.#.w..X7XmXBXHXHXHXBXvX7X.X3.=.Q !  X5X0X0XFXFXFXSXP l c c M z x N IXIXIXIXIXIXIXIXIXIXIXIXIXIXIXIXIXIXIXIXIXIXIXIX",
"IXIXIXIXIXIXIXIXIXIXIXIXIXIXIX` IXN c p.x.x z c k d.g.k.J.D.B.C.A.F./.(.(./.^.wXtXFXJXJXZX0X8Xe.e.w.e.e.q.t.t.t.t.y.+.X.0.t.t.cXmXBXGXHXGXMXvX7X.X3.R Q 3. X8X9XMXFXFXFXZXP m IXIXIX] IXIXIX` IXIXIXIXIXIXIXIXIXIXIXIXIXIXIXIXIXIXIXIXIX",
"IXIXIXIXIXIXIXIXIXIXIXIXIXIXIXIXIX' B L.M M IXB x u.a.i.j.J.J.G.U.I.(.(.(./.^.wX0XFXHXHXFXMX7X.Xe.w.w.q.q.y.t.t.t.t.&.o.&.0.t.XXvXmXGXGXHXBXMX7X8Xw.1.O.T 2.oX8X7X0XZXFXFXZXP b IXIXIXIXIXIXIXIXIXIXIXIXIXIXIXIXIXIXIXIXIXIXIXIXIXIXIXIX",
"IXIXIXIXIXIXIXIXIXIXIXIXIXIXIXIXIXIX' n N b IXN c k d.g.s.b.G.`._.I._.).Y./.Q.wX0XMXHXHXHXMX7XXXe.0.w.w.0.w.q.t.t.t.q.&.X.1.e.e.8XCXBXGXHXGXBXmXvXXXw.:.F Q |..X8X9X0XZXZXZXHXJ IXIXIXIXIXIX` IXIXIXIXIXIXIXIXIXIXIXIXIXIXIXIXIXIXIXIXIX",
"IXIXIXIXIXIXIXIXIXIXIXIXIXIXIXIXIXIXIXIXIXIXIX' z x x k s.j.b.A.T._._.[.]./.}.+X9XMXHXHXHXMXvXt.e.w.w.w.0.w.q.t.t.t.t.1.X.@.w.e.e.7XmXBXHXHXHXBXbXXXXX3.O.R =.3. X5X9X0XFXFXZXHXIXIXIXIXIXIXIXIXIXIXIXIXIXIXIXIXIXIXIXIXIXIXIXIXIXIXIXIX",
"IXIXIXIXIXIXIXIXIXIXIXIXIXIXIXIXIXIXIXIXIXIXIXIXn B c c i.h.b.U.[.Y.].Y.Y.`.'.+X9XmXBXGXGXBXvXt.e.0.w.0.0.w.w.q.q.t.t.w.@.D #.w.e.8XvXMXHXGXGXBXmX7XXXq.1.@.V O.w..X8X5X0XFXFXFXGXIXIXIXIXIXIXIXIXIXIXIXIXIXIXIXIXIXIXIXIXIXIXIXIXIXIXIX",
"IXIXIXIXIXIXIXIXIXIXIXIXIXIXIXIXIXIXIXIXIXIXIXIXIXM x z.g.h.b.A.U.I.Y._.[.T./.^.7XCXBXGXLXBXCXt.e.0.0.0.0.w.0.w.q.t.e.q.1.S S 1.e.t.8XvXBXGXGXGXVXbXcXt.q.7.X.H @.2.3.8X5X0XFXFXFXLXIXIXIXIXIXIXIXIXIXIXIXIXIXIXIXIXIXIXIXIXIXIXIXIXIXIX",
"IXIXIXIXIXIXIXIXIXIXIXIXIXIXIXIXIXIXIXIXIXIXIXIXM k d.f.s.M.H.b.R.P.T.E.T.R.R.^.7XbXVXGXLXGXmX8Xt.w.w.0.0.0.0.0.q.y.y.y.q.+.S +.0.q.e.8XbXVXGXGXVXCXcXt.y.y.7.+.D @.3..X5X9X9XAXAXGXPXIXIXIXIXIXIXIXIXIXIXIXIXIXIXIXIXIXIXIXIXIXIXIXIXIX",
"IXIXIXIXIXIXIXIXIXIXIXIXIXIXIXIXIXIXIXIXIXIX] N c a.g.s.s.h.h.k.j.A.R.U.R.E.U.^.7XnXmXGXLXGXmXcXt.w.w.0.0.0.0.0.0.y.r.y.y.%.f f %.0.r.y.xXbXVXVXVXbXcXt.r.r.r.%.o.S #.3.3.oX7XmXmXBXVXKXIXIXIXIXIXIXIXIXIXIXIXIXIXIXIXIXIXIXIXIXIXIXIXIX",
"IXIXIXIXIXIXIXIXIXIXIXIXIXIXIXIXIXIXIX^ IX] IXb M z.g.s.k.s.c.x.h.j.b.b.V.V.A.N.OXcXmXBXHXHXBX7X8Xe.q.1.0.0.0.0.0.r.r.r.r.r.( p ) 6.r.r.r.xXbXbXNXcXhXy.r.r.r.r.%.[ [ @.1.3..XXXvXmXVXVXVXIXIXIXIXIXIXIXIXIXIXIXIXIXIXIXIXIXIXIXIXIXIXIX",
"IXIXIXIXIXIXIXIXIXIXIXIXIXIXIXIXIXIXIXIX6 IX' IXz x.i.u.s.c.k c k k.M.j.n.b.b.l OXnXCXDXHXHXDXvXt.q.q.0.0.0.0.0.7.5.8.r.r.r.6.( _ ) 6.9.r.r.hXxXxXhXr.9.9.5.6.6.5.$./ a X.1.7.q.t.cXbXVXbXNXIXIXIXIXIXIXIXIXIXIXIXIXIXIXIXIXIXIXIXIXIXIX",
"IXIXIXIXIXIXIXIXIXIXIXIXIXIXIXIXIXIXIXIXIX^ IXb M x a.c.u.d.z.x.c k f.M.H.j.j.N.OXXXvXBXHXLXDXCXcXt.0.0.0.0.7.r.8.9.9.5.r.jXr.4._ ) 6.9.9.5.$.$.) ) ( p u u p ( $.5.5.%.+.&.4.) ..*.r.7.r.cXcXNXIXIXIXIXIXIXIXIXIXIXIXIXIXIXIXIXIXIXIXIX",
"IXIXIXIXIXIXIXIXIXIXIXIXIXIXIXIXIXIXIXIXIXIXIXIXn v z.u.a.p.z.k c x d.u.s.k.k.x.OXXX7XMXGXHXBXVXXXy.0.5.5.r.7.5.%.$.$.4.$.( ..) _ ) 6.6.4.6.4.4.9.4.5.5.6.%.5.$.$...$.{ h o.6.4.*.r.r.hXlXt.cXnXNXIXIXIXIXIXIXIXIXIXIXIXIXIXIXIXIXIXIXIX",
"IXIXIXIXIXIXIXIXIXIXIXIXIXIXIXIXIXIXIXIXIXIXIXIXIXn c i.i.h.p.z.x z z.d.u.u.s.l P 7X7XmXAXLXLXCXcXy.r.r.5.5.( ( $.5.r.r.5.9.r.6.%._ ) $.} ( 6.NXLXVXNXbXhXy.r.5.$.( { o.( ..9.r.*.*.$.%.5.5.0.t.nXKXIXIXIXIXIXIXIXIXIXIXIXIXIXIXIXIXIXIX",
"IXIXIXIXIXIXIXIXIXIXIXIXIXIXIXIXIXIXIXIXIXIXIXIXIXIXb z c z M M IXM x d.f.f.g.l P 7X7XmXAXLXLXVXnXhXr.5.$.( $.r.8.5.$.$.( ( $.%.5.o.$.%.8.r.5.5.5.5.5.7.r.5.$.*.5.5.5.7.y.7.( 9 w j 0 5 u u / $.5.hXNXIXIXIXIXIXIXIXIXIXIXIXIXIXIXIXIXIX",
"IXIXIXIXIXIXIXIXIXIXIXIXIXIXIXIXIXIXIXIXIXIXIXIXIXIXIXIXIXIXIXIXm z z.p.u.d.z.c P oX8XvXVXLXPXKXNXhX5...$.6.$./ / u u 9 5 9 4 9 q h ( $.5.r.r.r.5.r.7.&.5.%.o.&.&.0.8.5.%.o.q $ o $ o ; 4 5 2 2 u u 8.NXIXIXIXIXIXIXIXIXIXIXIXIXIXIXIXIX",
"IXIXIXIXIXIXIXIXIXIXIXIXIXIXIXIXIXIXIXIXIXIXIXIXIXIXIXIXIXIXIX^ IXm c k u.u.p.c v oXXXcXmXVXPXKXnX9.4.$.$.( 9 5 5 2 5 2 4 7 & * $ $ 2 d ( p y u u y 8 ; 8 w , % = = 4 4 $ $ * * 4 : ; ; ; 5 2 2 $ 2 5 } NXIXIXIXIXIXIXIXIXIXIXIXIXIXIXIX",
"IXIXIXIXIXIXIXIXIXIXIXIXIXIXIXIXIXIXIXIXIXIXIXIXIXIXIXIXIXIXIXIXIXb v l u.v.p.c v OXt.nXbXCXKXKXlXr.%.( u 5 2 9 5 5 5 5 9 9 9 * * 4 & 7 4 . .         X 1 I C < X     .   . * & ; 4 8 4 ; 5 4 5 7 $ & 9 / hXIXIXIXIXIXIXIXIXIXIXIXIXIXIX",
"IXIXIXIXIXIXIXIXIXIXIXIXIXIXIXIXIXIXIXIXIXIXIXIXIXIXIXIXIXIXIXIXIXIXn v M x M m n lXlXxXxXCXNXhXhX5.{ u 2 5 5 9 9 i 0 i i i q q 4 7 * 7 4 o o o X @ + E .X8X9X8Xe.I @ X o o o 8 8 8 e e 8 7 5 4 $ 4 0 = * h jXIXIXIXIXIXIXIXIXIXIXIXIXIX",
"IXIXIXIXIXIXIXIXIXIXIXIXIXIXIXIXIXIXIXIXIXIXIXIXIXIXIXIXIXIXIXIXIXIXIXb n ' ' IXIXIXhXhXxXxXhXlX5./ u 5 5 9 9 q q f [ X.#.S g s 7 4 ; * & o o % ; @ D e.3.E E e.w.e.s % @ % = q s S +.+.S h e 0 4 7 & ; h $ ( jXIXIXIXIXIXIXIXIXIXIXIXIX",
"IXIXIXIXIXIXIXIXIXIXIXIXIXIXIXIXIXIXIXIXIXIXIXIXIXIXIXIXIXIXIXIXIXIXIXIXIXIXIXIXIXIXhXhXhXr.r.7.( u 9 5 5 0 9 0 h +.&.t.0.0.#.X.h 0 7 * = & & 8 e @ D vXBXMX8X7XmXvXt : % @ ; s +.1.e.t.0.#.S e 4 ; 4 4 4 y 2 $.IXIXIXIXIXIXIXIXIXIXIXIX",
"IXIXIXIXIXIXIXIXIXIXIXIXIXIXIXIXIXIXIXIXIXIXIXIXIXIXIXIXIXIXIXIXIXIXIXIXIXIXIXIXIXIXjXr.r.5.0.[ i 9 9 4 4 9 q i X.&.cXbXmXvXcX1.X.e w ; & 4 8 s w   , I 8XHXHXGXbX1.@ + % % % S e.vXmXmXbXt.&.g q $ * 7 & 2 4 u 4.IXIXIXIXIXIXIXIXIXIXIX",
"IXIXIXIXIXIXIXIXIXIXIXIXIXIXIXIXIXIXIXIXIXIXIXIXIXIXIXIXIXIXIXIXIXIXIXIXIXIXIXIXIXIXjXy.r.r.o.w 5 4 4 4 2 4 e h +.q.bXAXBXGXmXXX&.g e ; = 4 q s h ,     : t R < , X o % % , % t bXAXGXBXmXXX&.s 8 7 4 * 2 2 4 u ) IXIXIXIXIXIXIXIXIXIXIX",
"IXIXIXIXIXIXIXIXIXIXIXIXIXIXIXIXIXIXIXIXIXIXIXIXIXIXIXIXIXIXIXIXIXIXIXIXIXIXIXIXIXIXhX&.5.r.f y 7 7 7 7 4 4 w e +.q.bXVXGXBXmX7X0.+.s ; $ 4 e e 8 7 * @ o   @ X @ . % ; ; ; * e vXAXBXmXbXe.+.s w * 4 4 & 7 * 9 u 4.IXIXIXIXIXIXIXIXIXIX",
"IXIXIXIXIXIXIXIXIXIXIXIXIXIXIXIXIXIXIXIXIXIXIXIXIXIXIXIXIXIXIXIXIXIXIXIXIXIXIXIXIXIXhX0.r.$.( u 9 7 4 4 4 8 i h X.0.XXbXVXmXcXe.0.&.g * o ; q 4 4 & * * ; = : % = 8 & 7 0 * 8 % &.cXXXq.w.X.h e , , 9 4 4 = , 7 9 _ IXIXIXIXIXIXIXIXIXIX",
"IXIXIXIXIXIXIXIXIXIXIXIXIXIXIXIXIXIXIXIXIXIXIXIXIXIXIXIXIXIXIXIXIXIXIXIXIXIXIXIXIXIXIXjX5.) _ 2 9 5 4 4 5 8 q i g +.7.0.t.t.0.&.+.X.0 % o 4 9 9 9 4 * 2 4 4 4 4 7 * 4 i [ 0 4 4 ; X.X.+.S e ; 8 , ; 5 5 ; * ; , 8 p IXIXIXIXIXIXIXIXIXIX",
"IXIXIXIXIXIXIXIXIXIXIXIXIXIXIXIXIXIXIXIXIXIXIXIXIXIXIXIXIXIXIXIXIXIXIXIXIXIXIXIXIXIXIXjX4.( u u 5 4 4 4 4 5 8 w f g [ o.o.X.o.X.e e ; = & 0 9 9 0 9 5 7 5 4 7 9 0 0 u y / y 7 4 * s S s , ; 8 ; , ; 4 5 * * ; : 8 y ) IXIXIXIXIXIXIXIXIX",
"IXIXIXIXIXIXIXIXIXIXIXIXIXIXIXIXIXIXIXIXIXIXIXIXIXIXIXIXIXIXIXIXIXIXIXIXIXIXIXIXIXIXIXjX$.d 9 i 4 4 * 4 4 4 4 5 7 i f [ S g h i e e * = & 5 4 5 u 9 9 9 9 9 0 y y y p p p 5 2 4 & e S g ; * 8 * , * * * 4 4 , , , y 3 IXIXIXIXIXIXIXIXIX",
"IXIXIXIXIXIXIXIXIXIXIXIXIXIXIXIXIXIXIXIXIXIXIXIXIXIXIXIXIXIXIXIXIXIXIXIXIXIXIXIXIXIXIX8.{ e q 8 5 4 4 ; 4 * * 4 9 i i 0 9 q q 7 w q ; ; 4 9 5 y d u 5 5 9 u u u d d / / p 9 2 * * * q h ; & 4 ; * % ; ; 5 5 , : ; 0 3 IXIXIXIXIXIXIXIXIX",
"IXIXIXIXIXIXIXIXIXIXIXIXIXIXIXIXIXIXIXIXIXIXIXIXIXIXIXIXIXIXIXIXIXIXIXIXIXIXIXIXIXIXIX8.f r r > 8 7 4 ; ; * * ; ; 4 0 q q 0 9 5 w 8 & 4 7 i p [ ( d u u u u u u y y d d / ( i 9 9 4 q g [ h 5 4 * % ; ; 4 * : + : 5 6 IXIXIXIXIXIXIXIXIX",
"IXIXIXIXIXIXIXIXIXIXIXIXIXIXIXIXIXIXIXIXIXIXIXIXIXIXIXIXIXIXIXIXIXIXIXIXIXIXIXIXIXIXIXjXi 8 8 8 8 8 7 ; ; ; ; 4 4 7 7 5 9 q i i q 7 4 q i g / [ ( / d p y u y p d y ( $.o.o./ [ [ g i 8 q w 9 i ; = % ; 4 ; : : : 4 6 IXIXIXIXIXIXIXIXIX",
"IXIXIXIXIXIXIXIXIXIXIXIXIXIXIXIXIXIXIXIXIXIXIXIXIXIXIXIXIXIXIXIXIXIXIXIXIXIXIXIXIXIXIXzXy 2 7 9 ; ; ; , ; ; ; ; = ; 8 0 0 q y q i i g o.[ [ / f / / / / p p p / d p ( { / { / o.X.o.+.s s h i q w = @ * ; ; ; ; + * 6 IXIXIXIXIXIXIXIXIX",
"IXIXIXIXIXIXIXIXIXIXIXIXIXIXIXIXIXIXIXIXIXIXIXIXIXIXIXIXIXIXIXIXIXIXIXIXIXIXIXIXIXIXIXzXp = 2 & * : ; , ; ; ; ; 7 * ; q h h [ &.&.&.1.&.i i d f d d d / / d p p y / { d { y.y.&.o.X.&.&.1.&.X.i t = . o % % % % X $ 6 IXIXIXIXIXIXIXIXIX",
"IXIXIXIXIXIXIXIXIXIXIXIXIXIXIXIXIXIXIXIXIXIXIXIXIXIXIXIXIXIXIXIXIXIXIXIXIXIXIXIXIXIXIXIXp @ $ * % + % % : : : % ; % 8 w 8 @.1.1.1.1.1.7.D 4 i u d d / / / p p d p o./ [ f %.o.f f [ [ 1.1.1.+.S S 8 o   . o O X X $ 3 IXIXIXIXIXIXIXIXIX",
"IXIXIXIXIXIXIXIXIXIXIXIXIXIXIXIXIXIXIXIXIXIXIXIXIXIXIXIXIXIXIXIXIXIXIXIXIXIXIXIXIXIXIXIX( @ % + O O O O O @ @ @ + : 8 t I 1.1.:.:.:.:.1.@.8 9 y / ) $.{ / d p p f [ { [ f %.i 4 [ o.[ o.@.1.&.X.s D t ;   X X X X & 6 IXIXIXIXIXIXIXIXIX",
"IXIXIXIXIXIXIXIXIXIXIXIXIXIXIXIXIXIXIXIXIXIXIXIXIXIXIXIXIXIXIXIXIXIXIXIXIXIXIXIXIXIXIXIX9.  X X X X X X X X X X . , r I 1.3.:.:.:.:.:.1.1.e 4 d / $.%.$.( / p p f d / i y +.9 * [ [ [ S X.1.1.@.D D s e   . X X @ 2 IXIXIXIXIXIXIXIXIXIX",
"IXIXIXIXIXIXIXIXIXIXIXIXIXIXIXIXIXIXIXIXIXIXIXIXIXIXIXIXIXIXIXIXIXIXIXIXIXIXIXIXIXIXIXIXjX# @ @ X X X X X X X X . 8 t +.1.1.:.:.:.:.:.:.1.S 4 p ( $.5.%.$.( / p / d f y q o.8 ; i [ S S X.#.3.@.Y D t q . . X   o 3 IXIXIXIXIXIXIXIXIXIX",
"IXIXIXIXIXIXIXIXIXIXIXIXIXIXIXIXIXIXIXIXIXIXIXIXIXIXIXIXIXIXIXIXIXIXIXIXIXIXIXIXIXIXIXIXIXu o X X X X X X X X X X 8 D @.:.O.:.>.=.O.=.O.#.@.q 0 / $.%.6.$.{ / d p d d i w s * o 0 [ g s S D 1.#.R Y D 8 .   o   & 3 IXIXIXIXIXIXIXIXIXIX",
"IXIXIXIXIXIXIXIXIXIXIXIXIXIXIXIXIXIXIXIXIXIXIXIXIXIXIXIXIXIXIXIXIXIXIXIXIXIXIXIXIXIXIXIXIX6.. @ X X X X X X X X O ; S #.:.=.>.=.T T O.O.@.#.s 5 p ( $.6.%.$.( p y d i i 0 8 = o 7 [ g s D e :.:.O.Y D r O   o # 3 IXIXIXIXIXIXIXIXIXIXIX",
"IXIXIXIXIXIXIXIXIXIXIXIXIXIXIXIXIXIXIXIXIXIXIXIXIXIXIXIXIXIXIXIXIXIXIXIXIXIXIXIXIXIXIXIXIXIX2 o . . X X X X . . X ; X.#.:.=.=.=.Q T =.O.O.#.S w q f $.%.%.$.( / d f i d q 9 * & 4 S g h s w I #.:.R D D : . # 3 6 IXIXIXIXIXIXIXIXIXIXIX",
"IXIXIXIXIXIXIXIXIXIXIXIXIXIXIXIXIXIXIXIXIXIXIXIXIXIXIXIXIXIXIXIXIXIXIXIXIXIXIXIXIXIXIXIXIXIXjX# . . . . . .     . , @.O.=.O.T Q =.Q T R =.O.Y s 0 / $.%.%.%.$.( f p i d 0 4 $ o 7 f f 0 8 8 t #.:.:.@.D + . # 3 IXIXIXIXIXIXIXIXIXIXIXIX",
"IXIXIXIXIXIXIXIXIXIXIXIXIXIXIXIXIXIXIXIXIXIXIXIXIXIXIXIXIXIXIXIXIXIXIXIXIXIXIXIXIXIXIXIXIXIXIX$.# # . o X   X     , @.:.:.>.>.>.Q Q Q Q T O.I D q a o.$.%.5.$.( d i y i 9 & $ $ q [ d 5 q 8 8 X.1.O.=.D r $ # IXIXIXIXIXIXIXIXIXIXIXIXIX",
"IXIXIXIXIXIXIXIXIXIXIXIXIXIXIXIXIXIXIXIXIXIXIXIXIXIXIXIXIXIXIXIXIXIXIXIXIXIXIXIXIXIXIXIXIXIXIXIX) # # $   X O     r #.:.=.>.<.;.>.Q Q Q Q T O.@.s 0 { %.%.5.$./ y u u i h h h d y [ ( i w 4 0 H :.1.O.Y t $ IXIXIXIXIXIXIXIXIXIXIXIXIXIX",
"IXIXIXIXIXIXIXIXIXIXIXIXIXIXIXIXIXIXIXIXIXIXIXIXIXIXIXIXIXIXIXIXIXIXIXIXIXIXIXIXIXIXIXIXIXIXIXIXIX6 # # o   X . . r #.:.:.3.2.<.2.>.Q Q Q R R R H ; f %.$.%.$.( p y u u y i i i i i d d 0 4 8 r 1.O.1.D r f IXIXIXIXIXIXIXIXIXIXIXIXIXIX",
"IXIXIXIXIXIXIXIXIXIXIXIXIXIXIXIXIXIXIXIXIXIXIXIXIXIXIXIXIXIXIXIXIXIXIXIXIXIXIXIXIXIXIXIXIXIXIXIXIXIX_ # # o X   X r #.2.1.3.<.<.<.>.Q Q W U F Y O.r q [ $.%.%.{ / p y u y i p i d y i d i 0 0 r Y 1.O.O.D { IXIXIXIXIXIXIXIXIXIXIXIXIXIX",
"IXIXIXIXIXIXIXIXIXIXIXIXIXIXIXIXIXIXIXIXIXIXIXIXIXIXIXIXIXIXIXIXIXIXIXIXIXIXIXIXIXIXIXIXIXIXIXIXIXIXIXu # .       r :.3.2.2.<.<.<.-.Q Q Q U Z U O.D 8 a o.%.5.$./ p u 0 0 y d d p d p i i 4 ; e V =.:.O.S } IXIXIXIXIXIXIXIXIXIXIXIXIXIX",
"IXIXIXIXIXIXIXIXIXIXIXIXIXIXIXIXIXIXIXIXIXIXIXIXIXIXIXIXIXIXIXIXIXIXIXIXIXIXIXIXIXIXIXIXIXIXIXIXIXIXIX4.p & o X X r :.1.>.2.2.<.<.,.! ~ W U Z U Y @.r q [ o.%.o./ i 9 4 4 7 0 y i d i 0 0 * % , r R :.#.X.( IXIXIXIXIXIXIXIXIXIXIXIXIXIX",
"IXIXIXIXIXIXIXIXIXIXIXIXIXIXIXIXIXIXIXIXIXIXIXIXIXIXIXIXIXIXIXIXIXIXIXIXIXIXIXIXIXIXIXIXIXIXIXIXIXIXIX4.} ( s ; , t O.:.>.2.2.<.2.<.! ~ W Z Z A F O.D 8 a { o.{ / i 7 5 7 7 0 i d d i 0 8 ; % : > A =.:.&.) IXIXIXIXIXIXIXIXIXIXIXIXIXIX",
"IXIXIXIXIXIXIXIXIXIXIXIXIXIXIXIXIXIXIXIXIXIXIXIXIXIXIXIXIXIXIXIXIXIXIXIXIXIXIXIXIXIXIXIXIXIXIXIXIXIXIX4.) o.s S t D O.:.:.>.;.|.<.<.! ~ W L Z A U =.X.8 q o.o.o.[ i 0 0 w 0 0 w q i h e 4 % % : - C :.@.&.( IXIXIXIXIXIXIXIXIXIXIXIXIXIX",
"IXIXIXIXIXIXIXIXIXIXIXIXIXIXIXIXIXIXIXIXIXIXIXIXIXIXIXIXIXIXIXIXIXIXIXIXIXIXIXIXIXIXIXIXIXIXIXIXIXIXIXIX} S S s s D @.:.:.>.<.<.<.,.! ~ W Z Z Z W G T C r e X.o.o.d q y q e e e q 8 e e 0 4 * % - < =.O.O.{ IXIXIXIXIXIXIXIXIXIXIXIXIXIX",
"IXIXIXIXIXIXIXIXIXIXIXIXIXIXIXIXIXIXIXIXIXIXIXIXIXIXIXIXIXIXIXIXIXIXIXIXIXIXIXIXIXIXIXIXIXIXIXIXIXIXIXIX} S S s t s @.:.>.>.<.<.|.<.! ~ W L Z Z G G F F r r S o.o.[ f h i q e s g i e e 7 * & = @ < Y :.O.o.4.IXIXIXIXIXIXIXIXIXIXIXIXIX",
"IXIXIXIXIXIXIXIXIXIXIXIXIXIXIXIXIXIXIXIXIXIXIXIXIXIXIXIXIXIXIXIXIXIXIXIXIXIXIXIXIXIXIXIXIXIXIXIXIXIXIXIX} S S s t s +.#.=.=.-.<.<.<.,.! W Z Z Z Z W G R t r s o.o.o.g i i q q e e e s S s q 4 * + : V >.O.+._ IXIXIXIXIXIXIXIXIXIXIXIXIX",
"IXIXIXIXIXIXIXIXIXIXIXIXIXIXIXIXIXIXIXIXIXIXIXIXIXIXIXIXIXIXIXIXIXIXIXIXIXIXIXIXIXIXIXIXIXIXIXIXIXIXIXIX} S [ s s D @.#.O.Q Q -.,.,.,.! ~ K Z Z Z W G =.D w s X.o.+.[ 0 8 i S +.+.+.o.o.S q 7 % % + r R O.@./ IXIXIXIXIXIXIXIXIXIXIXIXIX",
"IXIXIXIXIXIXIXIXIXIXIXIXIXIXIXIXIXIXIXIXIXIXIXIXIXIXIXIXIXIXIXIXIXIXIXIXIXIXIXIXIXIXIXIXIXIXIXIXIXIXIXIX4./ [ s s s @.#.O.Q Q -.,.,.<.! Q W Z Z Z G G R Y r t [ +.+.g 9 q g S S s s s S g e e 7 : + < Y O.@.S ) IXIXIXIXIXIXIXIXIXIXIXIX",
"IXIXIXIXIXIXIXIXIXIXIXIXIXIXIXIXIXIXIXIXIXIXIXIXIXIXIXIXIXIXIXIXIXIXIXIXIXIXIXIXIXIXIXIXIXIXIXIXIXIXIXIXIX( [ s t D @.#.T T Q -.<.,.,.! ~ K Z Z Z G U F R t r S +.%.[ i i g s w s S S X.X.S S e 4 ; > Y O.O.S u IXIXIXIXIXIXIXIXIXIXIXIX",
"IXIXIXIXIXIXIXIXIXIXIXIXIXIXIXIXIXIXIXIXIXIXIXIXIXIXIXIXIXIXIXIXIXIXIXIXIXIXIXIXIXIXIXIXIXIXIXIXIXIXIXIXIX( [ s s D @.#.R T T Q -.,.,.! Q W Z Z Z G U F R D r D o.%.+.g q e S +.S X.S X.X.X.+.s 8 ; - F O.=.I f IXIXIXIXIXIXIXIXIXIXIXIX",
"IXIXIXIXIXIXIXIXIXIXIXIXIXIXIXIXIXIXIXIXIXIXIXIXIXIXIXIXIXIXIXIXIXIXIXIXIXIXIXIXIXIXIXIXIXIXIXIXIXIXIXIXIX) ( g s s +.O.R U T =.! ,.<.<.-.Q W Z Z Z U F F F < D o.o.o.o.s i s S S +.+.#.&.#.+.t ; % O J O.T C S ) IXIXIXIXIXIXIXIXIXIXIX",
"IXIXIXIXIXIXIXIXIXIXIXIXIXIXIXIXIXIXIXIXIXIXIXIXIXIXIXIXIXIXIXIXIXIXIXIXIXIXIXIXIXIXIXIXIXIXIXIXIXIXIXIXIX4.( g s D @.#.R U T W ! ,.<.-.-.Q L K Z A Z A U Y r r S +.+.[ S e e +.&.0.q.t.t.e.1.S 5 $ : < Q R A S _ IXIXIXIXIXIXIXIXIXIXIX",
"IXIXIXIXIXIXIXIXIXIXIXIXIXIXIXIXIXIXIXIXIXIXIXIXIXIXIXIXIXIXIXIXIXIXIXIXIXIXIXIXIXIXIXIXIXIXIXIXIXIXIXIXIXIX) g s s @.#.R U H T Q ! <.-.-.Q L L Z Z Z A U R V r r X.X.S g e s &.w.0.0.0.1.q.q.X.; $ : > U R U D f IXIXIXIXIXIXIXIXIXIXIX",
"IXIXIXIXIXIXIXIXIXIXIXIXIXIXIXIXIXIXIXIXIXIXIXIXIXIXIXIXIXIXIXIXIXIXIXIXIXIXIXIXIXIXIXIXIXIXIXIXIXIXIXIXIXIX) h s s @.#.R Y H U Q ! <.,.-.Q W K L L Z Z G T Y r r S X.S S t s +.e.q.w.1.&.1.w.+.; : : - V R T H a ) IXIXIXIXIXIXIXIXIXIX",
"IXIXIXIXIXIXIXIXIXIXIXIXIXIXIXIXIXIXIXIXIXIXIXIXIXIXIXIXIXIXIXIXIXIXIXIXIXIXIXIXIXIXIXIXIXIXIXIXIXIXIXIXIXIX) f s s @.#.R Y F G Q ! <.<.,.! Q W Z L Z Z A U T r r s I X.X.s t S &.w.1.#.X.I X.X.8 : : - J R =.H D p IXIXIXIXIXIXIXIXIXIX",
"IXIXIXIXIXIXIXIXIXIXIXIXIXIXIXIXIXIXIXIXIXIXIXIXIXIXIXIXIXIXIXIXIXIXIXIXIXIXIXIXIXIXIXIXIXIXIXIXIXIXIXIXIXIX} f s s @.#.R F F F K Q -.,.-.-.Q W L Z Z Z A F T V < r D X.X.s e s s X.S S s r r t 8 % @ + J T =.| D a IXIXIXIXIXIXIXIXIXIX",
"IXIXIXIXIXIXIXIXIXIXIXIXIXIXIXIXIXIXIXIXIXIXIXIXIXIXIXIXIXIXIXIXIXIXIXIXIXIXIXIXIXIXIXIXIXIXIXIXIXIXIXIXIXIX4.f h s @.:.Y F D F K Q -.,.-.,.-.W K Z Z W Z A U Y r r t X.X.s s s D s s X.I S S e 8 % @ + < R =.| D 4 ) IXIXIXIXIXIXIXIXIX",
"IXIXIXIXIXIXIXIXIXIXIXIXIXIXIXIXIXIXIXIXIXIXIXIXIXIXIXIXIXIXIXIXIXIXIXIXIXIXIXIXIXIXIXIXIXIXIXIXIXIXIXIXIXIXIXg h s @.:.Y F D F K W ! -.-.,.,.~ K Z Z Z Z G G T C r e I I S S s e 8 , r t t t 8 , : + + < H =.H Y 8 u IXIXIXIXIXIXIXIXIX",
"IXIXIXIXIXIXIXIXIXIXIXIXIXIXIXIXIXIXIXIXIXIXIXIXIXIXIXIXIXIXIXIXIXIXIXIXIXIXIXIXIXIXIXIXIXIXIXIXIXIXIXIXIXIXIX( i s @.=.Y F F F G L Q -.-.,.,.~ L Z L Z Z G A U F < < D @.+.X.e 0 r ; % ; , r s : + + @ : H =.=.V D y IXIXIXIXIXIXIXIXIX",
"IXIXIXIXIXIXIXIXIXIXIXIXIXIXIXIXIXIXIXIXIXIXIXIXIXIXIXIXIXIXIXIXIXIXIXIXIXIXIXIXIXIXIXIXIXIXIXIXIXIXIXIXIXIXIX4.d s @.O.Y H D F A U Q W ! <.,.~ W Z Z Z Z Z Z A F r r D +.#.o.g h e 8 ; ; 8 , w , : @ - : D =.H V C i IXIXIXIXIXIXIXIXIX",
"IXIXIXIXIXIXIXIXIXIXIXIXIXIXIXIXIXIXIXIXIXIXIXIXIXIXIXIXIXIXIXIXIXIXIXIXIXIXIXIXIXIXIXIXIXIXIXIXIXIXIXIXIXIXIX6./ t Y O.Y H D F A G W Q -.,.,.! W Z Z Z Z Z Z Z H C < C X.#.+.X.g w 8 8 8 , , w ; : + - : C T U A J r _ IXIXIXIXIXIXIXIX",
"IXIXIXIXIXIXIXIXIXIXIXIXIXIXIXIXIXIXIXIXIXIXIXIXIXIXIXIXIXIXIXIXIXIXIXIXIXIXIXIXIXIXIXIXIXIXIXIXIXIXIXIXIXIXIXIX( t @.O.H F D F A A G Q ! ! ! -.W Z Z Z Z Z Z Z T F r r D +.X.I s 8 ; ; ; ; % ; @ + @ - - r H T F J r 6 IXIXIXIXIXIXIXIX",
"IXIXIXIXIXIXIXIXIXIXIXIXIXIXIXIXIXIXIXIXIXIXIXIXIXIXIXIXIXIXIXIXIXIXIXIXIXIXIXIXIXIXIXIXIXIXIXIXIXIXIXIXIXIXIXIX( s @.:.Y F D F A A G Q ! ! ! ! W L Z Z Z Z Z Z G T C r t I I S e 0 4 : ; 8 ; % % % + - - < F T F V r a IXIXIXIXIXIXIXIX",
"IXIXIXIXIXIXIXIXIXIXIXIXIXIXIXIXIXIXIXIXIXIXIXIXIXIXIXIXIXIXIXIXIXIXIXIXIXIXIXIXIXIXIXIXIXIXIXIXIXIXIXIXIXIXIXIX$.h +.:.Y F F F V A G W ! ! ! ! ~ L Z Z Z Z G G Z G V < t D I I s t t r t s r , , ; : + - > V T F F r i _ IXIXIXIXIXIXIX",
"IXIXIXIXIXIXIXIXIXIXIXIXIXIXIXIXIXIXIXIXIXIXIXIXIXIXIXIXIXIXIXIXIXIXIXIXIXIXIXIXIXIXIXIXIXIXIXIXIXIXIXIXIXIXIXIX4.f +.&.Y F D V V V A G Q -.-.! ! W Z Z Z Z G Z G G F < r t I X.I s t t s D s s w , % O : > C R F V < r _ IXIXIXIXIXIXIX",
"IXIXIXIXIXIXIXIXIXIXIXIXIXIXIXIXIXIXIXIXIXIXIXIXIXIXIXIXIXIXIXIXIXIXIXIXIXIXIXIXIXIXIXIXIXIXIXIXIXIXIXIXIXIXIXIXIX( +.&.Y U F V V V A A W ! ! -.! ~ W Z Z Z Z Z G U U V r r D I X.s r r t S S S w ; + o : - C R T C < r p IXIXIXIXIXIXIX",
"IXIXIXIXIXIXIXIXIXIXIXIXIXIXIXIXIXIXIXIXIXIXIXIXIXIXIXIXIXIXIXIXIXIXIXIXIXIXIXIXIXIXIXIXIXIXIXIXIXIXIXIXIXIXIXIXIX} %.&.R Y F C F V A G K Q ! -.! ~ W Z A Z Z Z Z G U F r r C S I D s r D +.+.S e , % O : - J Y F A J < 0 IXIXIXIXIXIXIX",
"IXIXIXIXIXIXIXIXIXIXIXIXIXIXIXIXIXIXIXIXIXIXIXIXIXIXIXIXIXIXIXIXIXIXIXIXIXIXIXIXIXIXIXIXIXIXIXIXIXIXIXIXIXIXIXIXIX4.%.#.@.F F C C V A A G W Q ! ,.! W Z Z Z Z Z Z G U G V r r C D X.D s D #.&.X.s 4 = O + - r F Q A J < r _ IXIXIXIXIXIX",
"IXIXIXIXIXIXIXIXIXIXIXIXIXIXIXIXIXIXIXIXIXIXIXIXIXIXIXIXIXIXIXIXIXIXIXIXIXIXIXIXIXIXIXIXIXIXIXIXIXIXIXIXIXIXIXIXIX6.%.&.R F D V V V V A G W Q ! ,.! W Z Z Z Z Z Z Z Z G A < < r D X.S S X.&.1.+.D 8 = o + - r F F G J < t 6 IXIXIXIXIXIX",
"IXIXIXIXIXIXIXIXIXIXIXIXIXIXIXIXIXIXIXIXIXIXIXIXIXIXIXIXIXIXIXIXIXIXIXIXIXIXIXIXIXIXIXIXIXIXIXIXIXIXIXIXIXIXIXIXIXIX%.&.Y Y V D V V C V G W Q ! ,.,.Q W K Z Z Z Z Z Z Z F J > < D X.X.X.+.&.1.&.S 0 % @ @ + < F Q U A < r u IXIXIXIXIXIX",
"IXIXIXIXIXIXIXIXIXIXIXIXIXIXIXIXIXIXIXIXIXIXIXIXIXIXIXIXIXIXIXIXIXIXIXIXIXIXIXIXIXIXIXIXIXIXIXIXIXIXIXIXIXIXIXIXIXIX6.&.X.R V F V V C V A K Q ! ,.,.! W W Z Z Z Z Z Z G U C < r t I I X.X.+.+.+.s 8 % @ + + , F U A V C < 9 IXIXIXIXIXIX",
"IXIXIXIXIXIXIXIXIXIXIXIXIXIXIXIXIXIXIXIXIXIXIXIXIXIXIXIXIXIXIXIXIXIXIXIXIXIXIXIXIXIXIXIXIXIXIXIXIXIXIXIXIXIXIXIXIXIX6.%.@.R F D V V C V A G W ! ,.,.! W W Z Z Z Z Z Z G U V r r r D S g g S [ S e ; % @ % : > V U Q G < J e 6 IXIXIXIXIX",
"IXIXIXIXIXIXIXIXIXIXIXIXIXIXIXIXIXIXIXIXIXIXIXIXIXIXIXIXIXIXIXIXIXIXIXIXIXIXIXIXIXIXIXIXIXIXIXIXIXIXIXIXIXIXIXIXIXIXIX%.#.Y D V C V V V A Z K ! ,.,.! ~ W Z Z Z Z Z Z G G A J r r t s q i e a 0 4 = o @ + : : C A U V J < r _ IXIXIXIXIX",
"IXIXIXIXIXIXIXIXIXIXIXIXIXIXIXIXIXIXIXIXIXIXIXIXIXIXIXIXIXIXIXIXIXIXIXIXIXIXIXIXIXIXIXIXIXIXIXIXIXIXIXIXIXIXIXIXIXIXIX%.#.F D V C V V C A Z K Q -.,.,.Q W Z Z Z Z Z Z G G F C < , w w 7 q 7 0 4 * = O @ @ + O J U G H J < e u IXIXIXIXIX",
"IXIXIXIXIXIXIXIXIXIXIXIXIXIXIXIXIXIXIXIXIXIXIXIXIXIXIXIXIXIXIXIXIXIXIXIXIXIXIXIXIXIXIXIXIXIXIXIXIXIXIXIXIXIXIXIXIXIXIX6.#.I D V C V V V A A G Q -.,.,.! W G Z Z Z Z G G A F V < : ; ; , 8 ; 4 ; ; & % + % : O C A W H J J r p IXIXIXIXIX",
"IXIXIXIXIXIXIXIXIXIXIXIXIXIXIXIXIXIXIXIXIXIXIXIXIXIXIXIXIXIXIXIXIXIXIXIXIXIXIXIXIXIXIXIXIXIXIXIXIXIXIXIXIXIXIXIXIXIXIX6.%.X.D F V C C C C V F T -.,.<.-.Q K G G Z G G Z Z U A r O X o % ; ; ; ; ; ; + : ; + : J F G F V r t s ) IXIXIXIX",
"IXIXIXIXIXIXIXIXIXIXIXIXIXIXIXIXIXIXIXIXIXIXIXIXIXIXIXIXIXIXIXIXIXIXIXIXIXIXIXIXIXIXIXIXIXIXIXIXIXIXIXIXIXIXIXIXIXIXIXkX5.+.[ D D D D D D D H @.=.;.;.;.=.| | H H H F F F H H D e & . . $ 5 0 0 5 9 4 ; $ $ 5 H @.| H H C e f $.IXIXIXIX",
"IXIXIXIXIXIXIXIXIXIXIXIXIXIXIXIXIXIXIXIXIXIXIXIXIXIXIXIXIXIXIXIXIXIXIXIXIXIXIXIXIXIXIXIXIXIXIXIXIXIXIXIXIXIXIXIXIXIXIXIX6.%.} { { { { { { { | | %.%.1.1.%.| | | | | | | | | | | } _ 3 3 # 3 3 3 6 3 # # # 3 { 6.| | | | { _ _ 4.IXIXIXIX",
"IXIXIXIXIXIXIXIXIXIXIXIXIXIXIXIXIXIXIXIXIXIXIXIXIXIXIXIXIXIXIXIXIXIXIXIXIXIXIXIXIXIXIXIXIXIXIXIXIXIXIXIXIXIXIXIXIXIXIXIXIXIXIXIXIXIXIXIXIXIXIXIXIXIXIXIXIXIXIXIXIXIXIXIXIXIXIXIXIXIXIXIXIXIXIXIXIXIXIXIXIXIXIXIXIXIXIXIXIXIXIXIXIXIXIXIX"
};
