/* XPM */
static const char *xpm__3_sgun_startshoot2[] = {
/* columns rows colors chars-per-pixel */
"116 132 256 2 ",
"   c #0C0402",
".  c #0B0606",
"X  c #120B03",
"o  c #140B0A",
"O  c #1B130C",
"+  c #171208",
"@  c #150D14",
"#  c #1B1414",
"$  c #1C151B",
"%  c #1E191C",
"&  c #191516",
"*  c #090515",
"=  c #22140C",
"-  c #231C1C",
";  c #241816",
":  c #2C1814",
">  c #29221B",
",  c #35261D",
"<  c #29250E",
"1  c #1D1923",
"2  c #150D2C",
"3  c #231D23",
"4  c #241C27",
"5  c #271C34",
"6  c #262125",
"7  c #2B2324",
"8  c #26222B",
"9  c #2A242B",
"0  c #2D292B",
"q  c #332C2C",
"w  c #372926",
"e  c #3A322D",
"r  c #2E2932",
"t  c #2A2634",
"y  c #332C33",
"u  c #332D3B",
"i  c #362A34",
"p  c #3C3433",
"a  c #3A343B",
"s  c #393438",
"d  c #1D262B",
"f  c #7C0C0C",
"g  c #790906",
"h  c #7C120B",
"j  c #690A19",
"k  c #7C0D13",
"l  c #750C18",
"z  c #7C1214",
"x  c #77121B",
"c  c #6B1015",
"v  c #5A122C",
"b  c #591537",
"n  c #530E32",
"m  c #660D25",
"M  c #691428",
"N  c #761525",
"B  c #661735",
"V  c #74152D",
"C  c #4B342C",
"Z  c #473529",
"A  c #5C3B2C",
"S  c #55392C",
"D  c #443B3B",
"F  c #473835",
"G  c #533C33",
"H  c #5B3D32",
"J  c #533938",
"K  c #432D26",
"L  c #613E31",
"P  c #65372E",
"I  c #5F2818",
"U  c #4A423C",
"Y  c #5C4135",
"T  c #5B443B",
"R  c #57463B",
"E  c #54472F",
"W  c #674538",
"Q  c #724C3E",
"!  c #764E35",
"~  c #6C4A33",
"^  c #361754",
"/  c #3A3645",
"(  c #362F4D",
")  c #2F205F",
"_  c #491847",
"`  c #551946",
"'  c #481C57",
"]  c #433C43",
"[  c #443A4A",
"{  c #4E3A53",
"}  c #572C53",
"|  c #3E4355",
" . c #4C4343",
".. c #4A4549",
"X. c #544B4B",
"o. c #584946",
"O. c #5B514B",
"+. c #494557",
"@. c #554C58",
"#. c #5B5456",
"$. c #644B45",
"%. c #744D42",
"&. c #794E42",
"*. c #63534C",
"=. c #6A544A",
"-. c #795447",
";. c #665956",
":. c #745855",
">. c #746658",
",. c #595868",
"<. c #504D69",
"1. c #635B6A",
"2. c #5D6373",
"3. c #6A6668",
"4. c #736B6B",
"5. c #766B67",
"6. c #79736C",
"7. c #676775",
"8. c #787473",
"9. c #736D75",
"0. c #840C04",
"q. c #8A0D03",
"w. c #830D0B",
"e. c #880C09",
"r. c #8B1304",
"t. c #84120C",
"y. c #8B130B",
"u. c #881507",
"i. c #931403",
"p. c #9C1C03",
"a. c #941A0B",
"s. c #971808",
"d. c #840D13",
"f. c #831413",
"g. c #891616",
"h. c #951B13",
"j. c #920D02",
"k. c #A51D04",
"l. c #A51E0B",
"z. c #9A2209",
"x. c #9B2215",
"c. c #8E2F0D",
"v. c #A42303",
"b. c #AB2402",
"n. c #AD2A03",
"m. c #A8260B",
"M. c #B22501",
"N. c #B32B02",
"B. c #BB2C01",
"V. c #B42C0A",
"C. c #BA2B09",
"Z. c #BC3303",
"A. c #BC330B",
"S. c #B63405",
"D. c #A62713",
"F. c #BA3413",
"G. c #AF3010",
"H. c #8E2322",
"J. c #C22E01",
"K. c #C43402",
"L. c #CA3601",
"P. c #C53A03",
"I. c #CC3B02",
"U. c #C53B0C",
"Y. c #CC3C0A",
"T. c #C5350B",
"R. c #D33D02",
"E. c #D63C06",
"W. c #C73B12",
"Q. c #D43E15",
"!. c #E33F02",
"~. c #B14A0B",
"^. c #AA702C",
"/. c #A26325",
"(. c #CC4201",
"). c #CD420B",
"_. c #C94901",
"`. c #D44203",
"'. c #DA4403",
"]. c #DC4A04",
"[. c #D4430B",
"{. c #DB450A",
"}. c #DC4A0C",
"|. c #D44A04",
" X c #D75602",
".X c #CB4213",
"XX c #D74713",
"oX c #CA5604",
"OX c #E24A09",
"+X c #E44F11",
"@X c #D36F03",
"#X c #E67007",
"$X c #8D7458",
"%X c #877968",
"&X c #8B796E",
"*X c #946B57",
"=X c #B59534",
"-X c #D48F09",
";X c #E68804",
":X c #E89804",
">X c #F09411",
",X c #D8B00A",
"<X c #E9B707",
"1X c #F8B916",
"2X c #F0AE0F",
"3X c #CA9830",
"4X c #D2AC2B",
"5X c #F2AE27",
"6X c #E29028",
"7X c #F7D907",
"8X c #F2CF10",
"9X c #FAE805",
"0X c #FDF808",
"qX c #FBE819",
"wX c #FDF818",
"eX c #ECE611",
"rX c #DACA38",
"tX c #EED629",
"yX c #F8EA26",
"uX c #F9F627",
"iX c #F0EE32",
"pX c #DCD314",
"aX c #988254",
"sX c #AD914E",
"dX c #878479",
"fX c #968A70",
"gX c #A8966E",
"hX c #B3AA75",
"jX c #B7AC4F",
"kX c #CBB55F",
"lX c #D4CE53",
"zX c #EED451",
"xX c #EDEB4D",
"cX c #D7D270",
"vX c #EFD36C",
"bX c #E4E46A",
"nX c #75748A",
"mX c #6B5A81",
"MX c #7C8496",
"NX c #91918F",
"BX c #AFAE93",
"VX c #B1B1AA",
"CX c #9C9C99",
"ZX c #D0B68C",
"AX c #C3BCB2",
"SX c #D3A487",
"DX c #BCC3AC",
"FX c #D0CA91",
"GX c #C7C8B5",
"HX c #CFD0B1",
"JX c #E7D38F",
"KX c #C9CAC6",
"LX c #B6C0C3",
"PX c None",
"IX c black",
"UX c #86778C",
/* pixels */
"PXPXPXPXPXPXPXPXPXPXPXPXPXPXPXPXPXPXPXPXPXPXPXPXPXPXPXPXPXPXPXPXPXPXPXPXPXPXPXPXPXPXPXPXPXPXPXPXPX^ b m z g 0.0.0.t.h t.w.w.y.w.k x PXz g 0.0.0.f l PXPXPXPXPXPXPXPXPXPXPXPXPXPXPXPXPXPXPXPXPXPXPXPXPXPXPXPXPXPXPXPXPXPXPXPXPXPXPXPXPXPX",
"PXPXPXPXPXPXPXPXPXPXPXPXPXPXPXPXPXPXPXPXPXPXPXPXPXPXPX_ ` b b b B b ` PXPXPXPXPXPXPXPXPXPXPXPXPXPXPXPXm x t.y.u.0.0.t.0.u.u.w.f x j j l h 0.q.u.f x V n ` PXPXPXPXPXPXPXPXPXPXPXPXPXPXPXPXPXPXPXPXPXPXPXPXPXPXPXPXPXPXPXPXPXPXPXPXPXPXPX",
"PXPXPXPXPXPXPXPXPXPXPXPXPXPXPXPXPXPXPXPXPXPXPXPXPXb b b b v B M j N M V j m B PXPXPXPXPXPXPXPXPXPXPX_ b N f y.y.e.y.r.r.r.r.r.k M PXN l f.f.f f.f.f.f g.l m b PXPXPXPXPXPXPXPXPXPXPXPXPXPXPXPXPXPXPXPXPXPXPXPXPXPXPXPXPXPXPXPXPXPXPXPXPX",
"PXPXPXPXPXPXPXPXPXPXPXPXPXPXPXPXPXPXPXPXPXPXPXn B m PXB PXPXPXx z f.h f w.f.x v _ ' PXPXPXPXPXPXPXPXPXPXl f.y.0.h.h.a.a.a.a.a.f.m PXj x f.f.g t.w.y.e.0.g.f.l M ` PXPXPXPXPXPXPXPXPXPXPXPXPXPXPXPXPXPXPXPXPXPXPXPXPXPXPXPXPXPXPXPXPXPXPX",
"PXPXPXPXPXPXPXPXPXPXPXPXPXPXPXPXPXPXPXPXPXv B M j PXm v PXM x t.y.e.e.q.u.f z N PXPXPXPXv V j N j N c g h.y.x.h.h.h.h.a.a.s.u.t.z z PXl k d.r.s.r.r.y.w.g.g f.k j b PXPXPXPXPXPXPXPXPXPXPXPXPXPXPXPXPXPXPXPXPXPXPXPXPXPXPXPXPXPXPXPXPXPX",
"PXPXPXPXPXPXPXPXPXPXPXPXPXPXPXPXPXPXn M j N N PXj j PXm j N z y.q.q.0.y.q.t.f l B v B m l z 0.0.f.g h.a.s.l.i.h.a.a.s.p.s.s.u.g w.g f H.g.h.h.s.l.a.h.g.t.t.y.0.f.j n PXPXPXPXPXPXPXPXPXPXPXPXPXPXPXPXPXPXPXPXPXPXPXPXPXPXPXPXPXPXPXPXPX",
"PXPXPXPXPXPXPXPXPXPXPXPXPXPXPXPXB m N N l PXj PXPXV j H.g.f g 0.q.i.y.a.q.i.y.f.l l N x k f k z f t.0.i.j.l.k.v.m.v.b.m.D.D.h.t.w.h.w.u.y.a.h.y.s.i.a.z.u.y.y.d.y.k N n PXPXPXPXPXPXPXPXPXPXPXPXPXPXPXPXPXPXPXPXPXPXPXPXPXPXPXPXPXPXPXPX",
"PXPXPXPXPXPXPXPXPXPXPXPXPXPXPXB x k k l l c N j N N x f 0.r.a.h.x.a.h.a.x.i.y.w.k x x k f.w.f.z g.u.a.D.G.G.V.N.N.M.M.N.A.G.z.u.u.g r.i.s.p.s.h.h.s.s.r.s.a.y.y.e.y.d.N PXPXPXPXPXPXPXPXPXPXPXPXPXPXPXPXPXPXPXPXPXPXPXPXPXPXPXPXPXPXPXPX",
"PXPXPXPXPXPXPXPXPXPXPXPXPXPXB l z k l l l g.w.w.f.t.g u.i.p.a.a.a.a.r.a.i.q.y.f x PXPXx g.y.a.a.g.a.x.D.F.A.A.N.K.I.K.J.J.C.n.D.u.u.i.D.D.m.v.m.n.v.m.D.j.i.a.a.i.e.f.k z j B PXPXPXPX' _ PXPXPXPXPXPXPXPXPXPXPXPXPXPXPXPXPXPXPXPXPXPXPX",
"PXPXPXPXPXPXPXPXPXPXPXPXPXn j f g z PXj g.w.y.q.0.r.r.i.p.k.p.p.m.D.z.z.p.i.r.f N M M j f.h.i.m.D.x.p.k.C.Z.P.).I.I.R.L.L.L.C.m.z.z.m.G.F.F.S.N.N.A.V.m.l.s.r.a.r.e.f.f e.d.g M b _ _ PXn PXPX' PXPXPXPXPXPXPXPXPXPXPXPXPXPXPXPXPXPXPXPX",
"PXPXPXPXPXPXPXPXPXPX) PXb j g.w.w.g z g.z f.0.a.r.z.D.m.b.M.N.n.v.m.v.n.b.k.i.0.c M PXN z 0.a.p.k.k.M.B.J.L.[.[.`.`.`.R.R.E.T.M.b.v.N.N.Z.Y.K.B.B.K.T.F.G.m.s.a.y.y.y.0.w.f.l j v PXPX' ' PX` ' PXPXPXPXPXPXPXPXPXPXPXPXPXPXPXPXPXPXPXPX",
"PXPXPXPXPXPXPXPXPXPXPXPXN z f f w.r.g y.t.h.x.x.D.m.m.b.A.K.K.N.N.N.N.C.C.N.k.y.PXj l l t.a.i.p.b.T.Y.E.{.`.`.}.`.`.'.`.E.XXW.M.N.N.U.).Y.{.{.E.{.B.M.W.F.G.G.m.r.0.i.r.f h z N PXb PXPXPXPXPXPXPXPXPXPXPXPXPXPXPXPXPXPXPXPXPXPXPXPXPXPX",
"PXPXPXPXPXPXPXPXv m c l k k j PXz q.h.i.p.G.D.D.G.b.M.M.Z.Z.U.U.I.K.Z.N.C.N.k.i.y.t.f.g.i.D.z.s.p.v.W..X[.E.}.I.I.I.`.).U.W.F.n.C.N.).[.[.}.}.{.E.'.R.J.M.U..XM.v.i.i.s.y.t.k l l V PX` ` PXn PXPXPXPXPXPXPXPXPXPXPXPXPXPXPXPXPXPXPXPXPX",
"PXPXPXPXPXPXn M x h t.w.g z PXj f.q.j.b.V.A.m.n.n.N.Z.K.T.Z.Y.XX`.R.).U.U.T.b.i.0.r.u.r.p.i.p.p.z.v.b.b.K.I.Y.XXP.P.Y.P.A.A.G.n.N.N.Z.Y.I.R.`.I.R.+X{.R.R.B.J.K.C.v.k.p.a.h.f.k d.k N m B b v PXPXPXPXPX) PXPXPXPXPXPXPXPXPXPXPXPXPXPXPX",
"PXPXPXPXPXPXM z l g f k d.f g.h u.z.v.V.A.B.T.B.B.N.N.T.).[.`.R.'.'.}.XXXX.XC.m.z.x.r.m.b.V.V.V.G.n.U.Y.E.E.Y.N.Z.Z.Z.Z.Z.N.b.n.N.K.K.Y.Y.I.[.I.I.}.R.R.+X`.K.B.N.n.m.l.i.y.y.y.e.h.w.f g.l PXb PXPXPXPXPX) PXPXPXPXPXPXPXPXPXPXPXPXPXPX",
"PXPXPXPX` M N l N N z k g y.0.a.z.G.G.F.T.Y.K.K.B.K.P.).[.}.R.R.E.R.R.P.U.W.A.n.m.z.G.m.V.N.A.Z.S.S.Z.k.M.M.N.A.V.V.b.N.N.b.k.b.M.Y.K.I.I.P.[.Y.L.[.R.[.}.R.[.Y.T.F.F.G.D.i.r.e.e.g q.i.g g.N B _ PX) PXPXPXPXPXPXPXPXPXPXPXPXPXPXPXPXPX",
"PXPXPXPXM l j PXm PXl f y.r.s.G.V.N.T.Z.[.I.`.'.I.I.R.}.[.E.R.R.R.R.'.P.Z.U.Z.N.n.A.b.F.A.W.K.I.K.K.A.N.b.p.p.z.k.l.D.G.A.B.B.B.N.K.Z.Z.Z.Y.P.K.K.J.L.R.{.}.`.[.K.W.B.T.N.p.i.r.g.g r.a.r.f.x PXv PXPXPXPXPXPX) PXPXPXPXPXPXPXPXPXPXPXPX",
"PXPXPXb N l B n PXm f u.r.s.v.n.A.U.Y.I.`.I.I.I.`.I.`.}.R.E.[.I.I.L.I.P.U.U.Z.A.N.A.N.T.U.Y.I.`.I.K.N.v.v.v.v.v.m.m.G.G.V.B.K.K.I.L.I.Z.P.K.P.Y.J.J.K.I.Y.`.I.(.P.K.K.Y.W.v.i.r.0.g.u.a.u.y.f.N B PXPXPXPXPXPXPXPXPXPXPXPXPXPXPXPXPXPXPX",
"PXPX` PXM PX` PXm g a.r.s.k.k.A.K.Y.Y.R.`.}.].'.'.}.`.I.[.I.K.B.Z.N.C.A.S.n.b.N.M.T.Y.XXOX'.`.|.[.).I.K.V.N.N.N.n.b.b.k.k.N.).}.E.+X{.{.R.{.L.J.T.C.B.C.T.I.I.I.I.K.[.K.XXb.p.r.y.y.h.s.s.a.f.l PXn PXPXPXPXPXPXPXPXPXPXPXPXPXPXPXPXPXPX",
"PXPXb M B n PXPXc u.0.s.D.m.C.J.I.`.{.`.`.'.'.'.I.I.XX[.K.Z.).U.N.b.b.N.N.N.n.N.N.J.L.R.'.`.`.[.(.).Y.Y.B.M.M.M.N.n.N.C.C.Z.P.P.XXR.R.R.+XR.E.XXT.A.C.C.C.B.K.I.(.}.[.XXY.U.k.l.a.y.x.z.i.r.t.g.N b PXPXPX) PXPXPXPXPXPXPXPXPXPXPXPXPXPX",
"PX` m M b PXPXB g.i.a.x.a.m.B.[.R.`.].'.OX`.`.R.}.[.L.K.).P.B.N.A.V.V.N.B.Z.Z.K.T.T.L.R.'.I.`.(.(.Y.Y.K.K.B.Z.Z.Z.B.A.U.P.P.P.K.R.'.R.`.R.OX`.Y.A.V.n.V.V.M.B.B.P.(.[.L.Y.K.b.p.j.D.v.F.z.i.a.w.f N PXPXPXPXPXPXPXPXPXPXPXPXPXPXPXPXPXPX",
"PXv PXM ` PXPXM w.s.h.a.x.G.Z.`.R.R.'.R.].`.`.R.I.K.I.I.K.Z.U.T.A.A.T.Z.K.I.L.L.L.L.E.E.'.`.'.I.'.[.[.Y.K.K.I.[.U.T.K.K.P.P.).).}.I.`.'.OXR.I.I.P.S.b.b.n.N.A.K.K.[.`.'.[.XXC.k.p.p.b.F.F.v.i.r.0.z v PXPXPXPXPXPX^ PXPXPXPXPXPXPXPXPXPX",
"PXB PXb PXPXPXx h.a.a.x.D.v.[.`.'.].].R.'.`.`.I.`.[.Y.I.Y.Y.P.K.K.K.I.I.R.].{.E.R.R.R.I.I.R.{.E.R.R.R.I.P.K.L.L.`.R.E.[.`.I.I.P.I.[.R.I.R.].{.|.P.).S.N.b.k.F.W.P.I.`.R.+XE.W.k.V.j.Z.N..Xn.i.a.z N M V j v PX^ ^ PXPXPXPXPXPXPXPXPXPXPX",
"b v B ` PXPXB z u.z.z.z.n.B.Y.R.`.].].`.'.}.[.I.K.K.K.I.K.[.).K.L.I.`.`.].].'.`.`.|.|.|.(.E.OXE.OX`.I.I.[.}.'.'.OXOXOXOX{.'.|.'.I.[.E.R.E.R.I.I.[.).Z.S.n.b.V.b.U.I.R.{.'.R.XXJ.T.U.P.Y.).U.p.r.f.c PXl g.l PXPXPX_ PXPXPXPXPXPXPXPXPXPX",
"' PX` PXPXPXV t.r.z.v.b.M.E.E.R.].].`.}.}.`.K.I.L.I.I.I.I.`.}.R.R.'.`.I.+X`.|._.#XoX@X X_.I.+X!.OXR.].(.}._.}.`.OXOXOXR.R.`.`.OX`.E.{.R.E.`.{.R.L.{.L.Y.M.N.V.b.Z.XX[.R.R.R.[.Y.Q.Y.I.`.I.).V.s.0.f.k z d.k M PXb PXPXPXPXPXPXPXPXPXPXPX",
"PXPX^ PXPXPXx u.z.v.v.C.K.R.OX'.#X+XI.}.I.I.K.I.L.[.`.}.R.R.`.R.'.`.R.+X'.(.@X>X;X1X:X>XoXoX|.].`.|._._._._.~._.|.].].].`.|. X_._._._._._._.(.].].'.OX{.K.B.b.A.b.Y.I.E.OXR.L.`.L.I.`.`.`.).A.p.i.u.0.f f.z c N b PXPXPXPXPXPXPXPXPXPXPX",
"PXPXPXPXPXv z r.s.p.m.V.L.R.'.`.`.|.}.}.K.I.I.L.I.I.'.`.+XR.'.R.+XR.E.R.(.#X5X2X8X8X8X<X1X2X@X@X;X;X>X;X@X~.vX6Xn.oXoX@X#X#X@X;X:X>X2X>X;X;X#XoX_.].R.R.E.L.J.K.M.Z.Y.{.{.`.`.I.L.I.'.`.'.I.W.m.l.r.i.r.h z z m PXPXPXPXPXPXPXPXPXPXPXPX",
"PXPXPXPXn N w.s.s.l.F.V.Y.}.`.`.`.`.}.I.K.K.Y.K.I.`.I.'.].OX'.'.R.R.{.`._.>X1XqXqX7XqXqXqX8X1X<X1X:X8X2X>X;XvX6X~.#X>X2X1X1X1X8X8X<X<X8X8X<X:X2X;X_.|.+XE.{.J.J.N.N.K.[.R.`.[.K.K.I.`.`.'.`.W.G.l.i.i.s.g h z V b PXPXPXPXPXPXPXPXPXPXPX",
"_ ^ PXPXB N g y.q.z.D.n.).'.R.'.].(.I.K.Y.J.K.Y.I.'.}.`.'.R.'.{.'.'.`._.;X2X8XwX7XwX7X7X7XqX7X7XqXuX9X7X8X5X5X@Xc.5X1XqX9X7X7X7X9X9X0X0X9X7X7X8X:X;XoX_.|.L.E.I.A.b.M.K.[.`.I.[.B.K.R.].'.].Y.V.p.i.y.y.t.f.f k l n PXPXPXPXPXPXPXPXPXPX",
"PXPXPX` m x g.0.r.m.p.F.XX`.OXOXR.`.K.I.Y.Y.B.I.I.[.`.].R.OXR.'.`.].oX;X:X7X7X0X9X0X7X7XpX7XuX9XwX0X0XwX8X1X@X~.oXxXyXwXwXwX0XwX0X0X0X0X0X0X9X9XqXtX1XoX_.`.R.E.U.b.M.Z.I.).Y..XB.K.I.'.'.].I.A.k.z.x.u.g.f.f.f d.N PXPXPXPXPXPXPXPXPXPX",
"PXPXv N V l k u.i.k.p.V.I.R.`.'.OX'.B.K.K.XXK.B.I.K.(.`.].}.{.`.].oX;X1X8X9X0X0X0X9X0X9X7X7X7XqXwXwXuX,X1X1X2X-X,XtXyX7XwXwXuXqXwXwXwXwX0XwXwX9XwX7X8X:X@X_.+XY.U.b.N.B.B.U.W.A.V.B.L.R.`.'.R.T.k.p.D.q.y.w.f.w.0.l PXPXPXPXPXPXPXPXPXPX",
"PXPXN d.l PXf.u.k.k.k.b.Z.XXI.'.`.I.L.[.I.Y.I.K.I.K.I.`.[.'.`._.#X>X1X7X9X9X9X0X9X9XwXqXyX,X<X8X8X8X<X:X:X2X8XtXyXuXqXuX7X,X,X,X8XqXyXwXeXwXwXwX0X9X9X8X:X;X(.[.XXZ.M.M.Z.A.N.F.b.N.P.I.'.`.R.B.m.p.l.l.a.f.z f r.z b PXPXPXPXPXPXPXPXPX",
"PXPXx 0.f.f f g.h.j.k.M.V.F.).Y.I.R.[.XX[.K.XXK.B.B.[.K.[.I.}.oX>X1XqX7X0X0X0X0XwXyXpXpX,X<X<X8X8X<X2X;X;X1X8XtXuXwXwXwXqX<X:X-X,XtXyXyXuXuXeXuX0X0X9X9X8X2X@X|.`.XXM.M.b.k.m.b.v.v.Z.).{.R.R.B.n.p.m.h.a.t.z z w.l B PXPXPXPXPXPXPXPXPX",
"PX` g u.g h f.f.h.i.k.p.p.p.A.Z.I.L.[.I.[.I.`.I.K.B.B.K.I.[.`.oX:XqX9X9X0X0X0XwXeXtXtXtXpX8X2X1X1X1X2X;X;X:X1X8XqXwXwXwXwXqX2X:X-X1XtXiXiXiXiXyXuX0X0X0XwX8X;XoX`.[.B.A.b.m.F.m.p.n.N.).Y.E.[.Z.b.v.m.p.a.y.h f d.l b PXPXPXPXPXPXPXPXPX",
"PXv N f f h h x.r.i.p.j.i.r.A.B.I.`.R.'.`.}.I.R.[.I.K.I.I.|.|.#X:X7X0X0X0X0XwXeXyXiXiXtXpX<X<X2X2X1X2X:X;X;X1X8XqXwXwXwXuXyX8X,X:X-X<XyXyXuXiXiXeXuXwX0X0X7X2X#X_.[.Z.N.V.V.m.v.n.A.U.Y.K.T.U.N.N.A.C.p.s.y.q.q.e.N ` PXPXPXPXPXPXPXPXPX",
"m M M PXl f.t.u.0.q.i.i.a.p.A.B.L.}.L.}.'.}.`.I.I.I.I.I.I.I.`.#X2XqXwX9X0XwXuXyXiXiXiXiXtX8X<X2X2X2X2X2X;X;X2X1X8XqXuXuXyXyXyX8X2X-X-X8XtXyXiXiXxXtXwX0X0XwX8X@XoX|.).Z.A.N.k.V.b.B.T.T.B.A.N.b.N.U.T.b.s.i.q.q.g l B PXPXPXPXPXPXPXPXPX",
"B m B j f.g y.q.y.w.y.i.a.v.N.K.K.I.R.R.'.`.}.I.R.I.I.L.`.`.`. X:X8XwX0X0XwXuXpXiXiXiXuXyX8X1X1X2X2X1X5X>X@X;X2X8XtXyXuXyXuXuXtX5X:X-X-X,XtXiXiXiXiXyXwXwX9X8X:X@X(.P.P.Z.N.b.k.k.T.N..XA.N.V.k.M.Z.U.F.a.y.t.g PXN x v PXPXPXPXPXPXPXPX",
"PXv B PXg 0.x.q.y.f.g.h.s.m.M.Y.`.L.'.I.R.'.`.`.I.E.R.I.R.].I._.;X1X7X9X0XwXuXtXiXiXuXuXeX8X2X2X2X2X5X5X6X@X@X>X5XpXtXiXiXiXiXiXtX5X-X-X-X4XtXiXxXxXiXeXuXuX8X2X#X`.I.).XX.XB.N.T.N..XS.A.A.N.K.K.I.U.W.l.y.f.z l l h c b PXPXPXPXPXPXPX",
"n PXn PXN f e.y.y.g.g.h.p.n.Z.I.{.'.}.R.I.}.R.}.`.{.{.}.'.OX'.|.@X;X1X9X9X0XuXpXiXiXuXuXyXtX2X2X2X2X4X4X6X-X@X@X6X4XrXtXiXiXiXiXiXrX3X3X-X-X4XtXxXxXxXxXiXiXyX:X_.'.I.P..XS.N.Z.I.[.P.Z.).v.XXXX{.].`.Q.m.i.y.f.k f.0.h M PXPXPXPXPXPXPX",
"PXb ` PXPXM d.y.y.h.y.r.v.b.U.I.`.OX'.L.`.R.R.{.`.R.'.`.`.'.'.`._.oX2X<X7X0XwXpXiXiXuXuXqXtX5X5X4X4X4X3X4X3X@X@X-X3X4XrXxXxXiXxXxXrXrX3X^.^.3X4XrXxXxXxXxXzX,X@X XR.L.P.).U.P.N.{.+X|.[.n.S.B.{.'.OXR.[.F.k.q.y.f.f 0.t.x v PXPXPXPXPXPX",
"PXb ` PXPXPXl y.i.i.i.p.p.A.L.`.}.`.`.L.L.L.I.R.'.'.'.I.'.'.R.'.R.|.#X2X7X0XwXpXtXiXiXuXyXpXrX4X4X3X3X3X3X3X3X^./.3X=X4XlXxXxXxXxXlXlX4X=X^.^.3X4XrXlXbXbXbXzXoX_.R.}.I.I.K.P.Z.R.'.`.`.Z.Z.M.I.R.`.[.XXZ.k.p.i.y.w.w.f.k V b PXPXPXPXPX",
"PX` ` PXPX^ V y.s.i.p.p.V.T.E.'.`.I.R.R.`.I.`.}.'.+X'.'.'.R.R.R.OX'._.;X7X0X9XeXtXxXiXiXiXtX4X4X3X3X3X3X3XjXsX^./.^.=XjXjXlXbXbXbXbXlXkXsX^./.^.=X=XlXlXbXbXvXzX~._.(.I.R.}.K.I.'.OXOX}.P.K.M.K.`.R.).XXK.M.p.h.0.t.g.d.f x B PXPXPXPXPX",
"PX_ b PXPXPXm 0.s.p.v.v.W.[.}.{.'.`.`.`.[.I.R.`.L.}.R.].`.'.OX{.E.E._.@X:XqXwXuXrXxXxXiXiXiX4X4X3X3X3X=XsXsXsXsX^./.^.sXsXjXcXvXbXbXcXlXjXsX*X/.^.sXjXjXcXbXbXvXvX~.oX(.I.OX'.{.R.+XI.[.K.M.Z.Z.[.R.)..XP.N.i.h.g.t.e.q.e.t.x b PXPXPXPX",
"PXPXb n PXPXM g.i.p.k.b.T.[.R.'.`.(.I.I.[.[.[.R.R.R.R.R.'.R.OXR.E.E.}.oX:X8X7XuXrXlXxXxXxXrXlX=X=X=XsXsXsXsXsXgX*X*X*X$XaXgXkXcXJXJXcXcXhXhX*X*X/./.sXsXjXlXlXcXvXvX~._.+XR.{.'.I.I.).I.B.J.N.T.[.R.[.[.P.N.q.h.f.y.j.j.j.g l v PXPXPXPX",
"PXPXB m PXm l g.h.D.v.N.K.}.`.}.[.I.B.K.I.Y.[.`.}.I.`.R.R.R.'.I.E.L.+X_.@X2XqXyXrXlXlXbXxXlXlX=XsXsXsXaXaXaXaXfXfX$XQ -.$XfXgXhXFXJXJXFXhXhXgX$X*X! *XaXsXjXcXcXcXvXvX~.).+XL.XXP..XY.T.N.N.A.C.Y.`.OX'.K.N.j.h.a.u.q.q.y.f V ` PXPXPXPX",
"PXPXPXN M N k w.a.p.v.N.L.`.`.}.XXY.M.K.K.K.Y.[.}.`.`.].I.`.R.`.I.B.R.].@X;X8XuX4XlXcXbXbXbXlXsXsXaX$X$X$X%X%XfX&X%X=.=.:.%XfXgXBXFXFXFXFXBXgXfX&X-.! ! aXsXjXkXcXcXcXvXc.~..XU.Z.Z.W.B.M.A.M.B.).'.'.R.J.b.j.h.y.a.u.q.w.k PXPXPXPXPXPX",
"PXPXPXl x l g y.a.p.G.S.I.`.'.}.I.Y.N.Z.B.K.[.[.}.}.'.].R.R.R.I.P.Z.{.'._.@X<X8X4XjXcXbXbXcXkXgXaX$X$X$X$X%X%X%X&X%X>.=.$.>.%XdXCXBXFXHXHXDXBXfX%X$X-.W -.$XaXgXhXcXcXcXvX/.n.N.B.T.B.B.Z.Z.Z.N.).`.`.`.B.k.i.h.t.f.h h g.z z v PXPXPXPX",
"PX_ b V j z f.u.r.i.v.S.K.I.R.R.I.XXK.B.b.B.Y.P.I.`.(.`.].'.+XI.P.P.E.L.|.oX<XtXxX=XcXcXJXJXZXhXfX%X%X%X5.%X6.6.8.8.8.;.o.O.4.8.dXBXBXHXHXHXVXBXfX%X*X$.$.-.$XfXgXhXFXFXFXcXh z.A.B.k.M.K.N.N.S.).I.I.XXT.l.s.h.f.f.h f z N z B PXPXPXPX",
"PX` ` PXPXc g.u.a.r.v.n.A.).].'.[.Y.U.N.M.k.N.Z.T.K.I.].].'.R.R.I.Y.E.R.}.oX<XtXxXjXcXFXJXFXFXgXfX%X6.5.4.4.6.8.8.8.8.4... .3.8.8.dXVXVXGXHXDXBXNXfX%X:.T W :.&XfXgXhXFXFXJXSXc.z.v.b.B.N.b.T.Z.Z.S.P.P.b.p.s.a.d.y.w.t.d.x m b PXPXPXPX",
"PXb ` PXv N z y.y.r.s.v.S..X'.R.[.Y.P.P.N.k.k.V.F.U.).`.`.`.'.{.{.L.L.R.(.oX2XyXzX=XhXFXFXHXFXBXfX6.6.4.4.4.9.9.9.8.8.8.;...#.4.6.dXCXVXDXGXGXDXBXfXdX%X=.T $.>.&X%XgXBXBXFXFXSXc.G.S.N.B.P.U.N.b.b.Z.N.v.a.i.h.y.y.0.f.j v PXPXPXPXPXPX",
"m M B PXB PXf.t.e.y.y.z.b..XE.R.{.I.I.).T.b.k.l.b.N.Z.Z.P.(.I.I.[.I.R.].|.#X1XtXzX=XhXBXHXHXHXBXfX8.6.3.4.4.4.4.4.8.8.8.8.O.] ;.4.6.dXCXVXGXGXHXVXBXfXdX%X$.G $.>.%XaXgXBXBXFXFXJXc.~.XXL.E..XN.p.v.n.k.D.g.u.u.0.0.0.x PXPXb n PXPXPXPX",
"PXm B PXV N g.y.e.e.f.g.p.A.I.'.'.'.I.I.Z.V.k.s.D.m.b.n.S.P.U.Y.I.I.R.`._.;X1X1X4X=XgXBXHXHXHXBXNX%X6.3.4.4.4.4.4.6.6.8.&X;.D X.5.6.6.fXBXVXGXHXGXVXNXdX%X>.o.J $.%X$X$XgXhXFXZXZXJXc.~.XXI.XXk.k.p.v.i.x.g.t.h h g h v PXPX_ PXPXPXPXPX",
"PXb n PXl k e.y.j.q.y.t.i.k.B.E.'.OX`.I.N.V.l.s.i.s.m.V.N.n.b.M.P.I.'.'. X#X>X5X@X=XgXVXDXHXGXBXNX%X6.5.4.4.4.4.4.4.6.4.8.5.X.D *.4.6.&XNXBXGXGXGXVXCXdX6.4.;.o.F o.>.$X$XgXhXFXFXhXJX/..X.XL.B.k.q.s.a.h.y.g.f f z m PXPXPXPXPXPXPXPXPX",
"PX` B j d.w.y.e.e.e.u.0.y.i.b.Y.R.'.}.[.K.b.l.l.h.a.p.v.n.N.V.A.M.K.}.R.]. X X X~./.fXCXVXGXHXAXNXdX6.5.3.3.4.4.4.5.4.4.4.8.;.D J >.6.&X&XNXVXGXKXGXVXCXdX6.4.;.o.F o.>.$X$XfXhXFXFXZXZX/.~.Q.M.l.r.x.x.h.e.y.t.k N v PXPXPXPXPXPXPXPXPX",
"PX_ j g z k g.w.y.u.u.0.y.i.k.A.K.E.XXXXU.m.l.x.s.i.i.p.N.A.A.A.A.Y.{.L.'.OX'.R.XX/.gXNXVXGXHXGXBXdX6.5.4.3.3.3.3.3.4.4.4.9.4.X.F X.3.4.8.dXCXVXLXLXVXCXNX8.8.4.3.X.F o.:.$XfXfXgXZXZXFXZX/.~.V.v.s.x.x.u.0.e.e.d.l B PXPXPX) PXPXPXPXPX",
"PXPXj h k f w.w.t.t.h 0.r.a.i.v.T.T.T.B.V.m.D.D.D.m.v.k.b.T.T.T.W.T.Y.I.R.R.E.Q.Q.F.&XNXCXGXGXGXBXdX%X4.4.3.3.3.3.3.3.9.4.9.9.,.D s #.3.9.9.NXCXVXLXVXCXNX9.9.3.3.@.+.] X.>.$X$XfXBXBXVXZXSXc.z.r.i.a.u.u.u.0.e.d.N b PXPXPXPXPXPXPXPXPX",
"PXPXM g t.g e.e.h z z f y.r.r.p.m.V.V.F.G.i.s.z.D.G.n.N.B.J.K.K.U.U.Z.XX(.[.Q.T.Q.F.&XNXCXVXHXGXVXfXdX5.3.3.3.3.4.3.3.3.7.9.7.7.[ r / ,.7.7.7.nXNXCXCXMXnX9.7.7.7.7.@./ ] X.*.>.%X&XNXVXVXAXSXI a.z.j.h.s.0.e.d.l B PXPXPXPXPXPXPXPXPXPX",
"PXPXPXM f w.e.0.f.g z f.y.i.u.u.i.p.p.m.p.0.q.r.s.m.A.Y.Y.R.L.L.Y.Z.P.Z.b.b.B.C.T.D.&XNXCXDXHXHXAXNXdX6.3.3.3.9.3.7.7.,.2.7.2.7.<./ t | ,.,.7.nXMXMXMXnX7.,.,.,.,.,.,.@./ s X.;.;.4.8.NXCXNXNXgXP g g.e.0.y.k l PXv PXPXPXPXPXPXPXPXPXPX",
"PXPXPXPXv z g.d.g g.f.g i.0.w.t.y.a.s.s.a.r.r.e.q.l.F..X[.R.'.OX{.R.}.P.Z.n.k.b.k.c.&XdXNXVXHXHXGXCXdX8.4.7.3.7.7.,.7.7.2.2.2.7.7.<.t ( ,.2.2.+.+.| +./ ( ( ( t ( ( +.,.,.@.@.@.,.../ ,.3.3.4.&XdXSXc f d.d.N PXx v PXPXPXPXPXPXPXPXPXPX",
"PXPXPXPXPXn B m x k d.d.j.0.f.z w.u.a.a.a.y.y.0.e.j.k.B.Y.].'.'.+XR.}.(.S.n.A.n.n.c.*XfXNXVXGXHXGXVXNX9.,.3.1.,.,.,.+./ <.,.| / | ( u +.,.,.<.<.<.2.,.<.2.<.@.,.<.<.+...../ / +.<.+.,.7.9.nXnXnXMXdXSXc l N m M M b PXPXPXPXPXPXPXPXPXPX",
"PXPXPXPXPXPXPXPXB l l g.0.d.j N k w.u.u.u.y.y.e.e.s.m.C.K.K.K.L.L.E.I.Z.N.p.p.p.s.u.P &XfXVXAXKXGXVXNX9.7.7.,.,.+./ +.,.7.7.2.,.,.,.@./ / / / +.+.CXKXVXCXNXNX9.nX7.+./ ] [ [ +.,.2.7.@.@.@.@.,.3.8.NXCXPXB B v n PXPXPXPXPXPXPXPXPXPXPX",
"PXPXPXPXPXPXPXPXPXv V N x j PXM z w.u.0.u.y.y.y.y.y.p.G.F..X.XW.XXXXT.W.m.v.D.z.x.H.I &XNXCXVXKXKXVXNXnX7.<./ / +.,.7.<.+.+./ / +.@.@./ [ ,.,.,.7.2.7.,.,.,.3.@.+.@.1.1.;.1.7.,.+.t d 1 % 8 t u / ..,.nXCXn b PXPXPXPXPXPXPXPXPXPXPXPXPX",
"PXPXPXPXPXPXPXPXPXPXb v n PXPXv x f w.0.0.u.q.y.e.y.s.s.i.p.p.m.v.n.v.D.D.D.s.s.y.f.x *XfXNXVXKXLXLXCXnX,.+.<.<.+./ u t 8 8 8 8 8 3 t a [ +.,.9.7.,.1.3.1.#.,.@.#.@.;.1.1.,.,.| 8 * @ - @ $ 4 1 1 5 9 y 1.PXPXPXPXPXPXPXPXPXPXPXPXPXPXPX",
"PXPXPXPXPXPXPXPXPXPXPXPXPXPX_ PXN f f.u.r.r.q.y.y.y.y.i.a.a.p.p.p.i.p.r.q.y.q.h.y.f.c *X&XNXCXVXLXLXNX,.<.+.+.u 4 8 4 1 4 8 3 4 % 3 & $ 4 u [ u u r r 9 0 - > 0 - - ; $ 1 @ * 1 $ 3 - ; - - 1 4 4 3 @ 6 d / PXPXPXPXPXPXPXPXPXPXPXPXPXPX",
"PXPXPXPXPXPXPXPXPXPXPXPXPXPX^ _ M f.d.g e.r.u.0.0.y.q.q.y.h.D.k.i.p.s.r.u.g.0.w.w.f.c *X9.NXCXVXVXVXNX,.+./ 8 4 4 4 8 8 4 4 9 6 8 % $ 1 3 4 3 . .   .     X < E E < X       . . @ 3 - 7 - % 9 3 4 3 % $ 1 1 / nXPXPXPXPXPXPXPXPXPXPXPXPX",
"PXPXPXPXPXPXPXPXPXPXPXPXPXPXPXPXb m N x w.0.g u.w.w.t.g.g h a.r.s.z.i.x.y.u.t.f f c M &XUXnXNXCXCXNX9.3.+.8 1 1 4 4 9 9 9 y y q q 6 3 3 % 4 4 @ @ o + X < R >.fXfXfX6.F O & @ @ $ 6 6 7 q q 9 3 6 6 & $ 1 1 - y PXPXPXPXPXPXPXPXPXPXPXPX",
"PXPXPXPXPXPXPXPXPXPXPXPXPXPXPXPXPXPXb M l g.y.0.y.u.g f.z c j H.t.w.w.d.u.u.h l V B _ PXnXnXnXNXMXnX@.u 8 1 4 r 8 r 9 s ] ..X. .s q 7 3 $ $ $ @ o # # + U 6.>.E R 6.>.5.D ; . & & q s D O.X.] a 7 0 % 1 6 8 0 3 ( nXPXPXPXPXPXPXPXPXPXPX",
"PXPXPXPXPXPXPXPXPXPXPXPXPXPXPXPXPXPXPXb v M N N j N m j x M PXm x g.k g.f g f N v PXPXPXnXnXnX2.2.3...8 9 t 3 1 9 9 D  .#.8.4.3.#. .s 0 3 3 $ & & q w O U fXBXBXfXfXBXNXw > % & % p ..;.6.4.4.#.p q 4 1 $ % 9 8 1 { PXPXPXPXPXPXPXPXPXPX",
"PXPXPXPXPXPXPXPXPXPXPXPXPXPXPXPXPXPXPXPXPXPXPXPXPXPXPXPXb PXPXV PXm N z N N j M ` PXPXPXnX9.7.,.1./ t 8 3 3 8 4 9 s D 3.dXNXVXNXdX;. .y 9 3 $ % 0 p 0 o + U fXHXHXGXCX;.# o ; o - p 6.NXVXVXNX4.#.p 9 3 $ - 1 1 9 8 <.PXPXPXPXPXPXPXPXPX",
"PXPXPXPXPXPXPXPXPXPXPXPXPXPXPXPXPXPXPXPXPXPXPXPXPXPXPXPX` B M B PXB N z j PXPXb PXPXPXPXnX2.9.1.+.t 4 8 8 1 $ 4 0 y #.6.NXAXAXGXVX&X#.a 0 3 $ 3 s p 0 - o X ; e o., < + o ; - - - w CXVXVXAXCXNX;.p 9 3 - 6 1 3 6 3 / PXPXPXPXPXPXPXPXPX",
"PXPXPXPXPXPXPXPXPXPXPXPXPXPXPXPXPXPXPXPXPXPXPXPXPXPXPXPXn v V M PXb x f V n PX` _ PXPXPXnX7.,.,.a r 8 1 6 3 & 9 9 p ..4.NXVXAXVXVXNX4.X.s 3 @ 6 0 0 0 7 % O + X   O   . % - - - O > CXGXAXVXNX6.X.p 7 3 % $ $ % @ q 8 ( PXPXPXPXPXPXPXPX",
"PXPXPXPXPXPXPXPXPXPXPXPXPXPXPXPXPXPXPXPXPXPXPXPXPXPXPXPX' PXb PXPX` M M b PXPXPXPXPXPXPXnX1.7.../ 8 8 8 1 6 6 4 q p ..3.dXCXCXVXdX4.3.#.a % . 3 y 6 - - % # - % - % - 3 - 6 6 - - # #.dXdX4.4.X.e q - 6 6 3 6 & > 7 0 / PXPXPXPXPXPXPXPX",
"PXPXPXPXPXPXPXPXPXPXPXPXPXPXPXPXPXPXPXPXPXPXPXPXPXPXPXPXPXPXPX' PXPXPX_ PXPXPXPXPXPXPXPXnXnX1.[ r 8 4 4 4 3 3 8 0 p D X.;.4.8.6.3.#.X. .9 & @ 4 9 9 6 - % - 3 3 6 3 3 6 3 r a 0 - 7 % ....X.] q 0 ; - 6 4 3 $ % - > 7 t PXPXPXPXPXPXPXPX",
"PXPXPXPXPXPXPXPXPXPXPXPXPXPXPXPXPXPXPXPXPXPXPXPXPXPXPXPXPXPXPXPXPXPXPXPXPXPXPXPXPXPXPXPXPXnX<.( u t 4 4 1 3 3 6 6 0 s s  ...X.....D s q % & $ 9 9 8 9 9 9 3 3 9 8 t t 9 4 y ] 0 - - % p  .p 9 6 3 - 6 % % 6 4 - ; > > r | PXPXPXPXPXPXPX",
"PXPXPXPXPXPXPXPXPXPXPXPXPXPXPXPXPXPXPXPXPXPXPXPXPXPXPXPXPXPXPXPXPXPXPXPXPXPXPXPXPXPXPXPXPXmX+.u r t 4 1 $ 3 3 3 % 6 0 y s D a s a y y 6 % $ 3 1 % 3 8 9 8 3 3 8 t r t r r u u % 3 - 3 q  .y - % - 6 8 % % 3 3 3 - , > t 5 PXPXPXPXPXPXPX",
"PXPXPXPXPXPXPXPXPXPXPXPXPXPXPXPXPXPXPXPXPXPXPXPXPXPXPXPXPXPXPXPXPXPXPXPXPXPXPXPXPXPXPXPXPXmX[ u 8 9 4 3 - % % % - 3 6 9 y y y r 9 3 0 6 3 3 8 6 4 y u 9 4 9 t 8 u u u a / a u 9 3 3 $ % y s 6 & % % 1 % - - 3 9 > ; - t 2 PXPXPXPXPXPXPX",
"PXPXPXPXPXPXPXPXPXPXPXPXPXPXPXPXPXPXPXPXPXPXPXPXPXPXPXPXPXPXPXPXPXPXPXPXPXPXPXPXPXPXPXPXPXmXu i 0 6 6 6 3 - % % - % - 9 9 9 9 9 9 4 y 9 1 $ 8 y s ] [ u t t t 8 8 t u u u a a / 8 8 4 $ 6 a s p 6 - % % - - % 3 ; O - 8 5 PXPXPXPXPXPXPX",
"PXPXPXPXPXPXPXPXPXPXPXPXPXPXPXPXPXPXPXPXPXPXPXPXPXPXPXPXPXPXPXPXPXPXPXPXPXPXPXPXPXPXPXPXPXnXr 0 0 7 > > > - - - - % % 3 9 8 8 y s 9 9 4 9 9 u a / ] ] / u r t t r u u u / ..] ] ] ] ..a s 6 q 7 9 9 6 & % - ; # ; # $ 8 1 PXPXPXPXPXPXPX",
"PXPXPXPXPXPXPXPXPXPXPXPXPXPXPXPXPXPXPXPXPXPXPXPXPXPXPXPXPXPXPXPXPXPXPXPXPXPXPXPXPXPXPXPXPXMXu 4 7 > > - - > - - - - - - 3 4 9 t y y 9 y ] ..] ../ a / / / u u u u u u u / ] / ..[ ] ....X.s a s q 0 7 # @ - ; ; - 3 $ 4 1 PXPXPXPXPXPXPX",
"PXPXPXPXPXPXPXPXPXPXPXPXPXPXPXPXPXPXPXPXPXPXPXPXPXPXPXPXPXPXPXPXPXPXPXPXPXPXPXPXPXPXPXPXPXMXt # # ; - % ; > > - ; - 3 - 3 q i i ] #.#.;.#.X.y y s a / u u / / u u u s a / s ] 9.7.1.] X.#.#.#.;.U p q - o o + O # - @ @ 5 PXPXPXPXPXPXPX",
"PXPXPXPXPXPXPXPXPXPXPXPXPXPXPXPXPXPXPXPXPXPXPXPXPXPXPXPXPXPXPXPXPXPXPXPXPXPXPXPXPXPXPXPXPXPXr O + ; & # - O + ; O - # % i w , o.;.;.;.;.>.;.F - 9 r u / / u / u / u u [ / ] s @...y ] ] ] #.;.;.o.U p w @     o O o o * 5 PXPXPXPXPXPXPX",
"PXPXPXPXPXPXPXPXPXPXPXPXPXPXPXPXPXPXPXPXPXPXPXPXPXPXPXPXPXPXPXPXPXPXPXPXPXPXPXPXPXPXPXPXPXPX..X # # @ o o O X + X O # 3 9 w U :.;.*.*.*.*.;.o.7 4 u / / +./ / u u u u ] / ] a #.t 3 ] X.D U O.;.*.U F D q # . o X X @ 2 2 PXPXPXPXPXPXPX",
"PXPXPXPXPXPXPXPXPXPXPXPXPXPXPXPXPXPXPXPXPXPXPXPXPXPXPXPXPXPXPXPXPXPXPXPXPXPXPXPXPXPXPXPXPXPX,.  X X + o   o X X X X . 7 w U ;.;.=.$.*.=.O.;.;.q 3 u / [ <.+./ / u u a a a u y ..8 $ a ..D F X.;.;.o.F F F q .   X X @ 2 PXPXPXPXPXPXPXPX",
"PXPXPXPXPXPXPXPXPXPXPXPXPXPXPXPXPXPXPXPXPXPXPXPXPXPXPXPXPXPXPXPXPXPXPXPXPXPXPXPXPXPXPXPXPXPXnX. X X X +   o   o + X   7 e *.;.O.*.=.*.;.*.*.;.p 3 y ] +.,.@.+./ u u / s a y y ..t $ y ] D D  .O.;.O.U Z e w     X   o 2 PXPXPXPXPXPXPXPX",
"PXPXPXPXPXPXPXPXPXPXPXPXPXPXPXPXPXPXPXPXPXPXPXPXPXPXPXPXPXPXPXPXPXPXPXPXPXPXPXPXPXPXPXPXPXPXPX8 X +   X o . o .   X X > e *.*.*.*.=.o.$.o.O.;.X.9 9 / ..@.@.@./ / u u u a s 9 a $ @ 9 ] D p D U ;.O.R U F 7     X   @ 2 PXPXPXPXPXPXPXPX",
"PXPXPXPXPXPXPXPXPXPXPXPXPXPXPXPXPXPXPXPXPXPXPXPXPXPXPXPXPXPXPXPXPXPXPXPXPXPXPXPXPXPXPXPXPXPXPX<.  X X     . o .   o X > F *.o.*.$.=.T T o.o.O.O.p 4 i ] ..@.<.[ / u u u u y 6 9 & @ 9 ] D p p e #.*.o.E F w o   X o @ PXPXPXPXPXPXPXPXPX",
"PXPXPXPXPXPXPXPXPXPXPXPXPXPXPXPXPXPXPXPXPXPXPXPXPXPXPXPXPXPXPXPXPXPXPXPXPXPXPXPXPXPXPXPXPXPXPXPX8   + X   . o . . o   < U *.o.o.$.$.W W $.o.o.o. .9 r a ..<.<.+.[ u u a u a 0 9 $ $ 4 a a y q w ] *.*.R F F ;   o * 5 PXPXPXPXPXPXPXPXPX",
"PXPXPXPXPXPXPXPXPXPXPXPXPXPXPXPXPXPXPXPXPXPXPXPXPXPXPXPXPXPXPXPXPXPXPXPXPXPXPXPXPXPXPXPXPXPXPXPX7.* o     X .         > R O.*.o.$.T W W W $.o.o.o.q r u +.<.@.@.+./ u a r a 9 3 @ @ 4 a s 7 7 7 F o.*.=.U F - . * 2 PXPXPXPXPXPXPXPXPXPX",
"PXPXPXPXPXPXPXPXPXPXPXPXPXPXPXPXPXPXPXPXPXPXPXPXPXPXPXPXPXPXPXPXPXPXPXPXPXPXPXPXPXPXPXPXPXPXPXPXPX<.* @ o   o         > R *.*.=.=.$.W W W W $.o.U D 7 i ..+.,.@.+./ u u t r 9 1 @ & r ] s 6 7 7 w o.*.*.o.J w . * PXPXPXPXPXPXPXPXPXPXPX",
"PXPXPXPXPXPXPXPXPXPXPXPXPXPXPXPXPXPXPXPXPXPXPXPXPXPXPXPXPXPXPXPXPXPXPXPXPXPXPXPXPXPXPXPXPXPXPXPXPXPX( * o o     o     w *.*.$.=.:.=.=.$.W W T o.o.o.e 0 ] @.@.@.+.u u r 9 y s y s r y ] D s 7 ; , F *.*.o.J w 1 PXPXPXPXPXPXPXPXPXPXPXPX",
"PXPXPXPXPXPXPXPXPXPXPXPXPXPXPXPXPXPXPXPXPXPXPXPXPXPXPXPXPXPXPXPXPXPXPXPXPXPXPXPXPXPXPXPXPXPXPXPXPXPXPX( . . +   .     w *.=.=.>.:.:.:.%.W W W T T o.J 3 y @.+.<.+./ u y 8 9 u y s r r s s s 0 - > w *.*.*.o.F / PXPXPXPXPXPXPXPXPXPXPXPX",
"PXPXPXPXPXPXPXPXPXPXPXPXPXPXPXPXPXPXPXPXPXPXPXPXPXPXPXPXPXPXPXPXPXPXPXPXPXPXPXPXPXPXPXPXPXPXPXPXPXPXPXPX( . . . .     7 O.;.;.:.:.:.:.%.W W W Y H T o.w 9 ] +.@.@.[ / u r r y s u u y y u y 0 7 > , R *.o.o.F [ PXPXPXPXPXPXPXPXPXPXPXPX",
"PXPXPXPXPXPXPXPXPXPXPXPXPXPXPXPXPXPXPXPXPXPXPXPXPXPXPXPXPXPXPXPXPXPXPXPXPXPXPXPXPXPXPXPXPXPXPXPXPXPXPXPXPX1 @ .       9 *.;.:.-.:.*X-.%.W W W H H Y T F 7 s +.@.<.../ u r t 9 0 s s u y s y 0 6 7 w F *.*.*.J [ PXPXPXPXPXPXPXPXPXPXPXPX",
"PXPXPXPXPXPXPXPXPXPXPXPXPXPXPXPXPXPXPXPXPXPXPXPXPXPXPXPXPXPXPXPXPXPXPXPXPXPXPXPXPXPXPXPXPXPXPXPXPXPXPXPXPX{ r $ o . . e ;.;.=.>.-.*X-.-.%.W W H A S T R w 7 [ +.@.../ r 8 3 3 3 9 y y y s u 9 3 % > , R $.*.R / PXPXPXPXPXPXPXPXPXPXPXPX",
"PXPXPXPXPXPXPXPXPXPXPXPXPXPXPXPXPXPXPXPXPXPXPXPXPXPXPXPXPXPXPXPXPXPXPXPXPXPXPXPXPXPXPXPXPXPXPXPXPXPXPXPXPX<./ / y 0 - p *.$.$.-.-.*X*X-.%.W L H A S Y R F 6 s [ ..[ / t 8 8 8 9 r s s u u 9 1 1 $ ; > E *.*.O.] PXPXPXPXPXPXPXPXPXPXPXPX",
"PXPXPXPXPXPXPXPXPXPXPXPXPXPXPXPXPXPXPXPXPXPXPXPXPXPXPXPXPXPXPXPXPXPXPXPXPXPXPXPXPXPXPXPXPXPXPXPXPXPXPXPXPX<.[ ] p D p D O.*.*.=.-.-.-.-.%.W W W A A Y T U w 0 ] ..+.] u r 9 9 9 9 r r y u 0 3 1 1 # : K $.T R D PXPXPXPXPXPXPXPXPXPXPXPX",
"PXPXPXPXPXPXPXPXPXPXPXPXPXPXPXPXPXPXPXPXPXPXPXPXPXPXPXPXPXPXPXPXPXPXPXPXPXPXPXPXPXPXPXPXPXPXPXPXPXPXPXPXPXPX+.s D e p D o.;.*.$.-.-.-.-.Q W W W A H H T R F - q ] X...s y 0 y 0 0 q q q 0 9 8 % % % ; w $.$.E  .PXPXPXPXPXPXPXPXPXPXPXPX",
"PXPXPXPXPXPXPXPXPXPXPXPXPXPXPXPXPXPXPXPXPXPXPXPXPXPXPXPXPXPXPXPXPXPXPXPXPXPXPXPXPXPXPXPXPXPXPXPXPXPXPXPXPXPX+.s F e e F  .*.*.=.-.-.*X-.Q Q W A A H H Y R G , w F  ...D s s y 0 p q q q p y 9 % # # # 3 o.$.T o.( PXPXPXPXPXPXPXPXPXPXPX",
"PXPXPXPXPXPXPXPXPXPXPXPXPXPXPXPXPXPXPXPXPXPXPXPXPXPXPXPXPXPXPXPXPXPXPXPXPXPXPXPXPXPXPXPXPXPXPXPXPXPXPXPXPXPX+.s D e e F o.*.O.$.%.-.-.-.Q ~ W A A H H Y T R e w p  .....a s 0 0 7 q e q q s s 9 % % - ; F $.T o.( PXPXPXPXPXPXPXPXPXPXPX",
"PXPXPXPXPXPXPXPXPXPXPXPXPXPXPXPXPXPXPXPXPXPXPXPXPXPXPXPXPXPXPXPXPXPXPXPXPXPXPXPXPXPXPXPXPXPXPXPXPXPXPXPXPXPX+.a D F F D o.*.o.T W %.-.-.Q Q W L A A H Y Y T F w p  .X...s r 6 q D X.#.X...X. .0 > % ; O w o.T R [ PXPXPXPXPXPXPXPXPXPXPX",
"PXPXPXPXPXPXPXPXPXPXPXPXPXPXPXPXPXPXPXPXPXPXPXPXPXPXPXPXPXPXPXPXPXPXPXPXPXPXPXPXPXPXPXPXPXPXPXPXPXPXPXPXPXPX<./ s p e p o.*.o.$.W Q -.-.&.Q W Y A A H Y Y T R w w ] X.X.s 0 9 s  .D p p p s s p 7 - - O , o.R R D ( PXPXPXPXPXPXPXPXPXPX",
"PXPXPXPXPXPXPXPXPXPXPXPXPXPXPXPXPXPXPXPXPXPXPXPXPXPXPXPXPXPXPXPXPXPXPXPXPXPXPXPXPXPXPXPXPXPXPXPXPXPXPXPXPXPXPX/ a p e p o.*.R T W Q -.-.&.Q W L A A H H H Y R K w D X.X.] y q s p q p D D U  . .s q > ; > R o.R D t PXPXPXPXPXPXPXPXPXPX",
"PXPXPXPXPXPXPXPXPXPXPXPXPXPXPXPXPXPXPXPXPXPXPXPXPXPXPXPXPXPXPXPXPXPXPXPXPXPXPXPXPXPXPXPXPXPXPXPXPXPXPXPXPXPXPX( a s p F o.O.U T W Q %.-.%.Q W Y A A A S Y G Y C w D X.X.X.a s p D D  .D D D  . .X.p > ; : F $.R U a PXPXPXPXPXPXPXPXPXPX",
"PXPXPXPXPXPXPXPXPXPXPXPXPXPXPXPXPXPXPXPXPXPXPXPXPXPXPXPXPXPXPXPXPXPXPXPXPXPXPXPXPXPXPXPXPXPXPXPXPXPXPXPXPXPXPX( / s e e o.O.U R Y W %.%.&.&.Q W W A A S Y S Y F w p  ...X. .s q D p D X.X.O.#.#.X.p ; ; = K T R U p ( PXPXPXPXPXPXPXPXPX",
"PXPXPXPXPXPXPXPXPXPXPXPXPXPXPXPXPXPXPXPXPXPXPXPXPXPXPXPXPXPXPXPXPXPXPXPXPXPXPXPXPXPXPXPXPXPXPXPXPXPXPXPXPXPXPX<./ s p F X.O.R R Y W %.-.%.&.Q ~ A A A A A A Y T e w p X... .a q i X.#.5.4.8.4.6.;.p - - = , $.T E F ( PXPXPXPXPXPXPXPXPX",
"PXPXPXPXPXPXPXPXPXPXPXPXPXPXPXPXPXPXPXPXPXPXPXPXPXPXPXPXPXPXPXPXPXPXPXPXPXPXPXPXPXPXPXPXPXPXPXPXPXPXPXPXPXPXPXPX/ s e F X.O.R Y Y Y $.-.%.&.Q ~ Y A A A A A H Y C w e  ...] p q p X.3.;.;.3.3.6.5. .; O = , Y T R F s PXPXPXPXPXPXPXPXPX",
"PXPXPXPXPXPXPXPXPXPXPXPXPXPXPXPXPXPXPXPXPXPXPXPXPXPXPXPXPXPXPXPXPXPXPXPXPXPXPXPXPXPXPXPXPXPXPXPXPXPXPXPXPXPXPXPX/ s e F X.O.R T G H W %.%.&.&.W W Y A A A A A Y R w w F X.] D p p X.8.6.6.>.#.;.3.#.> # = : S W R J e [ PXPXPXPXPXPXPXPX",
"PXPXPXPXPXPXPXPXPXPXPXPXPXPXPXPXPXPXPXPXPXPXPXPXPXPXPXPXPXPXPXPXPXPXPXPXPXPXPXPXPXPXPXPXPXPXPXPXPXPXPXPXPXPXPXPX+.a e F X.O.R R G G W $.%.-.&.Q ~ Y A A A A A Y T w 7 e  . . .p e F ;.;.;.X.U U  .X.7 ; = = K $.$.J F u PXPXPXPXPXPXPXPX",
"PXPXPXPXPXPXPXPXPXPXPXPXPXPXPXPXPXPXPXPXPXPXPXPXPXPXPXPXPXPXPXPXPXPXPXPXPXPXPXPXPXPXPXPXPXPXPXPXPXPXPXPXPXPXPXPX+.s e F X.O.R G G G Y W &.-.&.Q Q W A A A A L H Y Z , w F X. .p p p p U U D p p q p - ; = + K o.$.G Z a PXPXPXPXPXPXPXPX",
"PXPXPXPXPXPXPXPXPXPXPXPXPXPXPXPXPXPXPXPXPXPXPXPXPXPXPXPXPXPXPXPXPXPXPXPXPXPXPXPXPXPXPXPXPXPXPXPXPXPXPXPXPXPXPXPX<.a e F X.O.R G F G H W %.&.&.&.Q W A A A A A H H G w w e X. .D q p e F p D U p e e > ; = = K o.T T Z 0 ( PXPXPXPXPXPXPX",
"PXPXPXPXPXPXPXPXPXPXPXPXPXPXPXPXPXPXPXPXPXPXPXPXPXPXPXPXPXPXPXPXPXPXPXPXPXPXPXPXPXPXPXPXPXPXPXPXPXPXPXPXPXPXPXPXPX/ q F X.O.R G F G H W %.%.Q -.Q W Y A A A A H H T C w w U X. .F e q 0 > w p s p q > O = = , J W $.F 0 5 PXPXPXPXPXPXPX",
"PXPXPXPXPXPXPXPXPXPXPXPXPXPXPXPXPXPXPXPXPXPXPXPXPXPXPXPXPXPXPXPXPXPXPXPXPXPXPXPXPXPXPXPXPXPXPXPXPXPXPXPXPXPXPXPXPX/ q p X.O.R G F G G L Q Q Q -.%.W Y A A A A A H Y F , w F X.X...w q 7 - # # 7 7 q > O = = : J $.G G F u PXPXPXPXPXPXPX",
"PXPXPXPXPXPXPXPXPXPXPXPXPXPXPXPXPXPXPXPXPXPXPXPXPXPXPXPXPXPXPXPXPXPXPXPXPXPXPXPXPXPXPXPXPXPXPXPXPXPXPXPXPXPXPXPXPX+.s e o.O.o.J F G G H L W %.%.%.Q Y A A A A A L A H w , F X.O.X.D e q 7 > 6 - 7 0 7 ; O O : F $.Y H K i PXPXPXPXPXPXPX",
"PXPXPXPXPXPXPXPXPXPXPXPXPXPXPXPXPXPXPXPXPXPXPXPXPXPXPXPXPXPXPXPXPXPXPXPXPXPXPXPXPXPXPXPXPXPXPXPXPXPXPXPXPXPXPXPXPX<.u e o.O.o.J F C S H W W Q %.%.Q W A A A A A A A H Z , e  .O.X.] p q 7 3 7 6 9 6 - # O O = Z o.H G K q ( PXPXPXPXPXPX",
"PXPXPXPXPXPXPXPXPXPXPXPXPXPXPXPXPXPXPXPXPXPXPXPXPXPXPXPXPXPXPXPXPXPXPXPXPXPXPXPXPXPXPXPXPXPXPXPXPXPXPXPXPXPXPXPXPXPX/ e o.O.R J F C C S W W Q Q %.Q W A A A A A A L H G w w D X.X.D i 7 ; ; - - 3 - ; O = = ; w J T H K w 5 PXPXPXPXPXPX",
"PXPXPXPXPXPXPXPXPXPXPXPXPXPXPXPXPXPXPXPXPXPXPXPXPXPXPXPXPXPXPXPXPXPXPXPXPXPXPXPXPXPXPXPXPXPXPXPXPXPXPXPXPXPXPXPXPXPX/ e X.O.R G F C C S H W Q Q %.Q W A A A A A A L H Y Z , e U  .D i 0 - - - - - - O + + + = : G W S Z w u PXPXPXPXPXPX",
"PXPXPXPXPXPXPXPXPXPXPXPXPXPXPXPXPXPXPXPXPXPXPXPXPXPXPXPXPXPXPXPXPXPXPXPXPXPXPXPXPXPXPXPXPXPXPXPXPXPXPXPXPXPXPXPXPXPX[ e X.*.o.E G C C S A L W %.Q Q W L A A A A A L S Y C , w F U D F i q q q p w q 7 - # O ; , J H S C K i ( PXPXPXPXPX",
"PXPXPXPXPXPXPXPXPXPXPXPXPXPXPXPXPXPXPXPXPXPXPXPXPXPXPXPXPXPXPXPXPXPXPXPXPXPXPXPXPXPXPXPXPXPXPXPXPXPXPXPXPXPXPXPXPXPX+.s @.O.R G C C C S S H W %.Q Q Q ~ A A A A A A S Y G w w e U  .D p e e p D p p w - O X O : C H Y K K i ( PXPXPXPXPX",
"PXPXPXPXPXPXPXPXPXPXPXPXPXPXPXPXPXPXPXPXPXPXPXPXPXPXPXPXPXPXPXPXPXPXPXPXPXPXPXPXPXPXPXPXPXPXPXPXPXPXPXPXPXPXPXPXPXPXPX/ @.X.R G F C C S S A W Q Q Q Q W L A A A A A A H Y C w e D  . .p q q p U D D q - # o = ; K T W Z K w u PXPXPXPXPX",
"PXPXPXPXPXPXPXPXPXPXPXPXPXPXPXPXPXPXPXPXPXPXPXPXPXPXPXPXPXPXPXPXPXPXPXPXPXPXPXPXPXPXPXPXPXPXPXPXPXPXPXPXPXPXPXPXPXPXPX[ #.O.o.T F C C C S S H W %.%.Q W L A A A A A H H Y G w w e  . .D p q D X.o.U q - # o ; = K Y S S K , i PXPXPXPXPX",
"PXPXPXPXPXPXPXPXPXPXPXPXPXPXPXPXPXPXPXPXPXPXPXPXPXPXPXPXPXPXPXPXPXPXPXPXPXPXPXPXPXPXPXPXPXPXPXPXPXPXPXPXPXPXPXPXPXPXPX<.@.O.o.F G C C C C S H W W %.-.Q W A A A A A A A Y Y C w , F D D D p p O.X.U p > + + + = w H Y S K , 9 ( PXPXPXPX",
"PXPXPXPXPXPXPXPXPXPXPXPXPXPXPXPXPXPXPXPXPXPXPXPXPXPXPXPXPXPXPXPXPXPXPXPXPXPXPXPXPXPXPXPXPXPXPXPXPXPXPXPXPXPXPXPXPXPXPX<.@.O.o.J G C C C C C H W W %.-.%.W L A A A A A A H H C w : e F  . .]  .;.O.O.p 7 & + ; = , G Y S Z , w ( PXPXPXPX",
"PXPXPXPXPXPXPXPXPXPXPXPXPXPXPXPXPXPXPXPXPXPXPXPXPXPXPXPXPXPXPXPXPXPXPXPXPXPXPXPXPXPXPXPXPXPXPXPXPXPXPXPXPXPXPXPXPXPXPXPX+.O. .R G C C C Z Z S Y W %.-.%.W W L A A A A A A H G w : w F .. ...X.#.*.#.s 0 & o ; O , G H A Z , w t PXPXPXPX",
"PXPXPXPXPXPXPXPXPXPXPXPXPXPXPXPXPXPXPXPXPXPXPXPXPXPXPXPXPXPXPXPXPXPXPXPXPXPXPXPXPXPXPXPXPXPXPXPXPXPXPXPXPXPXPXPXPXPXPXPX<.O.X.o.J G C C Z Z S H W Q -.&.Q W W A A A A A A A H K w w e U D U  .X.X.X.s 9 & o # O , S Y H S , , r PXPXPXPX",
"PXPXPXPXPXPXPXPXPXPXPXPXPXPXPXPXPXPXPXPXPXPXPXPXPXPXPXPXPXPXPXPXPXPXPXPXPXPXPXPXPXPXPXPXPXPXPXPXPXPXPXPXPXPXPXPXPXPXPXPX,.@.X. .J C C C Z Z S A W Q -.&.Q W W A A A A A A H Y C K , w D F D D D D p q 1 @ # O = : S Y Y S K , r ) PXPXPX",
"PXPXPXPXPXPXPXPXPXPXPXPXPXPXPXPXPXPXPXPXPXPXPXPXPXPXPXPXPXPXPXPXPXPXPXPXPXPXPXPXPXPXPXPXPXPXPXPXPXPXPXPXPXPXPXPXPXPXPXPXPX@.#. .J C C C C Z S S W Q -.-.Q W W A A A A A A A H S K , , e e e i q q 7 3 @ o @ + = : C H Y S K w r ^ PXPXPX",
"PXPXPXPXPXPXPXPXPXPXPXPXPXPXPXPXPXPXPXPXPXPXPXPXPXPXPXPXPXPXPXPXPXPXPXPXPXPXPXPXPXPXPXPXPXPXPXPXPXPXPXPXPXPXPXPXPXPXPXPXPX<.#. .J C C C C Z C S A W &.-.%.Q W A A A A A A A H H Z , > w 7 w 6 7 > > $ @ @ @ O O = K G Y S K w i ( PXPXPX",
"PXPXPXPXPXPXPXPXPXPXPXPXPXPXPXPXPXPXPXPXPXPXPXPXPXPXPXPXPXPXPXPXPXPXPXPXPXPXPXPXPXPXPXPXPXPXPXPXPXPXPXPXPXPXPXPXPXPXPXPXPX<.#. .F C C C C Z C S H W %.&.&.%.W A A A A A A A S H Z , = ; - > - 3 ; - & % % & < O = K G W H K w i ( PXPXPX",
"PXPXPXPXPXPXPXPXPXPXPXPXPXPXPXPXPXPXPXPXPXPXPXPXPXPXPXPXPXPXPXPXPXPXPXPXPXPXPXPXPXPXPXPXPXPXPXPXPXPXPXPXPXPXPXPXPXPXPXPXPX,.@.X.J C C C C K C S H W Q %.-.%.W W A A A A A A H H G , +   o ; % # - ; # # ; - ; : = K T T G S Z w ( +.PXPX",
"PXPXPXPXPXPXPXPXPXPXPXPXPXPXPXPXPXPXPXPXPXPXPXPXPXPXPXPXPXPXPXPXPXPXPXPXPXPXPXPXPXPXPXPXPXPXPXPXPXPXPXPXPXPXPXPXPXPXPXPXPX<.@. .] J F F F F F J J { $.=.:.=.$.$.J G G J G G J J J J w ; . . $ 8 4 0 y t 4 $ @ o w J o.] J F K q u | PXPX",
"PXPXPXPXPXPXPXPXPXPXPXPXPXPXPXPXPXPXPXPXPXPXPXPXPXPXPXPXPXPXPXPXPXPXPXPXPXPXPXPXPXPXPXPXPXPXPXPXPXPXPXPXPXPXPXPXPXPXPXPXPXPX<.@.{ [ [ [ [ [ [ [ { { @.#.1.;.@.{ { { { { { { { { { { { ( 2 * * * 2 2 2 2 * * 2 2 { { @.{ { { [ ( { <.PXPX",
"PXPXPXPXPXPXPXPXPXPXPXPXPXPXPXPXPXPXPXPXPXPXPXPXPXPXPXPXPXPXPXPXPXPXPXPXPXPXPXPXPXPXPXPXPXPXPXPXPXPXPXPXPXPXPXPXPXPXPXPXPXPXPXPXPXPXPXPXPXPXPXPXPXPXPXPXPXPXPXPXPXPXPXPXPXPXPXPXPXPXPXPXPXPXPXPXPXPXPXPXPXPXPXPXPXPXPXPXPXPXPXPXPXPXPXPX"
};
