/* XPM */
static const char *xpm__4_sgun_stopshoot1[] = {
/* columns rows colors chars-per-pixel */
"130 133 256 2 ",
"   c #0B0402",
".  c #090605",
"X  c #140A07",
"o  c #1B130C",
"O  c #150C14",
"+  c #1C1413",
"@  c #1C151B",
"#  c #1D1A1C",
"$  c #191616",
"%  c #0C0E0F",
"&  c #231C1C",
"*  c #241816",
"=  c #28130D",
"-  c #29221D",
";  c #35251D",
":  c #1D1923",
">  c #150D20",
",  c #231C23",
"<  c #271D28",
"1  c #2E1D2B",
"2  c #2B2424",
"3  c #2B242B",
"4  c #2D292C",
"5  c #252227",
"6  c #332C2C",
"7  c #372926",
"8  c #3B322D",
"9  c #2D2A33",
"0  c #2C2735",
"q  c #332D34",
"w  c #352D39",
"e  c #3C3433",
"r  c #35313C",
"t  c #3B353B",
"y  c #3A3638",
"u  c #2F3028",
"i  c #1E2125",
"p  c #550D16",
"a  c #7C0B0B",
"s  c #7A0606",
"d  c #690918",
"f  c #780B16",
"g  c #7A1419",
"h  c #6D1010",
"j  c #5A0F2E",
"k  c #761527",
"l  c #6B122A",
"z  c #432D25",
"x  c #4C342C",
"c  c #48352A",
"v  c #5C3B2C",
"b  c #53392D",
"n  c #433B3B",
"m  c #473835",
"M  c #543B33",
"N  c #5B3D33",
"B  c #533A35",
"V  c #4D2C32",
"C  c #64382F",
"Z  c #702717",
"A  c #49423D",
"S  c #55433C",
"D  c #5C443B",
"F  c #5A4438",
"G  c #514730",
"H  c #634234",
"J  c #68473A",
"K  c #724C3D",
"L  c #784F3D",
"P  c #75563B",
"I  c #3A3645",
"U  c #34314A",
"Y  c #3E2066",
"T  c #433C45",
"R  c #443953",
"E  c #612045",
"W  c #3C424F",
"Q  c #4B4443",
"!  c #4A4449",
"~  c #534B4B",
"^  c #594945",
"/  c #5A514C",
"(  c #494757",
")  c #554C58",
"_  c #5A5458",
"`  c #4C515D",
"'  c #644D45",
"]  c #64534B",
"[  c #685349",
"{  c #785445",
"}  c #665957",
"|  c #745249",
" . c #726758",
".. c #595868",
"X. c #535367",
"o. c #635E6A",
"O. c #5D6271",
"+. c #696668",
"@. c #746A69",
"#. c #79746B",
"$. c #666675",
"%. c #797577",
"&. c #746D75",
"*. c #830402",
"=. c #840B04",
"-. c #8B0C04",
";. c #840C0B",
":. c #8B0D0B",
">. c #880506",
",. c #920D03",
"<. c #930D0A",
"1. c #970B06",
"2. c #8C1204",
"3. c #85110C",
"4. c #8C130C",
"5. c #871507",
"6. c #941304",
"7. c #9C1503",
"8. c #9C1A04",
"9. c #93140B",
"0. c #9A140B",
"q. c #941A0B",
"w. c #9B1B0B",
"e. c #941A04",
"r. c #870D13",
"t. c #841313",
"y. c #8B1313",
"u. c #891719",
"i. c #931413",
"p. c #941A13",
"a. c #991816",
"s. c #930D13",
"d. c #AC1501",
"f. c #A31C03",
"g. c #AC1B03",
"h. c #A31C0B",
"j. c #A61707",
"k. c #B31501",
"l. c #BB1401",
"z. c #B41B03",
"x. c #BC1B03",
"c. c #B81C0A",
"v. c #A51C13",
"b. c #A70D04",
"n. c #9B230A",
"m. c #9A2214",
"M. c #8B280C",
"N. c #A42104",
"B. c #AC2304",
"V. c #A4220B",
"C. c #AB240B",
"Z. c #AC2A08",
"A. c #B32403",
"S. c #BC2302",
"D. c #BB2B04",
"F. c #B32A0B",
"G. c #B62809",
"H. c #BA3505",
"J. c #A92614",
"K. c #B62814",
"L. c #B63412",
"P. c #861925",
"I. c #901928",
"U. c #992729",
"Y. c #C41501",
"T. c #C41B02",
"R. c #CC1C02",
"E. c #C91A06",
"W. c #D31C02",
"Q. c #DB1B02",
"!. c #D71803",
"~. c #C21C10",
"^. c #E51C02",
"/. c #F41B02",
"(. c #C42203",
"). c #CB2202",
"_. c #C72807",
"`. c #D42302",
"'. c #DA2302",
"]. c #D42B02",
"[. c #DB2C02",
"{. c #D7290A",
"}. c #C83506",
"|. c #D73608",
" X c #D93814",
".X c #CD2E13",
"XX c #E42B03",
"oX c #E82703",
"OX c #F52705",
"+X c #E63407",
"@X c #E63A16",
"#X c #F2300D",
"$X c #D83621",
"%X c #B24206",
"&X c #906637",
"*X c #AB6B28",
"=X c #D4440A",
"-X c #E54416",
";X c #CE700A",
":X c #E25E21",
">X c #8D7655",
",X c #877869",
"<X c #857979",
"1X c #8E706B",
"2X c #A87670",
"3X c #88604F",
"4X c #D06551",
"5X c #B58E38",
"6X c #D6930F",
"7X c #EB900B",
"8X c #ECB212",
"9X c #CB9630",
"0X c #D5AB30",
"qX c #F2AF2C",
"wX c #E89C24",
"eX c #F1D017",
"rX c #F5EF1A",
"tX c #F3D231",
"yX c #F8F627",
"uX c #F4ED32",
"iX c #DDCA36",
"pX c #AD904F",
"aX c #928973",
"sX c #AA9371",
"dX c #B0A872",
"fX c #A89455",
"gX c #FBB14C",
"hX c #D6AB5D",
"jX c #D6CB52",
"kX c #F6D14D",
"lX c #ECE94C",
"zX c #D4D171",
"xX c #ECD36C",
"cX c #ECE86C",
"vX c #DFE149",
"bX c #BDC465",
"nX c #757686",
"mX c #877A8C",
"MX c #7C838D",
"NX c #918D8F",
"BX c #A59790",
"VX c #AEAB94",
"CX c #989AA7",
"ZX c #B3B3AB",
"AX c #9EA2A0",
"SX c #C4BCB3",
"DX c #D6B18E",
"FX c #BCC3A5",
"GX c #CECB8F",
"HX c #CCCEB3",
"JX c #F2CA95",
"KX c #B4BAC3",
"LX c #CCC9C6",
"PX c #BEC1D2",
"IX c None",
"UX c black",
/* pixels */
"IXIXIXIXIXIXIXIXIXIXIXIXIXIXIXIXIXIXIXIXIXIXIXIXIXIXIXIXIXIXIXIXIXIXIXIXIXIXIXIXIXIXIXIXIXIXIXIXIXIXIXIXIX:.<.9.4.5.,.0.r.y.<.<.r.y.4.9.0.q.-.a IXIXIXIXIXIXIXIXIXIXIXIXIXIXIXIXIXIXIXIXIXIXIXIXIXIXIXIXIXIXIXIXIXIXIXIXIXIXIXIXIXIXIXIXIXIXIXIXIXIXIXIXIXIXIXIXIXIX",
"IXIXIXIXIXIXIXIXIXIXIXIXIXIXIXIXIXIXIXIXIXIXIXIXIXIXIXIXIXIXIXIXIXIXIXIXIXIXIXIXIXIXIXIXIXIXIXIXIXIXIXIXIXIX*.:.-.4.,.0.t.y.<.0.i.;.>.,.0.,.-.u.IXIXIXIXIXIXIXIXIXIXIXIXIXIXIXIXIXIXIXIXIXIXIXIXIXIXIXIXIXIXIXIXIXIXIXIXIXIXIXIXIXIXIXIXIXIXIXIXIXIXIXIXIXIXIXIXIXIX",
"IXIXIXIXIXIXIXIXIXIXIXIXIXIXIXIXIXIXIXIXIXIXIXIXIXIXIXIXIXIXIXIXIXIXIXIXIXIXIXIXIXIXIXIXIXIXIXIXIXIXIXIXg v.>.<.y.9.q.q.y.u.0.0.i.i.,.,.0.0.9.u.l IXIXIXIXIXIXIXIXIXIXIXIXIXIXIXIXIXIXIXIXIXIXIXIXIXIXIXIXIXIXIXIXIXIXIXIXIXIXIXIXIXIXIXIXIXIXIXIXIXIXIXIXIXIXIXIXIX",
"IXIXIXIXIXIXIXIXIXIXIXIXIXIXIXIXIXIXIXIXIXIXIXIXIXIXIXIXIXIXIXIXIXIXIXIXIXIXIXIXIXIXIXIXIXIXIXIXIXIXIXIXa.,.a.a.p.a.w.p.u.y.<.0.<.a.0.0.a.a.i.t.IXIXIXIXIXIXIXIXIXIXIXIXIXIXIXIXIXIXIXIXIXIXIXIXIXIXIXIXIXIXIXIXIXIXIXIXIXIXIXIXIXIXIXIXIXIXIXIXIXIXIXIXIXIXIXIXIXIX",
"IXIXIXIXIXIXIXIXIXIXIXIXIXIXIXIXIXIXIXIXIXIXIXIXIXIXIXIXIXIXIXIXIXIXIXIXIXIXIXIXIXIXIXIXIXIXIXIXk g IXI.<.1.,.q.-.:.-.2.3.3.-.,.7.,.-.4.y.t.t.u.g IXIXIXIXIXIXIXIXIXIXIXIXIXIXIXIXIXIXIXIXIXE IXIXIXIXIXIXIXIXIXIXIXIXIXIXIXIXIXIXIXIXIXIXIXIXIXIXIXIXIXIXIXIXIXIXIX",
"IXIXIXIXIXIXIXIXIXIXIXIXIXIXIXIXIXIXIXIXIXIXIXIXIXj j E IXIXIXIXIXIXIXIXIXIXIXIXIXIXIXIXIXIXl P.r.:.r.>.1.7.v.,.q.w.6.q.p.p.0.8.6.6.2.5.t.f ;.t.;.t.d l l IXIXIXIXIXIXIXIXIXIXIXIXIXIXIXIXIXj P.h k IXIXIXIXIXIXIXIXIXIXIXIXIXIXIXIXIXIXIXIXIXIXIXIXIXIXIXIXIXIXIXIX",
"IXIXIXIXIXIXIXIXIXIXIXIXIXIXIXIXIXIXIXIXIXIXIXIXj d IXI.IXIXIXIXk IXIXIXIXIXIXIXIXIXIXIXIXk u.,.h.1.v.K.7.7.K.h.h.h.8.8.q.q.8.8.e.n.n.5.4.4.-.=.*.4X;.;.a f g d d IXIXIXIXIXIXIXIXIXIXIXIXIXIXIXIXf P.u.s f IXIXIXIXIXIXIXIXIXIXIXIXIXIXIXIXIXIXIXIXIXIXIXIXIXIXIXIX",
"IXIXIXIXIXIXIXIXIXIXIXIXIXIXIXIXIXIXIXIXIXIXIXIXIXIXP.IXIXk g t.;.t.d l l l d g f g IXIXIXIX*.g.j.c.b.b.g.h.w.J.K.K.N.N.n.J.V.V.n.n.e.e.q.2.-.6.,.>.,.-.=.4.=.4.:.;.d l IXIXIXIXIXIXIXIXIXIXIXIXk ;.:.:.-.0.=.t.k IXIXIXIXIXIXIXIXIXIXIXIXIXIXIXIXIXIXIXIXIXIXIXIXIX",
"IXIXIXIXIXIXIXIXIXIXIXIXIXIXIXIXIXIXIXIXIXY IXIXIXIXIXIXk P.f I.;.r.s g f f ;.;.;.s f t.t.=.IXIXIXj.v.b.h.V.V.V.C.F.B.N.N.n.n.N.N.V.V.N.N.h.0.,.a.>.-.9.4.4.=.-.6.4.u.a f k IXIXIXIXIXIXIXIXIXIXk u.t.t.9.-.:.a k IXIXIXIXIXIXIXIXIXIXIXIXIXIXIXIXIXIXIXIXIXIXIXIXIX",
"IXIXIXIXIXIXIXIXIXIXIXIXIXIXIXIXIXIXIXIXIXIXIXIXIXIXIXk P.f i.=.:.i.;.IXIXIXy.s.:.4.3.=.=.9.,.>.>.1.b.v.h.J.J.L.F.D.G.B.Z.Z.Z.Z.Z.Z.C.N.N.f.6.-.a.:.=.-.:.:.4.4.4.9.i.;.3.a s l IXIXIXIXIXIXIXIXIX;.f P.i.,.>.r.t.IXj IXIXIXIXIXIXIXIXIXIXIXIXIXIXIXIXIXIXIXIXIXIXIX",
"IXIXIXIXIXIXIXIXIXIXIXIXIXIXIXIXIXIXIXIXIXIXIXIXIXIXIXIXs a 2.=.p.4.s IX-.-.:.:.:.r.y.y.:.:.>.IXIXIXIX,.w.n.V.N.A.A.A.A.F.F.L.L.H.H.D.F.F.C.m.4.:.i.-.-.4.:.y.3.y.u.t.3.u.u.;.f d IXIXIXIXIXIXd I.>.4.i.<.i.1.<.=.a IXIXIXIXIXIXIXIXIXIXIXIXIXIXIXIXIXIXIXIXIXIXIXIX",
"IXIXIXIXIXIXIXIXIXIXIXIXIXIXIXIXIXIXIXIXIXIXIXIXIXd a s u.s m.6.-.a.i.>.>.6.q.6.=.4.i.r.r.y.s.:.:.>.*.>.2.8.8.f.B.A.A.A.G.G.G.D.D.D.D.D.G.Z.w.4.3.p.q.q.a.a.p.p.y.u.t.t.3.;.y.:.4.a d IXIXIXIXP.:.0.a.,.<.v.a.,.0.4.IXd IXIXIXIXIXIXIXIXIXIXIXIXIXIXIXIXIXIXIXIXIXIX",
"IXIXIXIXIXIXIXIXIXIXIXIXIXIXIXj IXIXIXIXIXIXIXIXk f r.y.i.a.a.i.r.t.;.:.9.-.,.7.f.6.-.p.a.y.;.y.*.r.3.9.q.V.V.F.B.F.G.D.D.D.D.D.D.D.D._._.A.8.2.5.3.5.2.0.w.6.8.8.w.y.p.2.=.i.:.-.=.3.IXIXIXIXP.,.j.0.0.v.q.9.4.a.>.>.g IXIXIXIXIXIXIXIXIXIXIXIXIXIXIXIXIXIXIXIXIXIX",
"IXIXIXIXIXIXIXIXIXIXIXIXIXIXIXIXP.h IXIXIXIXd f r.r.r.y.-.6.a.i.s u.u.:.9.0.h.f.7.h.a.4.y.u.y.=.y.y.y.=.6.,.7.8.f.N.G.S._._.(._.D.D._._.}.D.N.e.q.9.8.8.h.g.7.f.8.8.6.w.w.e.a.y.=.s *.p.P.d IXt.1.v.0.0.J.6.4.p.-.0.,.u.IXIXIXIXIXIXIXIXIXIXIXIXIXIXIXIXIXIXIXIXIXIX",
"IXIXIXIXIXIXIXIXIXIXIXIXIXj IXIXf IXIXt.U.s a a =.9.a a 5.2.v.w.a.=.=.5.J.n.8.8.w.0.p.p.9.-.-.<.a.a.;.5.6.V.8.N.N.V.C.G.D.(.S.(.(.(.(.(.(.S.N.w.w.8.g.g.g.g.f.f.N.V.f.8.e.e.i.y.u.s 3.y.a u.i.v.0.v.w.8.h.h.w.a.q.6.-.g IXIXIXIXIXIXIXIXIXIXIXIXIXIXIXIXIXIXIXIXIXIX",
"IXIXIXIXIXIXIXIXIXIXIXIXj IXIXIXIXr.a.<.*.9.=.3.4.p.5.5.n.n.8.f.0.q.m.w.J.8.h.C.V.8.e.w.q.-.>.,.<.:.4.2.w.w.V.V.N.N.z.x.(.).).).`.W.R.T.x.z.g.j.j.g.d.z.k.z.L.L.F.L.G.f.8.w.p.i.y.t.s y.4.4.6.,.6.e.h.V.C.C.h.h.6.-.6.a IXIXIXIXIXIXIXIXIXIXIXIXIXIXIXIXIXIXIXIXIXIX",
"IXIXIXIXIXIXIXIXIXIXIXIXIXIXIXIXa.*.i.>.=.=.;.3.4.2.6.e.8.N.N.h.C.h.C.K.K.K.K.d.g.f.N.Z.8.6.-.>.<.J.=.4.2.2.n.8.C.G.T.R.W.`.`.W.Q.Q.W.R.(.x.d.d.d.k.x.x.x.S.D.D.H.H.}.B.f.8.7.q.-.4.y.*.4.4.6.8.C.N.f.f.f.f.g.V.h.,.0.3.g k IXIXIXIXIXIXIXIXIXIXIXIXIXIXIXIXIXIXIXIX",
"IXIXIXIXIXIXIXIXIXIXk s IXIXIXt.:.:.a.:.;.s i.=.4.9.8.h.B.F.F.F.B.g.g.z.z.c.x.d.k..XG.F.J.h.,.K.>.i.-.4.q.e.n.f.G._._.E.W.W.!.!.Q.Q.'.{._.(.x.l.x.(. X@X|.|.}.}.D.A.H.H.}.F.f.8.6.q.i.;.4.4.9.J.F.F.F.G.A.A.C.C.V.6.,.-.y.u.f k l IXIXIXIXIXIXIXIXIXIXIXIXIXIXIXIXIX",
"IXIXIXIXIXIXIXIXIXIXIX:.IXIXf t.;.=.i.s y.s IXs 2.0.C.L.L.D.G.S._.S.x.z.l.x.T.T.T.l.l.d.K.h.<.*.<.-.p.q.n.n.f.g.c.T.R.W.R.!.!.W.!.W.R.T.x.x.z.k.k.(. X-X X|. X=X=X}.}.D.}.=XL.f.8.q.p.9.9.-.-.V.V.B.F.F.F.A.F.F.V.h.6.-.3.r.f f u.p IXIXIXIXIXIXIXIXIXIXIXIXIXIXIXIX",
"IXIXIXIXIXIXIXIXIXIXs IXIX=.t.a 4.;.;.y.s m.-.,.6.8.g.G.D.D._._.(.T.T.T.T.T.R.R.R.R.).x.$Xv.0.a.0.-.w.8.h.h.f.z.z.T.T.R.E.R.R.R.R.R.).(.x.c.z.k.x.T.T.T.T.).|.-X-X-X-X}.}.A.H..XC.h.w.q.q.2.=.6.h.N.C.F.F.F.F.F.F.C.6.6.9.y.u.y.4.g IXIXIXIXIXIXIXIXIXIXIXIXIXIXIXIX",
"IXIXIXIXIXIXIXIXIXIXIXIXIXs 4.=.p.;.p.=.=.4.-.0.h.g.A.D._._._.].).T.T.R.W.!.!.W.W.R.R. X.XK.j.h.h.8.7.C.B.A.x.x.(.(.).T.T.T.x.x.x.x.c.z.d.z.z.k.T.T.R.W.W.R.).).T.`.@X-X=X}.D.D.F.h.7.6.0.a.q.w.h.V.C.C.F.F.F.F.B.V.6.6.4.;.;.;.1.*.g IXIXIXIXIXIXIXIXIXIXIXIXIXIXIX",
"IXIXIXIXIXIXIXIXIXi.i.;.;.=.4.4.4.p.-.=.=.9.0.7.g.c._._._.).(.T.).E.!.W.Q.!.!.!.R.`.@X-Xx.z.z.j.g.C.g.G.(.(.(.).).(.T.x.z.k.z.d.z.z.d.d.d.d.d.l.T.R.R.W.R.Y.R.R.`.).).(.|.-X-X}.}.G.C.f.6.q.2.2.6.8.h.V.B.F.A.B.F.F.h.w.q.:.y.i.>.0.;.k IXIXIXIXIXIXIXIXIXIXIXIXIXIX",
"IXIXIXIXIXIXIXIXu.4.;.r.r.i.2.q.p.q.q.-.a.0.K.g.c.x.T.T.R.`.`.`.R.E.!.!.!.!.W.`.`. X|.z.S.A.S.A.z.S.l.T.).R.R.).T.T.S.z.d.d.j.j.d.c.c.c.K.c.k.T.T.Y.Y.R.R.R.T.T.R.T.T.].|.].|.|.z.z.A.g.8.w.9.9.6.0.V.V.V.F.F.A.K.C.7.6.0.9.:.:.a.:.:.d IXIXIXIXIXIXIXIXIXIXIXIXIXIX",
"IXIXIXIXIXIXIXP.y.4.y.y.;.9.6.J.n.e.w.w.8.j.b.G.T.T.R.R.R.W.W.R.W.W.W.W.W.R.).|._.}.|.}.S.z.z.D.S.(.).T.`.`.'.{.T.(.(.A.g.g.g.g.g.c.k.k.c.x.E.@X{.W.Y.Y.Y.R.R.T.Y.T.T.x.(.(.|.|.T.T.(.A.j.w.2.4.q.w.V.V.N.N.B.A.F.K.C.h.0.0.<.y.;.;.i.u.IXIXIXIXIXIXIXIXIXIXIXIXIXIX",
"IXE IXIXIXIXIX9.i.:.i.y.9.6.J.f.8.N.V.h.j.g.c.T.E.Y.W.Q.oX!.!.Q.Q.W.W.@XT.].}.}.(.z.S.S.D.z.d.z.x.).`.'.'.[.[.{.].}._.A.A.z.c.g.g.g.g.k.x.x.T.).W.W.W.W.W.!.R.Y.l.x.x.x.x. XR.Y.R.Y.R._.z.7.6.6.6.w.8.f.Z.Z.B.F.F.C.g.h.7.0.0.>.i.y.r.y.u.IXIXIXIXIXIXIXIXIXIXIXIXIX",
"IXIXE IXIXIXs 0.a.r.y.:.0.h.C.N.B.Z.C.g.d.k.x.E.W.!.Q.^.oXQ.Q.Q.!.'.R.@X_.}.A.D.D.A.A.D.D.z.z.k.T.`.{.{.[.[.[.].|._._._..Xz.c.d.z.k.k.k.l.T.R.R.W.W.W.'.'.'.W.R.T.c.x.z.k..X{.@X!.W.!.E.c.j.e.6.8.h.h.f.h.C.Z.F.B.C.h.h.,.v.0.<.9.s y.;.-.IXIXIXIXIXIXIXIXIXIXIXIXIX",
"IXIXIXIXIXIX4.>.3.a 3.-.b.d.C.Z.F.F.G.A.z.l.T.W.!.!.Q.Q.Q.!.!.!.{.Y.T.l. X.XA.H.H.B.H.}._..X_. XT.).`.{.{.[.[.].|.{._.(.(.(.l.E.T.Y.Y.Y.Y.Y.R.R.W.W.W.`.`.R.R.T.c.c.c.z.d.k.). X!.!.!.R.T.g.7.8.f.j.C.g.f.N.Z.B.V.L.h.v.0.J.<.a.-.q.=.-.,.IXIXIXIXIXIXIXIXIXIXIXIXIX",
"IXIXIXIXIXIX;.p.3.u.y.q.g.z.B.Z.F.G.G.A.l.T.R.W.Q.Q.Q.Q.!.!.!.E.Y.R.T.x.x._.D.}.B.A.A.}._..X X XR.R.`.`.'.[.[.[.R.`.`.`.R._.T.`.R.E.E.!.!.W.W.W.W.`.'.'.`.`.`._.T.c.c.z.c.d.x.Y.!.!.!.!.E.x.j.f.j.g.c.z.g.g.C.V.C.8.J.v.0.i.s.<.-.a.-.-.<.IXIXIXIXIXIXIXIXIXIXIXIXIX",
"IXIXIXIXIXIXP.=.9.q.4.q.C.F.G.B.G.G.D.S.x.T.W.!.Q.Q.Q.Q.!.!.R.E.E.{.l._.{. X XS.S.A.}. X|.@XR.Y.W.W.`.'.{.[.'.`.{.'.'.{.`.T.{.R.).`.`.{.W.W.W.W.`.`.'.'.'.'.'.{.).T.x.d.c.d.S.T.W.Q.!.!.R.T.d.d.k.x.x.x.A.g.j.V.8.V.6.9.:.a.>.<.9.>.i.:.;.IXIXIXIXIXIXIXIXIXIXIXIXIX",
"IXIXIXIXIXIXf y.-.,.6.q.C.F.G.D.G.G.D.S.T.).W.Q.Q.Q.Q.Q.W.R.Y.Y.R.Y.R.T.R.T.T.T.|. X X|.).`.'.'.Q.Q.W.`.`.'.`.`.'.Q.W.`.`.`.x.].).`.`.`.W.W.W.`.'.'.'.'.`.`.`.`.`.).(.d.d.d.x.T.R.!.Q.!.!.R.T.x.Y.R.T.x.G.d.7.h.e.J.2.-.:.m.:.y.;.;.IXIXa IXIXIXIXIXIXIXIXIXIXIXIXIX",
"IXIXIXIXIXIXIXs 4.0.V.h.K.g.A.D.D.G.S.S.T.).W.Q.Q.Q.Q.Q.R.R.T.T.R.Y.R.R.R.@XR.@XR.W.@X'.W.W.W.Q.^.^.Q.!.W.W.Q.'.!.Q.Q.`.).(._._.).`.`.'.W.W.`.'.[.[.].].].].].].{.`.{.S.d.g.d.x.R.!.Q.Q.!.W._.R.!.!.R.R.(.z.b.7.w.-.p.=.;.s IXs IXP.IXIXf IXIXIXIXIXIXIXIXIXIXIXIXIX",
"IXIXIXIXIXIXIXIX4.-.w.h.K.C.D.D.G.G.S.x.T.W.W.Q.Q.Q.W.W.R.T.x.(.T.@X+X|.@XR.W.!.'.Q.Q.Q.Q.Q.oX^.^.^.^.^.^.Q.Q.Q.Q.Q.'.Q.`.S.xX:X).`.Q.Q.Q.'.'.[.[.[.].].[.[.[.[.XX`.{.(.z.A.d.x.E.W.Q.Q.W.W.R.Y.!.W.W.`.(.z.f.6.2.p.=.4.y.s ;.f IXIXIXIXk IXIXIXIXIXIXIXIXIXIXIXIXIX",
"IXIXIXIXg t.IX<.0.0.v.h.J.K.G.D.G.G.k._.W.W.Q.!.W.E.W.E.Y.x.}.}.).+XR.@X`.W.!.Q.Q.Q.Q.Q.Q.^.^.OXOX/./././././.^.oX^.Q.oX`.(.gXwX}.`.Q.^.oXXX'.'.XX+XXX'.[.+X].`.+X[.`.|.z._.~.x.E.R.`.'.!.W.R.E.R.R.@X).-XB.B.8.q.4.:.i.;.3.s IXIXIXIXIXk IXIXIXIXIXIXIXIXIXIXIXIXIX",
"IXIXIXk a IX0.1.0.0.v.1.0.V.F.G.G.D.l.{.W.Q.'.W.W.R.E.Y..X X}.}.|.-X+X+XW.!.Q.Q.Q.^.!.Q.^.OX/././.OX/././././.OXoXQ.oX[.].H.gX;XB._.[.XXoXXXXXXXoXoXoXXXXXXX[.@XW.+X[.).).(.l._.x.T.).`.'.`.R.E.Y.R.`.-X=X}.N.8.5.4.a.<.:.3.a s IXg :.u.IXIXIXIXIXIXIXIXIXIXIXIXIXIX",
"IXIXk IXIXs i.<.<.<.v.0.w.w.V.N.A.A.T.W.!.Q.!.W.R.E.$XT.l.x.S.S.(. X|.`.W.!.Q.Q.Q.!.Q.#XoX/./././.OXOX/.OX/.oXoXOXOXXX_.H.gX;X;X;X=X=X}.[.oX#XOXOXOXOXOXoX#X#XoX+X'.+XXX'.).R.T.(.S.).`.`.W.R.Y.E.T.@X|.=X=XD.8.q.q.0.>.-.y.y.t.;.a.r.I.IXIXIXIXIXIXIXIXIXIXIXIXIXIX",
"IXIXf IXIXa.a.s.i.9.9.:.4.q.8.V.N.d.T.E.!.^.Q.'.R.l.{.)..Xl.(.-X).).`.R.Q.Q.Q.Q.oXQ.oXoX^.OX/./.OX^.oX'.[.[.].|.[.].}.wXqXqXqX7X8XqXtXqX}.|.+X[.].|.].|.|.[.#XoXXX+XXX'.R.`.].].(.S.(.).R.R.E.Y.T. X|.-X}.=XH.8.0.p.9.a.-.4.a ;.-.>.s.r.d IXIXIXIXIXIXIXIXIXIXIXIXIX",
"IXl u.IX,.0.:.i.i.:.;.=.4.=.q.V.V.f.c.E.!.Q.W.W. X(.|.x._.(.).T. X_.R.W.Q.'.Q.XXQ.oX#XoX#XoXOXOX/.oX].}.H.gXqXqXqXqXwX7X7X8XeXeXyXyXrXrXtXqX7XqXqXkXtXkXkXH.}.+XXX#XXXXXXX`.(.(.(.(.(._._.(.T.l.T.l. X|.-X XA.f.8.w.9.p.-.4.=.=.9.9.<.i.a IXIXIXIXIXIXIXIXIXIXIXIXIX",
"IXIXd IXr.s.i.r.y.*.t.a m.=.w.8.8.f.c.~.E.W.`.T.]. X|.S. X(.T. XT.R.R.W.W.XXQ.XX+XXXXXoXoX^.#XXX[.=XgXqXqXqXqXqXqXqX7X7X7X8XeXeXrXrXrXyXeXeX6X6X8XtXuXuXuXkXkXH.[.oXXXXXXX'.].}._.)._._.D.x.x.k.k.S.(. X|. X}.f.j.h.q.-.-.4.p.;.;.<.a.,.=.h IXIXIXIXIXIXIXIXIXIXIXIX",
"IXIXIXIXP.IXu.t.y.t.;.a 3.=.h.h.e.8.j.c.~.E. X|.=X=X(.(.|.@X{.l.l.R.).`.'.'.'.'.XXoX#X#XoX#X+XD.gXtXtXtXeXqX8X8XeXeX8X7X;X7X8XrXyXrXrXrXyXeX8X6X6X8XeXuXuXuXlXkXH.[.#X^.oX@X{.{.]._._.D.S.S.A.g.k.S.(._.).@XD.G.j.v.p.p.9.4.4.s ;.i.a.-.m.g IXIXIXIXIXIXIXIXIXIXIXIX",
"IXIXIXIXk IXs a.>.y.s t.s 4.7.8.q.n.0.b.d.d..X}.=X=X|.-XT.T.).T.T.R.T.).[.'.XXXXoXoXOXoXXX+X}.xXkXlXuXeXeX8X8X8X8XeX8X7X7X7X8XeXeXyXyXrXrXyXeX8X7X6XeXtXuXuXlXlXkX}.[.oXQ.{.+X{.]._._._._.G.B.f.d.S.(.(.R.T.z.S.c.v.6.m.4.4.;.3.i.>.v.9.4.f IXIXIXIXIXIXIXIXIXIXIXIX",
"IXIXIXIXIX>.0.0.*.q.=.s 3.p.,.q.q.2.9.1.7.L.B.}.=X|.|.).`.Y.R.R.R.).).).`.'.'.XXoXOXOXOXXX|.=XgXkXuXyXrXeXeX8X8X8X8X8X8X7X;XwX8XeXrXyXrXyXyXeXeX8X6X6XqXtXuXuXuXkXkX}.XXoXoX@X].].].)._.G.G.F.g.z.x.x.x.T.R.k.S.z.d.v.9.-.4.;.-.0.0.v.a.i.P.IXIXIXIXIXIXIXIXIXIXIXIX",
"IXIXIXIXIXI.*.-.1.>.IX9.;.4.a.4.4.5.9.0.f.F.A.}.}.-X).R.'.W.R.W.R.`._.].].[.XXXX#XOXOXoXXX=X%XqXkXuXyXyXrXeX8X8X8X8XqXqXwX;X7XwX8XeXyXyXyXyXyXtXqX6X6X6X8XtXuXuXuXkXkXH.|.XX'.+X`.].].(..X.XA.d.x.T.x.x.Y.E.k.l.x.K.j.0.0.4.*.q.8.C.J.a.i.I.IXIXIXIXIXIXIXIXIXIXIXIX",
"IXIXIXIXIXIXIXr.:.>.>.-.=.4.4.4.-.9.q.w.h.B.}.}.}.@XR.Q.!.!.W.W.W.`.].].].[.XXXXXXoXOXoXXX}.%XkXkXuXuXyXrXeX8X8X8X8X8XqXwX;X;XwXwX8XuXuXyXyXuXuXtX0X6X;X6XqXtXuXuXuXlXkXH.+XoXoXXX`.`.)._.(.g.G.x.T.x.x.x.T.k.l.l.~.K.j.w.9.>.w.e.h.J.m.=.s y.IXIXIXIXIXIXIXIXIXIXIX",
"IXIXIXIXIXIXIXIX;.:.IX*.>.p.;.a.4.q.0.h.N.A.=X}.=X).W.!.!.^.Q.W.W.`.].].].[.[.XX+XXX#X#XXX|.=XgXuXuXuXuXyXeX8X8X8X6XwXqXwX6X;X;XwX0XiXuXuXuXuXuXtXiX0X9X;X9X0XtXtXuXlXlXkXH.|.'.'.[.[.{.`._._.S.T.R.T.x.x.T.Y.T.R.l..Xg.h.w.q.n.V.e.0.J.e.IX0.IXs s q.a IXIXIXIXIXIX",
"IXIXIXIXIXIXIXg IX*.IX>.>.0.p.p.q.q.7.g.A.}.=X=X|.T.'.!.Q.!.'.W.'.].].].[.[.[.XX[.+XoXoXoX+X}.gXtXuXuXuXyXeX8X8XwX6XwXwXwXwX;X;X;X9X0XiXvXlXlXlXlXvX0X9X*X*X9X0XiXvXvXlXcXkXZ.].[.XX).].].(.(.T.W.W.E.T.x.x.R.R. X).x.z.g.w.w.J.V.L.h.7.C.>.0.>.:.y.s ;.h IXIXIXIXIX",
"IXIXIXIXIXIXk a ;.s a.,.,.7.J.q.q.e.7.g.A.}.=X=X}.].R.W.Q.!.!.`.[.[.].].[.[.[.[.].@XoXOX#XXX}.gXtXuXuXuXuXtX8X0X0X0X9X9X9X9X9X*X*X9X9X0XjXvXlXlXlXvXjX0X5X*X*X5X0XjXvXlXvXcXgXH.}.+X].].|.).T.'.Q.Q.R.x.k.k.R.R.`.@XT.x.f.8.V.V.C.C.f.f.f.h.s.a.s.s.y.;.u.d IXIXIXIX",
"IXIXIXIXIXIXI.s.<.>.v.0.j.h.J.m.n.e.7.g.}.}.=X=X-X|.T.Y.R.{.`.'.[.[.].].[.'.'.].|.].+X#XoXoX|.%XkXuXuXuXuXtX0X0X9X9X9X9X5XpXpX*X&X*X5XpXhXjXcXcXcXcXjXjX5X5X&X*XpXpXjXjXcXvXxXxX%XH.|.).).].W.W.Q.Q.R.l.k.k.`.R.Y.@X).x.g.f.V.N.B.C.L.J.8.>.v.s.i.:.;.y.=.t.IXIXIXIX",
"IXIXIXIXIXj f <.<.-.v.v.1.j.f.J.n.n.f.A. X}.=X=X|.|.-X XR.`.`.[.[.[.[.[.[.[.[.].].|.XXoXOXoX+X=XgXvXuXuXlXlX0X0X9X9X5XpXpXpXfXpX&X&X&XpXpXfXzXzXcXcXzXbXbXpX>X&X&XpXhXhXxXxXcXxXxX%XH.|.(.`.!.^.Q.Q.R.x.c.z.{.).+XR.`.l.G.f.f.C.F.F.J.n.8.0.a.i.i.i.r.r.=.3.d IXIXIX",
"IXIXIXIXIXj u.0.:.9.v.0.J.h.F.B.C.f.f._. X@X|.).).{.W.R.W.W.'.`.].].[.[.].].].].|.].+XoXXXXXoX|.gXvXvXlXlXvXjX9X9X5XpXpXpXfXfXfX>X&XP >XfXfXdXzXGXGXGXzXdXdXfX&X&X&XpXpXhXzXzXzXxXxX%XD.].'.Q.^.Q.!.Y.T.z.A.}. X`.Q.W.T.d.7.h.h.B.Z.F.N.7.7.-.i.r.i.:.4.-.;.a IXIXIX",
"IXIXIXIXIXl ;.9.4.-.6.h.J.V.A.G.C.g.d.x.(.).`.R.R.R.Y.R.W.W.W.`.[.[.[.[.].`.].[.[.].[.XXXXoXoX|.gXjXvXlXvXxXjX5XpXpXpXpXfXfXaXaXaX3XP { >XfXsXdXGXGXGXGXGXdXsX>X3XP &X>XfXdXbXzXzXxXgXZ.}.Y.Q.oXR.W.R.k._.G._.(.W.Q.W.T.z.7.h.h.V.J.V.f.,.6.-.i.a.;.r.:.=.;.IXl IXIX",
"IXIXIXIXIXu.3.2.w.6.-.V.V.C.B.F.F.A.z.(.R.R.W.W.R.l.Y.R.R.W.W.'.'.'.'.[.'.'.].[.[.[.[.[.XX+XoX|.gXjXvXcXcXxXhXfXpX>XfXfX>X>X,X,XaX,X| [  .>XaXsXVXGXHXHXGXVXsXaX>X{ L &X>XfXdXzXzXzXxXxXn.}.{.Y.R.T.Y.E.k.x.x.).W.!.W.T.g.7.h.w.q.m.m.m.p.a.,.6.4.;.r.I.f s IXp IXIX",
"IXIXIXIXIXa 3.m.w.0.2.n.f.F.B.Z.N.g.z.).`.W.W.R.R.l.x.T.R.`.W.'.W.`.'.'.`.`.'.[.[.[.[.[.XX+X+X}.gXhXjXzXcXcXbXfXfX>X>X>X>X>X,X,X,X,X .[ '  .,XaXsXVXGXHXHXGXVXsXaX>X| H P >XfXfXbXGXzXGXxXn.G.T.(.E.x.l..Xl.T.Y.W.W.R.x.g.6.w.q.q.m.m.m.;.:.-.0.4.t.u.d k IXIXIXIXIX",
"IXIXIXIXIXk t.=.0.7.q.w.V.Z.Z.F.F.z.l.R.!.Q.!.W.E.k.x.z.l.R.W.W.Q.`.'.'.W.W.`.'.`.`.[.[.XX+XXX].%XhXzXGXGXGXGXdXaX>X#.#. .,X,X,X<X<X<X} Q /  .,XaXVXVXHXHXHXVXBXaX,X .J H { >XfXdXdXGXGXGXJXe.f.c.z.d.G._.k.R.W.W.R.T.x.g.6.q.5.2.6.2.4.3.y.-.a.P.l d l IXIXp IXIXIX",
"IXIXIXIXIXIXt.q.q.6.0.V.J.N.Z.F.C.A.x.W.Q.Q.Q.!.E.x.x.d.k.T.R.R.W.W.Q.'.`.W.W.`.'.'.[.[.XX+XXX|.%XhXhXGXGXGXGXsXaX,X#.@.@.@.@.%.%.%.<X@.Q ~  .#.#.aXVXZXHXHXHXVXBXaX#. .D J 3X>XaXsXdXGXGXGXDXM.K.j.f.A.D.l.l.l.R.R.E.x.g.e.q.4.q.e.2.4.t.t.;.IXIXIXIXIXIXIXIXIXIXIX",
"IXIXIXIXIXIXi.,.6.6.h.V.J.V.Z.Z.N.g.z.R.!.!.Q.!.R.(.x.d.k.l.T.E.R.R.W.`.`.`.`.'.`.`.'.XXoXoXoX X%XhXdXGXHXHXGXVXaX,X#.@.@.@.@.&.&.%.%.&._ ~ _ @.#.aXBXVXHXHXHXZXVXaXaX#.[ D J { 1XaXsXdXGXGXGXDXa J.K.G.A. Xz. XT.T.T.z.f.6.p.4.=.5.3.t.a f P.IXIXIXIXIXIXIXIXIXIXIX",
"IXIXl IXIXf a.0.>.q.h.V.J.Z.F.B.Z.N.d.T.!.Q.^.Q.R._.l.k.z.d.c.x.T.E.R._.`.W.`.`.W.W.Q.'.^.oX^.+XL.hXdXVXHXHXSXVXBX<X&.@.+.+.+.&.&.%.%.mX&._ ! } @.#.aXVXZXHXHXHXZXVXaX,X@.] B ' 3X1X,XsXVXGXGXDXJX5.L.H.H.}.H.A.z.z.c.g.h.6.p.4.3.;.;.t.t.f f IXIXIXIXIXIXIXIXIXIXIX",
"IXIXk IXs :.>.9.;.:.q.w.J.F.B.Z.V.w.j.c.R.W.Q.Q.W.Y.).l.z.z.j.c.k.x.T.E.R.R.R.R.R.'.'.Q.Q.^.oXXXF.4XsXVXHXHXHXVXNX<X%.+.+.@.+.+.+.%.@.&.<Xo.T ~ } #.#.aXVXZXHXHXFXZXBXaX#. .' ^ '  .,XaXsXVXVXGXDXJXM.}.=X}.G.7.g.f.h.j.b.7.:.:.3.3.s t.;.*.;.IXIXIXIXIXIXIXIXIXIXIX",
"IXp IXIX>.i.y.i.r.y.p.q.V.F.B.B.m.w.8.d.l.R.W.!.!.W.Y.T.c.b.h.j.g.z.c.x.x.T.T.R.W.W.Q.Q.^.OXoXQ..X4XsXVXZXLXHXZXBX<X%.&.@.+.@.@.@.#.@.#.%.@.~ n ] @.,X,XNXVXHXHXHXZXBXNX<X@.} ^ z ^  .,XaXaXdXGXGXGXJX*X$X.Xg.N.e.N.8.w.h.0.:.:.:.=.3.4.4.>.a.k IXIXIXIXIXIXIXIXIXIX",
"IXl IXt.i.s t.u.r.y.u.4.8.C.A.C.m.p.6.7.d.x.R.W.W.'.Y.E.c.g.h.h.j.g.z.z.k.l.Y.Y.R.W.Q.Q.^.^.^.^.E.K.2XBXZXHXHXFXBX%.%.&.@.+.@.@.@.@.@.#.&.%.o.n n } #.#.aXBXZXSXLXHXZXNXNX%.&.+.~ A S [ >XaXsXdXGXGXGXJXL.Z.g.7.8.n.e.w.,.-.:.;.y.*.w.-.p.t.g IXIXIXIXIXIXIXIXIXIXIX",
"IXp IXs ;.u.I.P.;.:.u.y.6.V.C.V.p.p.9.7.j.z.T.R.R.`.Y.T.c.g.7.8.7.f.g.z.z.l.l.Y.R.W.W.Q.Q.Q.^.Q.W.J.2XBXZXHXHXFXBXaX%.@.@.@.@.} @. .@.@.&.%.&.! n ~ +.@.#.NXAXZXSXLXZXAXNX%.&.+._ Q B D | >X>XsXdXGXFXGXDXM.m.a.q.n.a.w.q.9.;.y.s :.w.>.y.g l IXIXIXIXIXIXIXIXIXIXIX",
"IXk IX;.IXs ;.>.,.>.:.;.-.e.w.p.p.4.2.6.7.j.z.x.).@XT._.K.C.J.f.8.f.g.z.l.x.T.R.R.R.R.W.W.Q.Q.!.E.K.2XNXAXSXHXHXVXaX<X@.@.@.+.} +.+.@.+.$.&.&...t t ) +.+.&.%.NXZXZXZXCXMXnX&.$.+.) Q B D  .>X,XaXVXVXZXVXDXP.p.4.p.m.4.p.4.s t.t.4.-.:.IXj IXIXIXIXIXIXIXIXIXIXIXIX",
"IXIXIXs IX;.y.-.0.>.;.;.=.5.4.a.9.4.5.2.6.8.h.K.x..Xx.x.A.F.Z.N.N.g.d.z.l.T._. XT.R.R.R.W.W.!.W.Y.J.2XNXZXZXHXHXZXNX<X#.@. .+.+.+.+.+.+.$.$.$.$.I w I ..$.$.$.MXNXCXCXNXnX$.$.$.&.o.) n m ^ }  .,X,XNXZXZXZXDXZ u.5.p.p.:.y.y.;.f s f IXIXIXIXIXIXIXIXIXIXIXIXIXIXIX",
"IXIXd IXa s y.4.IX*.;.3.;.;.y.i.4.-.-.2.9.q.h.K.c.z._.c.A.F.B.F.F.A.x.x.x.T.).{.T.T.T.T.T.Y.E.R.R.K.2XNXAXZXHXHXHXBXaX#.@. .+.+.+.+.+.$.O.O.$.$...I 0 I X.O.$.nXMXMXMXnX$.......X.....) t w ! _ } +.%.NXCXBXBXsXZ Z a p.:.:.y.s k IXIXIXIXIXIXIXIXIXIXIXIXIXIXIXIXIX",
"IXIXIXIXu.;.3.a f IXf t.;.:.y.y.9.2.2.4.4.-.6.0.C.C.G.G.A.f.B.G.G.D.(.).R.T.T.R.{.R.l.l.l.x.x.x.c.w.2XNXAXZXHXHXSXBXNX@.+.+.+.+.+.$.......O.$.$.$.` 0 U ..O...` ( W I I I U U 0 U U R ....( ` ` ) ! W ` o.+.<X1X2XsXg f y.r.*.IXl IXIXIXIXIXIXIXIXIXIXIXIXIXIXIXIXIX",
"IXIXIXIXIX:.*.t.l IXIXd 3.*.:.:.4.;.5.5.3.4.-.,.8.C.F.F.Z.N.N.f.B.D._.{.!.W.!.Q.Q.Q.R.T.z.d.d.g.8.m.2X1XBXZXFXHXHXAXNX&.+.O...O.O.X.` W ( ` ( W ( I U I ..X.` ( ` X.O.` ....X.` X.` ( ( R ! U ( ..( X.$.&.nX%.%.mXNXBXp g f IXs P.IXIXIXIXIXIXIXIXIXIXIXIXIXIXIXIXIX",
"IXIXIXIXIXg g k IXIXIXIXP.:.=.;.;.3.p.s 3.3.3.-.6.f.C.F.F.Z.Z.Z.B.S.).E.W.Q.Q.^.Q.!.W.T.G.C.C.C.J.M.Z sXaXZXZXHXLXAXNX&.O.$.O.X.U U ` O.$.$.O.......` U I ( ( I ( CXPXCXCXNXNXnX$...( I U ( I ( ..$.&...! ) ....$.%.mXVXl g s ;.f IXIXIXIXIXIXIXIXIXIXIXIXIXIXIXIXIX",
"IXIXIXIXIXIXIXIXIXIXIXIXIXf u.;.3.s r.r.r.;.;.5.5.6.V.C.Z.Z.A.G.G.D._.).R.R.R.Y.W.R.T.k.f.h.h.h.f.n.Z 2XNXAXSXHXLXZXNXnXnXX.U U ` ..O.` ` ( I r ( ` ` ( ( ` ....$.O.O...$.....( ( ) ..o.+.$...$.( 3 : , 5 3 5 0 I T &.1X2Xl g k IXIXIXIXIXIXIXIXIXIXIXIXIXIXIXIXIXIX",
"IXIXIXIXIXIXIXIXIXIXIXIXIXk u.:.s a.>.s s.a.s 3.3.4.q.V.B.B.B.A.G.D._._._._.(.T.).~.c.g.j.h.h.h.7.e.Z 2XNXNXAXLXPXKXCXnXX.( ( X.( U U w 5 < 0 5 0 , 3 r I ` o.$.$...O.$...) +._ _ _ _ _ o.o.) ( < @ @ @ O $ # i , < , V  .2Xl d IXIXIXIXIXIXIXIXIXIXIXIXIXIXIXIXIXIX",
"IXIXIXIXIXIXIXIXIXIXIXIXIXIXa -.s.s.>.r.i.i.;.y.3.3.9.w.N.N.C.Z.Z.F.G.G.G.G.g.d.d.z.j.v.a.w.w.0.j.2.h 2X<XNXCXKXKXKXCXO.` ` R r 3 0 : : < , @ < , @ O @ : r T w 9 9 9 3 4 - - - - & $ & # % O @ : : , @ @ , i # : : @ O ; D 2Xp h IXIXIXIXIXIXIXIXIXIXIXIXIXIXIXIXIX",
"IXIXIXIXIXIXIXIXIXIXIXIXIXIXP.*.>.IXIX:.9.4.a.*.t.3.4.q.8.f.V.N.Z.Z.C.C.h.f.8.7.7.7.1.-.-.-.-.,.1.5.g 2X<XNXCXCXKXKXnX` ` I 1 < , < < < : 3 q , , , , , @ 3 , . % . . .     - G c - X X .   . . @ : , 2 , + # 5 : 5 : $ , * V 1XZ p IXIXIXIXIXIXIXIXIXIXIXIXIXIXIXIX",
"IXIXIXIXIXIXIXIXIXIXIXIXIXIXIXf >.1.IX*.J.=.=.4.3.3.t.t.9.0.8.8.f.N.h.v.a.m.n.n.w.w.i.:.:.:.4.4.:.t.h 2X<XNXNXCXCXNXnX$.R < < < < 3 , 4 6 3 4 e 6 2 , , @ , , O % . o X o D ,XaXaXaX .c X X + X $ 5 3 4 6 6 4 & : 5 : @ @ , & ; 3XC IXIXIXIXIXIXIXIXIXIXIXIXIXIXIXIX",
"IXIXIXIXIXIXIXIXIXIXIXIXIXIXIXIXP.IX;.>.-.>.p.=.-.3.f f u.q.8.8.e.e.6.6.4.4.q.e.5.q.p.i.y.y.4.;.f k l V &.nXnXNXMX%.` r 0 1 1 1 < 6 4 n n ~ ~ A n 6 , , & , @ O X o * o G #. .P D  .#.#.c o o + $ 4 q A ~ ~ Q 8 4 5 # : , 3 3 & x IXIXIXIXIXIXIXIXIXIXIXIXIXIXIXIXIX",
"IXIXIXIXIXIXIXIXIXIXIXIXIXIXIXIXIXIXf 3.1.,.,.0.-.:.s u.a 3.q.6.w.0.0.:.;.3.5.5.5.5.4.3.;.r.4.a k j IXIXmXnXmX$.$.+.! 3 < 1 1 < 4 4 y Q _ @.@.+._ A e 2 & # $ $ $ 2 2 o G aXVXVXaXaXVXaX8 * + + & e ~ } #.@.@.] n 4 i : , < , 5 * 8 IXIXIXIXIXIXIXIXIXIXIXIXIXIXIXIX",
"IXIXIXIXIXIXIXIXIXIXIXIXIXIXIXIXIXIXIXk ;.<.<.a.a.*.r.a a t.=.q.,.<.9.:.;.3.=.3.5.3.=.;.:.;.t.IXIXIXIXIXnXnX$.O...Q 4 2 3 < , 3 3 q Q } <XBXAXBX<X} A 6 2 , # , 4 y 6 X X G aXHXHXHXBX} *   & $ & e #.NXVXZXBX@./ y 3 # , : # : 5 $ T IXIXIXIXIXIXIXIXIXIXIXIXIXIXIX",
"IXIXIXIXIXIXIXIXIXIXIXIXIXIXIXIXIXIXIXIXl f :.<.<.a.r.i.r.a.y.:.s.a.a.3.p.3.:.4.3.=.p.4.;.r.u.d IXIXIXIXmX$...$.~ 6 $ 5 2 # # , 3 y ~ &.BXZXHXZXZXaX_ n 6 & $ , w w 4 & o X o 8 S m - X X , < # # u BXSXSXSXVX<X} n 2 # : : @ & & 2 m IXIXIXIXIXIXIXIXIXIXIXIXIXIXIX",
"IXIXIXIXIXIXIXIXIXIXIXIXIXIXIXIXIXIXIXIXIXIXf r.I.r.s.:.a.:.:.i.s.i.a.=.y.-.:.4.4.=.;.=.y.;.f IXIXIXIXIXmX..$.o.T 3 & 2 , & # # 4 6 ~ &.BXZXZXSXAXNX+.~ y & O < q q < , @ X o o X   X X $ < : , # - BXSXSXAXNX#.~ 8 - & , , & & & - 2 0 IXIXIXIXIXIXIXIXIXIXIXIXIXIX",
"IXIXIXIXIXIXIXIXIXIXIXIXIXIXIXIXIXIXIXIXIXIXIXIXIXd ;.IX1.1.v.0.s.s.p.=.4.-.:.:.:.=.9.;.s f g j IXIXIXIXnX+.$.! w 3 < < , , 5 5 9 q ! @.NXBXAXZX<X#.+._ n # O , < 3 3 < @ @ & @ @ & & < , : 9 , # # } <XNX#.+.~ e 2 - & 5 , @ & , 3 8 8 IXIXIXIXIXIXIXIXIXIXIXIXIXIX",
"IXIXIXIXIXIXIXIXIXIXIXIXIXIXIXIXIXIXIXIXIXIXIXj IXIXIX*.1.b.>.i.a.y.p.5.q.6.9.<.i.4.=.;.i.t.IXIXIXIXIXIXnX&.o.I 0 3 1 1 , : 5 3 3 4 t ~ _ +.#.#.+.} _ T 3 O O < 4 5 , , , < < < < , < , < q I 5 # 5 & T ! ~ y 6 2 - - - - & & & 3 @ * 7 IXIXl j j IXIXIXIXIXIXIXIXIX",
"IXIXIXIXIXIXIXIXIXIXIXIXIXIXIXIXIXIXIXIXIXIXIXIXd IXIX,.,.9.y.r.IX:.5.e.e.e.0.<.:.4.4.4.;.g IXIXIXIXIXIXIX&.) I 0 0 1 , & # # 5 4 4 y n Q ~ ~ ! Q n e 4 & O & 4 4 , 3 5 , , < < 3 , q , < r y q , 3 # y ! T 3 5 & # - & & & & & & 7 2 ; z Z d P.IXj IXIXIXIXIXIXIXIX",
"IXIXIXIXIXIXIXIXIXIXIXIXIXIXIXIXIXIXIXIXIXIXIXIXIXh s -.4.;.y.;.a.*.5.n.e.n.v.0.i.m.q.p.t.f IXIXIXIXIXIXIX+.! w 0 w < @ # 5 & # & # 5 q y y y y y 6 6 4 , , , , & # 6 3 , 3 < < q 9 3 9 t 9 9 # < # @ 4 ! q # # 5 - - + + & & & , 2 $ ; = h u.s a d IXIXIXIXIXIXIXIX",
"IXIXIXIXIXIXIXIXIXIXIXIXIXIXIXIXIXIXIXIXIXIXIXIXIXIXIXk 3.2.y.p.-.6.e.6.8.C.V.7.7.8.q.q.t.f P.IXIXIXIXIXIX@.6 6 4 5 , : : : # , # # 3 9 9 4 9 9 4 3 4 4 , @ < , , q w 3 < < 3 9 9 3 w r r r w 9 : @ # , 4 t & $ $ # 5 # @ , @ , : 5 , 7 p h a a a l IXIXIXIXIXIXIXIX",
"IXIXIXIXIXIXIXIXIXIXIXIXIXIXIXIXIXIXIXIXIXIXIXIXIXIXIXIXIXf ;.p.w.n.V.w.h.C.C.h.N.8.6.9.y.y.t.IXIXIXIXIXIX} 8 u 2 2 2 5 5 : @ $ # 5 # 5 9 3 0 3 < 3 4 3 , , 3 9 r T T r w 0 0 0 3 9 r r q I I w 0 : 3 5 2 y n q 3 # O # 3 @ @ 2 , % 3 = p h a a a IXIXIXIXIXIXIXIXIX",
"IXIXIXIXIXIXIXIXIXIXIXIXIXIXIXIXIXIXIXIXIXIXIXIXIXIXIXIXIXIXd 4.q.m.J.J.V.V.N.f.V.N.h.w.9.y.r.f IXIXIXIXIX3Xc - 2 2 - - 5 , & * & # $ 5 5 : 3 4 w 6 4 < 3 4 4 t I I I I w 0 9 0 9 w q q T T I ) ! I T w 3 2 6 4 5 6 2 $ & $ & & & + & * = Z h g h IXIXIXIXIXIXIXIXIX",
"IXIXIXIXIXIXIXIXIXIXIXIXIXIXIXIXIXIXIXIXIXIXIXIXIXIXIXIXIXIXIX=.-.e.V.J.J.C.N.f.f.f.V.w.-.:.y.r.t.t.g g l IX7 # 5 5 - * & 5 - - & $ 5 5 , 5 4 4 6 3 6 6 T ! t ! I I I I r r I w r 9 r 9 T T T r I ! ! ~ ) y 6 e 6 2 4 $ @ & + * o + o o p p p IXk IXIXIXIXIXIXIXIXIX",
"IXIXIXIXIXIXIXIXIXIXIXIXIXIXIXIXIXIXIXIXIXIXIXIXIXIXIXIXIXIXf y.2.e.f.C.C.F.F.F.F.C.C.h.2.;.;.;.=.s s s IXIX; # + * * * & & - # & & 2 $ & q 6 6 ~ ~ } / _ ) q 9 I r I I U r U w w r w r ! r T nX+._ ! ~ _ } _ } Q 6 e + X X o + * o o * = j IXIXIXIXIXIXIXIXIXIXIXIX",
"IXIXIXIXIXIXIXIXIXIXIXIXIXIXIXIXIXIXIXIXIXIXIXIXIXIXIXIXIXg t.;.6.e.7.V.C.C.C.F.B.N.C.V.q.i.u.u.-.4.3.t.u.p ; @ + o o o o + # $ + & & $ 2 6 2 ~ } } +.} } } n 5 0 0 w U U U U 0 w r q T t T I ) ! y y ! T _ o.} ~ Q n 7 X   X X X X . X = IXIXIXIXE IXIXIXIXIXIXIXIX",
"IXIXIXIXIXIXIXIXIXIXIXIXIXIXIXIXIXIXIXIXIXIXIXIXIXIXIXh g a y.s -.2.6.w.V.C.N.B.Z.F.J.V.q.;.=.s t.f P.s s g B $ + o o X X X o $ o o o - 6 7 n  .} / ] / / } ~ 5 5 0 I I ( ( I r w r w T T t w _ w 5 n ! e Q _ } _ A 6 m 8 *   X o   # @ O IXIXIXIXY IXIXIXIXIXIXIXIX",
"IXIXIXIXIXIXIXIXIXIXIXIXIXIXIXIXIXIXIXIXIXIXIXIXIXIXIX*.;.s ;.i.4.5.4.q.w.V.C.V.f.V.V.8.0.9.4.t.t.f f f g h N X o X X X X X X X o     - 6 A @.] } ] [ } / } } 6 , w I ( ` ` I w r w I q t 9 y ! 3 @ y ! Q n Q } } / n m 8 7   X X X . < IXIXIXIXIXIXIXIXIXIXIXIXIXIX",
"IXIXIXIXIXIXIXIXIXIXIXIXIXIXIXIXIXIXIXIXIXIXIXIXj IXIXs y.s 4.=.a u.t.3.p.6.0.8.8.f.8.6.q.4.;.i.a t.;.t.k IXIXX X . +   . .   X X X   - 8 / } [ ] [ ] [ ' [ } m , r I ( X.X.( I I w r r t w 3 ! 2 @ 4 ! t e Q / } ^ S c m 7 .     X O > IXIXIXIXIXIXIXIXIXIXIXIXIXIX",
"IXIXIXIXIXIXIXIXIXIXIXIXIXIXIXIXIXIXIXIXIXIXIXl d d f a ;.4.=.=.t.u.a u.3.p.q.6.6.2.6.2.=.;.;.s f t.>.s IXIXIX* X .   *   . X         - m / [ ] ' ' ' ' D ] } ~ 3 9 I R ( X.( I I w w q t w 3 t @ $ 4 T y w n Q } ] ^ B m ;         O : IXIXIXIXIXIXIXIXIXIXIXIXIXIX",
"IXIXIXIXIXIXIXIXIXIXIXIXIXIXIXIXIXIXIXIXIXIXIXIXj d f t.a 3.-.-.3.s u.s 3.4.4.4.9.5.5.;.a a IXIXf f a IXIXIXIXT   o . . X X X   X   X - n / ] ^ ' ' D D D D [ / e < t I ! X.X.R I U r q q q 5 3 $ X 5 t t t y 8 / ] ^ S m 7 o   X X O IXIXIXIXIXIXIXIXIXIXIXIXIXIXIX",
"IXIXIXIXIXIXIXIXIXIXIXIXIXIXIXIXIXIXIXIXIXIXIXIXIXIXd f a s :.=.3.3.3.3.=.=.-.4.4.y.3.f u.f IXIXIXIXk IXIXIXIXIX-     O X     . X     - A / ' D ' ' J J J D ^ ^ Q 2 4 t ! ) ) ( I r r w w t q 5 # $ 3 t I y q 2 S ] ' ^ B 8 +   . $ $ IXIXIXIXIXIXIXIXIXIXIXIXIXIXIX",
"IXIXIXIXIXIXIXIXIXIXIXIXIXIXIXIXIXIXIXIXIXIXIXIXIXIXIXk f t.a a s s s ;.s 3.*.y.a t.t.g g d IXIXIXIXIXIXIXIXIXIXIX  X . X     .       - Q / ' ' ' J J J ' J ^ ^ ^ e < t ( ) ) ) ( I I w 9 r 9 : % % 3 t r 3 3 6 c ' ] ' S m &   % . IXIXIXIXIXIXIXIXIXIXIXIXIXIXIXIX",
"IXIXIXIXIXIXIXIXIXIXIXIXIXIXIXIXIXIXIXIXIXIXIXIXIXIXIXIXIXd l k g f g a u.;.a a ;.a t.g f f d IXIXIXIXIXIXIXIXIXIXe   .   O X   X     2 ~ ] ' ' [ ' J H J J D ^ S n < w ! ) ) ) ( I r 9 9 9 3 : O $ 3 t r 3 2 7 7 B [ ' ^ A 2 . . IXIXIXIXIXIXIXIXIXIXIXIXIXIXIXIXIX",
"IXIXIXIXIXIXIXIXIXIXIXIXIXIXIXIXIXIXIXIXIXIXIXIXIXIXIXIXIXIXIXIXIXd IXIXd f P.a ;.s =.;.t.u.;.p IXIXIXIXIXIXIXIXIXIXy . % %   X X .   7 ~ } ' [ | | | J J J J D S ^ 8 4 T ) ) ) R U 0 9 9 9 w q y q q I I r 3 & 7 x [ ] ^ S 7 @ IXIXIXIXIXIXIXIXIXIXIXIXIXIXIXIXIXIX",
"IXIXIXIXIXIXIXIXIXIXIXIXIXIXIXIXIXIXIXIXIXIXIXIXIXIXIXIXIXIXIXIXIXIXIXIXd IXs ;.;.;.;.s ;.s s IXIXIXIXIXIXIXIXIXIXIXIX, . . X X       6 / } [ | | { { | J ' J D D D B < q ) ) ) ( I 0 9 9 9 q r w q 9 9 r r 4 , - 7 ' ] ] ^ e w IXIXIXIXIXIXIXIXIXIXIXIXIXIXIXIXIXIX",
"IXIXIXIXIXIXIXIXIXIXIXIXIXIXIXIXIXIXIXIXIXIXIXIXIXIXIXIXIXIXIXIXIXIXIXIXl f =.>.s a t.s a d j IXIXIXIXIXIXIXIXIXIXIXIXIX0 . . X X     - ] } } | | { { { J J H F M F D 7 2 T ! ) ) T I w 9 9 w w w r w q r r q < - 7 S ' ^ D B I IXIXIXIXIXIXIXIXIXIXIXIXIXIXIXIXIXIX",
"IXIXIXIXIXIXIXIXIXIXIXIXIXIXIXIXIXIXIXIXIXIXIXIXIXIXIXIXIXIXIXIXIXIXIXIXIXl g a P.d g d IXIXIXIXIXIXIXIXIXIXIXIXIXIXIXIXIX0 O .       7 } } } | { { { K K J H N N N D m 7 y ! ) X.! T w 3 3 4 3 q q w q w w 9 3 , 7 m [ ' ' B t IXIXIXIXIXIXIXIXIXIXIXIXIXIXIXIXIXIX",
"IXIXIXIXIXIXIXIXIXIXIXIXIXIXIXIXIXIXIXIXIXIXIXIXIXIXIXIXIXIXIXIXIXIXIXIXIXIXj l l d j IXIXIXIXIXIXIXIXIXIXIXIXIXIXIXIXIXIX( 9 @ X X o 7 } } [  .{ { { { { J H N N b D S 6 2 I ( ) R I q 5 < 5 5 6 q w r w 9 3 , + - ; ^ ' ] S t IXIXIXIXIXIXIXIXIXIXIXIXIXIXIXIXIXIX",
"IXIXIXIXIXIXIXIXIXIXIXIXIXIXIXIXIXIXIXIXIXIXIXIXIXIXIXIXIXIXIXIXIXIXIXIXIXIXIXIXIXIXIXIXIXIXIXIXIXIXIXIXIXIXIXIXIXIXIXIXIXR w Q 6 2 2 8 / ] [ | { { { { K J H N v b F ^ m 2 w ! ( T r 9 5 5 5 5 4 6 w r w 9 < # + & * A ] ' ^ T IXIXIXIXIXIXIXIXIXIXIXIXIXIXIXIXIXIX",
"IXIXIXIXIXIXIXIXIXIXIXIXIXIXIXIXIXIXIXIXIXIXIXIXIXIXIXIXIXIXIXIXIXIXIXIXIXIXIXIXIXIXIXIXIXIXIXIXIXIXIXIXIXIXIXIXIXIXIXIXIXR T n n e e m / [ [ [ | { 3X{ K J H N v N N ^ S 7 4 T ! ! T w 4 3 3 3 3 4 q w q 9 < # + * * 8 ' ^ ^ n IXIXIXIXIXIXIXIXIXIXIXIXIXIXIXIXIXIX",
"IXIXIXIXIXIXIXIXIXIXIXIXIXIXIXIXIXIXIXIXIXIXIXIXIXIXIXIXIXIXIXIXIXIXIXIXIXIXIXIXIXIXIXIXIXIXIXIXIXIXIXIXIXIXIXIXIXIXIXIXIXIX( y m e e m / [ [ ' | { 3X{ K J H N v v N F S 8 < q T ! ! t q 9 4 4 6 6 6 4 q 9 3 # + + * 7 ^ ^ ^ n IXIXIXIXIXIXIXIXIXIXIXIXIXIXIXIXIXIX",
"IXIXIXIXIXIXIXIXIXIXIXIXIXIXIXIXIXIXIXIXIXIXIXIXIXIXIXIXIXIXIXIXIXIXIXIXIXIXIXIXIXIXIXIXIXIXIXIXIXIXIXIXIXIXIXIXIXIXIXIXIXIX! e n e e e ~ ] [ ' | { 3X{ { J H N v v F M S B 7 7 e ! ! n y q 4 q 6 q q q q w 4 & & * * ; S ] ' ^ I IXIXIXIXIXIXIXIXIXIXIXIXIXIXIXIXIX",
"IXIXIXIXIXIXIXIXIXIXIXIXIXIXIXIXIXIXIXIXIXIXIXIXIXIXIXIXIXIXIXIXIXIXIXIXIXIXIXIXIXIXIXIXIXIXIXIXIXIXIXIXIXIXIXIXIXIXIXIXIXIXI A n e e m ~ / ] ' | { { { { K H v v v H N N D z 7 e Q ~ ! t q 4 4 3 q e w y t w 2 & + o = m ^ D S n IXIXIXIXIXIXIXIXIXIXIXIXIXIXIXIXIX",
"IXIXIXIXIXIXIXIXIXIXIXIXIXIXIXIXIXIXIXIXIXIXIXIXIXIXIXIXIXIXIXIXIXIXIXIXIXIXIXIXIXIXIXIXIXIXIXIXIXIXIXIXIXIXIXIXIXIXIXIXIXIX! e m e e m ~ ] ^ ' J | { { { K J N v v H F N D B ; m m ! ~ y 3 4 4 e ~ ~ ~ Q ~ ! 2 - $ * + 7 ^ ^ S m IXIXIXIXIXIXIXIXIXIXIXIXIXIXIXIXIX",
"IXIXIXIXIXIXIXIXIXIXIXIXIXIXIXIXIXIXIXIXIXIXIXIXIXIXIXIXIXIXIXIXIXIXIXIXIXIXIXIXIXIXIXIXIXIXIXIXIXIXIXIXIXIXIXIXIXIXIXIXIXIXt e y e e m ^ ] ^ ' J K { { { K J H v v v N N D S 7 8 A ~ ~ t 3 3 y ! n e y e e y 6 2 & * o ; S D S m r IXIXIXIXIXIXIXIXIXIXIXIXIXIXIXIX",
"IXIXIXIXIXIXIXIXIXIXIXIXIXIXIXIXIXIXIXIXIXIXIXIXIXIXIXIXIXIXIXIXIXIXIXIXIXIXIXIXIXIXIXIXIXIXIXIXIXIXIXIXIXIXIXIXIXIXIXIXIXIXIXy y e e m ^ / ^ ^ J K { { { K J N v v v N N D B c ; A ~ ! Q 9 3 y y 6 n y A A Q Q n 6 2 * - S ' D m 3 IXIXIXIXIXIXIXIXIXIXIXIXIXIXIXIX",
"IXIXIXIXIXIXIXIXIXIXIXIXIXIXIXIXIXIXIXIXIXIXIXIXIXIXIXIXIXIXIXIXIXIXIXIXIXIXIXIXIXIXIXIXIXIXIXIXIXIXIXIXIXIXIXIXIXIXIXIXIXIXIXr n e e e ~ / S D J K { { { K J N H v v v N N N x ; n Q ! ! t q w n n Q A A A Q ~ ~ y 2 * * m ' D m e IXIXIXIXIXIXIXIXIXIXIXIXIXIXIXIX",
"IXIXIXIXIXIXIXIXIXIXIXIXIXIXIXIXIXIXIXIXIXIXIXIXIXIXIXIXIXIXIXIXIXIXIXIXIXIXIXIXIXIXIXIXIXIXIXIXIXIXIXIXIXIXIXIXIXIXIXIXIXIXIXI T m e m ~ / S D F H K { { L K J H v v v v N N B 7 8 A ~ ~ Q y 4 n n m ~ / ~ ~ / ~ e * + + 8 ' D S 8 w IXIXIXIXIXIXIXIXIXIXIXIXIXIXIX",
"IXIXIXIXIXIXIXIXIXIXIXIXIXIXIXIXIXIXIXIXIXIXIXIXIXIXIXIXIXIXIXIXIXIXIXIXIXIXIXIXIXIXIXIXIXIXIXIXIXIXIXIXIXIXIXIXIXIXIXIXIXIXIXU T e e m ~ / S D F H K { { L K K H H v v v N N D 8 7 m ~ ~ ! t 4 q ~ / @.@.#.%.%._ n & + = 7 D D S 8 q IXIXIXIXIXIXIXIXIXIXIXIXIXIXIX",
"IXIXIXIXIXIXIXIXIXIXIXIXIXIXIXIXIXIXIXIXIXIXIXIXIXIXIXIXIXIXIXIXIXIXIXIXIXIXIXIXIXIXIXIXIXIXIXIXIXIXIXIXIXIXIXIXIXIXIXIXIXIXIXIXI e e m ~ / S D N H K L { L K J H F v v v N N D x ; 6 Q ! T t w e } @.+.} } +.+.+.~ & * = * G D G m q IXIXIXIXIXIXIXIXIXIXIXIXIXIXIX",
"IXIXIXIXIXIXIXIXIXIXIXIXIXIXIXIXIXIXIXIXIXIXIXIXIXIXIXIXIXIXIXIXIXIXIXIXIXIXIXIXIXIXIXIXIXIXIXIXIXIXIXIXIXIXIXIXIXIXIXIXIXIXIXIXI e e m ^ / S F b N H K { { K K H H N v v v N D S 7 2 n ! Q t t q ~ @.@.#.} _ +.+./ & * = = M D D B 8 w IXIXIXIXIXIXIXIXIXIXIXIXIXIX",
"IXIXIXIXIXIXIXIXIXIXIXIXIXIXIXIXIXIXIXIXIXIXIXIXIXIXIXIXIXIXIXIXIXIXIXIXIXIXIXIXIXIXIXIXIXIXIXIXIXIXIXIXIXIXIXIXIXIXIXIXIXIXIXIXT e e q ~ ] ^ F b H H K { { { K J H v v v v N N F c ; 8 A ! ! y e m _ +.+./ A Q ~ ~ & o = o z ^ ' B m 3 IXIXIXIXIXIXIXIXIXIXIXIXIXIX",
"IXIXIXIXIXIXIXIXIXIXIXIXIXIXIXIXIXIXIXIXIXIXIXIXIXIXIXIXIXIXIXIXIXIXIXIXIXIXIXIXIXIXIXIXIXIXIXIXIXIXIXIXIXIXIXIXIXIXIXIXIXIXIXIX! 8 e n ~ / S M b v F J { { L K K H v v v v v N F x ; 7 m Q Q y e 8 n Q A n e 6 7 8 - * o o 8 ^ ' B m t IXIXIXIXIXIXIXIXIXIXIXIXIXIX",
"IXIXIXIXIXIXIXIXIXIXIXIXIXIXIXIXIXIXIXIXIXIXIXIXIXIXIXIXIXIXIXIXIXIXIXIXIXIXIXIXIXIXIXIXIXIXIXIXIXIXIXIXIXIXIXIXIXIXIXIXIXIXIXIX! 8 6 n ~ ] S M M b v J { { K K K J v v v v v N F M 7 7 m Q ! y 8 e m 6 e Q Q n 8 7 - & o * 8 S B ' m , U IXIXIXIXIXIXIXIXIXIXIXIXIX",
"IXIXIXIXIXIXIXIXIXIXIXIXIXIXIXIXIXIXIXIXIXIXIXIXIXIXIXIXIXIXIXIXIXIXIXIXIXIXIXIXIXIXIXIXIXIXIXIXIXIXIXIXIXIXIXIXIXIXIXIXIXIXIXIXIXe 6 e ~ ] S B M b N H | K K L K J N v v v v N F F c ; 8 A Q Q e e 8 2 2 6 e e m 7 - o o + ; B J J x 6 3 IXIXIXIXIXIXIXIXIXIXIXIXIX",
"IXIXIXIXIXIXIXIXIXIXIXIXIXIXIXIXIXIXIXIXIXIXIXIXIXIXIXIXIXIXIXIXIXIXIXIXIXIXIXIXIXIXIXIXIXIXIXIXIXIXIXIXIXIXIXIXIXIXIXIXIXIXIXIXIXA 6 q ~ ] B B M b N H J K K { { K H v v v v v M N B 7 7 n ~ ~ Q 6 2 2 & o o 2 2 2 2 + o o = B D b F 7 3 IXIXIXIXIXIXIXIXIXIXIXIXIX",
"IXIXIXIXIXIXIXIXIXIXIXIXIXIXIXIXIXIXIXIXIXIXIXIXIXIXIXIXIXIXIXIXIXIXIXIXIXIXIXIXIXIXIXIXIXIXIXIXIXIXIXIXIXIXIXIXIXIXIXIXIXIXIXIXIXA e e ~ ] B B b b M N H J K L { K H v v v v v v M M z ; m ~ / ~ m 8 7 2 - - 2 - 7 7 * * o = B [ J b c 2 IXIXIXIXIXIXIXIXIXIXIXIXIX",
"IXIXIXIXIXIXIXIXIXIXIXIXIXIXIXIXIXIXIXIXIXIXIXIXIXIXIXIXIXIXIXIXIXIXIXIXIXIXIXIXIXIXIXIXIXIXIXIXIXIXIXIXIXIXIXIXIXIXIXIXIXIXIXIXIXt e e ~ ] S B x B M N N J K K { K H v v v v v N b D x ; 8 Q / ~ Q e 2 & 2 2 & 2 2 & o o o = 8 N b b c - 0 IXIXIXIXIXIXIXIXIXIXIXIX",
"IXIXIXIXIXIXIXIXIXIXIXIXIXIXIXIXIXIXIXIXIXIXIXIXIXIXIXIXIXIXIXIXIXIXIXIXIXIXIXIXIXIXIXIXIXIXIXIXIXIXIXIXIXIXIXIXIXIXIXIXIXIXIXIXIXIXt y ~ ^ ^ B x B B M N J K K { K H v v v v v v b J M ; 8 n Q ~ n e 2 & * $ & & $ + + + o & 7 F J G ; ; 3 IXIXIXIXIXIXIXIXIXIXIXIX",
"IXIXIXIXIXIXIXIXIXIXIXIXIXIXIXIXIXIXIXIXIXIXIXIXIXIXIXIXIXIXIXIXIXIXIXIXIXIXIXIXIXIXIXIXIXIXIXIXIXIXIXIXIXIXIXIXIXIXIXIXIXIXIXIXIXIXI t ~ ^ S B x B B M N H J K K K J N v v v v N b D D c ; 8 A Q m 6 2 & & & 2 & + + + o o o * x J M c z < IXIXIXIXIXIXIXIXIXIXIXIX",
"IXIXIXIXIXIXIXIXIXIXIXIXIXIXIXIXIXIXIXIXIXIXIXIXIXIXIXIXIXIXIXIXIXIXIXIXIXIXIXIXIXIXIXIXIXIXIXIXIXIXIXIXIXIXIXIXIXIXIXIXIXIXIXIXIXIXI w ~ ] ^ B B x x B N H J { K K J C v v v v v v N F c ; 7 m Q Q n e 6 6 6 e 6 2 2 & * o * - c F F z ; m 1 IXIXIXIXIXIXIXIXIXIXIX",
"IXIXIXIXIXIXIXIXIXIXIXIXIXIXIXIXIXIXIXIXIXIXIXIXIXIXIXIXIXIXIXIXIXIXIXIXIXIXIXIXIXIXIXIXIXIXIXIXIXIXIXIXIXIXIXIXIXIXIXIXIXIXIXIXIXIXR w ~ ] ^ B x x x b b N H K { K J H v v v v v v N N B z 7 z n Q n e q 6 e n e 8 7 & + X o * x D D z ; 8 : IXIXIXIXIXIXIXIXIXIXIX",
"IXIXIXIXIXIXIXIXIXIXIXIXIXIXIXIXIXIXIXIXIXIXIXIXIXIXIXIXIXIXIXIXIXIXIXIXIXIXIXIXIXIXIXIXIXIXIXIXIXIXIXIXIXIXIXIXIXIXIXIXIXIXIXIXIXIXIXU ~ ^ D S m x x b b N H J { { K J C v v v v v v N N x 7 8 m Q A e 6 6 e Q A m 6 & + X o * z D M M z 7 w IXIXIXIXIXIXIXIXIXIXIX",
"IXIXIXIXIXIXIXIXIXIXIXIXIXIXIXIXIXIXIXIXIXIXIXIXIXIXIXIXIXIXIXIXIXIXIXIXIXIXIXIXIXIXIXIXIXIXIXIXIXIXIXIXIXIXIXIXIXIXIXIXIXIXIXIXIXIXIXR ~ ^ D S m x x b b b N J K { L K H v v v v v v N D b z 7 e Q Q m e 6 e ~ ~ Q 6 & + X + * 7 D N x z ; 7 IXIXIXIXIXIXIXIXIXIXIX",
"IXIXIXIXIXIXIXIXIXIXIXIXIXIXIXIXIXIXIXIXIXIXIXIXIXIXIXIXIXIXIXIXIXIXIXIXIXIXIXIXIXIXIXIXIXIXIXIXIXIXIXIXIXIXIXIXIXIXIXIXIXIXIXIXIXIXIX( / / D M B x c x b b N J J K { K H v v v v v v N N N c 7 2 e n n n e n ~ ~ ~ 6 & + X + o z B J b z 7 8 < IXIXIXIXIXIXIXIXIXIX",
"IXIXIXIXIXIXIXIXIXIXIXIXIXIXIXIXIXIXIXIXIXIXIXIXIXIXIXIXIXIXIXIXIXIXIXIXIXIXIXIXIXIXIXIXIXIXIXIXIXIXIXIXIXIXIXIXIXIXIXIXIXIXIXIXIXIXIX( ) ^ S B B x c x x b N J J K { K H v v v v v v N N N b 7 - 6 n Q Q n Q _ _ _ e 2 $ X $ + z x D F z ; ; 3 IXIXIXIXIXIXIXIXIXIX",
"IXIXIXIXIXIXIXIXIXIXIXIXIXIXIXIXIXIXIXIXIXIXIXIXIXIXIXIXIXIXIXIXIXIXIXIXIXIXIXIXIXIXIXIXIXIXIXIXIXIXIXIXIXIXIXIXIXIXIXIXIXIXIXIXIXIXIXIX~ ~ ^ S B x c b x x M H J K { L J H v v v v v v v N b z - 7 m ~ Q T ~ _ _ _ m 2 + X $ + * x N F x 7 ; 2 IXIXIXIXIXIXIXIXIXIX",
"IXIXIXIXIXIXIXIXIXIXIXIXIXIXIXIXIXIXIXIXIXIXIXIXIXIXIXIXIXIXIXIXIXIXIXIXIXIXIXIXIXIXIXIXIXIXIXIXIXIXIXIXIXIXIXIXIXIXIXIXIXIXIXIXIXIXIXIX) ~ ^ S b x x x x x b N J K { { K H C v v v v v v N v z 7 7 8 A n Q Q ~ _ ~ e 2 + + + + ; B H N x 7 7 7 IXIXIXIXIXIXIXIXIXIX",
"IXIXIXIXIXIXIXIXIXIXIXIXIXIXIXIXIXIXIXIXIXIXIXIXIXIXIXIXIXIXIXIXIXIXIXIXIXIXIXIXIXIXIXIXIXIXIXIXIXIXIXIXIXIXIXIXIXIXIXIXIXIXIXIXIXIXIXIX..~ / S b b x x x x b N H K { { K H H v v v v v v v v b 7 7 7 m m m y n n y 4 # + + + * - x H H B z 7 6 , IXIXIXIXIXIXIXIXIX",
"IXIXIXIXIXIXIXIXIXIXIXIXIXIXIXIXIXIXIXIXIXIXIXIXIXIXIXIXIXIXIXIXIXIXIXIXIXIXIXIXIXIXIXIXIXIXIXIXIXIXIXIXIXIXIXIXIXIXIXIXIXIXIXIXIXIXIXIXIX) / S B x x x x x x B H K K { K J H v v v C v v v N M z 7 2 8 8 6 6 6 6 3 & $ X + + * = c N H b z 7 7 , IXIXIXIXIXIXIXIXIX",
"IXIXIXIXIXIXIXIXIXIXIXIXIXIXIXIXIXIXIXIXIXIXIXIXIXIXIXIXIXIXIXIXIXIXIXIXIXIXIXIXIXIXIXIXIXIXIXIXIXIXIXIXIXIXIXIXIXIXIXIXIXIXIXIXIXIXIXIXIX) / S B x x x x x x M N K K { L J H v v v v v v v N N x ; - 7 7 2 2 2 2 5 # $ O + + o o z N H M z 7 7 4 IXIXIXIXIXIXIXIXIX",
"IXIXIXIXIXIXIXIXIXIXIXIXIXIXIXIXIXIXIXIXIXIXIXIXIXIXIXIXIXIXIXIXIXIXIXIXIXIXIXIXIXIXIXIXIXIXIXIXIXIXIXIXIXIXIXIXIXIXIXIXIXIXIXIXIXIXIXIXIX) / S B x x x x x x B v J K { { K J v v v v v v v v M x ; * * - - - & & & # $ + + + + o z N H M z 7 6 q IXIXIXIXIXIXIXIXIX"
};
