/* XPM */
static const char *xpm__5_sgun_stopshoot2[] = {
/* columns rows colors chars-per-pixel */
"130 143 253 2 ",
"   c #0C0401",
".  c #0A0707",
"X  c #130B04",
"o  c #140D0B",
"O  c #180A05",
"+  c #1C120D",
"@  c #17130A",
"#  c #140C13",
"$  c #1C1513",
"%  c #1B151B",
"&  c #1D1A1C",
"*  c #181415",
"=  c #0A0813",
"-  c #23150D",
";  c #221513",
":  c #221C1C",
">  c #261B18",
",  c #321411",
"<  c #2B221D",
"1  c #25211D",
"2  c #33241C",
"3  c #1E1B22",
"4  c #1C1725",
"5  c #231D23",
"6  c #231E29",
"7  c #2A1E24",
"8  c #301233",
"9  c #252124",
"0  c #2B2423",
"q  c #25222B",
"w  c #2B252B",
"e  c #2E292C",
"r  c #2A2927",
"t  c #322523",
"y  c #3C2B24",
"u  c #332C2C",
"i  c #372A28",
"p  c #3B312D",
"a  c #2D2A33",
"s  c #2A2636",
"d  c #332C33",
"f  c #332D3B",
"g  c #392D33",
"h  c #3C3333",
"j  c #36313C",
"k  c #3B343B",
"l  c #3C3737",
"z  c #2E303F",
"x  c #1C232D",
"c  c #5B0B19",
"v  c #6A0408",
"b  c #740302",
"n  c #7B0402",
"m  c #7C0B04",
"M  c #74040B",
"N  c #7B060A",
"B  c #750B0C",
"V  c #7D0C0B",
"C  c #750B04",
"Z  c #7D110D",
"A  c #7A1309",
"S  c #6C0C1B",
"D  c #680917",
"F  c #750C13",
"G  c #7C0C13",
"H  c #760B18",
"J  c #691619",
"K  c #7D1213",
"L  c #7C131B",
"P  c #751417",
"I  c #69130D",
"U  c #74251B",
"Y  c #580A26",
"T  c #55122F",
"R  c #680D25",
"E  c #681526",
"W  c #751625",
"Q  c #6C132D",
"!  c #442C27",
"~  c #4B352C",
"^  c #483528",
"/  c #543A2E",
"(  c #5C3B2C",
")  c #55362B",
"_  c #413534",
"`  c #443B3B",
"'  c #483936",
"]  c #533C33",
"[  c #5B3D32",
"{  c #543B37",
"}  c #4E2730",
"|  c #623E32",
" . c #692F2B",
".. c #55251E",
"X. c #4A423C",
"o. c #5B4135",
"O. c #55433C",
"+. c #5B443B",
"@. c #58463B",
"#. c #5A4930",
"$. c #634234",
"%. c #6C4A3C",
"&. c #674639",
"*. c #734C3E",
"=. c #60412F",
"-. c #393746",
";. c #3B3D54",
":. c #302F43",
">. c #33185F",
",. c #423C43",
"<. c #453D48",
"1. c #463D51",
"2. c #571948",
"3. c #3C4358",
"4. c #3B414C",
"5. c #4C4444",
"6. c #49444A",
"7. c #5D4B44",
"8. c #544B4B",
"9. c #5C4D4A",
"0. c #554745",
"q. c #5C504C",
"w. c #494758",
"e. c #544C56",
"r. c #5A5457",
"t. c #634C45",
"y. c #744D41",
"u. c #794F41",
"i. c #65534B",
"p. c #795244",
"a. c #785548",
"s. c #675956",
"d. c #785B52",
"f. c #70675A",
"g. c #494C63",
"h. c #4D5468",
"j. c #565769",
"k. c #555D73",
"l. c #5A5D75",
"z. c #524F65",
"x. c #645E67",
"c. c #6C5D73",
"v. c #5C6275",
"b. c #5C647A",
"n. c #576578",
"m. c #54626B",
"M. c #6B6466",
"N. c #63657C",
"B. c #626A7D",
"V. c #666677",
"C. c #777377",
"Z. c #756E70",
"A. c #830502",
"S. c #840C04",
"D. c #8A0D03",
"F. c #830D0C",
"G. c #8A0D0B",
"H. c #840609",
"J. c #920E06",
"K. c #841105",
"L. c #8C1304",
"P. c #84120C",
"I. c #8B130B",
"U. c #8D1A0C",
"Y. c #881906",
"T. c #931404",
"R. c #951A04",
"E. c #9B1C04",
"W. c #92150B",
"Q. c #941B0B",
"!. c #9B1C0B",
"~. c #9A1507",
"^. c #830D12",
"/. c #8A0D12",
"(. c #830C19",
"). c #841313",
"_. c #8B1413",
"`. c #8C1A13",
"'. c #861719",
"]. c #931A13",
"[. c #951914",
"{. c #900F13",
"}. c #A31D03",
"|. c #A51C09",
" X c #A21E12",
".X c #9D2203",
"XX c #9C220B",
"oX c #96250A",
"OX c #872819",
"+X c #9C2312",
"@X c #972616",
"#X c #8F2A13",
"$X c #A42304",
"%X c #AB2504",
"&X c #AB2904",
"*X c #A4240B",
"=X c #AB250A",
"-X c #A42A0B",
";X c #AB290C",
":X c #A52904",
">X c #B1280A",
",X c #A32412",
"<X c #A82913",
"1X c #AF3014",
"2X c #861823",
"3X c #882E24",
"4X c #8C7175",
"5X c #A57170",
"6X c #8E8A76",
"7X c #C98475",
"8X c #646D82",
"9X c #696E83",
"0X c #6B7285",
"qX c #6B7588",
"wX c #737A8C",
"eX c #767888",
"rX c #777D92",
"tX c #71758A",
"yX c #5E6B81",
"uX c #8F7A88",
"iX c #A87A84",
"pX c #7C8395",
"aX c #7B828B",
"sX c #7B8BA2",
"dX c #868898",
"fX c #918D91",
"gX c #AF8F90",
"hX c #ACA696",
"jX c #8B94A3",
"kX c #9599A6",
"lX c #9191A5",
"zX c #A79BA8",
"xX c #9BA2AC",
"cX c #9EA4B2",
"vX c #A6AAB6",
"bX c #ADB3BA",
"nX c #B6B5BC",
"mX c #B0A9AE",
"MX c #CBB0B0",
"NX c #D4A2A1",
"BX c #CAC4B8",
"VX c #B8BAC5",
"CX c #ADB5C5",
"ZX c #CBBBC5",
"AX c #BDC3CC",
"SX c #BDCAD3",
"DX c #C4C5CB",
"FX c #CACDD4",
"GX c #C6CAD5",
"HX c #D0CED4",
"JX c #E3CACA",
"KX c None",
"LX c black",
/* pixels */
"KXKXKXKXKXKXKXKXKXKXKXKXKXKXKXKXKXKXKXKXKXKXKXKXKXKXKXKXKXKXKXKXKXKXKXKXKXKXKXKXKXKXKXKXKXKXKXKXKXKXKXKXKXKXKXKXKXKXKXKXKXKXKXKXKXKXKXKXKXKXKXKXKXKXKXKXKXKXKXKXKXKXKXKXKXKXKXKXKXKXKXKXKXKXKXKXKXKXKXKXKXKXKXKXKXKXKXKXKXKXKXKXKXKXKXKXKXKXKXKXKXKXKXKXKXKXKXKXKXKX",
"KXKXKXKXKXKXKXKXKXKXKXKXKXKXKXKXKXKXKXKXKXKXKXKXKXKXKXKXKXKXKXKXKXKXKXKXKXKXKXKXKXKXKXKXKXKXKXKXKXKXKXKXKXKXKXKXKXKXKXKXKXKXKXKXKXKXKXKXKXKXKXKXKXKXKXKXKXKXKXKXKXKXKXKXKXKXKXKXKXKXKXKXKXKXKXKXKXKXKXKXKXKXKXKXKXKXKXKXKXKXKXKXKXKXKXKXKXKXKXKXKXKXKXKXKXKXKXKXKXKX",
"KXKXKXKXKXKXKXKXKXKXKXKXKXKXKXKXKXKXKXKXKXKXKXKXKXKXKXKXKXKXKXKXKXKXKXKXKXKXKXKXKXKXKXKXKXKXKXKXKXKXKXKXKXKXKXKXKXKXKXKXKXKXKXKXKXKXKXKXKXKXKXKXKXKXKXKXKXKXKXKXKXKXKXKXKXKXKXKXKXKXKXKXKXKXKXKXKXKXKXKXKXKXKXKXKXKXKXKXKXKXKXKXKXKXKXKXKXKXKXKXKXKXKXKXKXKXKXKXKXKX",
"KXKXKXKXKXKXKXKXKXKXKXKXKXKXKXKXKXKXKXKXKXKXKXKXKXKXKXKXKXKXKXKXKXKXKXKXKXKXKXKXKXKXKXKXKXKXKXKXKXKXT T Q D 2XF D KXKXKXKXKXKXKXKXKXKXKXKXKXKXKXKXKXKXKXKXKXKXKXKXKXKXKXKXKXKXKXKXKXKXKXKXKXKXKXKXKXKXKXKXKXKXKXKXKXKXKXKXKXKXKXKXKXKXKXKXKXKXKXKXKXKXKXKXKXKXKXKXKX",
"KXKXKXKXKXKXKXKXKXKXKXKXKXKXKXKXKXKXKXKXKXKXKXKXKXKXKXKXKXKXKXKXKXKXKXKXKXKXKXKXKXKXKXKXKXKXKXKXKXKXT E W G b b V P D E E KXKXKXKXKXKXKXKXKXKXKXKXKXKXKXKXKXKXKXKXKXKXKXKXKXKXKXKXKXKXKXKXKXKXKXKXKXKXKXKXKXKXKXKXKXKXKXKXKXKXKXKXKXKXKXKXKXKXKXKXKXKXKXKXKXKXKXKXKX",
"KXKXKXKXKXKXKXKXKXKXKXKXKXKXKXKXKXKXKXKXKXKXKXKXKXKXKXKXKXKXKXKXKXKXKXKXKXKXKXKXKXKXKXKXKXKXKXKXKXKXKXKXKXKXI.I.n '.M B B G S R D KXKXKXKXKXKXKXKXKXKXKXKXKXKXKXKXKXKXKXKXKXKXKXKXKXKXKXKXKXKXKXKXKXKXKXKXKXKXKXKXKXKXKXKXKXKXKXKXKXKXKXKXKXKXKXKXKXKXKXKXKXKXKXKXKX",
"KXKXKXKXKXKXKXKXKXKXKXKXKXKXKXKXKXKXKXKXKXKXKXKXKXKXKXKXKXKXKXKXKXKXKXKXKXKXKXKXKXKXKXKXKXKXKXKXKXKXKXKXF n n P.F.S.D.W.S.).G L L H F W D Q KXKXKXKXKXKXKXKXKXKXKXKXKXKXKXKXKXKXKXKXKXKXKXKXKXKXKXKXKXKXKXKXKXKXKXKXKXKXKXKXKXKXKXKXKXKXKXKXKXKXKXKXKXKXKXKXKXKXKXKX",
"KXKXKXKXKXKXKXKXKXKXKXKXKXKXKXKXKXKXKXKXKXKXKXKXKXKXKXKXKXKXKXKXKXKXKXKXKXKXKXKXKXKXKXKXKXKXKXKXKXKXKXKXF S.I.S.F.S.A.D.S._.M ^.^.S.V m ).B B KXKXKXKXKXKXKXKXKXKXKXKXKXKXKXKXKXKXKXKXKXKXKXKXKXKXKXKXKXKXKXKXKXKXKXKXKXKXKXKXKXKXKXKXKXKXKXKXKXKXKXKXKXKXKXKXKXKXKX",
"KXKXKXKXKXKXKXKXKXKXKXKXKXKXKXKXKXKXKXKXKXKXKXKXKXKXKXKXKXKXKXKXKXKXKXKXKXKXKXKXKXKXKXKXKXKXKXKXKXKXKXKXKXn P.m F.S.D.D.P.).K K P.n P.).V G P KXKXKXKXKXKXKXKXKXKXKXKXKXKXKXKXKXKXKXKXKXKXKXKXKXKXKXKXKXKXKXKXKXKXKXKXKXKXKXKXKXKXKXKXKXKXKXKXKXKXKXKXKXKXKXKXKXKXKX",
"KXKXKXKXKXKXKXKXKXKXKXKXKXKXKXKXKXKXKXKXKXKXKXKXKXKXKXKXKXKXKXKXKXKXKXKXKXKXKXKXKXKXKXKXKXKXKXKXKXKXKXR '.S.m `.).P.L.L.P.P.Z Z S.K.F.n F.).M Y KXKXKXKXKXKXKXKXKXKXKXKXKXKXKXKXKXKXKXKXKXKXKXKXKXKXKXKXKXKXKXKXKXKXKXKXKXKXKXKXKXKXKXKXKXKXKXKXKXKXKXKXKXKXKXKXKXKX",
"KXKXKXKXKXKXKXKXKXKXKXKXKXKXKXKXKXKXKXKXKXKXKXKXKXKXKXKXKXKXKXKXKXKXKXKXKXKXKXKXKXKXKXKXKXKXKXKXKXKXKXM V `.].P.'.'._.I.W.Q.I.I.P._.P.S.I.I.m KXKXKXKXKXKXKXKXKXKXKXKXKXKXKXKXKXKXKXKXKXKXKXKXKXKXKXKXKXKXKXKXKXKXKXKXKXKXKXKXKXKXKXKXKXKXKXKXKXKXKXKXKXKXKXKXKXKXKX",
"KXKXKXKXKXKXKXKXKXKXKXKXKXKXKXKXKXKXKXKXKXKXKXKXKXKXKXKXKXKXKXKXKXKXKXKXKXKXKXKXKXKXKXKXKXKXKXS R KXv _.S.n P.P.F.).I.D.J.J.T.D.P.F.I.I.D.L.F.R KXKXKXKXKXKXKXKXKXKXKXKXKXKXKXKXKXKXKXKXKX2.KXKXKXKXKXKXKXKXKXKXKXKXKXKXKXKXKXKXKXKXKXKXKXKXKXKXKXKXKXKXKXKXKXKXKXKX",
"KXKXKXKXKXKXKXKXKXKXKXKXKXKXKXKXKXKXKXKXKXKXKXKXR Q 2.KXKXKXKXKXKXKXKXKXKXKXKXKXKXKXKXKXKXW V m K ).S.D.L.Q.W.W.Q.[.Q.~.~.~.~.T.L.P.U.I.A.F.H Y KXKXKXKXKXKXKXKXKXKXKXKXKXKXKXKXKXKXKXKXKX8 2.Y R KXKXKXKXKXKXKXKXKXKXKXKXKXKXKXKXKXKXKXKXKXKXKXKXKXKXKXKXKXKXKXKXKX",
"KXKXKXKXKXKXKXKXKXKXKXKXKXKXKXKXKXKXKXKXKXKXKX2.Q KXY KXKXKXKXT KXKXKXKXKXKXKXKXKXKXKXKXT v I.D.K.I.W.L.L.R.T.!.!.!.E.~.~.~.!.T.R.W.I.I.I.V KXKXKXKXKXKXKXKXKXKXKXKXKXKXKXKXKXKXKXKXKXKXKXKXKXKXF L S D Q KXKXKXKXKXKXKXKXKXKXKXKXKXKXKXKXKXKXKXKXKXKXKXKXKXKXKXKXKX",
"KXKXKXKXKXKXKXKXKXKXKXKXKXKXKXKXKXKXKXKXKXKXKXKXKXc KXKXv L F S Y KXKXKXKXKXKXKXKXKXKXKXKXY P P.[.I.G.I.L.R.XX+X!.*X$X}.!.+XXXXXE.E.T.W.`.B KXKXKXKXKXKXKXKXKXKXKXKXKXKXKXKXKXKXKXKXKXKXKXKXKXW F '.N V V M W T KXKXKXKXKXKXKXKXKXKXKXKXKXKXKXKXKXKXKXKXKXKXKXKXKXKX",
"KXKXKXKXKXKXKXKXKXKXKXKXKXKXKXKXKXKXKXKX>.KXKXKXKXKXKXN ].n F.G S KXKXKXKXKXKXKXKXKXKXKXKXKXKXKXS.W.G.].XXR.XXXX*X*X$X.X!.+XXXR.E.}.,X].`.'.H S KXKXKXKXKXKXKXKXKXKXKXKXKXKXKXKXKXKXKXKXKXKXKXD L N I.D.D.m ).S KXKXKXKXKXKXKXKXKXKXKXKXKXKXKXKXKXKXKXKXKXKXKXKXKXKX",
"KXKXKXKXKXKXKXKXKXKXKXKXKXKXKXKXKXKXKXKXKXKXKXKXKXKXD L V ^.F.^.H R KXKXKXKXKXKXKXKXKXKXKXKXKXS N I.I.!.1X1X*X;X;X=X%X%X=X*X$X$X}.}.!.Q.].'.).^.M B P P S E Y KXKXKXKXKXKXKXKXKXKXKXKXKXKXKXKXKXF V S.D.D.S.F.G KXY KXKXKXKXKXKXKXKXKXKXKXKXKXKXKXKXKXKXKXKXKXKXKXKX",
"KXKXKXKXKXKXKXKXKXKXKXKXKXKXKXKXKXKXKXKXKXKXKXKXKXKXKXKXF.F.P.P.^.v KXKXKXKXKXKXKXKXKXKXKXKXKXKXKXKXI.!.*X-X;X%X&X%X=X=X>X;X=X=X;X;X*X*X+XQ.P.H._.P.P.b V K KXKXKXKXKXKXKXKXKXKXKXKXKXKXKXKXY D '._.I.L.L.P.F.G M KXKXKXKXKXKXKXKXKXKXKXKXKXKXKXKXKXKXKXKXKXKXKXKXKX",
"KXKXKXKXKXKXKXKXKXKXKXKXKXKXKXKXKXKXKXKXKXKXKXKXKXc K _.I.I.D.D.A.P KXKXKXKXKXKXKXKXKXKXKXKXKXKXKXn S.L.L.E.;X$X}.$X$X=X=X=X=X=X;X;X&X&X$XXXW.P.).N ^._.V V M E KXKXKXKXKXKXKXKXKXKXKXKXKXKXR 2X).P.L.L.L.I.F.F.V KXY KXKXKXKXKXKXKXKXKXKXKXKXKXKXKXKXKXKXKXKXKXKXKX",
"KXKXKXKXKXKXKXKXKXKXKXKXKXKXT KXKXKXKXKXKXKXKXKXKXS N I.D.L.I.D.L.I KXKXKXKXKXKXKXKXKXKXKXKXKXC V S.`.@X+X,X<X$X<X<X<X;X*X*X$X$X*X$X:X:X$XE.T.L.G.F././.G.G.H.S KXKXKXKXT T KXKXKXKXKXKXKXKXL n G.I.L.D.D.I.P.P._.G D KXKXKXKXKXKXKXKXKXKXKXKXKXKXKXKXKXKXKXKXKXKXKX",
"KXKXKXKXKXKXKXKXKXKXKXKXKXKXKXR Q KXKXKXKXW M F KXG ).S.L.W.I.F.KXKXE KXKXKXKXKXKXKXKXKXKXKXm L._.P.S.S.D.L.Q.!.T.E.E.!.*X,X<X1X*X$X:X$X.XE.T.J.J.W./.F._.A.J.H KXKXKXKXKXKXKXS S D W F H KXD.T.I.Q.Q.T.L.I.I.K.A.V S KXKXKXKXKXKXKXKXKXKXKXKXKXKXKXKXKXKXKXKXKXKXKX",
"KXKXKXKXKXKXKXKXKXKXKXKXY KXKXF KXKXS S B F.{.A._.n m `.U.W.].).C S KXKXKXKXKXKXKXKXKXKXW Z D.A.S.P.P.P.I.L.D.L.Q.Q.T.T.T.T.T.T.!.!..XE.Q.W.T.T.T.G.).V b '.v Q KXKXKXKXKXKXKXS L K ).F._.[.D.J.T.Q.!.!.Q.W.L.L.W._.M KXKXKXKXKXKXKXKXKXKXKXKXKXKXKXKXKXKXKXKXKXKXKX",
"KXKXKXKXKXKXKXKXKXKXKXY KXKXKXKXM ).G G ).H.[.J.G.].`.P.U.Q.].].m KXKXKXKXKXKXKXS S Y Q D ).F.G.F.).P.G.I.I.I.W.I.W.W.W.L.L.L.I.P.G.J.J.).L ^.F.S.V P I I KXKXKXKXKXKXKXKXKXKXKXD Z A '.).'.I.D.T.R.E.E.!.!.Q.L.D.S.V KXKXKXKXKXKXKXKXKXKXKXKXKXKXKXKXKXKXKXKXKXKXKX",
"KXKXKXKXKXKXKXKXKXKXKXKXKXKXKXM P.m V V V /.A.W.I.L.D.R.XXXXQ.W.U.KXKXKXKXKXH G ^.KXKXR H V F.F.P.F.P.P.G.I.I.I.I.W.].].Q.U.U.I.'._.~.J.K L G ^.b F J Y T KXKXKXKXKXKXKXKXKXKXKXKXKXKXm ).`.W.XXR.E.E.E.|.*X!.L.L.S.^.H R KXKXKXKXKXKXKXKXKXKXKXKXKXKXKXKXKXKXKXKXKX",
"KXKXKXKXKXKXKXKXKX2.T KXKXKXB G.m K.A C v KXKXP.L.E.}.}.=X$XE.R.I.B W R W F /.A.KXKXKXKXM V m G.V V F.F.G.I.I.I.I.I.I.I.G.S.P.P.'.P.T.T.`.'.G.H.KXKXKXKXKXKXKXKXKXKXKXKXKXKXKXKXKXKXv B Z `.*X%X<X<X*X|.}.}.*XXXL.S.F.^.H H W Q KXKXKXKXKXKXKXKXKXKXKXKXKXKXKXKXKXKX",
"KXKXKXKXKXKXKXKXKXKXT KXKXS V A.K.K.m P.KXKXI A Y.E.>X>X=X%X:X$XL._.G ^.).I.A.J.L.n H KX'.V n n F.F.P.P.I.I.I.I.I.I.P.P.G.F.F.V V m L.L.K.P.D.G.^.KXKXKXKXKXKXKXKXKXKXKXKXKXKXKXKXKXKXKXKXn |.>X*X;X=X=X%X%X*X,XY.P.F.^.F.F.V P R KXKXKXKXKXKXKXKXKXKXKXKXKXKXKXKXKX",
"KXKXKXKXKXKXKXKXKXT KXKXS V A.Q.L.I.A.n M KXKXKXKXT.|.=X X,X,X!.T.G._.V C P.m S.m P.R KXKXKXKXKXH.F.F.P.L.Y.L.I.I.I.P.F.F.F.F.V G V D.D.m V F.F.V '.F D H KXKXKXKXKXKXKXKXKXKXKXKXKXKXKXN D.Q.R.*X;X;X=X>X%X$XXX+XP.F.F.D.D.D.V P KXKXKXKXKXKXKXKXKXKXKXKXKXKXKXKXKX",
"KXKXKXKXKXKXKXKXKXKXKXKXB S.L.D.L.L.D.G.M KXKXv ).I.!. X,X,X+XQ.D.W.H.).P.C `.m m A KXKXKXb ).M V F.S.L.L.L.T.T.Q.I.I.G.F.F.^.^.'.^.S.K.A Z K V V H.n G.S.N F R T KXKXKXKXKXKXKXKXY W V F.I.,X!.*X*X;X;X%X%X%X*X+X`.P.I.D.D.D.A.).c KXKXKXKXKXKXKXKXKXKXKXKXKXKXKXKX",
"KXKXKXKXKXKXKXKXK C KXv F.S._.`.@XK.m KXKXB F Z Z `.`.@X@X!.Q.XXI.`.V _.D.D.b ).m KXKXH K Z B K P.P.I.W.Q.R.R.R.Q.Q.I.P.F.H.F.F.^.F.m A Z Z ).V V ).^.H.P.V ).H W S D KXKXKXKXKXKXG ^.G '.].A.T.E.!.*X*X$X%X&X;X+XQ.I.I.D.D.D.S.H.L Y KXKXKXKXKXKXKXKXKXKXKXKXKXKXKX",
"KXKXKXKXKXKXKXF n D.N ).S.I.U.`.U.A P.m m V P.P.A P.A K.U.L.D.L.P.P.).G.A.I.F D KXKXn H.N ).A `.I.I.Q.Q.!.E.E.E.R.!.Q.I.G.H.F.H.H.F.V P.V C ).V H._.G.n F.P.V N H.).V KXKXKXKXR M K._.N F.G.S.!.T.E.XXXX$X&X%X%X*XQ.I.I.D.S.F.F.G.B W KXKXKXKXKXKXKXKXKXKXKXKXKXKXKX",
"KXKXKXKXKXKXW B P._.m I.D.Q.!.T.[.@X_.b U.D.A.D.G.V N V I.I.D.D.A.F.N F.H.M KXKXKXKXKXG.^.F.+XD.I.W.W.!.XX.X.X.XR.XX!.I.G.F.F.^.G ^.V ).V b KXKXn P.n L.I.I.F._.G.A.m v B KXKXv F V S.I.D.G.K P.L.T.Q.oX$X&X%X%X*XQ.L.Y.K.F.L G _.N L KXKXKXKXKXKXKXKXKXKXKXKXKXKXKX",
"T KXKXKXKXKXM P.V P.W.L.I.T.*XE.!.W._.I.S.D.D.D.G.H.).'.F.G._.I._.n KXG KXKXKXKXJ v KXKXH V D.T.W.W.!. X*X=X*X-X$X,X!.W.G.G.F.F.G ).N ^.F.N ^.n G.I.Y.L.L.G.H.'.D.D.K.C KXm b V L F P.S.D.S.K K L.T.W.XX-X;X>X>X*XQ.I.I.L.P.L H V H.V S KXKXKXKXKXKXKXKXKXKXKXKXKXKX",
"KX8 KXKXKXD B P.P.P.I.I.W.!.|.$X*X!.T.A.D.D.S.G.F.^.G KX).'.F._.K.m KXKXKXY KXKXc KXKXKXKXL n D.W.,X,X*X=X>X=X=X*X<X<X~.[.I.P.G.P.F.F.F.F.F.F._.P.I.Y.Y.I.P._._.I.K.K.m KXKXKXN V Z N S.S.F.P.V G.I.L.T.E.-X;X<XQ.+XI.A.!.D.V K P.V V S KXKXKXKXKXKXKXKXKXKXKXKXKXKX",
"KXKXKXKXKX'.n I.P.P.P.I.Q.*X%X=X*X*XT.D.L.S.F.P.F.^.G ).G V V F.m P.b KXKXKXKXKXKXKXKXKXKXKXKXA.L.!.*X;X=X%X$X$X;X*X X XD.I.S.P.P.G.G.F.H.H.G.P.I.L.L.Y.I.I.I.I.I.K.S.F.m KXKXN V P.P.V _.N `.F.G.G.G.L.R.$X<X,X1XL.].[.n I.m P.N G._.S KXKXKXKXKXKXKXKXKXKXKXKXKXKX",
"KXKXKXKXKXF _.A.Y.P.P.].!.*X>X>X*X*XQ.L.I.P.F.Z V V ^.H.F.H.F.V P.m n H KXKXKXH (.R KXKXKXKXKXA.D.T.XXXX:X.X.X-X$XE.oXL.Q.I.`.P.P.G.G.G.G.G.I.I.W.R.R.R.R.R.Q.W.L.K.S.S.H.V V V B F.N P.N ^.V F.D.D.).P.R.*X*X*XE.E.S.P.'.V I.A.I.n S.W KXKXKXKXKXKXKXKXKXKXKXKXKXKX",
"KXKXKXKXKXW N [.L.Y.I.[.*X=X%X%X*X*XQ.I.P.).).K K Z F.H.G.G.P.V ).F.n KXKXKXM ^.H.KXKXKXKXH V S.!.XXXX+XoXoX.X*XE.XXoXoXU.K.I.I.P.P.I.].W.W.W.Q.Q.R.R.R..XE.!.!.Q.I.L.S.G.F.F.^.).V F.V F.'.).F.S.P.).).L.E.|.|.$XT.L.m ).V ).H.V P.m D KXKXKXKXKXKXKXKXKXKXKXKXKXKX",
"KXKXKXKXKXR '.A.I.I.W.!.%X%X=X<X*X!.W.I.P.).'.K K K F.S.H.G.F.V n N F.N K F M KXKXKXKXH ).H.'.'.L.L.D.L.U.I.G.W.D.!.K.Y.W.W.~.W.I.I.W.W.W.W.T.R.!..XE..XE.E.E.!.!.T.D.A.A.H.H.V C '.V ).V b _.F.V Z ^.F.D.T.T.~.E.L.D.`.P.).F L H KXKXQ KXKXKXKXKXKXKXKXKXKXKXKXKXKX",
"KXKXKXKXKXKXM I.I.W.Q.}.%X%X;X<X!.Q.W.I.P.P.).G K V H.G.S.G.F.F.(.^.V m KXb KXb v KXv N W.G.G G K.D.D.I._._.J.W.J.D.I.Y.U.P.K ).P.I.I.L.I.Q.!.E.*X*X*X$X$XE.XXXX,XXXQ.D.G._._.).].V V V N KXn ^.K K ^.F.A.D.J.W.L.K.I.m b KXD KXR KXKXY KXKXKXKXKXKXKXKXKXKXKXKXKXKX",
"KXKXKXKXKXKXKXH.I.T.E.%X%X%X*X,X].I.L.T.D.S.P.V ^.V F.H.F.m F.F.KXKXKXKXb `.n A A C `.P.m G.n [.I.P.P.P.).P.S.D.J.!.I.).P NX4X..Z T.L.L.T.E.$X*X;X=X=X=X;X*X*X*X*X!.T.D.A.G.P.F.N '.F.).V b /.F.K V H.S.A.S.G.P.I.P.V V N KXKXKXKXKXKXE KXKXKXKXKXKXKXKXKXKXKXKXKXKX",
"KXKXKXE E KXM H.S.L.E.=X&X%X*X+X].I.L.T.L.D.G.F.^.N ).C V KXKXM KXM KXC S.m V m K.m Y.m U.I.W.A.S.F.P.F._.I.W.Q.~.A.[.OXE MXZ., U R.R.L.T.E.$X;X$X%X%X=X;X;X=X*X*X*X!.T.L.W.W.P.I.P.P.P.n `.n ).^.KXF KXF V F.F.).).G ).K S KXKXKXKXKXE KXKXKXKXKXKXKXKXKXKXKXKXKXKX",
"KXKXR F KXC I.G.P.P.!.T.$X&X$X,X]._.W.L.D.D.A.S._.N K KXKXKXKXKXKXKXKXS.A.S.^.^.F.I.L.L.Y.U.S.I.G./.G ^._.G.].I.D.T.T.@X .gX6.- U Q.Q.R.E.D..X.X$X$X$X$X&X;X$X$X1X}.E.T.D.W.W.I.L.I.I.I.G.G.F.F.'.D KXKXKXS G H.F.).V N KXF KXKXS F b KXKXKXKXKXKXKXKXKXKXKXKXKXKXKX",
"KXE KXKX_.S.A.I.m I.I. XE..XXXT._.H.L.R.D.S.I.F.b KXP v B K v (.KXKXF.G.S.G./.H._.I.XXL.Q.D.S.S.A.G.).V '.`.K '.OXOXOXU gX0.u '  .U OX@X@X@XoX@X@XoXoX1X.X$X;X1X$X1X$XE.T.R.Q.W.Q.W.L.L.I.P.S.n v KXKXKXKXKX2XV P.F.^.H.KXKXD P G '.N KXKXKXKXKXKXKXKXKXKXKXKXKXKXKX",
"KXv KXKXN N _.S.Y.L.D.W.W.W.+XW.].P.K.m Y.U.H.M H KXF KXv M KXM b ).N ^.H.D.J.W.W.W.R.XXT.L.Q.D.K.m m K J c  . . .( 4X4X4X4Xj.eXgXgXgX . .U U J U U 3XA @X<X|.|.1X*XR.!.T.E.XX*XR.R.L.L.L.S.n KXKXKXKXKXKXKXS ^.G.n ^.H.n b P.N V n D.D KXKXKXKXKXKXKXKXKXKXKXKXKXKX",
"v F KX(.M ).).P.m K.S.G.G.].K.Y.F._.m A A M H KXKXKXD B KXKXF KXV F.F.'.{.W.~.~.!.~.!.!.Q.L.P.A A P P J iXiXiXgXfXC.v.B.eXfXvXkXbXnXmXgXiX4X5XiXgXMXMXNXU K ].,XXX1X<XE.T.E.T.E.XXXXXXQ.L.K.G.).v KXKXKXKXKXS G G.H.(.G KXKXn S.P.P._.F KXKXKXKXKXKXKXKXKXKXKXKXKXKX",
"KXD KXH H B '.V `.b V N G.F.m `.`.P.P.V P R Y KXKXKXP KXn n KXM /.G.W.L.T.!.+X[.!.|.=XE.@X@XZ P E gXiXfXfXfXfXuXdXC.j.m.pXjXjXCXCXGXVXzXuXc.c.uXzXmXMXJXJXNXJ 3XU.XXXXXXE.*X*X*X$X$X*X!.L.S.S.F.^.D KXKXKXKXS V V V W S KXb B K ).Z K F P KXKXKXKXKXKXKXKXKXKXKXKXKX",
"KXKXKXc KX).'.V M 2XKXKX).P.)._.S.b _.B R KXKXKXKXT v KXKXKXP.V ^.A.XXR..XXX!.Q.,X%X>X}.XXOXU MXmXzXlXdXdXeXdXpXdXqXk.h.yXsXkXcXSXGXFXbXzXuXV.N.wXjXVXDXHXJXNX .OXoXL.XX<X*X;X}.=X=X*X*X!.I.G.F.F.b D R KXKXKXF M KXKXKXKXL L '.`.V K L v KXKXKXKXKXKXKXKXKXKXKXKXKX",
"KXKXKXc KXK.b 2XKXD KXKXKXS.G.S.W.K.F.H Y KXKXKXKXKXKXn D.n P.Z `.].R.E..XR.E.<X.X$X}.>X<X#XMXmXbXVXvXdXdXwXpXrXpXrXN.l.j.rXjXvXAXFXFXDXvXxXB.b.b.pXcXVXZXHXJXNXI U.U.D.<X<X$X>X$X$X*X*X+XI.F.V S.P.'.H v D KXD KXKXKXKXKXD '.A.T.T.V F Q KXKXKXKXKXKXKXKXKXKXKXKXKX",
"KXKXKXKXB F.'.D KXKXKXKXv G.D.I.S.S.^.KXKXKXKXKXKXKXv I.D.L.I.P.K.,XE..X$X$X$X$X-X1X>X>X=X#XhXbXAXVXVXjXdXpXwXpXrXrXrXz.j.0XdXkXmXDXHXDXAXxXjXqXn.b.pXkXVXVXZXJXNXI `.@XR.XX*X=X=X=X=X<X,XI.P.P.K.S.V V ).M KXH F '.B M KXB P.!.R.T.P.P R KXKXKXKXKXKXKXKXKXKXKXKXKX",
"KXKXKXKXR S D KXKXKXKXKXH F._.P.D.S.K D KXKXKXKXKXv m Y.P.G.I.Q.R.!.|.}.$X:X%X%X;X=X>X&X$X3XgXnXFXFXAXkXdXpXpXwXpXrXpX8Xg.v.wXpXkXCXVXHXFXbXvXpX0Xk.N.dXcXCXVXDXZXNXU OX+XR.<X=X=X;X=X|.,X!.U.K.D.S.C ).).F.V F.^.'._.P.A m S.W.*XXXP.P G KXKXKXKXKXKXKXKXKXKXKXKXKX",
"KXKXKXKXKXKXKXKXKXKXKXW K V ].m L.P.S KXT KXKXKXKXZ S.D.F.].I.T.E.}.=X=X$X:X%X%X;X;X:X:X1X#XgXVXFXFXDXvXjXrXwXqXwXwXpX9Xh.h.B.pXdXvXVXGXFXAXbXkXrXv.k.B.dXcXCXAXHXJXNXU ).@X!.;X=X}.1X1X,XT.L.L.I.G.P.m m n n V F.).I.L.K.K.D.T.}.*XY.V V M KXKXKXKXKXKXKXKXKXKXKXKX",
"KXKXKXKXKXKXKXKXKXKXKX^.P.P.P.G.S.D KXKXKXKXKXKXD '.G.I.S.I.K.U..X*X=X=X:X:X%X%X>X|.1X}.E.#XgXmXFXFXDXbXkXpXwXqXwXwXrXwXb.g.h.qXrXjXvXVXGXFXVXbXjXtXv.h.v.dXcXCXVXMXJXNXI `.R.$X>X=X=X;X*X!.L.I._.F.P.S.D.I.^.).B P.I.I.U.Q.!.|.}.=X!.S.KXW KXM W D S KXKXKXKXKXKXKX",
"KXKXKXKXKXKXKXKXKXKXG G.K.U.K.I.G.D KXKXKXKXKXKXS ^.H.{.].U.Y.Q.$X&X;X=X:X:X%X%X%X1X}.&X;X#XNXmXDXFXFXCXkXpXwXwXwXwXwXwXtXk.g.k.tXdXkXbXAXHXGXCXxXjXwXk.h.9XdXxXzXDXFXZXNXU #X-X$X$X%X;XE.~.J.W.).'.P.I.S.S.V KXn S.P.I.Q.+X<X<X|.>X|.L.B L N F.H.F.m F KXKXKXKXKXKX",
"KXKXKXKXKXR E J I I F F.R.T.L.`.S.W KXKXKXKXKXKXP I.I.S.P.m T.E.$X:X%X%X:X:X%X%X%X1X=X;X$X@XgXzXVXFXFXVXkXpXwXwX8XwX0XtXpX0Xh.w.N.rXdXkXbXDXFXAXvXkXdXB.h.h.B.dXkXbXvXZXJXNXU @X1X:X$X1XE.T.{.G.I.P.S.G.G.m V n KXS.S.S.T.XX;X=X=X<X,X[.S.G.G._.V '.K S Y KXKXKXKXKX",
"KXKXKXKXKXG ).m P.C F '.T.$X+Xn A.v KXKXKXKXKXKXKXb S.I.@XP.!.*X:X:X%X%X:X&X&X%X;X;X>X}.;X@X .mXnXFXHXVXkXdXwXqX0XwXtXtXrXwXb.w.h.9XrXdXxXbXFXFXAXvXjXwXV.g.h.B.wXjXCXCXnXJXNXOXoX1X$XE.!.Q.W.I.I.S.H.H.^.V F.n KXS.S.S.W.!.$X$X;X*X!.[.D.A.I.H.N L F D W KXKXKXKXKX",
"KXKXKXKXW D.S.I.U.K.'.'.T.R.T.,XG.KXKXKXKXKXKXKXKXKXKXn I.I.XXXX-X&X%X%X&X;X&X&X%X;X%X}.>X@X .gXmXDXFXGXvXjXrXtXqXwXtXwXwXwX0Xk.g.k.0XpXjXvXVXFXFXVXxXdXwXk.w.j.9XdXdXbXVXnXZXNXOXoX-XR.W.Q.G.`.S.G.'.G v KXb KXn S.F.P.].[.XX-X1X1X,X!.Q.D._.F.).G L L (.H KXKXKXKX",
"KXKXKXKXH J.A.I.D.I._.I.,X*X,XW.G.F KXKXKXKXv B KXM G ).A.T.+XoX-X%X%X$X$X;X&X%X%X%X>X%X>X-X3XgXmXVXGXFXbXkXwXqXtX8X9XtXqXwXrXb.g.g.v.0XdXkXvXDXGXAXbXkXdX0Xh.g.h.9XwXjXxXVXZXMXNXU U.U.K.U.I.m P.F.N (.KXKXKXb S.G.P.P._.W.!.-X.X-X+XL.W.L.I./._.^.^.N /.M KXKXKXKX",
"KXKXKXKXH [.S.).).G.].XX}.=X<X!._.G P S F V V V m V G ^.I.L.!.+X<X*X$X%X*X*X$X&X;X&X%X}.}.1XOXgXzXAXHXGXVXkXrXwX8X8X8X9X0X0XqXwXk.3.k.b.0XdXxXbXAXGXAXvXdXrXB.h.g.k.b.wXjXvXVXMXMXNXU Z Y.@Xm P.K V ^.KXKXKXv ).H._.).V '.^.L..X$X.X*XT.L.L.D.W.^._.A.I.N KXW KXKXKX",
"KXKXKXKXH A._.V '.P.!.*X%X>X=X!.P.F.S.S.V G V V S.S.^.).I.L.Q.+X+XXX}.|.!.*X*X-X$X%X>X%X%X1X#X5XhXnXGXFXVXkXwXwX8X8X8X8X8X9X0XtX9Xg.g.h.9XwXdXcXAXGXFXAXvXdXwXN.g.3.g.N.rXdXxXnXDXnXNXJ OXA P.P.V ).^.N M KX'.V F.V V F.^.G.I.Q.XX.X!.T.K.D.D.H.H./.A.S.'.KXD KXKXKX",
"KXKXKXKXF I.S.I.P.I.Q.-X%X%X%XE.L.D.G.G.V Z G G F.F.P.)._.I.T.R.Q.!.!.T.Q.!.*X*X;X$X=X>X:X.X@X7XgXbXDXFXAXcXdXwX8XB.B.8X8X8X9X0XqXk.g.w.v.B.0XjXvXVXFXDXCXkXdXqXn.3.3.z.N.tXdXcXVXbXZXNXE K P.m m ).b KXn A.A.A.).).F.G.D.T.D.D.Q.Q.I.I.m S.].G.H.F.G.Z KXKXKXKXKXKX",
"KXKXKXKXF A.I.P.I.I.XX:X%X%X$XE.L.P.I._.F.Z ^.^.F.G.P.P.).G.D.L.I.W.T.T.W.Q.XX-X$X;X1X=X;X-XoX3XgXvXDXFXGXbXjXwX8XB.b.B.B.8X9X0X0X9Xk.3.g.b.8XrXkXvXAXGXDXvXkXpXqXh.3.;.g.V.0XpXjXCXVXnXNXJ '.I.m ).KXKXS.D.A.W.n F.F._.A.J.S.P.G.I._._.F.M b F H S R KXKXT KXKXKXKX",
"KXKXKXKXKXI._.G.`.U.*X%X&X&X*X+XP.)._._.F.F.F.F.G.S.K.K.F.V F.P.I.I.L.T.I.W.XX-X*X;X*X|.*X<X<X3XgXxXVXFXGXvXdXrX8XB.b.b.B.B.8X8X8XqXb.3.3.k.9X9XdXxXCXFXFXVXvXdXpXyXj.3.1.j.8XrXjXjXbXVXZXNXJ ).P.N D KXP V I.H.'.^.G N S.b KXM ).I.G.S.G W KXKXKXKXKXKXKXD KXKXKXKX",
"KXKXKXKXKXm n [.`.Q.|.%X&X&X*X+XP.P.P.P.F.F.F.H.G.S.S.S.F.V F.P.I.I.L.W.W.I.W.XX<X*X<X1X<XR.Q.3XfXkXbXGXGXCXkXpX0XB.v.b.b.b.yX8X8X8X8Xh.;.g.b.9XwXjXxXAXGXGXbXkXpXwXv.w.-.;.h.8X8XjXjXCXbXMXNXJ A KXKXKXKXKXKXG V b 2XH S KXKXQ V D.I.G.).W KXKXKXKXKXKXKXT KXKXKXKX",
"KXS KXKXF F.D.W.I.W.E.%X;X;X*X!.U.Y.L.D.G./.^.G Z A K.D.K.S.F.^.F.P.L.I.I.I.I.Y.T.R.T.~.~. X!.P uXkXbXAXGXAXcXpXqXB.v.b.b.b.b.B.B.8X8X8Xg.;.h.8X0XaXjXvXAXFXDXbXkXdX0Xv.w.-.3.k.8XwXdXkXnXmXMXMXJ KXKXKXKXKXKXE L '.v KXKXKXKXKXG D.P.A Z P KXKXKXKXKXKXKXKXKXKXKXKX",
"KXb KXF G G.G.A.D.W.!.*X1X<X=X|.W.Y.L.D.D./.^.G K V S.K.K.K.G.P.S.I.I.I.F.P.P.Y.R.R.T.T.D.T.D.A 5XfXcXAXFXAXcXdXtX8Xb.b.b.b.b.b.b.8XB.0Xh.;.3.k.N.0XdXjXbXGXFXVXcXlXtX0Xj.4.;.3.k.yX0XpXjXbXbXnXMXT KXKXKXKXKXKXF v KXKXKXKXKXKXF S.V K C P KXKXKXKXKXKXKXKXKXKXKXKX",
"N KXKXb ].G.A.D.I.D.W.!.<X*X;X*XL.Y.W.A.].n ^.^.^.N H.I.I.K.K.I.D.D.G.H.F.).Z Z I.I.I.L.I.L.L.Z 5XfXvXCXSXGXvXlXtX9XB.b.l.N.N.b.8Xb.8X8Xb.3.:.h.N.V.wXdXxXVXAXAXbXkXdX0XB.v.3.:.w.h.B.wXaXkXbXVXnXZXKXKXKXKXKXKXKXKXKXKXKXKXKXT H m B ).b P c KXKXKXKXKXKXKXKXKXKXKX",
"V KX).V b I.A.D.m P.I.Q.!.,XE.E.Q.m P.P.G.P.b H.F._.].P.S.I.I.D.L.G././.F.K V Z )._.I.I.I.P.P.K J gXkXCXAXFXnXkXwX8Xb.v.l.l.b.v.b.b.B.B.N.j.:.:.j.N.B.eXkXvXVXFXAXbXjXwX8Xb.h.3.-.3.h.v.0XpXkXvXCXZXMXKXJ v n P.Z c KXKXKXKXKXKXD G '.N A P KXKXKXKXKXKXKXKXKXKXKXKX",
"C KXv G /.D.Q.S.).'.V `.[.!.,XL.S.`._.P.F.n `.S.n S.I.I.I.I.I.I.I._.).).F.S.S.S.F.^.F.F.S.P.'.W E iXfXvXSXGXVXzXrX8Xn.v.l.l.k.n.n.8XB.N.B.N.w.:.3.v.V.B.rXdXvXAXAXbXkXpX0XN.N.k.;.-.3.h.B.0XrXjXCXbXMXMX..J ).n ^.KXKXKXKXKXKXKXKXF H.n b J KXKXKXKXKXKXKXKXKXKXKXKX",
"I KXH KX/.H.A.P.V Z V ^.D.D.T.!.`.N F.V `.V F.S.KXS.K.+X+XI.G.I.P.).Z ).G.n A.A.F.^.^.H.S.S.^.W E 4XlXcXVXFXDXzXdX0Xb.n.l.k.k.n.k.b.v.b.B.b.h.:.z g.k.v.B.aXkXvXVXbXkXpX9Xb.b.k.h.-.:.;.j.j.B.pXkXcXnXmXhX .D '.^.S T KXKXKXKXKXKXc R KXKXKXKXKXKXKXKXKXKXKXKXKXKXKX",
"KXKXM KX(.2Xm I.n U.n ].W.L.L.K.V '.G C ^.].I.m Y.K.L.Q.!.!.W.I.P.P.V F.H.KXKXn F.^.^.G.D.D.G.K J 5XfXvXvXFXDXbXdXwXn.n.k.k.n.k.n.k.k.v.9XN.v.;.s -.l.B.v.B.pXdXkXjXdXqX9X9XN.B.l.g.;.-.w.w.k.B.qXjXxXmXmXgXE G ^.H 2.KXKXKXKXKXKXT KXKXKXKXKXKXKXKXKXKXKXKXKXKXKXKX",
"KXQ KXv H G ).KXm m Z b n S.+Xm V '.KXV ).N ].].Y.L.L.R.!.,X[.W.I.P.V F.V n KXn H.^.^.F.S.D.S.K E iX4XkXnXDXDXVXdXwXn.n.k.k.n.k.k.k.k.k.b.v.B.h.;.q ;.h.h.N.tXdXdXaXeXv.k.k.h.k.h.h.w.:.:.;.w.z.v.B.aXjXlXfXgXJ P W T KXKXKXKXKXKXKXKXKXKXKXKXKXKXKXKXKXKXKXKXKXKXKX",
"KXKXKXQ 2X^.b V KXKXKXKXKX_.P.P.).b KXKXb F.I.I.+XXX$X-X*X!. X!.!.L._.^.V B N KXH.F.V V F B V P c iXfXfXbXAXHXbXkXrXb.n.k.k.k.k.n.v.k.k.l.l.N.N.g.s :.j.N.N.z.;.4.4.-.:.:.:.s :.-.w.j.j.w.w.w.w.;.w.z.l.V.V.C.uXgXKXKXKXKXKXKXKXKXKXKXKXKXKXKXKXKXKXKXKXKXKXKXKXKXKX",
"KXKXKXKXS ).V D KXKXKXKXH N V ).P.V KXKXKXKXH.L.W.XX-X;X$XE.|.!.,XQ.{._.).K N ^.H.F.V F J R J E KXuXfXfXkXDXFXVXxXpXB.b.k.k.k.n.h.g.;.h.w.g.;.w.-.:.;.j.z.w.z.g.z.j.z.j.j.g.z.j.w.w.w.w.-.-.w.z.g.j.c.eX0XeXwXeXfXzXKXKXKXKXKXKXKXKXKXKXKXKXKXKXKXKXKXKXKXKXKXKXKXKX",
"KXKXKXKXc L v R KXKXKXKXH _.H.H.F.m B KXKXKXb I.L.XX;X$X$X%X=X*XE.XX[.I.F.V G G ^.^.N F KXKXKXKXKXKXfXdXxXbXFXDXkXdXtXN.v.l.j.3.:.g.k.N.N.j.j.V.j.w.:.-.w.;.3.g.kXFXxXkXlXdXC.V.j.w.<.-.w.:.w.l.8Xb.j.e.e.z.k.N.eXdXmXKXKXKXKXKXKXKXKXKXKXKXKXKXKXKXKXKXKXKXKXKXKXKX",
"KXKXKXKXKXKXKXKXKXKXKXKXP n G.{.m P.b KX^.F._.G.D.!.*X=X%X%X%X$X.XXX!.T.L.S.V G ^.^.P.KXKXKXKXKXKXKXdXdXkXbXGXDXbXdXtXB.j.;.;.w.l.V.z.w.w.-.-.w.e.z.w.6.z.j.j.j.j.j.j.V.M.j.r.e.e.x.V.j.V.V.j.w.s x 9 5 9 a :.:.w.l.eXkXKXKXKXKXKXKXKXKXKXKXKXKXKXKXKXKXKXKXKXKXKXKX",
"KXKXKXKXKXKXKXKXKXKXKXKXD ).^.N V P.m m ^.N /.G.G.W.!.*X*X%X%X%X-X-X$XE.T.L.P.K ).^.n n D KXKXKXKXKXeXaXdXvXAXDXbXkXeXz.1.w.e.w.-.:.q q 4 4 6 6 6 a f -.e.V.V.V.V.j.M.r.r.s.r.8.x.e.r.x.j.e.w.s % * * # * & 3 5 6 5 k x.uX} Q KXKXKXKXKXKXKXKXKXKXKXKXKXKXKXKXKXKXKX",
"KXKXKXKXKXKXKXKXKXKXKXKXKXZ M ^.KXb P.V F.H.H.{.I.W.Q.!.*X$X%X;X$X$XE.R.T.D.A V K ^.A.W.C Y KXKXKXKXeXC.dXxXVXAXCXdXv.z.w.e.-.6 6 6 4 q 6 q 9 3 % # 4 6 j -.a f q a e u 0 > r > $ : : % % * = % & & & % & % & : : : % w <.iXJ R KXKXKXKXKXKXKXKXKXKXKXKXKXKXKXKXKXKX",
"KXKXKXKXKXKXKXKXKXKXKXKXKXP v M KXKXF.P.V P.m G.P.G.I.Q.!.*X*X;X.X.XE.T.T.L.P.K G ^.A.A.'.Y KXKXKXKXdXC.dXkXvXbXbXdXl.w.f w 6 6 6 q 6 w 5 q 0 5 0 * % % 9 3 . . .       X - X.^ 2 X   .   . = # : $ : 9 1 % & 9 : * # % 0 ! 4XE c KXKXKXKXKXKXKXKXKXKXKXKXKXKXKXKXKX",
"KXKXKXKXKXKXKXKXKXKXKXKXKXKXS F v KXV ).m K.P.m G.F.G.I.W.Q.E.E.E.!.Q.T.L.I.P.).M ).H.G S KXKXKXKXKXuXC.dXdXkXkXaXC.x.w.q 5 6 6 6 w w e d u d u 9 % : & 5 5 # * . X @ @ @.Z.6X6X6XZ.X.  . % # # 1 1 u g u r 9 0 0 $ 5 & * 1 y 4X .KXKXKXKXKXKXKXKXKXKXKXKXKXKXKXKXKX",
"KXKXKXKXKXKXKXKXKXKXKXKXKXKXKXR KXH M Z A A U.K.F.F.F./.I.I.L.L.I.I.G.G.F.S.V V _.^.F KXKXKXKXKXKXKXKXC.eXrXpXpXeXe.j s q 6 q 5 q d k ,.e.6.5.` u 0 9 & % % o # $ 1 + X.6Xf.#.#.f.f.f._ 1 # # : t h 5.e.w.4.d r 7 7 % % q r 7 _ Z.KXKXKXKXKXKXKXKXKXKXKXKXKXKXKXKXKX",
"KXKXKXKXKXKXKXKXKXKXKXKXKXKXKXKXKXW H V P.A m S.F.F.F.F.G.I.Q.U.I._./.^.F.F.F.V ^.M P KXKXKXKXKXKXKXKXeXeXeXB.V.j.-.f q q 3 w w a k 6.r.C.M.M.r.5.u 9 : : % * % 0 i @ X.6XhXhX6X6XhXfXp $ @ * : h 0.M.Z.C.Z.r.` i 7 : 9 3 q 3 6 <.KXKXKXKXKXKXKXKXKXKXKXKXKXKXKXKXKX",
"KXKXKXKXKXKXKXKXKXKXKXKXKXKXKXKXKXKXL V K K V G.G.H.G.S.D.D.V `.W.I.).).F.S.S.F.G F V KXc KXKXKXKXKXKXC.C.V.V.j.,.u 6 6 6 6 q w d 5.s.fXfXhXfX6Xs.X.u w 5 % 3 w k u o + O.fXBXBXBXfXs.> X : # & _ Z.fXhXzXfXC.s._ 0 : & 3 3 & 9 e 6.KXKXKXKXKXKXKXKXKXKXKXKXKXKXKXKX",
"KXKXKXKXKXKXKXKXKXKXKXKXKXKXKXKXKXKXKXR S L b _./.N ^.F.n A.P.V L.L.P.).).G.S.F.V K N V P KXKXKXKXKXKX4XM.M.v.w.d 7 5 6 4 4 6 e h 8.C.fXnXDXBXmXfXr.l d 5 # 3 d k h 5 .   ; ' 8.i : o o : 5 % % p fXMXMXBXhXfXq._ r 5 : : : % 9 1 f KXKXKXKXKXKXKXKXKXKXKXKXKXKXKXKX",
"KXKXKXKXKXKXKXKXKXKXKXKXKXKXKXKXKXKXKXKXKXS ).n N L L M F.P.m P.A.S.P.)./.G.D.S.m '.).L KXKXKXKXKXKXKX4Xx.x.l.;.w 6 6 6 5 5 5 r u 5.C.fXmXMXMXhX6XM.8.h & * q d 7 7 0 : $ o     . . . # : : : 9 1 fXnXMXmXfXC.5.h r 5 : 5 : & 6 q :.1.KXKXKXKXKXKXKXKXKXKXKXKXKXKXKX",
"KXKXKXKXKXKXKXKXKXKXKXKXKXKXKXKXKXKXKXKXKXKXKXKXG H KXK B F.F.V H.P.).).^./.I.L.K.m C F Q KXKXKXKXKXKX4XM.x.z.:.a q 6 q 5 5 0 r h 5.M.6XfXhXhXfXZ.M.r.l * # 6 5 w : : $ $ : $ 1 & : r & 5 u & & : r.4X6XZ.Z.5._ r 0 5 9 5 : & 5 4 4 f KXKXKXKXKXKXKXKXKXKXKXKXKXKXKX",
"KXKXKXKXKXKXKXKXKXKXKXKXKXKXKXKXKXKXKXKXKXKXD KXKXKXV F.C m H L ^.).`.`.P.G.W.L.Y.P.'.F S KXKXKXKXKXKXuXC.x.;.s q 9 q 6 & : 0 u u h 0.s.M.C.Z.M.s.8.5.d * # 6 w q 5 9 : & : & 9 & : 0 5 d ,.w % r 1 6.5.8.,.u r 5 5 : 5 5 & & : t t i KXKXY Y 2.KXKXKXKXKXKXKXKXKXKX",
"KXKXKXKXKXKXKXKXKXKXKXKXKXKXKXKXKXKXKXKXKXKXKXD KXKXn A.Y.A H KX^.F.U.`.W.T.J.D.K.K.P.B W KXKXKXKXKXKXKX0Xj.:.s w 9 3 3 & 5 9 9 d u l 5.5.8.8.5.` h e 5 # % w w q 0 0 5 9 w q q e d 6 w d k d 6 9 & h ` l 9 7 5 5 5 : : & & 5 : ; 2 y ..I V L KXY KXKXKXKXKXKXKXKXKX",
"KXKXKXKXKXKXKXKXKXKXKXKXKXKXKXKXKXKXKXKXKXKXKXKXJ b F.I.A.K.'.F.H.S.I.Q.!.T.T.L.K.P._.V P KXKXKXKXKXKXKXN.w.f a e 9 & & 3 6 3 % 9 0 u l l l l l u u r & * 6 q 4 3 w w w 6 6 w w w d w d j q q 3 * 9 e 5.d : % : : 5 & : & & 9 1 0 t 7 , I K.P.B H KXKXKXKXKXKXKXKXKX",
"KXKXKXKXKXKXKXKXKXKXKXKXKXKXKXKXKXKXKXKXKXKXKXKXKXKXS F P.Q.I.I.W.D.L.+X,X!.R.T.Q.P.G.B B R KXKXKXKXKXKXV.4.a q 0 1 5 5 & 3 3 4 & 5 d u u 0 e r 0 w w 5 5 5 6 q d d w q 6 6 a a s f :.j j j 9 6 % 5 3 d l 9 # % : 5 & : : & 9 1 : : 7 , P m m V H KXKXKXKXKXKXKXKXKX",
"KXKXKXKXKXKXKXKXKXKXKXKXKXKXKXKXKXKXKXKXKXKXKXKXKXKXKXKXv K.!.!.E.|.,X+X+X*X.XR.R.]._.n V P KXKXKXKXKXKXC.f q e 0 0 0 5 : % 3 3 3 9 6 w e q w w 5 w q q 3 q q j ,.-.j a s s s s s f :.f k j j a 9 6 w 5 ,.6.u 9 : $ $ 0 & : : % % : 0 , I K B S KXKXKXKXKXKXKXKXKXKX",
"KXKXKXKXKXKXKXKXKXKXKXKXKXKXKXKXKXKXKXKXKXKXKXKXKXKXKXKXKXS.A.E.*X;X<X*X*X*X$X.XXXW.[.[.F.G W KXKXKXKXKXZ.u u : 1 1 0 5 5 5 5 3 3 & 6 w 9 9 e d d r 5 6 q f <.6.-.-.j f a a s s f f f ,.-.-.e.-.,.6.k d 5 9 u e u 0 * $ $ $ $ : 0 + < , J F H R KXKXKXKXKXKXKXKXKXKX",
"KXKXKXKXKXKXKXKXKXKXKXKXKXKXKXKXKXKXKXKXKXKXKXKXKXKXKXKXKXKXK.n E.$X-X:X$X*X$X.XXXR.W.[.H.n '.v E Q J E 5X! > < : : 5 5 7 > : 5 3 3 3 3 0 u u u r e d 6.6.-.,.j -.-.-.-.:.:.:.f f f -.<.<.<.-.,.,.6.<.r.l l l r 0 0 + $ : : $ : + ; - - J D KXY KXKXKXKXKXKXKXKXKXKX",
"KXKXKXKXKXKXKXKXKXKXKXKXKXKXKXKXKXKXKXKXKXKXKXKXKXKXKXKXKXK.b U.T.E.:X&X-X<X-X$X$X<XQ.W.G.S.{.V G P B KX5X, - @ > : 5 5 : > > : 5 q % : u u g ` q.r.r.r.e.d d j j j j :.j f j j -.f f 6.j ,.C.M.x.6.e.r.r.s.q.5.p p > X X + $ + > O O , E KXKXKXKXKXKXKXKXKXKXKXKXKX",
"KXKXKXKXKXKXKXKXKXKXKXKXKXKXKXKXKXKXKXKXKXKXKXKXKXKXKXKXb A.I.A.W.!.$X$X$X-X<X<X$X<X!.W.W.D.G.I.m S.I.C I ! - ; $ % * * ; - - + : 5 % r u t 5.s.s.M.s.x.x.h 7 d f f :.:.:.f f f f f <.-.,.-.e.6.d d 6.6.r.M.s.8.X.' t +     + o . . $ # KXKXKXKXT KXKXKXKXKXKXKXKXKX",
"KXKXKXKXKXKXKXKXKXKXKXKXKXKXKXKXKXKXKXKXKXKXKXKXKXKXD B P.D.P.G.G.W.E..X.X-X-X;X*XE.!.W.L.I.S.S.S.D.S.C U ..O @ + # # # o O @ @ @ @ : u i ` f.s.i.s.9.q.M.5.7 w f -.<.w.1.-.j f f j -.,.k d s.u 9 5.5.l X.q.s.8.X.p p i >   o X . * $ # KXKXKXKX8 KXKXKXKXKXKXKXKXKX",
"KXKXKXKXKXKXKXKXKXKXKXKXKXKXKXKXKXKXKXKXKXKXKXKXKXKXL B Z Z V _.^._.].+X,X-X:X:X$XE.!.].P.U.P.P.P.n V L c y.O X o o # o X X X X   X < p ` s.f.t.s.i.i.i.s.s.i : f -.1.w.w.<.j d f k k d k d 6.u % ` ,.` _ 8.s.s.0.X.' _ <     X . X - KXKXKXKXKXKXKXKXKXKXKXKXKXKXKX",
"KXKXKXKXKXKXKXKXKXKXKXKXKXKXKXKXKXKXKXKXKXKXKXE KXKXN P.B '.G ^.).P.P.I.W.R.E.E.E.,X]._.I.P.K.P.F.).G S KXd.O @ X o o . X X X X   X 0 p i.f.@.s.i.t.s.i.i.s._ 0 f -.w.z.e.w.-.j d j k k d r 6.q & r 5.` h X.9.s.0.0.' p i X   X X O O KXKXKXKXKXKXKXKXKXKXKXKXKXKXKX",
"KXKXKXKXKXKXKXKXKXKXKXKXKXKXKXKXKXKXKXKXKXKXQ S H V S.S.m A '.F.P.P.V P.@XY.L.L.L.P.P.).n S.S.S.K.V F KXKXKX0   X   . . o     o X X : ' 7.i.i.i.i.t.t.7.i.i.8.r w -.6.w.z.w.-.-.j d j k d r l % # w <.h l ` ` s.i.0.{ ! t         @ * KXKXKXKXKXKXKXKXKXKXKXKXKXKXKX",
"KXKXKXKXKXKXKXKXKXKXKXKXKXKXKXKXKXKXKXKXKXKXKXE F V S.P.S.P.B V n P._.F.P.K.I.].P.).C m P.KXKXS F S KXKXKXKX6.  @   . @   @ o .   o < ` 9.9.t.i.t.t.t.7.9.9.9.h 7 d -.w.z.z.w.;.-.f f d u 5 e # * q -.k l l p q.t.t.0.{ p o   @   # KXKXKXKXKXKXKXKXKXKXKXKXKXKXKXKX",
"KXKXKXKXKXKXKXKXKXKXKXKXKXKXKXKXKXKXKXKXKXKXKXKXKXF m S.F.F.V ).).m S.S.P.I.I.P._.].S.L.S.KXKXKXKXT KXKXKXKXKX@   X X   X X . .   X < X.q.7.7.i.t.t.t.t.7.7.q.5.u d -.w.w.w.w.;.-.f f d k r d % # q -.k h u t O.i.s.0.' h $   . * = KXKXKXKXKXKXKXKXKXKXKXKXKXKXKXKX",
"KXKXKXKXKXKXKXKXKXKXKXKXKXKXKXKXKXKXKXKXKXKXKXKXKXKXD L L L F F V b G.G.S.S.G._.V S.D.L.A.KXKXKXKXKXKXKXKXKXKX8.$   O X X   o .     > O.i.7.7.t.t.&.&.t.t.7.t.0.u w k 6.w.g.z.w.-.:.f d k q 6 # . q ,.d w r 1 _ 7.s.i.' ' 7 . . = KXKXKXKXKXKXKXKXKXKXKXKXKXKXKXKXKX",
"KXKXKXKXKXKXKXKXKXKXKXKXKXKXKXKXKXKXKXKXKXKXKXKXKXKXKXKXE E c W L F.G B m L.S.n ).F.L.L.S.F KXKXKXKXKXKXKXKXKXKXk O   O   X         : 0.i.7.t.i.t.&.$.&.&.7.7.@.` u d 6.e.z.z.w.-.f d a d 6 5 * * d ,.j w w 7 i 7.7.i.7.0.0 . = KXKXKXKXKXKXKXKXKXKXKXKXKXKXKXKXKXKX",
"KXKXKXKXKXKXKXKXKXKXKXKXKXKXKXKXKXKXKXKXKXKXKXKXKXKXKXKXKXKXKXKXY KXKXM m S.F._.N S.A.L.P.H Q KXKXKXKXKXKXKXKXKXKX8     o o   o     t q.i.i.i.d.a.y.&.&.&.&.+.+.0._ w ,.e.e.w.<.:.f w w d d d d d d -.-.j e 7 t ' i.s.+._ ` 5 KXKXKXKXKXKXKXKXKXKXKXKXKXKXKXKXKXKXKX",
"KXKXKXKXKXKXKXKXKXKXKXKXKXKXKXKXKXKXKXKXKXKXKXKXKXKXKXKXKXKXKXKXKXKXKXL KX).V V F.I.S.P.G R KXKXKXKXKXKXKXKXKXKXKXKX6 o .   # . .   t q.s.i.d.d.d.d.%.%.$.&.$.+.0.' 0 g 6.e.e.w.-.f s w w f j j k d d j f s 5 1 y @.i.s.{ g a KXKXKXKXKXKXKXKXKXKXKXKXKXKXKXKXKXKXKX",
"KXKXKXKXKXKXKXKXKXKXKXKXKXKXKXKXKXKXKXKXKXKXKXKXKXKXKXKXKXKXKXKXKXKXKXD H M B V F.n '.v W Q KXKXKXKXKXKXKXKXKXKXKXKXKX6 . X . o     0 q.s.s.d.d.d.d.y.%.$.$.o.o.+.0.i u ,.<.e.e.<.j f d w f j d d d f j f a q 0 t @.i.+.9.<.:.KXKXKXKXKXKXKXKXKXKXKXKXKXKXKXKXKXKXKX",
"KXKXKXKXKXKXKXKXKXKXKXKXKXKXKXKXKXKXKXKXKXKXKXKXKXKXKXKXKXKXKXKXKXKXKXKXR F V F.^.B K KXKXKXKXKXKXKXKXKXKXKXKXKXKXKXKXKXr . .       t s.i.s.d.d.d.p.y.%.&.$.( ( { t.' t k 6.w.e.6.-.f w w w a k g h d f f s 5 : i ~ i.i.9.<.-.KXKXKXKXKXKXKXKXKXKXKXKXKXKXKXKXKXKXKX",
"KXKXKXKXKXKXKXKXKXKXKXKXKXKXKXKXKXKXKXKXKXKXKXKXKXKXKXKXKXKXKXKXKXKXKXKXKXE E S R Q KXKXKXKXKXKXKXKXKXKXKXKXKXKXKXKXKXKX-.e 1 o X X i s.i.s.d.d.d.a.p.*.&.$.( / [ +.{ i u ,.6.e.6.-.d 6 5 5 6 w u d d f f q 5 : > 2 @.i.i.8.,.KXKXKXKXKXKXKXKXKXKXKXKXKXKXKXKXKXKXKX",
"KXKXKXKXKXKXKXKXKXKXKXKXKXKXKXKXKXKXKXKXKXKXKXKXKXKXKXKXKXKXKXKXKXKXKXKXKXKXKXKXKXKXKXKXKXKXKXKXKXKXKXKXKXKXKXKXKXKXKXKX6.` l i 0 0 h q.i.i.d.d.4Xa.p.*.&.$.( ( [ [ t.' > u 6.6.-.k a q q 5 w d d g f f a q % % > 2 ] i.i.0.k KXKXKXKXKXKXKXKXKXKXKXKXKXKXKXKXKXKXKX",
"KXKXKXKXKXKXKXKXKXKXKXKXKXKXKXKXKXKXKXKXKXKXKXKXKXKXKXKXKXKXKXKXKXKXKXKXKXKXKXKXKXKXKXKXKXKXKXKXKXKXKXKXKXKXKXKXKXKXKXKX1.` X.` ` _ ` 9.i.i.i.d.d.a.p.*.&.=.( ( ( [ t.O.t r ,.6.6.,.j e w w w w r u d a a 9 & & ; ; ^ 7.9.0.` KXKXKXKXKXKXKXKXKXKXKXKXKXKXKXKXKXKXKX",
"KXKXKXKXKXKXKXKXKXKXKXKXKXKXKXKXKXKXKXKXKXKXKXKXKXKXKXKXKXKXKXKXKXKXKXKXKXKXKXKXKXKXKXKXKXKXKXKXKXKXKXKXKXKXKXKXKXKXKXKXKXX.` l h h ` 9.i.i.t.a.d.4Xp.*.&.$.( ( ( [ +.O._ t d 6.6.5.k e w w e d r u d a e r & & $ ; y 7.t.9.X.KXKXKXKXKXKXKXKXKXKXKXKXKXKXKXKXKXKXKX",
"KXKXKXKXKXKXKXKXKXKXKXKXKXKXKXKXKXKXKXKXKXKXKXKXKXKXKXKXKXKXKXKXKXKXKXKXKXKXKXKXKXKXKXKXKXKXKXKXKXKXKXKXKXKXKXKXKXKXKXKXKXX.` _ h p _ 0.i.i.t.a.d.a.p.*.&.$.( ( ( [ [ { { i 0 ` 6.5.` h d d d d u d d u a r & $ ; ; 2 @.7.7.X.k KXKXKXKXKXKXKXKXKXKXKXKXKXKXKXKXKXKX",
"KXKXKXKXKXKXKXKXKXKXKXKXKXKXKXKXKXKXKXKXKXKXKXKXKXKXKXKXKXKXKXKXKXKXKXKXKXKXKXKXKXKXKXKXKXKXKXKXKXKXKXKXKXKXKXKXKXKXKXKXKXX.` ` _ h _ 0.7.i.t.y.a.a.p.*.%.$.( ( ( $.[ +.0.p 0 l 5.8.6.` g e w e u g d g l h r : $ ; ; ' 7.7.O.h KXKXKXKXKXKXKXKXKXKXKXKXKXKXKXKXKXKX",
"KXKXKXKXKXKXKXKXKXKXKXKXKXKXKXKXKXKXKXKXKXKXKXKXKXKXKXKXKXKXKXKXKXKXKXKXKXKXKXKXKXKXKXKXKXKXKXKXKXKXKXKXKXKXKXKXKXKXKXKXKX6.` _ _ h ` 9.7.t.&.&.y.p.p.u.%.&.$.( ) $.o.+.7.' i h ,.6.5.h e w u l 8.8.6.5.6.5.u : : ; + ! +.7.o.p KXKXKXKXKXKXKXKXKXKXKXKXKXKXKXKXKXKX",
"KXKXKXKXKXKXKXKXKXKXKXKXKXKXKXKXKXKXKXKXKXKXKXKXKXKXKXKXKXKXKXKXKXKXKXKXKXKXKXKXKXKXKXKXKXKXKXKXKXKXKXKXKXKXKXKXKXKXKXKXKX:.,.,.h h _ 0.7.7.t.&.y.y.a.p.*.&.$.( ( ( $.[ +.+.i p 5.8.8.k u 0 h 5.` l l h l _ u 0 : : $ < +.+.+.~ s KXKXKXKXKXKXKXKXKXKXKXKXKXKXKXKXKX",
"KXKXKXKXKXKXKXKXKXKXKXKXKXKXKXKXKXKXKXKXKXKXKXKXKXKXKXKXKXKXKXKXKXKXKXKXKXKXKXKXKXKXKXKXKXKXKXKXKXKXKXKXKXKXKXKXKXKXKXKXKXKX-.k h h _ 0.7.@.+.&.%.y.a.p.*.&.( ( ( ( o.[ o.+.! i ` 8.6.,.d r g ` u u _ ` X.X.5.5.u 0 ; < O.t.+.~ u KXKXKXKXKXKXKXKXKXKXKXKXKXKXKXKXKX",
"KXKXKXKXKXKXKXKXKXKXKXKXKXKXKXKXKXKXKXKXKXKXKXKXKXKXKXKXKXKXKXKXKXKXKXKXKXKXKXKXKXKXKXKXKXKXKXKXKXKXKXKXKXKXKXKXKXKXKXKXKXKXa _ _ h l 0.9.@.+.$.%.y.p.u.*.&.$.( ( [ [ [ [ +.' t _ e.6.6.,.d g l 8.5.5.5.` ` 5.8.l 0 > > ' t.&.] ` KXKXKXKXKXKXKXKXKXKXKXKXKXKXKXKXKX",
"KXKXKXKXKXKXKXKXKXKXKXKXKXKXKXKXKXKXKXKXKXKXKXKXKXKXKXKXKXKXKXKXKXKXKXKXKXKXKXKXKXKXKXKXKXKXKXKXKXKXKXKXKXKXKXKXKXKXKXKXKXKXk ` ` h l 0.9.O.O.+.%.y.p.p.*.*.&.$.( [ ( ( [ o.{ t h 8.6.6.5.h u l l _ 5.9.q.q.r.8.h : ; ; y +.+.O.t f KXKXKXKXKXKXKXKXKXKXKXKXKXKXKXKX",
"KXKXKXKXKXKXKXKXKXKXKXKXKXKXKXKXKXKXKXKXKXKXKXKXKXKXKXKXKXKXKXKXKXKXKXKXKXKXKXKXKXKXKXKXKXKXKXKXKXKXKXKXKXKXKXKXKXKXKXKXKXKX-.' ` h _ 0.9.O.O.o.&.%.p.p.p.*.%.$.( [ ( ( ] o.+.y t l 6.5.5.h u l 8.s.M.Z.Z.Z.Z.s.` : ; ; 2 7.&.o.^ d KXKXKXKXKXKXKXKXKXKXKXKXKXKXKXKX",
"KXKXKXKXKXKXKXKXKXKXKXKXKXKXKXKXKXKXKXKXKXKXKXKXKXKXKXKXKXKXKXKXKXKXKXKXKXKXKXKXKXKXKXKXKXKXKXKXKXKXKXKXKXKXKXKXKXKXKXKXKXKXKXl _ h _ 0.9.@.O.o.o.&.u.p.y.*.&.( | [ ( [ [ [ +.' t t 5.5.5.l u h 8.M.M.M.M.M.Z.M.8.: $ - 2 +.&.o.O.u KXKXKXKXKXKXKXKXKXKXKXKXKXKXKXKX",
"KXKXKXKXKXKXKXKXKXKXKXKXKXKXKXKXKXKXKXKXKXKXKXKXKXKXKXKXKXKXKXKXKXKXKXKXKXKXKXKXKXKXKXKXKXKXKXKXKXKXKXKXKXKXKXKXKXKXKXKXKXKXKXl l h _ 0.9.@.@.] [ &.*.y.y.*.%.$.$.[ ( [ ( [ +.O.i t ` 5.5.` h h 8.Z.Z.Z.s.r.s.M.8.0 + $ - ] +.+.~ p 6 KXKXKXKXKXKXKXKXKXKXKXKXKXKXKX",
"KXKXKXKXKXKXKXKXKXKXKXKXKXKXKXKXKXKXKXKXKXKXKXKXKXKXKXKXKXKXKXKXKXKXKXKXKXKXKXKXKXKXKXKXKXKXKXKXKXKXKXKXKXKXKXKXKXKXKXKXKXKXKXX.h h _ 0.9.+.+.] [ $.y.y.p.p.*.&.&.( ( [ ( / [ +.! i p 5.,.,._ h l s.M.s.q.` 5.8.5.1 $ > + ! +.t.O.p g KXKXKXKXKXKXKXKXKXKXKXKXKXKXKX",
"KXKXKXKXKXKXKXKXKXKXKXKXKXKXKXKXKXKXKXKXKXKXKXKXKXKXKXKXKXKXKXKXKXKXKXKXKXKXKXKXKXKXKXKXKXKXKXKXKXKXKXKXKXKXKXKXKXKXKXKXKXKXKX,.l h _ 0.9.O.{ ] ] o.&.%.y.y.*.&.$.[ ( ( ( [ o.+.' < p _ 0.5._ p l ` 5.5.h h h u h 0 ; + - ~ +.t.+.^ p KXKXKXKXKXKXKXKXKXKXKXKXKXKXKX",
"KXKXKXKXKXKXKXKXKXKXKXKXKXKXKXKXKXKXKXKXKXKXKXKXKXKXKXKXKXKXKXKXKXKXKXKXKXKXKXKXKXKXKXKXKXKXKXKXKXKXKXKXKXKXKXKXKXKXKXKXKXKXKX6.l p h 0.9.O.{ ] [ o.&.y.y.y.*.*.&.$.( ( ( ( [ o.O.y t _ 5.5._ h h l p h X.X.h p u 0 > $ - y O.+.{ ^ t s KXKXKXKXKXKXKXKXKXKXKXKXKXKX",
"KXKXKXKXKXKXKXKXKXKXKXKXKXKXKXKXKXKXKXKXKXKXKXKXKXKXKXKXKXKXKXKXKXKXKXKXKXKXKXKXKXKXKXKXKXKXKXKXKXKXKXKXKXKXKXKXKXKXKXKXKXKXKXKXk u p 0.i.O.] ] ] o.$.%.y.y.y.y.&.$.( ( ( ( ( [ +.~ < p ` 5.` ` p h t 0 u p p h r 1 > + - > ] +.t.~ 2 4 KXKXKXKXKXKXKXKXKXKXKXKXKXKX",
"KXKXKXKXKXKXKXKXKXKXKXKXKXKXKXKXKXKXKXKXKXKXKXKXKXKXKXKXKXKXKXKXKXKXKXKXKXKXKXKXKXKXKXKXKXKXKXKXKXKXKXKXKXKXKXKXKXKXKXKXKXKXKXKX-.u p 0.i.O.{ { / ] o.&.%.y.y.p.%.$.( ( ( ( ( [ [ ' < i ` 0.0.X.p t 0 : + ; 0 r u 0 $ + - - { t.&./ ! w KXKXKXKXKXKXKXKXKXKXKXKXKXKX",
"KXKXKXKXKXKXKXKXKXKXKXKXKXKXKXKXKXKXKXKXKXKXKXKXKXKXKXKXKXKXKXKXKXKXKXKXKXKXKXKXKXKXKXKXKXKXKXKXKXKXKXKXKXKXKXKXKXKXKXKXKXKXKXKX<.u p 0.i.O.{ ] ~ / [ $.&.*.u.p.%.$.( ( ( ( ( ( / ] y 2 ' 0.q.5.` i t 0 > : < 1 u 0 $ + - - ' &.o.) ^ d KXKXKXKXKXKXKXKXKXKXKXKXKXKX",
"KXKXKXKXKXKXKXKXKXKXKXKXKXKXKXKXKXKXKXKXKXKXKXKXKXKXKXKXKXKXKXKXKXKXKXKXKXKXKXKXKXKXKXKXKXKXKXKXKXKXKXKXKXKXKXKXKXKXKXKXKXKXKXKXw.h h 0.i.O.{ { ~ / [ $.&.*.*.p.*.$.( ( ( ( ( ( [ +.~ 2 p X.q.0.` ` u 1 t 0 < 0 1 : $ $ ; - ^ +.%.) i g s KXKXKXKXKXKXKXKXKXKXKXKXKX",
"KXKXKXKXKXKXKXKXKXKXKXKXKXKXKXKXKXKXKXKXKXKXKXKXKXKXKXKXKXKXKXKXKXKXKXKXKXKXKXKXKXKXKXKXKXKXKXKXKXKXKXKXKXKXKXKXKXKXKXKXKXKXKXKXKXh h 0.i.0.{ ~ ' / / o.&.%.*.p.*.$.( ( ( ( ( ( [ o.{ i i ` 0.0.` h 0 > > > ; 1 $ $ * $ ; ; y ] =./ _ 7 6 KXKXKXKXKXKXKXKXKXKXKXKXKX",
"KXKXKXKXKXKXKXKXKXKXKXKXKXKXKXKXKXKXKXKXKXKXKXKXKXKXKXKXKXKXKXKXKXKXKXKXKXKXKXKXKXKXKXKXKXKXKXKXKXKXKXKXKXKXKXKXKXKXKXKXKXKXKXKXKXl h 0.9.0.{ ~ ] ~ ~ ( $.%.*.*.*.$.( ( ( ( ( ( / ] O.~ < _ ` 5.` i 1 : : : 1 $ $ $ $ $ + - 2 ] =.o.' g 0 KXKXKXKXKXKXKXKXKXKXKXKXKX",
"KXKXKXKXKXKXKXKXKXKXKXKXKXKXKXKXKXKXKXKXKXKXKXKXKXKXKXKXKXKXKXKXKXKXKXKXKXKXKXKXKXKXKXKXKXKXKXKXKXKXKXKXKXKXKXKXKXKXKXKXKXKXKXKXKX6.u O.s.9.] ] ' { / / =.&.*.*.*.&.$.( ( ( ( ( ( / o.~ 2 y _ 5.X.` h u h u p u r 0 ; ; + - < ~ $.[ ~ _ t s KXKXKXKXKXKXKXKXKXKXKXKX",
"KXKXKXKXKXKXKXKXKXKXKXKXKXKXKXKXKXKXKXKXKXKXKXKXKXKXKXKXKXKXKXKXKXKXKXKXKXKXKXKXKXKXKXKXKXKXKXKXKXKXKXKXKXKXKXKXKXKXKXKXKXKXKXKXKX1.h X.i.0.' ~ ^ ' ~ ) ( &.y.u.*.%.$.( ( ( ( ( ( ( o.] y i _ X.5.` h p u h ` l h t > $ X + ; ^ [ o.^ y p s KXKXKXKXKXKXKXKXKXKXKXKX",
"KXKXKXKXKXKXKXKXKXKXKXKXKXKXKXKXKXKXKXKXKXKXKXKXKXKXKXKXKXKXKXKXKXKXKXKXKXKXKXKXKXKXKXKXKXKXKXKXKXKXKXKXKXKXKXKXKXKXKXKXKXKXKXKXKXKX` 0.e.0.O.~ ' ~ / / ( | %.*.u.*.&.| ( ( ( ( ( / [ o.~ y p ' 5.` h h r l X.X.` u < + X + - ^ $.o./ y t d KXKXKXKXKXKXKXKXKXKXKXKX",
"KXKXKXKXKXKXKXKXKXKXKXKXKXKXKXKXKXKXKXKXKXKXKXKXKXKXKXKXKXKXKXKXKXKXKXKXKXKXKXKXKXKXKXKXKXKXKXKXKXKXKXKXKXKXKXKXKXKXKXKXKXKXKXKXKXKX<.8.e.0.O.' ^ ~ ~ ) ( | %.*.u.*.%.$.( ( ( ( ( ( ( o.{ y p p ` 5.` l u ` 8.0.X.u 0 + X ; + ! / / ] ^ 2 d KXKXKXKXKXKXKXKXKXKXKXKX",
"KXKXKXKXKXKXKXKXKXKXKXKXKXKXKXKXKXKXKXKXKXKXKXKXKXKXKXKXKXKXKXKXKXKXKXKXKXKXKXKXKXKXKXKXKXKXKXKXKXKXKXKXKXKXKXKXKXKXKXKXKXKXKXKXKXKX1.9.9.0.{ ~ ~ ^ ^ ~ / | &.%.y.u.*.$.( ( ( ( ( ( ( [ +.^ ! t _ ` 5.` h ` q.8.5.u 0 + X ; @ y o.%./ 2 2 u 4 KXKXKXKXKXKXKXKXKXKXKX",
"KXKXKXKXKXKXKXKXKXKXKXKXKXKXKXKXKXKXKXKXKXKXKXKXKXKXKXKXKXKXKXKXKXKXKXKXKXKXKXKXKXKXKXKXKXKXKXKXKXKXKXKXKXKXKXKXKXKXKXKXKXKXKXKXKXKX1.8.e.9.O.~ ~ ~ ^ ~ ) [ | &.u.u.u.&.| ( [ ( ( ( ( / o.~ y > i _ 5.` ` 5.r.r.r.l 0 $ o $ + t ^ [ / ^ 2 0 s KXKXKXKXKXKXKXKXKXKXKX",
"KXKXKXKXKXKXKXKXKXKXKXKXKXKXKXKXKXKXKXKXKXKXKXKXKXKXKXKXKXKXKXKXKXKXKXKXKXKXKXKXKXKXKXKXKXKXKXKXKXKXKXKXKXKXKXKXKXKXKXKXKXKXKXKXKXKXKXe.e.9.0.' ^ ^ ^ ^ ) [ &.*.*.p.y.%.$.| | ( ( ( ( / [ ] y < i ` 5.5.5.6.r.r.q.` 0 > @ + + 2 / [ [ / 2 < l KXKXKXKXKXKXKXKXKXKXKX",
"KXKXKXKXKXKXKXKXKXKXKXKXKXKXKXKXKXKXKXKXKXKXKXKXKXKXKXKXKXKXKXKXKXKXKXKXKXKXKXKXKXKXKXKXKXKXKXKXKXKXKXKXKXKXKXKXKXKXKXKXKXKXKXKXKXKXKXz.e.0.O.{ ~ ^ ^ ~ ~ ~ [ &.*.p.p.%.&.$.| ( ( ( ( [ [ +.! y < _ ` 5.` 5.6.r.8.l 1 > + + + > ~ &.[ ~ ! 2 > KXKXKXKXKXKXKXKXKXKXKX",
"KXKXKXKXKXKXKXKXKXKXKXKXKXKXKXKXKXKXKXKXKXKXKXKXKXKXKXKXKXKXKXKXKXKXKXKXKXKXKXKXKXKXKXKXKXKXKXKXKXKXKXKXKXKXKXKXKXKXKXKXKXKXKXKXKXKXKXz.s.0.0.' ~ ^ ^ ~ ~ ) [ $.*.u.p.*.&.| ( ( ( ( ( ( ( [ / y i p ` ` l l l l h u : $ $ + > 2 ~ $.[ / ! y 2 6 KXKXKXKXKXKXKXKXKXKX",
"KXKXKXKXKXKXKXKXKXKXKXKXKXKXKXKXKXKXKXKXKXKXKXKXKXKXKXKXKXKXKXKXKXKXKXKXKXKXKXKXKXKXKXKXKXKXKXKXKXKXKXKXKXKXKXKXKXKXKXKXKXKXKXKXKXKXKXKXr.0.O.' ~ ^ ^ ~ ~ ) [ $.%.*.u.*.&.$.| ( ( ( ( ( ( [ / ! ^ t u h h g u u e : o o $ $ ; ; ! +.[ / ! y 2 q KXKXKXKXKXKXKXKXKXKX",
"KXKXKXKXKXKXKXKXKXKXKXKXKXKXKXKXKXKXKXKXKXKXKXKXKXKXKXKXKXKXKXKXKXKXKXKXKXKXKXKXKXKXKXKXKXKXKXKXKXKXKXKXKXKXKXKXKXKXKXKXKXKXKXKXKXKXKXKXr.7.O.] ~ ^ ~ ~ ~ ~ ] $.%.*.p.u.%.$.| ( ( ( ( ( ( [ ] ^ y > t 0 1 r e 0 : $ o o o + + - ! [ [ [ ! 2 2 u KXKXKXKXKXKXKXKXKXKX",
"KXKXKXKXKXKXKXKXKXKXKXKXKXKXKXKXKXKXKXKXKXKXKXKXKXKXKXKXKXKXKXKXKXKXKXKXKXKXKXKXKXKXKXKXKXKXKXKXKXKXKXKXKXKXKXKXKXKXKXKXKXKXKXKXKXKXKXKXe.7.O.{ ~ ^ ^ ~ ^ ^ ) [ %.*.p.y.y.&.| ( ( ( ( ( ( [ [ ~ 2 ; < < : 1 : * : & : : $ > ; - ! [ [ [ ~ y y g KXKXKXKXKXKXKXKXKXKX",
"KXKXKXKXKXKXKXKXKXKXKXKXKXKXKXKXKXKXKXKXKXKXKXKXKXKXKXKXKXKXKXKXKXKXKXKXKXKXKXKXKXKXKXKXKXKXKXKXKXKXKXKXKXKXKXKXKXKXKXKXKXKXKXKXKXKXKXKXe.7.+.{ ~ ~ ~ ~ ^ ^ ) [ &.*.p.p.y.&.| ( ( ( ( ( ( ( ( / ! O X + ; > : 1 $ % $ : ; > - - ^ [ [ ( ) ! y g f KXKXKXKXKXKXKXKXKX",
"KXKXKXKXKXKXKXKXKXKXKXKXKXKXKXKXKXKXKXKXKXKXKXKXKXKXKXKXKXKXKXKXKXKXKXKXKXKXKXKXKXKXKXKXKXKXKXKXKXKXKXKXKXKXKXKXKXKXKXKXKXKXKXKXKXKXKXKXe.7.+.{ ' ~ ~ ~ ^ ^ ) [ | &.u.y.y.&.| ( ( ( ( ( ( ( ( / ] 2 O X X + : r u u 0 : o + O > ] o.( ( ] ! ! g -.KXKXKXKXKXKXKXKXKX",
"KXKXKXKXKXKXKXKXKXKXKXKXKXKXKXKXKXKXKXKXKXKXKXKXKXKXKXKXKXKXKXKXKXKXKXKXKXKXKXKXKXKXKXKXKXKXKXKXKXKXKXKXKXKXKXKXKXKXKXKXKXKXKXKXKXKXKXKXKX@.+.{ { ' ' ~ ^ ^ ~ / | &.*.y.*.&.$.( ( ( ( ( ( ( ( ( ] O.^ +   X . X . o o     O - O.+.$.=.( [ ! ! h 8.KXKXKXKXKXKXKXKXKX"
};
