/* XPM */
static const char *xpm__6_sgun_outbullets1[] = {
/* columns rows colors chars-per-pixel */
"130 143 256 2 ",
"   c #020202",
".  c #0B0403",
"X  c #060A0A",
"o  c #0C0C0C",
"O  c #080807",
"+  c #130401",
"@  c #120D0C",
"#  c #180A06",
"$  c #13110D",
"%  c #1B1409",
"&  c #0C0E12",
"*  c #080814",
"=  c #150B13",
"-  c #0E1215",
";  c #141314",
":  c #1B1513",
">  c #1B1A15",
",  c #14151A",
"<  c #1A161B",
"1  c #16191C",
"2  c #1B1B1C",
"3  c #161915",
"4  c #0B110C",
"5  c #260707",
"6  c #350C0B",
"7  c #26170A",
"8  c #35140B",
"9  c #270A16",
"0  c #241A14",
"q  c #2B1D13",
"w  c #231C1B",
"e  c #2B1D1B",
"r  c #241515",
"t  c #371917",
"y  c #370E14",
"u  c #1E211D",
"i  c #23211D",
"p  c #2C221C",
"a  c #2C2515",
"s  c #342414",
"d  c #34241B",
"f  c #3A251C",
"g  c #352A1B",
"h  c #3C2C1C",
"j  c #392915",
"k  c #3B331C",
"l  c #30250E",
"z  c #151C22",
"x  c #1C1D22",
"c  c #191728",
"v  c #171932",
"b  c #221E23",
"n  c #291A27",
"m  c #381B22",
"M  c #2F152E",
"N  c #1C2225",
"B  c #1D242B",
"V  c #1D282A",
"C  c #1D2434",
"Z  c #242224",
"A  c #2B2423",
"S  c #2D2A26",
"D  c #24242B",
"F  c #2A252B",
"G  c #232A2D",
"H  c #2C2A2C",
"J  c #222A25",
"K  c #332523",
"L  c #342B24",
"P  c #3C2C23",
"I  c #322D2B",
"U  c #38292A",
"Y  c #3D3324",
"T  c #34312C",
"R  c #3C322C",
"E  c #3B3927",
"W  c #242C33",
"Q  c #2B2C32",
"!  c #272937",
"~  c #322D33",
"^  c #352B37",
"/  c #2C3235",
"(  c #2C343A",
")  c #2A3739",
"_  c #343235",
"`  c #3B3433",
"'  c #34333A",
"]  c #3B353B",
"[  c #3D3A3C",
"{  c #393A38",
"}  c #2E372A",
"|  c #461919",
" . c #561D1B",
".. c #42160E",
"X. c #422C1C",
"o. c #47251B",
"O. c #55241B",
"+. c #43331D",
"@. c #483619",
"#. c #4D3116",
"$. c #481C23",
"%. c #571D25",
"&. c #422D22",
"*. c #4A2826",
"=. c #562929",
"-. c #443224",
";. c #4A3425",
":. c #44342C",
">. c #4B352A",
",. c #4C3A2B",
"<. c #483B26",
"1. c #533424",
"2. c #543926",
"3. c #5A3C27",
"4. c #543B2B",
"5. c #5B3D2A",
"6. c #57352B",
"7. c #592B33",
"8. c #4C3C32",
"9. c #433D3B",
"0. c #453835",
"q. c #543D32",
"w. c #583836",
"e. c #492F31",
"r. c #632828",
"t. c #63382C",
"y. c #672C35",
"u. c #6B3D3B",
"i. c #663836",
"p. c #733B38",
"a. c #703225",
"s. c #662C1E",
"d. c #394333",
"f. c #46422A",
"g. c #5D412D",
"h. c #56442B",
"j. c #4C433B",
"k. c #474539",
"l. c #554233",
"z. c #5C4433",
"x. c #54443B",
"c. c #5C443B",
"v. c #5D4A3A",
"b. c #584A38",
"n. c #58523A",
"m. c #4F5238",
"M. c #61422D",
"N. c #614534",
"B. c #624C3C",
"V. c #66453A",
"C. c #75433B",
"Z. c #66543A",
"A. c #715A31",
"S. c #5A512B",
"D. c #2E3844",
"F. c #3E3A42",
"G. c #323A45",
"H. c #2B2F4E",
"J. c #423D43",
"K. c #463D48",
"L. c #573A42",
"P. c #703E44",
"I. c #384349",
"U. c #3B4956",
"Y. c #384C4C",
"T. c #3E4A60",
"R. c #444245",
"E. c #4B4443",
"W. c #4A454A",
"Q. c #4A4849",
"!. c #544B44",
"~. c #534C4B",
"^. c #5A4B44",
"/. c #4B5548",
"(. c #5D5244",
"). c #5C534C",
"_. c #555649",
"`. c #494B54",
"'. c #534D54",
"]. c #47535A",
"[. c #5C5452",
"{. c #585659",
"}. c #644E41",
"|. c #694644",
" X c #774747",
".X c #645244",
"XX c #695446",
"oX c #64554A",
"OX c #6A5649",
"+X c #655A4C",
"@X c #6A594C",
"#X c #645B44",
"$X c #645B54",
"%X c #6B5C52",
"&X c #655A58",
"*X c #775955",
"=X c #75544D",
"-X c #5B675A",
";X c #6C635C",
":X c #696357",
">X c #74655A",
",X c #70684D",
"<X c #4A5968",
"1X c #575963",
"2X c #4D536B",
"3X c #635E64",
"4X c #625F70",
"5X c #576677",
"6X c #586B69",
"7X c #686567",
"8X c #766B67",
"9X c #79736B",
"0X c #726D74",
"qX c #7A7577",
"wX c #67706C",
"eX c #864C39",
"rX c #87574F",
"tX c #8A7055",
"yX c #AC6954",
"uX c #857B79",
"iX c #8B756D",
"pX c #A86B57",
"aX c #C27B65",
"sX c #768879",
"dX c #88837C",
"fX c #91887E",
"gX c #B88776",
"hX c #CB8B77",
"jX c #67778A",
"kX c #71778B",
"lX c #5D6E85",
"zX c #857E81",
"xX c #867A9E",
"cX c #768699",
"vX c #718590",
"bX c #7988A6",
"nX c #7E91AF",
"mX c #888485",
"MX c #938B8A",
"NX c #948D94",
"BX c #999495",
"VX c #8D9090",
"CX c #8FA497",
"ZX c #A7A39C",
"AX c #8794AF",
"SX c #A8A6A7",
"DX c #B1AAB3",
"FX c #A39DA5",
"GX c #CB9D8D",
"HX c #B3B3C6",
"JX c #91A0C3",
"KX c #C8CECB",
"LX c #C7E2CF",
"PX c #CCC5BF",
"IX c None",
"UX c black",
/* pixels */
"IXIXIXIXIXIXIXIXIXIXIXIXIXIXIXIXIXIXIXIXIXIXIXIXIXIXIXIXIXIXIXIXIXIXIXIXIXIXIXIXIXIXIXIXIXIXIXIXIXIXIXIXIXIXIXIXIXIXIXIXIXIXIXIXIXIXIXIXIXIXIXIXIXIXIXIXIXIXIXIXIXIXIXIXIXIXIXIXIXIXIXIXIXIXIXIXIXIXIXIXIXIXIXIXIXIXIXIXIXIXIXIXIXIXIXIXIXIXIXIXIXIXIXIXIXIXIXIXIXIX",
"IXIXIXIXIXIXIXIXIXIXIXIXIXIXIXIXIXIXIXIXIXIXIXIXIXIXIXIXIXIXIXIXIXIXIXIXIXIXIXIXIXIXIXIXIXIXIXIXIXIXIXIXIXIXIXIXIXIXIXIXIXIXIXIXIXIXIXIXIXIXIXIXIXIXIXIXIXIXIXIXIXIXIXIXIXIXIXIXIXIXIXIXIXIXIXIXIXIXIXIXIXIXIXIXIXIXIXIXIXIXIXIXIXIXIXIXIXIXIXIXIXIXIXIXIXIXIXIXIXIX",
"IXIXIXIXIXIXIXIXIXIXIXIXIXIXIXIXIXIXIXIXIXIXIXIXIXIXIXIXIXIXIXIXIXIXIXIXIXIXIXIXIXIXIXIXIXIXIXIXIXIXIXIXIXIXIXIXIXIXIXIXIXIXIXIXIXIXIXIXIXIXIXIXIXIXIXIXIXIXIXIXIXIXIXIXIXIXIXIXIXIXIXIXIXIXIXIXIXIXIXIXIXIXIXIXIXIXIXIXIXIXIXIXIXIXIXIXIXIXIXIXIXIXIXIXIXIXIXIXIXIX",
"IXIXIXIXIXIXIXIXIXIXIXIXIXIXIXIXIXIXIXIXIXIXIXIXIXIXIXIXIXIXIXIXIXIXIXIXIXIXIXIXIXIXIXIXIXIXIXIXIXIXIXIXIXIXIXIXIXIXIXIXIXIXIXIXIXIXIXIXIXIXIXIXIXIXIXIXIXIXIXIXIXIXIXIXIXIXIXIXIXIXIXIXIXIXIXIXIXIXIXIXIXIXIXIXIXIXIXIXIXIXIXIXIXIXIXIXIXIXIXIXIXIXIXIXIXIXIXIXIXIX",
"IXIXIXIXIXIXIXIXIXIXIXIXIXIXIXIXIXIXIXIXIXIXIXIXIXIXIXIXIXIXIXIXIXIXIXIXIXIXIXIXIXIXIXIXIXIXIXIXIXIXIXIXIXIXIXIXIXIXIXIXIXIXIXIXIXIXIXIXIXIXIXIXIXIXIXIXIXIXIXIXIXIXIXIXIXIXIXIXIXIXIXIXIXIXIXIXIXIXIXIXIXIXIXIXIXIXIXIXIXIXIXIXIXIXIXIXIXIXIXIXIXIXIXIXIXIXIXIXIXIX",
"IXIXIXIXIXIXIXIXIXIXIXIXIXIXIXIXIXIXIXIXIXIXIXIXIXIXIXIXIXIXIXIXIXIXIXIXIXIXIXIXIXIXIXIXIXIXIXIXIXIXIXIXIXIXIXIXIXIXIXIXIXIXIXIXIXIXIXIXIXIXIXIXIXIXIXIXIXIXIXIXIXIXIXIXIXIXIXIXIXIXIXIXIXIXIXIXIXIXIXIXIXIXIXIXIXIXIXIXIXIXIXIXIXIXIXIXIXIXIXIXIXIXIXIXIXIXIXIXIXIX",
"IXIXIXIXIXIXIXIXIXIXIXIXIXIXIXIXIXIXIXIXIXIXIXIXIXIXIXIXIXIXIXIXIXIXIXIXIXIXIXIXIXIXIXIXIXIXIXIXIXIXIXIXIXIXIXIXIXIXIXIXIXIXIXIXIXIXIXIXIXIXIXIXIXIX^ 0.P :.0.9.IXIXIXIXIXIXIXIXIXIXIXIXIXIXIXIXIXIXIXIXIXIXIXIXIXIXIXIXIXIXIXIXIXIXIXIXIXIXIXIXIXIXIXIXIXIXIXIXIXIX",
"IXIXIXIXIXIXIXIXIXIXIXIXIXIXIXIXIXIXIXIXIXIXIXIXIXIXIXIXIXIXIXIXIXIXIXIXIXIXIXIXIXIXIXIXIXIXIXIXIXIXIXIXIXIXIXIXIXIXIXIXIXIXIXIXIXIXIXIXIXIXIXIXn ^ :.-.@.#.+.X.k L IXIXIXIXIXIXIXIXIXIXIXIXIXIXIXIXIXIXIXIXIXIXIXIXIXIXIXIXIXIXIXIXIXIXIXIXIXIXIXIXIXIXIXIXIXIXIXIX",
"IXIXIXIXIXIXIXIXIXIXIXIXIXIXIXIXIXIXIXIXIXIXIXIXIXIXIXIXIXIXIXIXIXIXIXIXIXIXIXIXIXIXIXIXIXIXIXIXIXIXIXIXIXIXIXIXIXIXIXIXIXIXIXIXIXIXIXIXIXIXn U K :.X.@.@.@.o.;.&.,.P K = IXIXIXIXIXIXIXIXIXIXIXIXIXIXIXIXIXIXIXIXIXIXIXIXIXIXIXIXIXIXIXIXIXIXIXIXIXIXIXIXIXIXIXIXIX",
"IXIXIXIXIXIXIXIXIXIXIXIXIXIXIXIXIXIXIXIXIXIXIXIXIXIXIXIXIXIXIXIXIXIXIXIXIXIXIXIXIXIXIXIXIXIXIXIXIXIXIXIXIXIXIXIXIXIXIXIXIXIXIXIXIXIXIXIXIX] p P 8.h @.@.#.@.;.&.;.h 2.h q . IXIXIXIXIXIXIXIXIXIXIXIXIXIXIXIXIXIXIXIXIXIXIXIXIXIXIXIXIXIXIXIXIXIXIXIXIXIXIXIXIXIXIXIX",
"IXIXIXIXIXIXIXIXIXIXIXIXIXIXIXIXIXIXIXIXIXIXIXIXIXIXIXIXIXIXIXIXIXIXIXIXIXIXIXIXIXIXIXIXIXIXIXIXIXIXIXIXIXIXIXIXIXIXIXIXIXIXIXIXIXIXIXIXK d -.-.-.<.l @.f.<.-.:.-.;.j ;.&.f P I IXIXIXIXIXIXIXIXIXIXIXIXIXIXIXIXIXIXIXIXIXIXIXIXIXIXIXIXIXIXIXIXIXIXIXIXIXIXIXIXIXIX",
"IXIXIXIXIXIXIXIXIXIXIXIXIXIXIXIXIXIXIXIXIXIXIXIXIXIXIXIXIXIXIXIXIXIXIXIXIXIXIXIXIXIXIXIXIXIXIXIXIXIXIXIXIXIXIXIXIXIXIXIXIXIXIXIXIXIXIXIXr -.;.+.h k <.l l # 0 7 f -.;.s ;.s <.a IXIXIXIXIXIXIXIXIXIXIXIXIXIXIXIXIXIXIXIXIXIXIXIXIXIXIXIXIXIXIXIXIXIXIXIXIXIXIXIXIXIX",
"IXIXIXIXIXIXIXIXIXIXIXIXIXIXIXIXIXIXIXIXIXIXIXIXIXIXIXIXIXIXIXIXIXIXIXIXIXIXIXIXIXIXIXIXIXIXIXIXIXIXIXIXIXIXIXIXIXIXIXIXIXIXIXIXIXIXIXK.&.j h -.-.h a + . 0 # 7 % 7 P -.s -.j Y F IXIXIXIXIXIXIXIXIXIXIXIXIXIXIXIXIXIXIXIXIXIXIXIXIXIXIXIXIXIXIXIXIXIXIXIXIXIXIXIXIX",
"IXIXIXIXIXIXIXIXIXIXIXIXIXIXIXIXIXIXIXIXIXIXIXIXIXIXIXIXIXIXIXIXIXIXIXIXIXIXIXIXIXIXIXIXIXIXIXIXIXIXIXIXIXIXIXIXIXIXIXIXIXIXIXIXIXIXIXK l j X.>.,.l . + 0.L g g g # r e &.s j -.: IXIXIXIXIXIXIXIXIXIXIXIXIXIXIXIXIXIXIXIXIXIXIXIXIXIXIXIXIXIXIXIXIXIXIXIXIXIXIXIXIX",
"IXIXIXIXIXIXIXIXIXIXIXIXIXIXIXIXIXIXIXIXIXIXIXIXIXIXIXIXIXIXIXIXIXIXIXIXIXIXIXIXIXIXIXIXIXIXIXIXIXIXIXIXIXIXIXIXIXIXIXIXIXIXIXIXIXIXIX7 l @.-.8.-.7 + 0.U K 8.s g p + L :.h P P : IXIXIXIXIXIXIXIXIXIXIXIXIXIXIXIXIXIXIXIXIXIXIXIXIXIXIXIXIXIXIXIXIXIXIXIXIXIXIXIXIX",
"IXIXIXIXIXIXIXIXIXIXIXIXIXIXIXIXIXIXIXIXIXIXIXIXIXIXIXIXIXIXIXIXIXIXIXIXIXIXIXIXIXIXIXIXIXIXIXIXIXIXIXIXIXIXIXIXIXIXIXIXIXIXIXIXIXIXIX7 +.@.,.-.g # q d K $X@Xf.% a 0 r h P f P I * IXIXIXIXIXIXIXIXIXIXIXIXIXIXIXIXIXIXIXIXIXIXIXIXIXIXIXIXIXIXIXIXIXIXIXIXIXIXIXIX",
"IXIXIXIXIXIXIXIXIXIXIXIXIXIXIXIXIXIXIXIXIXIXIXIXIXIXIXIXIXIXIXIXIXIXIXIXIXIXIXIXIXIXIXIXIXIXIXIXIXIXIXIXIXIXIXIXIXIXIXIXIXIXIXIXIXIXIXm s ;.-.-.k % 7 L e %X,.k.Y % d q h s P R L = IXIXIXIXIXIXIXIXIXIXIXIXIXIXIXIXIXIXIXIXIXIXIXIXIXIXIXIXIXIXIXIXIXIXIXIXIXIXIXIX",
"IXIXIXIXIXIXIXIXIXIXIXIXIXIXIXIXIXIXIXIXIXIXIXIXIXIXIXIXIXIXIXIXIXIXIXIXIXIXIXIXIXIXIXIXIXIXIXIXIXIXIXIXIXIXIXIXIXIXIXIXIXIXIXIXIXIX* K P -.l -.<.q + P d 0 8.0.g . &.7 -.;.P f g = IXIXIXIXIXIXIXIXIXIXIXIXIXIXIXIXIXIXIXIXIXIXIXIXIXIXIXIXIXIXIXIXIXIXIXIXIXIXIXIX",
"IXIXIXIXIXIXIXIXIXIXIXIXIXIXIXIXIXIXIXIXIXIXIXIXIXIXIXIXIXIXIXIXIXIXIXIXIXIXIXIXIXIXIXIXIXIXIXIXIXIXIXIXIXIXIXIXIXIXIXIXIXIXIXIXIX< e d s +.j +.s -.7 % R L d # . ,.j j z.j s f 7 : IXIXIXIXIXIXIXIXIXIXIXIXIXIXIXIXIXIXIXIXIXIXIXIXIXIXIXIXIXIXIXIXIXIXIXIXIXIXIXIX",
"IXIXIXIXIXIXIXIXIXIXIXIXIXIXIXIXIXIXIXIXIXIXIXIXIXIXIXIXIXIXIXIXIXIXIXIXIXIXIXIXIXIXIXIXIXIXIXIXIXIXIXIXIXIXIXIXIXIXIXIXIXIXIXIX< # d 8.k j h j -.P d # % K q q g h 7 <.h.+.X.-.j 0 IXIXIXIXIXIXIXIXIXIXIXIXIXIXIXIXIXIXIXIXIXIXIXIXIXIXIXIXIXIXIXIXIXIXIXIXIXIXIXIX",
"IXIXIXIXIXIXIXIXIXIXIXIXIXIXIXIXIXIXIXIXIXIXIXIXIXIXIXIXIXIXIXIXIXIXIXIXIXIXIXIXIXIXIXIXIXIXIXIXIXIXIXIXIXIXIXIXIXIXIXIXIXIXIX= r q Y b.k l +.;.h j g L q p e f s l v.v.+.h h h j p IXIXIXIXIXIXIXIXIXIXIXIXIXIXIXIXIXIXIXIXIXIXIXIXIXIXIXIXIXIXIXIXIXIXIXIXIXIXIXIX",
"IXIXIXIXIXIXIXIXIXIXIXIXIXIXIXIXIXIXIXIXIXIXIXIXIXIXIXIXIXIXIXIXIXIXIXIXIXIXIXIXIXIXIXIXIXIXIXIXIXIXIXIXIXIXIXIXIXIXIXIXIXIXIX# q k g a (.a s h X.-.s a Y :.&.&.h n.8.P f f j j h A IXIXIXIXIXIXIXIXIXIXIXIXIXIXIXIXIXIXIXIXIXIXIXIXIXIXIXIXIXIXIXIXIXIXIXIXIXIXIXIX",
"IXIXIXIXIXIXIXIXIXIXIXIXIXIXIXIXIXIXIXIXIXIXIXIXIXIXIXIXIXIXIXIXIXIXIXIXIXIXIXIXIXIXIXIXIXIXIXIXIXIXIXIXIXIXIXIXIXIXIXIXIXIX= e.h <.Y E L ).q q h s k k h h -.-.-.-.d :.P &.s -.e * IXIXIXIXIXIXIXIXIXIXIXIXIXIXIXIXIXIXIXIXIXIXIXIXIXIXIXIXIXIXIXIXIXIXIXIXIXIXIXIX",
"IXIXIXIXIXIXIXIXIXIXIXIXIXIXIXIXIXIXIXIXIXIXIXIXIXIXIXIXIXIXIXIXIXIXIXIXIXIXIXIXIXIXIXIXIXIXIXIXIXIXIXIXIXIXIXIXIXIXIXIXIX= 9 e.Y g :.E T k.$XE % Y k j j s s j s g P K f f -.P = IXIXIXIXIXIXIXIXIXIXIXIXIXIXIXIXIXIXIXIXIXIXIXIXIXIXIXIXIXIXIXIXIXIXIXIXIXIXIXIXIX",
"IXIXIXIXIXIXIXIXIXIXIXIXIXIXIXIXIXIXIXIXIXIXIXIXIXIXIXIXIXIXIXIXIXIXIXIXIXIXIXIXIXIXIXIXIXIXIXIXIXIXIXIXIXIXIXIXIXIXIXIXIX# m w.<.g E 0.d.{ /.dXk.% j k s j s h l g P d h h g e IXIXIXIXIXIXIXIXIXIXIXIXIXIXIXIXIXIXIXIXIXIXIXIXIXIXIXIXIXIXIXIXIXIXIXIXIXIXIXIXIXIX",
"IXIXIXIXIXIXIXIXIXIXIXIXIXIXIXIXIXIXIXIXIXIXIXIXIXIXIXIXIXIXIXIXIXIXIXIXIXIXIXIXIXIXIXIXIXIXIXIXIXIXIXIXIXIXIXIXIXIXIXIX+ 7 t e.<.k E T E.k.{ -XBX:X7 7 s k k l k l d f q # % IXIXIXIXIXIXIXIXIXIXIXIXIXIXIXIXIXIXIXIXIXIXIXIXIXIXIXIXIXIXIXIXIXIXIXIXIXIXIXIXIXIXIX",
"IXIXIXIXIXIXIXIXIXIXIXIXIXIXIXIXIXIXIXIXIXIXIXIXIXIXIXIXIXIXIXIXIXIXIXIXIXIXIXIXIXIXIXIXIXIXIXIXIXIXIXIXIXIXIXIXIXIXIXr # f y q.m.d.E d.-X/./.CXsXVX;X<.s q % a 7 l 7 7 j >X!.IXIXIXIXIXIXIXIXIXIXIXIXIXIXIXIXIXIXIXIXIXIXIXIXIXIXIXIXIXIXIXIXIXIXIXIXIXIXIXIXIXIXIX",
"IXIXIXIXIXIXIXIXIXIXIXIXIXIXIXIXIXIXIXIXIXIXIXIXIXIXIXIXIXIXIXIXIXIXIXIXIXIXIXIXIXIXIXIXIXIXIXIXIXIXIXIXIXIXIXIXIXIXIX+ 5 8 *.t n.E f.g /.-XsXwX-X_.:X%Xv.(.(.n.n.@.<.b.(.9.IXIXIXIXIXIXIXIXIXIXIXIXIXIXIXIXIXIXIXIXIXIXIXIXIXIXIXIXIXIXIXIXIXIXIXIXIXIXIXIXIXIXIXIX",
"IXIXIXIXIXIXIXIXIXIXIXIXIXIXIXIXIXIXIXIXIXIXIXIXIXIXIXIXIXIXIXIXIXIXIXIXIXIXIXIXIXIXIXIXIXIXIXIXIXIXIXIXIXIXIXIXIXIX+ 5 t t t &.h (.g 9X/.CXLXCX_.wX).(.0.+X(.b.Z.tX,X,.E.IXIXIXIXIXIXIXIXIXIXIXIXIXIXIXIXIXIXIXIXIXIXIXIXIXIXIXIXIXIXIXIXc ^ w w IXIXIXIXIXIXIXIXIX",
"IXIXIXIXIXIXIXIXIXIXIXIXIXIXIXIXIXIXIXIXIXIXIXIXIXIXIXIXIXIXIXIXIXIXIXIXIXIXIXIXIXIXIXIXIXIXIXIXIXIXIXIXIXIXIXIXIX9 5 5 | t m t s (.9X_.sX6XCXVXwXd./.f.b.k k f.Z.tXg.8.IXIXIXIXIXIXIXIXIXIXIXIXIXIXIXIXIXIXIXIXIXIXIXIXIXIXIXIXIXIXIXM U K j h 7 d L.^ IXIXIXIXIXIX",
"IXIXIXIXIXIXIXIXIXIXIXIXIXIXIXIXIXIXIXIXIXIXIXIXIXIXIXIXIXIXIXIXIXIXIXIXIXIXIXIXIXIXIXIXIXIXIXIXIXIXIXIXIXIXIXIXIX+ 6 t y e.y K 8.).:XsXLXsX6XmX_.m.k.f.m.n.k Z.tXA.>.IXIXIXIXIXIXIXIXIXIXIXIXIXIXIXIXIXIXIXIXIXIXIXIXIXIXIXIXIXIXE.U d P X.X.2.X.>.P U U IXIXIXIXIX",
"IXIXIXIXIXIXIXIXIXIXIXIXIXIXIXIXIXIXIXIXIXIXIXIXIXIXIXIXIXIXIXIXIXIXIXIXIXIXIXIXIXIXIXIXIXIXIXIXIXIXIXIXIXIXIXIX# 5 8 | *.y t m w.e.j.7XLXVXsXk.k.m.m.f.m.f.A.A.h.;.IXIXIXIXIXIXIXIXIXIXIXIXIXIXIXIXIXIXIXIXIXIXIXIXIXIXIXIXIXIXw h l X.X.X.2.@.o.X.;.h :.P ` IXIXIX",
"IXIXIXIXIXIXIXIXIXIXIXIXIXIXIXIXIXIXIXIXIXIXIXIXIXIXIXIXIXIXIXIXIXIXIXIXIXIXIXIXIXIXIXIXIXIXIXIXIXIXIXIXIXIXIX= 5 8 8 =.6 y w.t *.P 9.[.:XdX:X$Xk.).m.b.m.,XA.tX-.IXIXIXIXIXIXIXIXIXIXIXIXIXIXIXIXIXIXIXIXIXIXIXIXIXIXIXIXIXIXIXe -.s ;.h +.+.,.h ;.;.-.-.-.s IXIXIX",
"IXIXIXIXIXIXIXIXIXIXIXIXIXIXIXIXIXIXIXIXIXIXIXIXIXIXIXIXIXIXIXIXIXIXIXIXIXIXIXIXIXIXIXIXIXIXIXIXIXIXIXIXIXIXIX= t 6 *.| t t t w.*.t w.^.!.!.:X%X+Xb.(.v.B.z...1.IXIXIXIXIXIXIXIXIXIXIXIXIXIXIXIXIXIXIXIXIXIXIXIXIXIXIXIXIXIXIXA -.,.h h -.-.-.Y s Y ,.,.-.+.X.e IXIX",
"IXIXIXIXIXIXIXIXIXIXIXIXIXIXIXIXIXIXIXIXIXIXIXIXIXIXIXIXIXIXIXIXIXIXIXIXIXIXIXIXIXIXIXIXIXIXIXIXIXIXIXIXIXIX= 5 6 *.| 6 =.*.t w.*.6.|.OX^.w.8.-.;.5.;.z.o.6 e.IXIXIXIXIXIXIXIXIXIXIXIXIXIXIXIXIXIXIXIXIXIXIXIXIXIXIXIX: : % + d h j <.,.P x.p e % 7 :.,.+.+.j -.e IX",
"IXIXIXIXIXIXIXIXIXIXIXIXIXIXIXIXIXIXIXIXIXIXIXIXIXIXIXIXIXIXIXIXIXIXIXIXIXIXIXIXIXIXIXIXIXIXIXIXIXIXIXIXIX= + f 8 t | | 7.7.V.| 7.6.|.*.e.w.e.w.;.1.1.| 6 7.IXIXIXIXIXIXIXIXIXIXIXIXIXIXIXIXIXIXIXIXIXIXIXIXIXIXIX. . a . 8.P Y h +.<.-.-.# + + + # # 7 h +.j 2.+.IX",
"IXIXIXIXIXIXIXIXIXIXIXIXIXIXIXIXIXIXIXIXIXIXIXIXIXIXIXIXIXIXIXIXIXIXIXIXIXIXIXIXIXIXIXIXIXIXIXIXIXIXIXIXIX# 6 6 o.| y 7.6.V.o.5.7.=.6.w.t 7.=.7.6.o...O.=.IXIXIXIXIXIXIXIXIXIXIXIXIXIXIXIXIXIXIXIXIXIXIXIXIX. r p L A p p 0.p q h +.j j g q + 0.P :.7 % s -.-.+.f t ",
"IXIXIXIXIXIXIXIXIXIXIXIXIXIXIXIXIXIXIXIXIXIXIXIXIXIXIXIXIXIXIXIXIXIXIXIXIXIXIXIXIXIXIXIXIXIXIXIXIXIXIXIX+ 5 8 o.*.y =.7.i.6.O.i.u.i.i.=.6.| i.=.| | r.| IXIXIXIXIXIXIXIXIXIXIXIXIXIXIXIXIXIXIXIXIXIXIX= + r h <.h g :.R K !.d P P -.f q 7 7 g a Y d d q # -.-.,.>.8 ",
"IXIXIXIXIXIXIXIXIXIXIXIXIXIXIXIXIXIXIXIXIXIXIXIXIXIXIXIXIXIXIXIXIXIXIXIXIXIXIXIXIXIXIXIXIXIXIXIXIXIXIX^ 9 8 | *.y *.7.7.i.=.i.u.P.=X6.6.i.i.7.=.%.=.| IXIXIXIXIXIXIXIXIXIXIXIXIXIXIXIXIXIXIXIXIXIX+ 5 9 5 5 q <.f.j k a Y (.0 R :.h :.h + g g l (.E d g + P p h h s ",
"IXIXIXIXIXIXIXIXIXIXIXIXIXIXIXIXIXIXIXIXIXIXIXIXIXIXIXIXIXIXIXIXIXIXIXIXH.G.U.].jXHXIXIXIXIXIXIXIXIXIX^ 9 | $.| | =.w.u.*.7. Xu. Xi.6.i.t.t.=.%.=.$.IXIXIXIXIXIXIXIXIXIXIXIXIXIXIXIXIXIXIXIXIX. 5 5 5 5 t t ,.,.j k k f.a %Xp d Y h Y d 7 a a oXj.).7 P # % P g Y j ",
"IXIXIXIXIXIXIXIXIXIXIXIXIXIXIXIXIXIXIXIXIXIXIXIXIXIXIXIXIXIXIXIXIXIXIXH.N z ! C D.<XFXIXIXIXIXIXIXIXIXM y =.| | =.i.i.w.O.i. X Xu.i.i.p.=.=. .t. .IXIXIXIXIXIXIXIXIXIXIXIXIXIXIXIXIXIXIX9 + 9 5 y 5 t t o.t @Xv.E g d.f.g k.% a k h k d + P L e ` !.% q d s Y h j k ",
"IXIXIXIXIXIXIXIXIXIXIXIXIXIXIXIXIXIXIXIXIXIXIXIXIXIXIXIXIXIXIXIXIXIXIXW V V W ( G.<XmXIXIXIXIXIXIXIXIXn m $.| =.i.i.V.o.i.C. X Xi.i.p.y.y.O.r.O.IXIXIXIXIXIXIXIXIXIXIXIXIXIXIXIXIX. 5 8 8 5 9 m t *.*.*.8 o.%XY E k.} k.d.m.a l k j g g p # d e 0.r 0.7 d # -.Y h h ",
"IXIXIXIXIXIXIXIXIXIXIXIXIXIXIXIXIXIXIXIXIXIXIXIXIXIXIXIXIXIXIXIXIXIXIX( I./ N ( `.I.7XkXkXHXIXIXIXIXIXr *.8 *.i.i. X| w.u. X Xy.t. Xy.y.=.O.s.| IXIXIXIXIXIXIXIXIXIXIXIXIXIXIX9 M 9 5 6 6 5 *.$.y t *.5 t t s :X} d.-Xk.d._.fX% h k Y g q L q q 7 % + R q 7 j h h h ",
"IXIXIXIXIXIXIXIXIXIXIXIXIXIXIXIXIXIXIXIXIXH.G.D.G.U.G.G.Q.d.} G V G V W I.1 J u G W W B W ( qXIXIXIXIXq *.o.6.i.C.=.6.C. X XP.y.p.p.y.%.r.r.=.IXIXIXIXIXIXIXIXIXIXIXIXIXIXq 5 5 5 y $.y O...6 t t y t *.t q.(.8XwXd.d./._.wXVXk.Y h -.f h :.q d h + P d 7 g h h j j ",
"IXIXIXIXIXIXIXIXIXIXIXIXIXIXIXIXIXIXIX].H.C D.D.D.G.G.D.G.! z N z z W G.W X X 4 - N G ! ! B G G 2 3 : K f q.w. Xt.=.C.=X Xu.y.p.p.y. .y.r.y.IXIXIXIXIXIXIXIXIXIXIXIXIXIX9 o.6 8 ..| $.| | 8 o.*.y *.*.$.L.8.;X9X/./.CXsXwXCXBX[.p P f f P -.h s q s q h l.:.d g Y P ",
"IXIXIXIXIXIXIXIXIXIXIXIXIXIXIXIXIXIXU.C G.U.G.].`.D.G.! C ! ! ' / B z ! z   4   X - W ! ! ! W / H > > 0.e w.|.w.o.V.=X X Xt.p.C.p. .r.7.7.IXIXIXIXIXIXIXIXIXIXIXIXIXIXIXt t ..O.O.=.| | | 7.8 i.*.y w.*.m e.9.qXLXwXCXLX6X-XZX:Xq q f f f -.h +.v.v.,.:.l.h P d P q ",
"IXIXIXIXIXIXIXIXIXIXIXIXIXIXIXIXIXH.D.G.`./.I.N x - , , & 1 1 2 G G ' W - X X o & , ! ! W ( ' 2 $ O o = m e.*Xw.w.=X*X Xi.rXp.eXa. .p.=.IXIXIXIXIXIXIXIXIXIXIXIXIXIXIX9 *.| 6...6 o.o.6.*.7.=.w.i.t w.o.e.e.).wXLXsXCXCXCXwX{.;X8.# h s -.s f >.s v.}.h X.h s s j 7 ",
"IXIXIXIXIXIXIXIXIXIXIXIXIXIXIXIXH.U.2X1X{.J X 4 4 2 , ; N u 3 3 & D / W B , 1 , N G G N / N 2 ; 2 3 w w uX# >.|.|.=X|.i.u.C.rXs. .i.$.IXIXIXIXIXIXIXIXIXIXIXIXIXIXIX9 f *.6 y 6.| 6.1.5.7.i.i.i.=.o.1.w.}.q.~.7XCXvXwXY.wXwX/.;Xn.j s j q d d d &.f f j h h h l 7 # ",
"IXIXIXIXIXIXIXIXIXIXIXIXIXIXIXU.<X`.<X1XN ; 4 X 4 ; ; ; 3 2 2 2 2 ; 1 G Q G G W W Q G { D 2 2 ; o ; o ; w uX+ q.rXrXi.u. X X=.=.6.w.IXIXIXIXIXIXIXIXIXIXIXIXIXIXIXIXm K o.w.*.i.w.u.i.6.*.7.=.*.i.=.6.1.}.v.).k.sXwX/.m./.m.0.(.<.n.n.a q a L d d h h h j k k L n IX",
"IXIXIXIXIXIXIXIXIXIXIXIXIXIX5X`.I.1X].( N o X X O O O O o ; 3 2 2 3 ; x Q ( Q W B G { F 2 3 o 3 ; O o o ; @ DXt t |.rX X Xu.P.u.w.IXIXIXIXIXIXIXIXIXIXIXIXIXIXIXIXIX9 OX*.|.|.w.|.i.o.i.=.=.u.C.t. X=.1.>.q.8.x.8X:Xk._.k.k.k.f.h.#Xb.b.q q d P h g g h -.q s e IXIX",
"IXIXIXIXIXIXIXIXIXIXIXIXIXIX5XI.I.1XI.- 1 X O           O O o ; 2 x 1 , N Q Q Q ' { R.2 ; o   o   o o ; o : : e *X>.*.6.*.*.e.w.IXIXIXIXIXIXIXIXIXIXIXIXIXIXIXIXIXMXK }.V.V.i.|.6.=.6.i.*.P.P.C.u. XV.*.7.*.*.|.>.oX#Xn.k.d.d.m.h ;.v.@Xb.+.7 l 7 j h h f s P n IXIX",
"IXIXIXIXIXIXIXIXIXIXIXIXIXAX<XG.].R.x & o   O         O O O O o 3 Z 2 & 1 G W / / [ N X o         O X o @ o @ e K r uX^.$X^.9.KXIXIXIXIXIXIXIXIXIXIXIXIXIXIXIXIXIX9X+ &.w.i.*.7. Xu.6.|.P.=X=Xu.=X=.u.$.u.*.*.7.6.q.@Xn.n.m.m.<.<.OXX.OXtX@.h.7 tX+ 7 p U U = IXIXIX",
"IXIXIXIXIXIXIXIXIXIXIXIXIXkXI.I.{.' X -               O X O O O @ 2 , & 2 G D Q / /         O       O   o o @ O A : @ + 9.J.0XKXIXIXIXIXIXIXIXIXIXIXIXIXIXIXIXIXIXIX: L.|.w.*.*X X=X X X Xi.C.C.i.7.|.i.i.$.=.w.=.6.w.4.2.Z.tXA.A.Z.tX,Xh.tX@.Z.,Xn.l e c IXIXIXIXIX",
"IXIXIXIXIXIXIXIXIXIXIXIXIXkXI.Y.{.Q & O                 O O O O O ; 2 ; , D D Q { Z                     O ; o < ; i $ - Q `.I.KXIXIXIXIXIXIXIXIXIXIXIXIXIXIXIXIXIXIXBXe.L.=XrXrX XP.P.7.u.u.t.t.i. Xi.i.u.y.y.=.7.$.*.| o.*XZ.Z.tX,.,.>X:.x.:.IXIXIXIXIXIXIXIXIXIXIX",
"IXIXIXIXIXIXIXIXIXIXIXIXIX5X) d.'.x o                     O O     ; Z ; & x N G / o                 X     X ;   o 2 3 o B Y.U.cXIXIXIXIXIXIXIXIXIXIXIXIXIXIXIXIXIXIXFXs *XrXu.i. X Xy.u.p.r.u.C.i.i.i.=.r.r.r. .| O.| =.6 5 w.n IXIXIXIXIXIXIXIXIXIXIXIXIXIXIXIXIXIX",
"IXIXIXIXIXIXIXIXIXIXIXIXbX<X) { {.&   O   O               O O     o 2 o o D D D _           .           X     - 4 ; x & 1 ].].cXIXIXIXIXIXIXIXIXIXIXIXIXIXIXIXIXIXIXIX@Xz.rXu.r.p. X XP.y.C.p.r.i.| t. . .y.r. .=.%.$.m IXIXIXIXIXIXIXIXIXIXIXIXIXIXIXIXIXIXIXIXIXIX",
"IXIXIXIXIXIXIXIXIXIXIXIXbX<XV / {.o       O               O O   O o Z O & D N / / o         O             O o o ; o 2 & x ].D.jXIXIXIXIXIXIXIXIXIXIXIXIXIXIXIXIXIXIXIX3Xq.*XrXu. XrXy.P.p.=.y.r.%.r.r.r. .t.=.6 IXIXIXIXIXIXIXIXIXIXIXIXIXIXIXIXIXIXIXIXIXIXIXIXIXIX",
"IXIXIXIXIXIXIXIXIXIXIXIXcX].W / Q.H   O                     O O     2 - X D D Q ' ,     O                 O O O O 2 2 & N ].G.5XIXIXIXIXIXIXIXIXIXIXIXIXIXIXIXIXIXIXIXIXiX6.=.rXi.t. .r.y.=.y.=.%.=.y.%.%.IXIXIXIXIXIXIXIXIXIXIXIXIXIXIXIXIXIXIXIXIXIXIXIXIXIXIXIXIX",
"IXIXIXIXIXIXIXIXIXIXIXIXAXU.W G '.{                         O O   o 3 & & Q Q / Q N X                           ; ; ; - / I.( 5XIXIXIXIXIXIXIXIXIXIXIXIXIXIXIXIXIXIXIXIXIX*Xw.*.N.t.t.t.y.7. .=.7.L.IXIXIXIXIXIXIXIXIXIXIXIXIXIXIXIXIXIXIXIXIXIXIXIXIXIXIXIXIXIXIXIX",
"IXIXIXIXIXIXIXIXIXIXIXAXjX].( N { 7X  o     O                 O   ; -   x Q Q Q ' 2 X       O                   $ ; ; ; F.G.G.2XIXIXIXIXIXIXIXIXIXIXIXIXIXIXIXIXIXIXIXIXIXIX'.L.w.*.w.w.IXIXIXIXIXIXIXIXIXIXIXIXIXIXIXIXIXIXIXIXIXIXIXIXIXIXIXIXIXIXIXIXIXIXIXIXIXIX",
"IXIXIXIXIXIXIXIXIXIXIXbXvXU.I./ x 7XH   O   O                 O   ; - & G W G W I.N X       O                 O o 2 o H I.( G.2XIXIXIXIXIXIXIXIXIXIXIXIXIXIXIXIXIXIXIXIXIXIXIXIXIXIXIXIXIXIXIXIXIXIXIXIXIXIXIXIXIXIXIXIXIXIXIXIXIXIXIXIXIXIXIXIXIXIXIXIXIXIXIXIXIXIX",
"IXIXIXIXIXIXIXIXIXIXIXbX<XI.U./ Q _ '.4                         O X , G G G B / ( ( N                         O o o 3 R.' ) C 5XIXIXIXIXIXIXIXIXIXIXIXIXIXIXIXIXIXIXIXIXIXIXIXIXIXIXIXIXIXIXIXIXIXIXIXIXIXIXIXIXIXIXIXIXIXIXIXIXIXIXIXIXIXIXIXIXIXIXIXIXIXIXIXIXIXIX",
"IXIXIXIXIXIXIXIXIXIXAXvX5XI.I.G.' / / [ o                         X N G x B B W G { _ 1                       O o 3 _ / B ) D.IXIXIXIXIXIXIXIXIXIXIXIXIXIXIXIXIXIXIXIXIXIXIXIXIXIXIXIXIXIXIXIXIXIXIXIXIXIXIXIXIXIXIXIXIXIXIXIXIXIXIXIXIXIXIXIXIXIXIXIXIXIXIXIXIXIXIX",
"IXIXIXIXIXIXIXIXIXIXbXvX<XI.W W G { / _ R.; O                     2 / x B ( ( ( ' G / { 1   O                 O 3 H H G ( N 1XIXIXIXIXIXIXIXIXIXIXIXIXIXIXIXIXIXIXIXIXIXIXIXIXIXIXIXIXIXIXIXIXIXIXIXIXIXIXIXIXIXIXIXIXIXIXIXIXIXIXIXIXIXIXIXIXIXIXIXIXIXIXIXIXIXIXIX",
"IXIXIXIXIXIXIXIXIXIXbXjX<XG.W B G B W G G / Q , O O     O     ; G G W ( I.I.U.I.G.W Q G H x O o   O         o Z [ [ W.`.' ].IXIXIXIXIXIXIXIXIXIXIXIXIXIXIXIXIXIXIXIXIXIXIXIXIXIXIXIXIXIXIXIXIXIXIXIXIXIXIXIXIXIXIXIXIXIXIXIXIXIXIXIXIXIXIXIXIXIXIXIXIXIXIXIXIXIXIXIX",
"IXIXIXIXIXIXIXIXIXIXcXjX].) ! B N z N D 1 z D Z F _ F Z D F _ I.I.`.].1X1X7X4XwX1X1X' _ { _ R.{ ` Z Z F 2 2 x ; x F ' K.`.4XIXIXIXIXIXIXIXIXIXIXIXIXIXIXIXIXIXIXIXIXIXIXIXIXIXIXIXIXIXIXIXIXIXIXIXIXIXIXIXIXIXIXIXIXIXIXIXIXIXIXIXIXIXIXIXIXIXIXIXIXIXIXIXIXIXIXIXIX",
"IXIXIXIXIXIXIXIXIXAXcX<X].G.B N z z - x / N , Q F.W.J._ _ ~ F Q F ' { F.`.1X`.{.].R.Q.Q.Q.[.Q.~.Q.E.W.K._ 2 o ; o ; ; 2 x ^ `.kXIXIXIXIXIXIXIXIXIXIXIXIXIXIXIXIXIXIXIXIXIXIXIXIXIXIXIXIXIXIXIXIXIXIXIXIXIXIXIXIXIXIXIXIXIXIXIXIXIXIXIXIXIXIXIXIXIXIXIXIXIXIXIXIXIXIX",
"IXIXIXIXIXIXIXIXIXAXvX<X].) W N , , z , & D '.3XF.' F Z D Z x b b x 2 D ' '.7XwX7X7X7X7X[.~.Q.j.k.9.~.{.J.x < o o @ o , , , , F.kXIXIXIXIXIXIXIXIXIXIXIXIXIXIXIXIXIXIXIXIXIXIXIXIXIXIXIXIXIXIXIXIXIXIXIXIXIXIXIXIXIXIXIXIXIXIXIXIXIXIXIXIXIXIXIXIXIXIXIXIXIXIXIXIXIX",
"IXIXIXIXIXIXIXIXIXbXjX<XI./ W N N 1 , , F '.{.' [ F b D F D n D Z < 3 2 D '.mXNXkXqX7X[.~.;X:X[.Q.~.E.7X{.2 o 3 : ; o o = < < D R.7XNXIXIXIXIXIXIXIXIXIXIXIXIXIXIXIXIXIXIXIXIXIXIXIXIXIXIXIXIXIXIXIXIXIXIXIXIXIXIXIXIXIXIXIXIXIXIXIXIXIXIXIXIXIXIXIXIXIXIXIXIXIXIXIX",
"IXIXIXIXIXIXIXIXIXbXjXU.I./ W N 1 1 & Z {.7X'.Q.[ ' _ ~ Q F n b F b b Z Z W.0X&XE.[ w 9.[.).!.!.[.&XA I W.H @ $ O O $ ; @ < b ~ Q.7X0XIXIXIXIXIXIXIXIXIXIXIXIXIXIXIXIXIXIXIXIXIXIXIXIXIXIXIXIXIXIXIXIXIXIXIXIXIXIXIXIXIXIXIXIXIXIXIXIXIXIXIXIXIXIXIXIXIXIXIXIXIXIXIX",
"IXIXIXIXIXIXIXIXbXvX5X].) W W N D ; Q 7XqX7X{.'.W.K.] ~ F F ~ ~ F A F Z H {.` ; @ o A &XdXqXR !.dXSX[.: Z ` ; 2 2 ; $ ; 2 2 2 H {.qXdXkXIXIXIXIXIXIXIXIXIXIXIXIXIXIXIXIXIXIXIXIXIXIXIXIXIXIXIXIXIXIXIXIXIXIXIXIXIXIXIXIXIXIXIXIXIXIXIXIXIXIXIXIXIXIXIXIXIXIXIXIXIXIX",
"IXIXIXIXIXIXIXIXjXbX5XG.) { G D 1 Z '.mXVXkX7XW.W.[ ] _ ~ F F F ~ _ H Z ~ 0X_ @ : [ : 0 ~.fXZXPXKX9XH A F W.Z ; ; 2 2 3 b b 2 F '.uXZXVXmXIXIXIXIXIXIXIXIXIXIXIXIXIXIXIXIXIXIXIXIXIXIXIXIXIXIXIXIXIXIXIXIXIXIXIXIXIXIXIXIXIXIXIXIXIXIXIXIXIXIXIXIXIXIXIXIXIXIXIXIXIX",
"IXIXIXIXIXIXIXIXbXjXT.I.D.W W N , R.qXSXSXNX0X'.'.K.[ _ ~ ^ ~ F ^ ~ ~ F J.mXJ.@ Z [ A . > 9.[.[.9.Z ; Z _ '.R., < Z A Z b Z Q ] '.0XZXBXkXIXIXIXIXIXIXIXIXIXIXIXIXIXIXIXIXIXIXIXIXIXIXIXIXIXIXIXIXIXIXIXIXIXIXIXIXIXIXIXIXIXIXIXIXIXIXIXIXIXIXIXIXIXIXIXIXIXIXIXIXIX",
"IXIXIXIXIXIXIXIXbXjX].I.) V W x Z 7XVXKXSXVX7X1XW.Q.J.~ F ~ F ^ F ^ ~ F {.zX] ; Z ~ A : : @ @ : ; , o Q '.'.3XF ; 2 Z w < Z _ ] K.'.qXdXzXVXIXIXIXIXIXIXIXIXIXIXIXIXIXIXIXIXIXIXIXIXIXIXIXIXIXIXIXIXIXIXIXIXIXIXIXIXIXIXIXIXIXIXIXIXIXIXIXIXIXIXIXIXIXIXIXIXIXIXIXIX",
"IXIXIXIXIXIXIXIXbX5XI.) G G W x W.0XMXDXBXmX7X{.3X'.W.W.~ ] [ H ] [ ] ] 0X0XH < x x 2 F F : ; 2 < Z x ' J.F 3X7XH Z F F ~ J.Q.W.K.W.{.7X0XkXIXIXIXIXIXIXIXIXIXIXIXIXIXIXIXIXIXIXIXIXIXIXIXIXIXIXIXIXIXIXIXIXIXIXIXIXIXIXIXIXIXIXIXIXIXIXIXIXIXIXIXIXIXIXIXIXIXIXIXIX",
"IXIXIXIXIXIXIXcXbX5XI.) V G G x '.qXmXqXqX3X7X1X3X7X{.{.W.[ ^ J.W.F.K.'.0X'.D b F b 2 D ~ H H D F D D ] F.' '.7X'.F.~ ] {.7X7X{.'.~.[.&X3X4XIXIXIXIXIXIXIXIXIXIXIXIXIXIXIXIXIXIXIXIXIXIXIXIXIXIXIXIXIXIXIXIXIXIXIXIXIXIXIXIXIXIXIXIXIXIXIXIXIXIXIXIXIXIXIXIXIXIXIXIX",
"IXIXIXIXIXIXIXAXjXT.I.) V N x F '.0X7X0X7X{.{.7X0XmX0X{.{.'.W.'.W.W.'.3X7X] x D F Z 2 Z ~ _ ^ Z F F ~ ^ J.W.F.F.'.'.W.~.qXmXqX0X&X~.~.~.{.7XIXIXIXIXIXIXIXIXIXIXIXIXIXIXIXIXIXIXIXIXIXIXIXIXIXIXIXIXIXIXIXIXIXIXIXIXIXIXIXIXIXIXIXIXIXIXIXIXIXIXIXIXIXIXIXIXIXIXIXIX",
"IXIXIXIXIXIXIXbXjXU.I.W N x x _ 3X7X{.3X1X{.{.qXSXDXNX0X0X0X0X3X7XqX7X{.'.F ; Z F Z b Q _ _ F.[ F ~ ' _ J.J.J.F.~ '.8XqXBXFXNXuX;X(.~.J.W.1XkXIXIXIXIXIXIXIXIXIXIXIXIXIXIXIXIXIXIXIXIXIXIXIXIXIXIXIXIXIXIXIXIXIXIXIXIXIXIXIXIXIXIXIXIXIXIXIXIXIXIXIXIXIXIXIXIXIXIXIX",
"IXIXIXIXIXIXIXcXjX<XI.V N B x _ {.'.{.'.{.Q.{.mXSXKXSXqXmXqXmXzXzXqX{.[ ~ 2 < Z ~ ~ ~ _ ^ F ^ F.~ Q Q F.W.K.J.[ D W.8XqXMXMXNXuX;X).!.] _ W.4XIXIXIXIXIXIXIXIXIXIXIXIXIXIXIXIXIXIXIXIXIXIXIXIXIXIXIXIXIXIXIXIXIXIXIXIXIXIXIXIXIXIXIXIXIXIXIXIXIXIXIXIXIXIXIXIXIXIXIX",
"IXIXIXIXIXIXIXcX<XI.I.V N D x ' '.R.W.R.'.'.{.qXSXSXSXVXNXMXSXMXuX~.] S 2 < H H D Q ~ ' _ F ~ F.[ ] _ K.] W.F F ] ~ Q.~.[.&XqX8X+X(.9.` I 9.7XIXIXIXIXIXIXIXIXIXIXIXIXIXIXIXIXIXIXIXIXIXIXIXIXIXIXIXIXIXIXIXIXIXIXIXIXIXIXIXIXIXIXIXIXIXIXIXIXIXIXIXIXIXIXIXIXIXIXIX",
"IXIXIXIXIXIXIXjX<XU.) V N z z ' R.9.{ ` [ E.[.7XqXMXNXDXBXKXSX7X9.` I A ` _ Z F D Q F.' Q ~ H I ] K.] F.W.R.H ~ ] W.~.[.E.E.).:X!.0.k.I L { ;XIXIXIXIXIXIXIXIXIXIXIXIXIXIXIXIXIXIXIXIXIXIXIXIXIXIXIXIXIXIXIXIXIXIXIXIXIXIXIXIXIXIXIXIXIXIXIXIXIXIXIXIXIXIXIXIXIXIXIX",
"IXIXIXIXIXIXJXjXU.G.( G B N z W _ T I T ` { j.~.{.7X8XMXSXSXqX{ ` 9.E.~.$X[.` = D Q D.' Q F A I ] F.[ J.W.J.n F W.7XW.[.&X~.>X+Xj.R ` I A S ;XIXIXIXIXIXIXIXIXIXIXIXIXIXIXIXIXIXIXIXIXIXIXIXIXIXIXIXIXIXIXIXIXIXIXIXIXIXIXIXIXIXIXIXIXIXIXIXIXIXIXIXIXIXIXIXIXIXIXIX",
"IXIXIXIXIXIXnXjXU.G.W B N z z D _ A i Z A S R ` E.~.;XuXSXVX{.R.&X).).!.j.!.E.Z 2 D ' ' ~ F n F F ] R.R.W.W.F H 7XuX3XE.$X$X(.%X!.d 0 w n ~ 9XIXIXIXIXIXIXIXIXIXIXIXIXIXIXIXIXIXIXIXIXIXIXIXIXIXIXIXIXIXIXIXIXIXIXIXIXIXIXIXIXIXIXIXIXIXIXIXIXIXIXIXIXIXIXIXIXIXIXIX",
"IXIXIXIXIXIXbXjXU.D.W N z z z N _ A > > w w L S L 9.Q.;XqX8Xj.[.$X(.x.^.j.j.!.0.: b _ F._ H F n b ~ K.W.W.W.F _ 0XDX&X0X&X).).%XoXa # : b W.qXIXIXIXIXIXIXIXIXIXIXIXIXIXIXIXIXIXIXIXIXIXIXIXIXIXIXIXIXIXIXIXIXIXIXIXIXIXIXIXIXIXIXIXIXIXIXIXIXIXIXIXIXIXIXIXIXIXIXIX",
"IXIXIXIXIXIXAX5XI.) W N x N z 1 H S w 0 w w p e A I ` j.~.&XE.;X%X(.l.l.l.l.^.!.L w F F._ Q ~ F ~ D ^ J.W.J.n ^ 0XNX0XqXmX&X$X).%XY % : D 1XIXIXIXIXIXIXIXIXIXIXIXIXIXIXIXIXIXIXIXIXIXIXIXIXIXIXIXIXIXIXIXIXIXIXIXIXIXIXIXIXIXIXIXIXIXIXIXIXIXIXIXIXIXIXIXIXIXIXIXIX",
"IXIXIXIXIXIXkX<XI.) W N 1 x z 1 S I w : : : e 0 p w L L 0.).[.&XoXOX.Xv.v.l.l.8.j.e < ] F.Q Q D Q F F ~ [ W.F n {.mX{.mXuXqX).(.:Xj.: @ ~ IXIXIXIXIXIXIXIXIXIXIXIXIXIXIXIXIXIXIXIXIXIXIXIXIXIXIXIXIXIXIXIXIXIXIXIXIXIXIXIXIXIXIXIXIXIXIXIXIXIXIXIXIXIXIXIXIXIXIXIXIX",
"IXIXIXIXIXAXlX5XU.) G N , 1 1 , Z T w $ $ $ : : w 0 L p R !.;X;XoXOXOXv.h.l.4.l.x.R w F J.' G D D F F F ~ J.H x '.mX'.qXuXuX;X).&X$XL : `.IXIXIXIXIXIXIXIXIXIXIXIXIXIXIXIXIXIXIXIXIXIXIXIXIXIXIXIXIXIXIXIXIXIXIXIXIXIXIXIXIXIXIXIXIXIXIXIXIXIXIXIXIXIXIXIXIXIXIXIXIX",
"IXIXIXIXIXbXjXU.G.W V B x x 1 , : T i : : @ @ @ : $ 0 0 p j.$X>X:X.XXX.Xz.z.4.4.,.c.K r ] ] Q G F F F ~ ~ H b Z J.qXW.3XzXBX8X&X).8XE._ IXIXIXIXIXIXIXIXIXIXIXIXIXIXIXIXIXIXIXIXIXIXIXIXIXIXIXIXIXIXIXIXIXIXIXIXIXIXIXIXIXIXIXIXIXIXIXIXIXIXIXIXIXIXIXIXIXIXIXIXIXIX",
"IXIXIXIXIXbXjX].I.( B N N 1 , 1 : ` Q.> @ @ $ # # : 0 : a x.(.>X>X>XOXOXB.c.z.z.4.x.0.e A ] _ Q F H F F F 2 b b J.7XW.&XqXqXBX7X&X;X9XIXIXIXIXIXIXIXIXIXIXIXIXIXIXIXIXIXIXIXIXIXIXIXIXIXIXIXIXIXIXIXIXIXIXIXIXIXIXIXIXIXIXIXIXIXIXIXIXIXIXIXIXIXIXIXIXIXIXIXIXIXIXIX",
"IXIXIXIXIXbXjX].) / V N N x 1 ; : ~.{.` > o . @ $ # # + 0 x.oX%X*X8X%XoX.X}.c.v.z.q.8.:.A I [ ~ F F b b Z < 2 2 F ] [ '.0XzXzXqX$X8XZXIXIXIXIXIXIXIXIXIXIXIXIXIXIXIXIXIXIXIXIXIXIXIXIXIXIXIXIXIXIXIXIXIXIXIXIXIXIXIXIXIXIXIXIXIXIXIXIXIXIXIXIXIXIXIXIXIXIXIXIXIXIXIX",
"IXIXIXIXIXbX5XU.) / G N x x , o I ;X!.T w $   : @ o % + a x.OX+X*XiX>XOXoX}.c.b.c.4.q.x.P A [ _ ~ n b b F Z b Z D D [ K.3XuXqXMX7X7XuXBXIXIXIXIXIXIXIXIXIXIXIXIXIXIXIXIXIXIXIXIXIXIXIXIXIXIXIXIXIXIXIXIXIXIXIXIXIXIXIXIXIXIXIXIXIXIXIXIXIXIXIXIXIXIXIXIXIXIXIXIXIXIX",
"IXIXIXIXbXjX<XU.D./ G N 2 2 3 o j.8Xj.` I i o . . . $ # L j.oX+XoX8X*X%X+X@X}.}.B.z.4.l.8.L S ] ~ n b b Z Z 2 Z ~ ] J.J.'.0XuXBXBX7XdXmXNXIXIXIXIXIXIXIXIXIXIXIXIXIXIXIXIXIXIXIXIXIXIXIXIXIXIXIXIXIXIXIXIXIXIXIXIXIXIXIXIXIXIXIXIXIXIXIXIXIXIXIXIXIXIXIXIXIXIXIXIXIX",
"IXIXIXIXAXjX<X].D.W G N x 1 3 2 !.;X!.j.{ T A 3 o .   . R j.(.OX@X>X>X>X+XoXoXB.B.B.l.,.x.R p ` _ F D x 2 w ; x D ] J.F.W.{.qXNXNXqXqXuXBXIXIXIXIXIXIXIXIXIXIXIXIXIXIXIXIXIXIXIXIXIXIXIXIXIXIXIXIXIXIXIXIXIXIXIXIXIXIXIXIXIXIXIXIXIXIXIXIXIXIXIXIXIXIXIXIXIXIXIXIXIX",
"IXIXIXIXbXjXU.Y.) G G D Z , ; A ).;X!.j.T T { T i 3 $ : j.j.!..X.X.X@X>X@X@X@XXXOXN.c.l.q.8.L I ] ^ F b < < , b b F ] ] F.Q.7XMXMXqX8XfXMXNXIXIXIXIXIXIXIXIXIXIXIXIXIXIXIXIXIXIXIXIXIXIXIXIXIXIXIXIXIXIXIXIXIXIXIXIXIXIXIXIXIXIXIXIXIXIXIXIXIXIXIXIXIXIXIXIXIXIXIXIX",
"IXIXIXIXbX5XU.) ) W W D Z , o T ).&X!.!.9.` T J S A S L 9.8.!.(.B..X.X:XOXoXOX.X@Xv.B.c.q.8.0.K ~ _ D b < 2 2 b F F Q ^ ] [ {.mXBXMX9X9XmXNXIXIXIXIXIXIXIXIXIXIXIXIXIXIXIXIXIXIXIXIXIXIXIXIXIXIXIXIXIXIXIXIXIXIXIXIXIXIXIXIXIXIXIXIXIXIXIXIXIXIXIXIXIXIXIXIXIXIXIXIX",
"IXIXIXIXbX<XU.) W G W N Z : 7 8.q.}.x.).~.k.H S S A T I L R ^.(.z.B.n.oXOX@XOXOXXXZ.z.v.l.8.8.L I [ F F x b D b D ~ F ~ _ ~ '.0XMXdX>X;XmXNXxXIXIXIXIXIXIXIXIXIXIXIXIXIXIXIXIXIXIXIXIXIXIXIXIXIXIXIXIXIXIXIXIXIXIXIXIXIXIXIXIXIXIXIXIXIXIXIXIXIXIXIXIXIXIXIXIXIXIXIX",
"IXIXIXcXvX<XI.) G / C G e 5 pXrXi.V.8.$X7X{ { H I I S S L U x.}.z.z.}.OX@X@X@X@XXX.X}.v.z.l.q.,.K I ] F Z D x F ] ] _ _ K.F.W.1XmXVX9X&XuXMXFXIXIXIXIXIXIXIXIXIXIXIXIXIXIXIXIXIXIXIXIXIXIXIXIXIXIXIXIXIXIXIXIXIXIXIXIXIXIXIXIXIXIXIXIXIXIXIXIXIXIXIXIXIXIXIXIXIXIXIX",
"IXIXIXcXjX].I./ / B B D 7 iXhXyXrXt.q.%XqXR.T H S I T I I R x.v.z.z.B..XoXoXOXoX@XXXXX}.z.l.5.>.P A I ~ F D x Z [ 9.I _ K.R.K.'.0XmXuX&X8XMXDXIXIXIXIXIXIXIXIXIXIXIXIXIXIXIXIXIXIXIXIXIXIXIXIXIXIXIXIXIXIXIXIXIXIXIXIXIXIXIXIXIXIXIXIXIXIXIXIXIXIXIXIXIXIXIXIXIXIXIX",
"IXIXIXcXlXT.U.( G B W D uXiXaXaXpXC.2.@X8X~.T H S S S A p L x.l.q.q.c..X.X.X.X.X.XoXOXXXB.z.5.,.8.K I ] ~ x , , Z R.J.] ] W.K.W.{.qXBX9X;XqXNXFXIXIXIXIXIXIXIXIXIXIXIXIXIXIXIXIXIXIXIXIXIXIXIXIXIXIXIXIXIXIXIXIXIXIXIXIXIXIXIXIXIXIXIXIXIXIXIXIXIXIXIXIXIXIXIXIXIXIX",
"IXIXIXvX5XU.I.G V W W Z # tXhXaXyXrX6.c.7X~.` H T S H i w L v.l.q.q.c.}..X.XoX.X.X.XXXOXZ.B.l.,.>.P A T ] F x < < J.E.~ F _ ] [ R.&XMXMX;XuXNXDXIXIXIXIXIXIXIXIXIXIXIXIXIXIXIXIXIXIXIXIXIXIXIXIXIXIXIXIXIXIXIXIXIXIXIXIXIXIXIXIXIXIXIXIXIXIXIXIXIXIXIXIXIXIXIXIXIXIX",
"IXIXAXcX5X].G.W ( N B , 7 rXGXyXyXeXi.;.>X).` S I S H A A L x.l.q.l.c.B..XXXoX.X.XoX@X@X.XB.l.,.-.:.d A _ ~ Z x x F I H I H _ R.'.7XdXfX9X8XzXFXHXIXIXIXIXIXIXIXIXIXIXIXIXIXIXIXIXIXIXIXIXIXIXIXIXIXIXIXIXIXIXIXIXIXIXIXIXIXIXIXIXIXIXIXIXIXIXIXIXIXIXIXIXIXIXIXIXIX",
"IXIXnXjX<XU.) W N G W ; q t.gXyXyXeXp.o.x.8X` I I H H Z w K j.q.4.q.c.B.B..XXX.X.X.XXX@XXX.Xv.4.>.8.P q L I x 1 2 , F I _ H ` [ E.~.dXMXuX[.uXNXDXIXIXIXIXIXIXIXIXIXIXIXIXIXIXIXIXIXIXIXIXIXIXIXIXIXIXIXIXIXIXIXIXIXIXIXIXIXIXIXIXIXIXIXIXIXIXIXIXIXIXIXIXIXIXIXIXIX",
"IXIXbXlX<XY.G.W W W N @ d N.rXaXyXyXp.o.t 9X!.` ` _ I Z i p 8.l.,.4.z.v.v.}..X.X.X.X.XXXOXXX}.z.>.-.-.d p I Z Z , < H _ A w i w I E.uXMXfX).&XuXZXHXIXIXIXIXIXIXIXIXIXIXIXIXIXIXIXIXIXIXIXIXIXIXIXIXIXIXIXIXIXIXIXIXIXIXIXIXIXIXIXIXIXIXIXIXIXIXIXIXIXIXIXIXIXIXIXIX",
"IXIXbX5XT.D.G.G G F 1 @ c.1.pXaXyXyXC.6.*.).;X0.I _ I A A e R ,.,.4.z.v.v.B..X.X.X.X.XXXOXXXB.z.l.X.,.P 0 A Z b 2 ; b _ Z w A I I ` &XuXuX;X).8XZXSXIXIXIXIXIXIXIXIXIXIXIXIXIXIXIXIXIXIXIXIXIXIXIXIXIXIXIXIXIXIXIXIXIXIXIXIXIXIXIXIXIXIXIXIXIXIXIXIXIXIXIXIXIXIXIXIX",
"IXIXcX5X].Y.G.( W x ; e x.2.gXgXaXyXrXV.&.x.&X~.{ _ H F w e :.>.;.;.l.z.z.B.B..X}.XXoXoXOXOX.Xc.5.1.;.&.q e A Z 2 2 , Z F A I I I I !.uXuX$X(.$XMXSXHXIXIXIXIXIXIXIXIXIXIXIXIXIXIXIXIXIXIXIXIXIXIXIXIXIXIXIXIXIXIXIXIXIXIXIXIXIXIXIXIXIXIXIXIXIXIXIXIXIXIXIXIXIXIXIX",
"IXIXbX<XU.I.) ( ( Q ; R v.1.gXhXhXpXtX=Xq.j.;X).j.9.` H A A 8.,.-.;.l.z.z.v.B.XX.XXX.X.XOX@XoX}.N.4.2.-.f q p Z 2 1 & Z R.` S ` ` ` 9.8XuX9Xx.(.;XSXHXIXIXIXIXIXIXIXIXIXIXIXIXIXIXIXIXIXIXIXIXIXIXIXIXIXIXIXIXIXIXIXIXIXIXIXIXIXIXIXIXIXIXIXIXIXIXIXIXIXIXIXIXIXIXIX",
"IXAXcX<XI.D.) ) W - ; !.l.1.gXGXGXgXgX*Xe p j.{.E.j._ Z w p :.;.h X.4.z.z.v.B..XXXXX.X.XOX@X@XoXB.h.2.>.P q 0 i 2 , ; x { R.` ` 9.9.9.&XqXuX8.^.8XuXSXIXIXIXIXIXIXIXIXIXIXIXIXIXIXIXIXIXIXIXIXIXIXIXIXIXIXIXIXIXIXIXIXIXIXIXIXIXIXIXIXIXIXIXIXIXIXIXIXIXIXIXIXIXIXIX",
"IXAXlX<XI.) ) ( D.1 T (.>.4.tXGXGXGXt K r : i j.E.j._ A A p :.P h X.2.l.l.z.v.B.XX.X}.}..X@X%X@XZ.z.2.2.-.d 0 e w 2 2 x H j.{ ` I { E.[.7X9XY j.!.dXSXHXIXIXIXIXIXIXIXIXIXIXIXIXIXIXIXIXIXIXIXIXIXIXIXIXIXIXIXIXIXIXIXIXIXIXIXIXIXIXIXIXIXIXIXIXIXIXIXIXIXIXIXIXIXIX",
"IXcXjXU.I.) W W z D j.^.v.2.1.GXGXo.f e w 2 A p E.k.T A S A R P &.X.;.4.l.N.B.B..X.X}..X.X+X+X@X.XB.4.2.>.P q r w Z 2 2 Q _ Z I ` T 9.E.).;Xj.8.(.&XuXBXIXIXIXIXIXIXIXIXIXIXIXIXIXIXIXIXIXIXIXIXIXIXIXIXIXIXIXIXIXIXIXIXIXIXIXIXIXIXIXIXIXIXIXIXIXIXIXIXIXIXIXIXIXIX",
"IXcXlXU.D./ W W B D E.^.,.OXB.1.GXt :.K < Z i i 0.9.T Z S p U -.&.X.;.2.5.N.B.B.}.}..X.XoXoX+X+XoXB.z.4.,.-.f 7 e b 2 2 D ] ` ` ` T 9.9.E.).x.P ^.!.uXNXFXIXIXIXIXIXIXIXIXIXIXIXIXIXIXIXIXIXIXIXIXIXIXIXIXIXIXIXIXIXIXIXIXIXIXIXIXIXIXIXIXIXIXIXIXIXIXIXIXIXIXIXIXIX",
"IXcX<XT.( / ( B x D 9..X.XN.N.B.q.e e @ x 1 2 A L j.9.I H A :.:.&.h ;.2.5.z.z.N.B.B.}..X.XoX+X%X@X.Xv.l.2.>.P q r w Z x x J.{.E.T 0.!.[.[.).+XP b.oX7XzXBXIXIXIXIXIXIXIXIXIXIXIXIXIXIXIXIXIXIXIXIXIXIXIXIXIXIXIXIXIXIXIXIXIXIXIXIXIXIXIXIXIXIXIXIXIXIXIXIXIXIXIXIXIX",
"IXjX<XU.I./ G B z H j.(..XB.N.z.-.K A Z 1 1 3 3 e j.E.R I K :.P &.X.;.2.4.z.z.z.z.B.B.}.(.(.OX%X@X.XB.v.4.2.>.d 7 A Z 2 2 b _ I I E T { 9.!.&X0.:.^.$XqXzXIXIXIXIXIXIXIXIXIXIXIXIXIXIXIXIXIXIXIXIXIXIXIXIXIXIXIXIXIXIXIXIXIXIXIXIXIXIXIXIXIXIXIXIXIXIXIXIXIXIXIXIXIX",
"IXvX].) ) / H H u i <.Z.Z.N.N.c.9.F H 2 3 4 3 3 > H E.` F K E.P f P ;.2.5.z.z.g.g.N.B.XX}.(..X@X@X@X.Xz.l.h.,.&.q % p Z ; < 2 2 w I I T _ 9.&X!.P v.(.8XqX0XIXIXIXIXIXIXIXIXIXIXIXIXIXIXIXIXIXIXIXIXIXIXIXIXIXIXIXIXIXIXIXIXIXIXIXIXIXIXIXIXIXIXIXIXIXIXIXIXIXIXIXIX",
"IXcX`.I.) / Z / A 3 <.v.v.z.5.c.j._ H H w 2 ; 3 2 i ` ` L A :.P P &.;.2.q.z.N.N.N.z.z.B.}..X.X.X%X%XOXv.l.l.4.-.f 0 0 S w 2 2 x b Z Z I I _ ~.~.P x.v.>X9XqXIXIXIXIXIXIXIXIXIXIXIXIXIXIXIXIXIXIXIXIXIXIXIXIXIXIXIXIXIXIXIXIXIXIXIXIXIXIXIXIXIXIXIXIXIXIXIXIXIXIXIXIX",
"IXIX5XI.V ) W W Q < j.oX.XN.5.c.x.` I I A i $ ; ; ; i L L d :.:.P P &.;.4.5.5.N.N.g.l.v.}..X.X.X%X%X@XB.z.l.4.,.-.f % A S 2 , < w 2 w H H H ] ~.:.:..X.X9XqXkXIXIXIXIXIXIXIXIXIXIXIXIXIXIXIXIXIXIXIXIXIXIXIXIXIXIXIXIXIXIXIXIXIXIXIXIXIXIXIXIXIXIXIXIXIXIXIXIXIXIXIX",
"IXIXkXG.D.W ( ! ! , { oXv.g.2.4.q.:.L A Z A 3 3 3 > 3 i p g E -.&.h X.;.2.4.5.N.z.z.z.z.B.}..XoX+X%X@X.Xv.l.h.4.,.P 7 0 S 2 , , ; w A Z H H I E.0.:.l.OX>XmX0XIXIXIXIXIXIXIXIXIXIXIXIXIXIXIXIXIXIXIXIXIXIXIXIXIXIXIXIXIXIXIXIXIXIXIXIXIXIXIXIXIXIXIXIXIXIXIXIXIXIXIX",
"IXIXIXlXC z ! ! ! N S (.v.M.3.2.8.:.R p p A u 2 3 3 $ $ 0 g E -.&.P &.;.2.4.5.N.5.g.N.N.z.v..X.X+X%X%XOXB.z.h.4.4.-.f % p i 2 , , b H A H Q H 9.8.P b.v.>XiXqXIXIXIXIXIXIXIXIXIXIXIXIXIXIXIXIXIXIXIXIXIXIXIXIXIXIXIXIXIXIXIXIXIXIXIXIXIXIXIXIXIXIXIXIXIXIXIXIXIXIXIX",
"IXIXIXIXcX2XH.C v W I (.h.2.1.#.>.;.:.p A Z Z 2 1 ; o $ > a E ,.&.h &.;.2.4.3.5.M.M.g.z.z.B.B..X+X%X%X@X.Xv.l.h.5.,.>.7 0 A b < 2 b F F H F F 9.E.:.>..X(.iXuX0XIXIXIXIXIXIXIXIXIXIXIXIXIXIXIXIXIXIXIXIXIXIXIXIXIXIXIXIXIXIXIXIXIXIXIXIXIXIXIXIXIXIXIXIXIXIXIXIXIXIX",
"IXIXIXIXIXIXIXIXIXIXQ.!.h.@.1.1.;.&.;.P A A Z x N 1 3 $ 3 : Y :.P X.&.;.;.2.3.5.M.M.M.g.z.B.Z..XoX$X%X%XOXB.z.h.h.4.,.P q p A 2 2 x Z Z G Z Z ] !.:.:.l..X>XuXqXIXIXIXIXIXIXIXIXIXIXIXIXIXIXIXIXIXIXIXIXIXIXIXIXIXIXIXIXIXIXIXIXIXIXIXIXIXIXIXIXIXIXIXIXIXIXIXIXIXIX",
"IXIXIXIXIXIXIXIXIXIXIXT ,.;.1.1.;.X.&.:.K S Z Z x , 2 o : : ` 0.&.&.&.;.;.4.5.3.5.M.M.g.g.z.B..X.X+X@X%X@X.Xz.z.5.5.,.l.q e A w , 2 2 N Z b Z H 9.:.-.b.(.>X8XqX0XIXIXIXIXIXIXIXIXIXIXIXIXIXIXIXIXIXIXIXIXIXIXIXIXIXIXIXIXIXIXIXIXIXIXIXIXIXIXIXIXIXIXIXIXIXIXIXIXIX",
"IXIXIXIXIXIXIXIXIXIXIX[ :.&.o.t +.@.;.h L I A Z x G 2 < < w U :.P &.&.X.;.4.4.1.5.g.g.g.g.z.N.B..XoX+X%X@XXXB.z.z.2.h.2.,.q e Z < 2 2 2 2 < x n U :.q l.b.oXiX9XqXIXIXIXIXIXIXIXIXIXIXIXIXIXIXIXIXIXIXIXIXIXIXIXIXIXIXIXIXIXIXIXIXIXIXIXIXIXIXIXIXIXIXIXIXIXIXIXIXIX",
"IXIXIXIXIXIXIXIXIXIXIXIX~ :.f &.X.8 j h d 0.Z 2 Z D ; ; 2 w ` U &.-.;.;.;.2.4.1.5.5.g.g.g.z.N.B.}..XOX+X%X@X.XN.z.5.h.,.;.d p e 2 ; ; 3 2 3 < w e K q l.l.v.8X9X9X0XIXIXIXIXIXIXIXIXIXIXIXIXIXIXIXIXIXIXIXIXIXIXIXIXIXIXIXIXIXIXIXIXIXIXIXIXIXIXIXIXIXIXIXIXIXIXIXIX",
"IXIXIXIXIXIXIXIXIXIXIXIXIX~ U q f X.f d L L i S H H 2 2 2 : U K L h &.-.;.;.1.1.4.5.g.g.g.g.N.N..X.XOX+X%X%XoXv.z.h.4.2.4.;.s # w w : $ $ : w w R P s l.v.oX%X>X9XqXIXIXIXIXIXIXIXIXIXIXIXIXIXIXIXIXIXIXIXIXIXIXIXIXIXIXIXIXIXIXIXIXIXIXIXIXIXIXIXIXIXIXIXIXIXIXIXIX",
"IXIXIXIXIXIXIXIXIXIXIXIXIXIXF 9.m m K H K ` S i A i 2 > > @ I L d d P -.>.;.2.4.2.3.g.g.g.g.g.N.B..XOXoX%X;X@Xv.N.z.2.5.5.l.h 7 r K R L p p K L r q f h.v.oX@X>X9XqXIXIXIXIXIXIXIXIXIXIXIXIXIXIXIXIXIXIXIXIXIXIXIXIXIXIXIXIXIXIXIXIXIXIXIXIXIXIXIXIXIXIXIXIXIXIXIXIX",
"IXIXIXIXIXIXIXIXIXIXIXIXIXIXIXIXIXIXIXIXIXK.Q H S 2 > 3 > ; T I d f f P ;.;.;.2.1.2.5.5.g.g.g.g.z.B..XoX%X;X&X.XN.N.5.g.2.4.2.q.t # + 7 s a 7 % + 8 2.N.h.v..X8X>X9XqXIXIXIXIXIXIXIXIXIXIXIXIXIXIXIXIXIXIXIXIXIXIXIXIXIXIXIXIXIXIXIXIXIXIXIXIXIXIXIXIXIXIXIXIXIXIXIX",
"IXIXIXIXIXIXIXIXIXIXIXIXIXIXIXIXIXIXIXIXIXIX( Q Q u i > 3 ; S T d p s f P -.;.2.2.4.3.5.5.g.g.g.g.B..XOX$X&X&X+XB.N.5.M.2.5.5.B.|.>.j q 7 7 7 7 &.4.N.g.g.B.B.>X>X8X8XIXIXIXIXIXIXIXIXIXIXIXIXIXIXIXIXIXIXIXIXIXIXIXIXIXIXIXIXIXIXIXIXIXIXIXIXIXIXIXIXIXIXIXIXIXIXIX",
"IXIXIXIXIXIXIXIXIXIXIXIXIXIXIXIXIXIXIXIXIXIXH.D.D , 2 3 ; 3 3 S L d d d f &.>.4.2.2.2.3.5.g.g.g.g.N.}.oX$X&X$X+X}.N.5.5.3.5.2.4.w.z.h.2.2.h.l.z.B.z.3.1.g.B.B.OX>X>X:XIXIXIXIXIXIXIXIXIXIXIXIXIXIXIXIXIXIXIXIXIXIXIXIXIXIXIXIXIXIXIXIXIXIXIXIXIXIXIXIXIXIXIXIXIXIXIX",
"IXIXIXIXIXIXIXIXIXIXIXIXIXIXIXIXIXIXIXIXIXIXIXIXIXc x 3 2 u o ; L d d q q f &.;.4.2.1.4.5.h.g.g.g.z.B..X+X&X&X%X.XB.N.5.3.5.5.5.5.5.5.g.g.h.4.4.2.5.M.3.g.5.z.OX>X>X,X7XIXIXIXIXIXIXIXIXIXIXIXIXIXIXIXIXIXIXIXIXIXIXIXIXIXIXIXIXIXIXIXIXIXIXIXIXIXIXIXIXIXIXIXIXIXIX",
"IXIXIXIXIXIXIXIXIXIXIXIXIXIXIXIXIXIXIXIXIXIXIXIXIX! 1 u % > ; o _ L e p q s t &.;.;.,.2.2.4.h.h.g.N.N.B..XoX+X%X@X.Xz.h.5.3.3.5.5.5.5.5.5.5.5.5.5.5.5.5.5.g.V.B.@X>X>X;XIXIXIXIXIXIXIXIXIXIXIXIXIXIXIXIXIXIXIXIXIXIXIXIXIXIXIXIXIXIXIXIXIXIXIXIXIXIXIXIXIXIXIXIXIXIX",
"IXIXIXIXIXIXIXIXIXIXIXIXIXIXIXIXIXIXIXIXIXIXIXIXIXIX- i > i ; < @ R K e h s s &.X.&.;.;.;.2.h.z.g.g.z.B..XOX+X%X+X(.v.l.5.3.3.5.t.5.3.5.5.5.3.5.5.5.5.g.g.g.N.B..X>X,X:X1XIXIXIXIXIXIXIXIXIXIXIXIXIXIXIXIXIXIXIXIXIXIXIXIXIXIXIXIXIXIXIXIXIXIXIXIXIXIXIXIXIXIXIXIXIX",
"IXIXIXIXIXIXIXIXIXIXIXIXIXIXIXIXIXIXIXIXIXIXIXIXIXIXc Z ; $ , = @ o R L d q t j X.X.;.;.;.2.5.N.g.g.z.v..XOX%X%X+X(.v.l.4.3.3.3.5.3.5.3.5.3.3.3.5.5.g.g.g.g.g.z.}.%X.X+X{.IXIXIXIXIXIXIXIXIXIXIXIXIXIXIXIXIXIXIXIXIXIXIXIXIXIXIXIXIXIXIXIXIXIXIXIXIXIXIXIXIXIXIXIXIX",
"IXIXIXIXIXIXIXIXIXIXIXIXIXIXIXIXIXIXIXIXIXIXIXIXIXIXIX& 2 2 < , @ @ R L q &.o.o.X.;.;.1.2.3.5.M.g.z.z.z.v.OX@X+X%XoXv.z.h.5.5.5.g.5.3.3.3.3.3.5.g.g.g.g.g.g.g.N.}.OX.XOX{.IXIXIXIXIXIXIXIXIXIXIXIXIXIXIXIXIXIXIXIXIXIXIXIXIXIXIXIXIXIXIXIXIXIXIXIXIXIXIXIXIXIXIXIXIX",
"IXIXIXIXIXIXIXIXIXIXIXIXIXIXIXIXIXIXIXIXIXIXIXIXIXIXIX- 2 ; ; & O @ $ j.8.X.X.1.;.;.1.2.5.t.t.t.5.g.z.l.v..XOXoX%X@X.Xv.h.5.5.5.g.g.g.3.3.5.5.5.g.g.5.5.5.5.g.N.B.}.@X@X[.{.IXIXIXIXIXIXIXIXIXIXIXIXIXIXIXIXIXIXIXIXIXIXIXIXIXIXIXIXIXIXIXIXIXIXIXIXIXIXIXIXIXIXIXIX",
"IXIXIXIXIXIXIXIXIXIXIXIXIXIXIXIXIXIXIXIXIXIXIXIXIXIXH.x 1 2 2 2 3 @ # # 8.,.B.4.4.6.6.3.5.N.t.t.5.5.z.z.v..XOX@X%X@XoXB.z.5.5.3.g.g.g.3.3.5.5.g.g.5.5.g.g.g.g.g.B.B.@X@X).{.IXIXIXIXIXIXIXIXIXIXIXIXIXIXIXIXIXIXIXIXIXIXIXIXIXIXIXIXIXIXIXIXIXIXIXIXIXIXIXIXIXIXIXIX",
"IXIXIXIXIXIXIXIXIXIXIXIXIXIXIXIXIXIXIXIXIXIXIXIXIXIXv N o 4 3 $ 3 o $ + (..X,.l.z.l.l.z.z.N.t.5.t.5.z.z.v.B.oX@X@X@XXXB.z.h.5.3.5.g.g.5.3.5.5.g.g.5.5.g.g.g.g.g.B.}.OXOXoX{.2XIXIXIXIXIXIXIXIXIXIXIXIXIXIXIXIXIXIXIXIXIXIXIXIXIXIXIXIXIXIXIXIXIXIXIXIXIXIXIXIXIXIXIX",
"IXIXIXIXIXIXIXIXIXIXIXIXIXIXIXIXIXIXIXIXIXIXIXIXIXH.v * , - , & - ,   < + ~.^.!.!.c.x.x.c.c.c.c.w.w.w.c.^.^.oX&X&X%X$XoX^.c.w.w.w.c.w.w.w.w.w.w.c.c.w.w.w.w.c.c.x.oX&X&X[.'.1XIXIXIXIXIXIXIXIXIXIXIXIXIXIXIXIXIXIXIXIXIXIXIXIXIXIXIXIXIXIXIXIXIXIXIXIXIXIXIXIXIXIXIX",
"IXIXIXIXIXIXIXIXIXIXIXIXIXIXIXIXIXIXIXIXIXIXIXIXIXIXIXIXIXIXIXIXIXIXIXIXIXIXIXIXIXIXIXIXIXIXIXIXIXIXIXIXIXIXIXIXIXIXIXIXIXIXIXIXIXIXIXIXIXIXIXIXIXIXIXIXIXIXIXIXIXIXIXIXIXIXIXIXIXIXIXIXIXIXIXIXIXIXIXIXIXIXIXIXIXIXIXIXIXIXIXIXIXIXIXIXIXIXIXIXIXIXIXIXIXIXIXIXIXIX",
"IXIXIXIXIXIXIXIXIXIXIXIXIXIXIXIXIXIXIXIXIXIXIXIXIXIXIXIXIXIXIXIXIXIXIXIXIXIXIXIXIXIXIXIXIXIXIXIXIXIXIXIXIXIXIXIXIXIXIXIXIXIXIXIXIXIXIXIXIXIXIXIXIXIXIXIXIXIXIXIXIXIXIXIXIXIXIXIXIXIXIXIXIXIXIXIXIXIXIXIXIXIXIXIXIXIXIXIXIXIXIXIXIXIXIXIXIXIXIXIXIXIXIXIXIXIXIXIXIXIX",
"IXIXIXIXIXIXIXIXIXIXIXIXIXIXIXIXIXIXIXIXIXIXIXIXIXIXIXIXIXIXIXIXIXIXIXIXIXIXIXIXIXIXIXIXIXIXIXIXIXIXIXIXIXIXIXIXIXIXIXIXIXIXIXIXIXIXIXIXIXIXIXIXIXIXIXIXIXIXIXIXIXIXIXIXIXIXIXIXIXIXIXIXIXIXIXIXIXIXIXIXIXIXIXIXIXIXIXIXIXIXIXIXIXIXIXIXIXIXIXIXIXIXIXIXIXIXIXIXIXIX",
"IXIXIXIXIXIXIXIXIXIXIXIXIXIXIXIXIXIXIXIXIXIXIXIXIXIXIXIXIXIXIXIXIXIXIXIXIXIXIXIXIXIXIXIXIXIXIXIXIXIXIXIXIXIXIXIXIXIXIXIXIXIXIXIXIXIXIXIXIXIXIXIXIXIXIXIXIXIXIXIXIXIXIXIXIXIXIXIXIXIXIXIXIXIXIXIXIXIXIXIXIXIXIXIXIXIXIXIXIXIXIXIXIXIXIXIXIXIXIXIXIXIXIXIXIXIXIXIXIXIX",
"IXIXIXIXIXIXIXIXIXIXIXIXIXIXIXIXIXIXIXIXIXIXIXIXIXIXIXIXIXIXIXIXIXIXIXIXIXIXIXIXIXIXIXIXIXIXIXIXIXIXIXIXIXIXIXIXIXIXIXIXIXIXIXIXIXIXIXIXIXIXIXIXIXIXIXIXIXIXIXIXIXIXIXIXIXIXIXIXIXIXIXIXIXIXIXIXIXIXIXIXIXIXIXIXIXIXIXIXIXIXIXIXIXIXIXIXIXIXIXIXIXIXIXIXIXIXIXIXIXIX",
"IXIXIXIXIXIXIXIXIXIXIXIXIXIXIXIXIXIXIXIXIXIXIXIXIXIXIXIXIXIXIXIXIXIXIXIXIXIXIXIXIXIXIXIXIXIXIXIXIXIXIXIXIXIXIXIXIXIXIXIXIXIXIXIXIXIXIXIXIXIXIXIXIXIXIXIXIXIXIXIXIXIXIXIXIXIXIXIXIXIXIXIXIXIXIXIXIXIXIXIXIXIXIXIXIXIXIXIXIXIXIXIXIXIXIXIXIXIXIXIXIXIXIXIXIXIXIXIXIXIX",
"IXIXIXIXIXIXIXIXIXIXIXIXIXIXIXIXIXIXIXIXIXIXIXIXIXIXIXIXIXIXIXIXIXIXIXIXIXIXIXIXIXIXIXIXIXIXIXIXIXIXIXIXIXIXIXIXIXIXIXIXIXIXIXIXIXIXIXIXIXIXIXIXIXIXIXIXIXIXIXIXIXIXIXIXIXIXIXIXIXIXIXIXIXIXIXIXIXIXIXIXIXIXIXIXIXIXIXIXIXIXIXIXIXIXIXIXIXIXIXIXIXIXIXIXIXIXIXIXIXIX"
};
