/* XPM */
static const char *xpm__7_sgun_outbullets2[] = {
/* columns rows colors chars-per-pixel */
"181 129 254 2 ",
"   c #020203",
".  c #0C0402",
"X  c #0B0B0C",
"o  c #070807",
"O  c #130B03",
"+  c #120D0B",
"@  c #190706",
"#  c #0D110C",
"$  c #13120D",
"%  c #1B130C",
"&  c #181406",
"*  c #0D0D12",
"=  c #090719",
"-  c #160A16",
";  c #0C1314",
":  c #131313",
">  c #1B1514",
",  c #151914",
"<  c #1C1A15",
"1  c #151419",
"2  c #1A161B",
"3  c #151A1C",
"4  c #1B1B1B",
"5  c #270706",
"6  c #340B08",
"7  c #25170B",
"8  c #37150D",
"9  c #231B14",
"0  c #2C1D14",
"q  c #231D1B",
"w  c #281819",
"e  c #371916",
"r  c #290B16",
"t  c #1C231C",
"y  c #2D2214",
"u  c #24221C",
"i  c #2C231C",
"p  c #282619",
"a  c #332315",
"s  c #33241C",
"d  c #3A241C",
"f  c #342A1C",
"g  c #3C2B1C",
"h  c #392A15",
"j  c #3B341B",
"k  c #2B250F",
"l  c #1C1D22",
"z  c #181826",
"x  c #150D2B",
"c  c #221D23",
"v  c #281C29",
"b  c #2F162B",
"n  c #1C2224",
"m  c #1C232A",
"M  c #1C282C",
"N  c #1C2337",
"B  c #232224",
"V  c #2A2423",
"C  c #2C2A25",
"Z  c #24242A",
"A  c #2A252B",
"S  c #242A2C",
"D  c #2C2A2C",
"F  c #242B25",
"G  c #342B23",
"H  c #3B2C23",
"J  c #332C2C",
"K  c #382726",
"L  c #3D3124",
"P  c #34322D",
"I  c #3C322B",
"U  c #393726",
"Y  c #242C33",
"T  c #2C2C32",
"R  c #282937",
"E  c #322D33",
"W  c #372B37",
"Q  c #2C3235",
"!  c #2B343B",
"~  c #283439",
"^  c #333234",
"/  c #3A3434",
"(  c #34343A",
")  c #3A353B",
"_  c #3C3A3D",
"`  c #383A37",
"'  c #2C3427",
"]  c #441A17",
"[  c #561C16",
"{  c #422C1D",
"}  c #48261A",
"|  c #56271C",
" . c #43331C",
".. c #49371C",
"X. c #553218",
"o. c #642B1C",
"O. c #4A1D26",
"+. c #422D23",
"@. c #492725",
"#. c #562A28",
"$. c #443324",
"%. c #4B3324",
"&. c #44342B",
"*. c #4B342A",
"=. c #4C3A2B",
"-. c #463A27",
";. c #533423",
":. c #543926",
">. c #5C3B26",
",. c #543B2B",
"<. c #5B3D2B",
"1. c #58332B",
"2. c #4C3C33",
"3. c #433C3C",
"4. c #463935",
"5. c #5C3432",
"6. c #533E33",
"7. c #583937",
"8. c #502B34",
"9. c #662B26",
"0. c #633929",
"q. c #663937",
"w. c #743B36",
"e. c #70352C",
"r. c #611C1A",
"t. c #3B4630",
"y. c #5D412D",
"u. c #57452A",
"i. c #4B433B",
"p. c #46453A",
"a. c #544234",
"s. c #5D4333",
"d. c #5A463A",
"f. c #5D4A3B",
"g. c #55473A",
"h. c #5A523A",
"j. c #4A482D",
"k. c #61412D",
"l. c #6A4226",
"z. c #614534",
"x. c #624C3C",
"c. c #664539",
"v. c #784639",
"b. c #655738",
"n. c #704F2F",
"m. c #5C532C",
"M. c #2C3844",
"N. c #333C44",
"B. c #3D3C41",
"V. c #373947",
"C. c #333251",
"Z. c #333864",
"A. c #433D43",
"S. c #463644",
"D. c #543748",
"F. c #6C3C42",
"G. c #413F71",
"H. c #38434A",
"J. c #3B4855",
"K. c #364E56",
"L. c #3C5363",
"P. c #444245",
"I. c #4A454B",
"U. c #494748",
"Y. c #564B46",
"T. c #4A5749",
"R. c #5C534D",
"E. c #5A5447",
"W. c #474B56",
"Q. c #534D53",
"!. c #485359",
"~. c #5C5553",
"^. c #585659",
"/. c #634E42",
"(. c #6A4544",
"). c #764847",
"_. c #645244",
"`. c #695545",
"'. c #64554A",
"]. c #6A5649",
"[. c #695A4D",
"{. c #66594B",
"}. c #745549",
"|. c #655B53",
" X c #6A5D53",
".X c #655957",
"XX c #795955",
"oX c #664C56",
"OX c #596A5B",
"+X c #696459",
"@X c #72655A",
"#X c #786E4A",
"$X c #495867",
"%X c #575966",
"&X c #4B536D",
"*X c #625D62",
"=X c #665D7A",
"-X c #576778",
";X c #55676D",
":X c #686567",
">X c #756A67",
",X c #7B746A",
"<X c #696877",
"1X c #736D73",
"2X c #7A7577",
"3X c #65746B",
"4X c #85503A",
"5X c #895848",
"6X c #8C584E",
"7X c #8B6C54",
"8X c #AA6E58",
"9X c #847D79",
"0X c #8D706B",
"qX c #AC776A",
"wX c #A25D49",
"eX c #C27C69",
"rX c #728377",
"tX c #89847B",
"yX c #BC8A75",
"uX c #C58A77",
"iX c #CD937D",
"pX c #5C6E86",
"aX c #677788",
"sX c #7A7985",
"dX c #697896",
"fX c #73738D",
"gX c #6C7BA3",
"hX c #745E84",
"jX c #857D82",
"kX c #8A7790",
"lX c #75869B",
"zX c #718892",
"xX c #7787A5",
"cX c #758AA9",
"vX c #8A8587",
"bX c #938C89",
"nX c #999595",
"mX c #938E91",
"MX c #B2938E",
"NX c #90A399",
"BX c #8992AF",
"VX c #A8A5A7",
"CX c #AEAAB1",
"ZX c #A0A3AB",
"AX c #C99285",
"SX c #D2A798",
"DX c #D3B1AB",
"FX c #E5B1A4",
"GX c #B7C6DC",
"HX c #BBC9E7",
"JX c #C8D3D8",
"KX c #C4C4BF",
"LX c None",
"PX c black",
/* pixels */
"LXLXLXLXLXLXLXLXLXLXLXLXLXLXLXLXLXLXLXLXLXLXLXLXLXLXLXLXLXLXLXLXLXLXLXLXLXLXLXLXLXLXLXLXLXLXLXLXLXLXLXLXLXLXLXLXLXLXLXLXLXLXLXLXLXLXLXLXLXLXLXLXLXLXLXLXLXLXLXLXLXLXLXLXLXLXLXLXLXLXLXLXLXLXLXLXLXLXLXLXLXLXLXLXLXLXLXLXLXLXLXLXLXLXLXLXLXLXLXLXLXLXLXLXLXLXLXLXLXLXLXLXLXLXLXLXLXLXLXLXLXLXLXLXLXLXLXLXLXLXLXLXLXLXLXLXLXLXLXLXLXLXLXLXLXLXLXLXLXLXLXLXLXLXLXLXLXLXLXLXLX",
"LXLXLXLXLXLXLXLXLXLXLXLXLXLXLXLXLXLXLXLXLXLXLXLXLXLXLXLXLXLXLXLXLXLXLXLXLXLXLXLXLXLXLXLXLXLXLXLXLXLXLXLXLXLXLXLXLXLXLXLXLXLXLXLXLXLXLXLXLXLXLXLXLXLXLXLXLXLXLXLXLXLXLXLXLXLXLXLXLXLXLXLXLXLXLXLXLXLXLXLXLXLXLXLXLXLXLXLXLXLXLXLXLXLXLXLXLXLXLXLXLXLXLXLXLXLXLXLXLXLXLXLXLXLXLXLXLXLXLXLXLXLXLXLXLXLXLXLXLXLXLXLXLXLXLXLXLXLXLXLXLXLXLXLXLXLXLXLXLXLXLXLXLXLXLXLXLXLXLXLXLX",
"LXLXLXLXLXLXLXLXLXLXLXLXLXLXLXLXLXLXLXLXLXLXLXLXLXLXLXLXLXLXLXLXLXLXLXLXLXLXLXLXLXLXLXLXLXLXLXLXLXLXLXLXLXLXLXLXLXLXLXLXLXLXLXLXLXLXLXLXLXLXLXLXLXLXLXLXLXLXLXLXLXLXLXLXLXLXLXLXLXLXLXLXLXLXLXLXLXLXLXLXLXLXLXLXLXLXLXLXLXLXLXLXLXLXLXLXLXLXLXLXLXLXLXLXLXLXLXLXLXLXLXLXLXLXLXLXLXLXLXLXLXLXLXLXLXLXLXLXLXLXLXLXLXLXLXLXLXLXLXLXLXLXLXLXLXLXLXLXLXLXLXLXLXLXLXLXLXLXLXLXLX",
"LXLXLXLXLXLXLXLXLXLXLXLXLXLXLXLXLXLXLXLXLXLXLXLXLXLXLXLXLXLXLXLXLXLXLXLXLXLXLXLXLXLXLXLXLXLXLXLXLXLXLXLXLXLXLXLXLXLXLXLXLXLXLXLXLXLXLXLXLXLXLXLXLXLXLXLXLXLXLXLXLXLXLXLXLXLXLXLXLXLXLXLXLXLXLXLXLXLXLXLXLXLXLXLXLXLXLXLXLXLXLXLXLXLXLXLXLXLXLXLXLXLXLXLXLXLXLXLXLXLXLXLXLXLXLXLXLXLXLXLXLXLXLXLXLXLXLXLXLXLXLXLXLXLXLXLXLXLXLXLXLXLXLXLXLXLXLXLXLXLXLXLXLXLXLXLXLXLXLXLXLX",
"LXLXLXLXLXLXLXLXLXLXLXLXLXLXLXLXLXLXLXLXLXLXLXLXLXLXLXLXLXLXLXLXLXLXLXLXLXLXLXLXLXLXLXLXLXLXLXLXLXLXLXLXLXLXLXLXLXLXLXLXLXLXLXLXLXLXLXLXLXLXLXLXLXLXLXLXLXLXLXLXLXLXLXLXLXLXLXLXLXLXLXLXLXLXLXLXLXLXLXLXLXLXLXLXLXLXLXLXLXLXLXLXLXLXLXLXLXLXLXLXLXLXLXLXLXLXLXLXLXLXLXLXLXLXLXLXLXLXLXLXLXLXLXLXLXLXLXLXLXLXLXLXLXLXLXLXLXLXLXLXLXLXLXLXLXLXLXLXLXLXLXLXLXLXLXLXLXLXLXLXLX",
"LXLXLXLXLXLXLXLXLXLXLXLXLXLXLXLXLXLXLXLXLXLXLXLXLXLXLXLXLXLXLXLXLXLXLXLXLXLXLXLXLXLXLXLXLXLXLXLXLXLXLXLXLXLXLXLXLXLXLXLXLXLXLXLXLXLXLXLXLXLXLXLXLXLXLXLXLXLXLXLXLXLXLXLXLXLXLXLXLXLXLXLXLXLXLXLXLXLXLXLXLXLXLXLXLXLXLXLXLXLXLXLXLXLXLXLXLXLXLXLXLXLXLXLXLXLXLXLXLXLXLXLXLXLXLXLXLXLXLXLXLXLXLXLXLXLXLXLXLXLXLXLXLXLXLXLXLXLXLXLXLXLXLXLXLXLXLXLXLXLXLXLXLXLXLXLXLXLXLXLXLX",
"LXLXLXLXLXLXLXLXLXLXLXLXLXLXLXLXLXLXLXLXLXLXLXLXLXLXLXLXLXLXLXLXLXLXLXLXLXLXLXLXLXLXLXLXLXLXLXLXLXLXLXLXLXLXLXLXLXLXLXLXLXLXLXLXLXLXLXLXLXLXLXLXLXLXLXLXLXLXLXLXLXLXLXLXLXLXLXLXLXLXLXLXLXLXLXLXLXLXLXLXLXLXLXLXLXLXLXLXLXLXLXLXLXLXLXLXLXLXLXLXLXLXLXLXLXLXLXLXLXLXLXLXLXLXLXLXLXLXLXLXLXLXLXLXLXLXLXLXLXLXLXLXLXLXLXLXLXLXLXLXLXLXLXLXLXLXLXLXLXLXLXLXLXLXLXLXLXLXLXLXLX",
"LXLXLXLXLXLXLXLXLXLXLXLXLXLXLXLXLXLXLXLXLXLXLXLXLXLXLXLXLXLXLXLXLXLXLXLXLXLXLXLXLXLXLXLXLXLXLXLXLXLXLXLXLXLXLXLXLXLXLXLXLXLXLXLXLXLXLXLXLXLXLXLXLXLXLXLXLXLXLXLXLXLXLXLXLXLXLXLXLXLXLXLXLXLXLXLXLXLXLXLXLXLXLXLXLXLXLXLXLXLXLXLXLXLXLXLXLXLXLXLXLXLXLXLXLXLXLXLXLXLXLXLXLXLXLXLXLXLXLXLXLXLXLXLXLXLXLXLXLXLXLXLXLXLXLXLXLXLXLXLXLXLXLXLXLXLXLXLXLXLXLXLXLXLXLXLXLXLXLXLXLX",
"LXLXLXLXLXLXLXLXLXLXLXLXLXLXLXLXLXLXLXLXLXLXLXLXLXLXLXLXLXLXLXLXLXLXLXLXLXLXLXLXLXLXLXLXLXLXLXLXLXLXLXLXLXLXLXLXLXLXLXLXLXLXLXLXLXLXLXLXLXLXLXLXLXLXLXLXLXLXLXLXLXLXLXLXLXLXLXLXLXLXLXLXLXLXLXLXLXLXLXLXLXLXLXLXLXLXLXLXLXLXLXLXLXLXLXLXLXLXLXLXLXLXLXLXLXLXLXLXLXLXLXLXLXLXLXLXLXLXLXLXLXLXLXLXLXLXLXLXLXLXLXLXLXLXLXLXLXLXLXLXLXLXLXLXLXLXLXLXLXLXLXLXLXLXLXLXLXLXLXLXLX",
"LXLXLXLXLXLXLXLXLXLXLXLXLXLXLXLXLXLXLXLXLXLXLXLXLXLXLXLXLXLXLXLXLXLXLXLXLXLXLXLXLXLXLXLXLXLXLXLXLXLXLXLXLXLXLXLXLXLXLXLXLXLXLXLXLXLXLXLXLXLXLXLXLXLXLXLXLXLXLXLXLXLXLXLXLXLXLXLXLXLXLXLXLXLXLXLXLXLXLXLXLXLXLXLXLXLXLXLXLXLXLXLXLXLXLXLXLXLXLXLXLXLXLXLXLXLXLXLXLXLXLXLXLXLXLXLXLXLXLXLXLXLXLXLXLXLXLXLXLXLXLXLXLXLXLXLXLXLXLXLXLXLXLXLXLXLXLXLXLXLXLXLXLXLXLXLXLXLXLXLXLX",
"LXLXLXLXLXLXLXLXLXLXLXLXLXLXLXLXLXLXLXLXLXLXLXLXLXLXLXLXLXLXLXLXLXLXLXLXLXLXLXLXLXLXLXLXLXLXLXLXLXLXLXLXLXLXLXLXLXLXLXLXLXLXLXLXLXLXLXLXLXLXLXLXLXLXLXLXLXLXLXLXLXLXLXLXLXLXLXLXLXLXLXLXLXLXLXLXLXLXLXLXLXLXLXLXLXLXLXLXLXLXLXLXLXLXLXLXLXLXLXLXLXLXLXLXLXLXLXLXLXLXLXLXLXLXLXLXLXLXLXLXLXLXLXLXLXLXLXLXLXLXLXLXLXLXLXLXLXLXLXLXLXLXLXLXLXLXLXLXLXLXLXLXLXLXLXLXLXLXLXLXLX",
"LXLXLXLXLXLXLXLXLXLXLXLXLXLXLXLXLXLXLXLXLXLXLXLXLXLXLXLXLXLXLXLXLXLXLXLXLXLXLXLXLXLXLXLXLXLXLXLXLXLXLXLXLXLXLXLXLXLXLXLXLXLXLXLXLXLXLXLXLXLXLXLXLXLXLXLXLXLXLXLXLXLXLXLXLXLXLXLXLXLXLXLXLXLXLXLXLXLXLXLXLXLXLXLXLXLXLXLXLXLXLXLXLXLXLXLXLXLXLXLXLXLXLXLXLXLXLXLXLXLXLXLXLXLXLXLXLXLXLXLXLXLXLXLXLXLXLXLXLXLXLXLXLXLXLXLXLXLXLXLXLXLXLXLXLXLXLXLXLXLXLXLXLXLXLXLXLXLXLXLXLX",
"LXLXLXLXLXLXLXLXLXLXLXLXLXLXLXLXLXLXLXLXLXLXLXLXLXLXLXLXLXLXLXLXLXLXLXLXLXLXLXLXLXLXLXLXLXLXLXLXLXLXLXLXLXLXLXLXLXLXLXLXLXLXLXLXLXLXLXLXLXLXLXLXLXLXLXLXLXLXLXLXLXLXLXLXLXLXLXLXLXLXLXLXLXLXLXLXLXLXLXLXLXLXLXLXLXLXLXLXLXLXLXLXLXLXLXLXLXLXLXLXLXLXLXLXLXLXLXLXLXLXLXLXLXLXLXLXLXLXLXLXLXLXLXLXLXLXLXLXLXLXLXLXLXLXLXLXLXLXLXLXLXLXLXLXLXLXLXLXLXLXLXLXLXLXLXLXLXLXLXLXLX",
"LXLXLXLXLXLXLXLXLXLXLXLXLXLXLXLXLXLXLXLXLXLXLXLXLXLXLXLXLXLXLXLXLXLXLXLXLXLXLXLXLXLXLXLXLXLXLXLXLXLXLXLXLXLXLXLXLXLXLXLXLXLXLXLXLXLXLXLXLXLXLXLXLXLXLXLXLXLXLXLXLXLXLXLXLXLXLXLXLXLXLXLXLXLXLXLXLXLXLXLXLXLXLXLXLXLXLXLXLXLXLXLXLXLXLXLXLXLXLXLXLXLXLXLXLXLXLXLXLXLXLXLXLXLXLXLXLXLXLXLXLXLXLXLXLXLXLXLXLXLXLXLXLXLXLXLXLXLXLXLXLXLXLXLXLXLXLXLXLXLXLXLXLXLXLXLXLXLXLXLXLX",
"LXLXLXLXLXLXLXLXLXLXLXLXLXLXLXLXLXLXLXLXLXLXLXLXLXLXLXLXLXLXLXLXLXLXLXLXLXLXLXLXLXLXLXLXLXLXLXLXLXLXLXLXLXLXLXLXLXLXLXLXLXLXLXLXLXLXLXLXLXLXLXLXLXLXLXLXLXLXLXLXLXLXLXLXLXLXLXLXLXLXLXLXLXLXLXLXLXLXLXLXLXLXLXLXLXLXLXLXLXLXLXLXLXLXLXLXLXLXLXLXLXLXLXLXLXLXLXLXLXLXLXLXLXLXLXLXLXLXLXLXLXLXLXLXLXLXLXLXLXLXLXLXLXLXLXLXLXLXLXLXLXLXLXLXLXLXLXLXLXLXLXLXLXLXLXLXLXLXLXLXLX",
"LXLXLXLXLXLXLXLXLXLXLXLXLXLXLXLXLXLXLXLXLXLXLXLXLXLXLXLXLXLXLXLXLXLXLXLXLXLXLXLXLXLXLXLXLXLXLXLXLXLXLXLXLXLXLXLXLXLXLXLXLXLXLXLXLXLXLXLXLXLXLXLXLXLXLXLXLXLXLXLXLXLXLXLXLXLXLXLXLXLXLXLXLXLXLXLXLXLXLXLXLXLXLXLXLXLXLXLXLXLXLXLXLXLXLXLXLXLXLXLXLXLXLXLXLXLXLXLXLXLXLXLXLXLXLXLXLXLXLXLXLXLXLXLXLXLXLXLXLXLXLXLXLXLXLXLXLXLXLXLXLXLXLXLXLXLXLXLXLXLXLXLXLXLXLXLXLXLXLXLXLX",
"LXLXLXLXLXLXLXLXLXLXLXLXLXLXLXLXLXLXLXLXLXLXLXLXLXLXLXLXLXLXLXLXLXLXLXLXLXLXLXLXLXLXLXLXLXLXLXLXLXLXLXLXLXLXLXLXLXLXLXLXLXLXLXLXLXLXLXLXLXLXLXLXLXLXLXLXLXLXLXLXLXLXLXLXLXLXLXLXLXLXLXLXLXLXLXLXLXLXLXLXLXLXLXLXLXLXLXLXLXLXLXLXLXLXLXLXLXLXLXLXLXLXLXLXLXLXLXLXLXLXLXLXLXLXLXLXLXLXLXLXLXLXLXLXLXLXLXLXLXLXLXLXLXLXLXLXLXLXLXLXLXLXLXLXLXLXLXLXLXLXLXLXLXLXLXLXLXLXLXLXLX",
"LXLXLXLXLXLXLXLXLXLXLXLXLXLXLXLXLXLXLXLXLXLXLXLXLXLXLXLXLXLXLXLXLXLXLXLXLXLXLXLXLXLXLXLXLXLXLXLXLXLXLXLXLXLXLXLXLXLXLXLXLXLXLXLXLXLXLXLXLXLXLXLXLXLXLXLXLXLXLXLXLXLXLXLXLXLXLXLXLXLXLXLXLXLXLXLXLXLXLXLXLXLXLXLXLXLXLXLXLXLXLXLXLXLXLXLXLXLXLXLXLXLXLXLXLXLXLXLXLXLXLXLXLXLXLXLXLXLXLXLXLXLXLXLXLXLXLXLXLXLXLXLXLXLXLXLXLXLXLXLXLXLXLXLXLXLXLXLXLXLXLXLXLXLXLXLXLXLXLXLXLX",
"LXLXLXLXLXLXLXLXLXLXLXLXLXLXLXLXLXLXLXLXLXLXLXLXLXLXLXLXLXLXLXLXLXLXLXLXLXLXLXLXLXLXLXLXLXLXLXLXLXLXLXLXLXLXLXLXLXLXLXLXLXLXLXLXLXLXLXLXLXLXLXLXLXLXLXLXLXLXLXLXLXLXLXLXLXLXLXLXLXLXLXLXLXLXLXLXLXLXLXLXLXLXLXLXLXLXLXLXLXLXLXLXLXLXLXLXLXLXLXLXLXLXLXLXLXLXLXLXLXLXLXLXLXLXLXLXLXLXLXLXLXLXLXLXLXLXLXLXLXLXLXLXLXLXLXLXLXLXLXLXLXLXLXLXLXLXLXLXLXLXLXLXLXLXLXLXLXLXLXLXLX",
"LXLXLXLXLXLXLXLXLXLXLXLXLXLXLXLXLXLXLXLXLXLXLXLXLXLXLXLXLXLXLXLXLXLXLXLXLXLXLXLXLXLXLXLXLXLXLXLXLXLXLXLXLXLXLXLXLXLXLXLXLXLXLXLXLXLXLXLXLXLXLXLXLXLXLXLXLXLXLXLXLXLXLXLXLXLXLXLXLXLXLXLXLXLXLXLXLXLXLXLXLXLXLXLXLXLXLXLXLXLXLXLXLXLXLXLXLXLXLXLXLXLXLXLXLXLXLXLXLXLXLXLXLXLXLXLXLXLXLXLXLXLXLXLXLXLXLXLXLXLXLXLXLXLXLXLXLXLXLXLXLXLXLXLXLXLXLXLXLXLXLXLXLXLXLXLXLXLXLXLXLX",
"LXLXLXLXLXLXLXLXLXLXLXLXLXLXLXLXLXLXLXLXLXLXLXLXLXLXLXLXLXLXLXLXLXLXLXLXLXLXLXLXLXLXLXLXLXLXLXLXLXLXLXLXLXLXLXLXLXLXLXLXLXLXLXLXLXLXLXLXLXLXLXLXLXLXLXLXLXLXLXLXLXLXLXLXLXLXLXLXLXLXLXLXLXLXLXLXLXLXLXLXLXLXLXLXLXLXLXLXLXLXLXLXLXLXLXLXLXLXLXLXLXLXLXLXLXLXLXLXLXLXLXLXLXLXLXLXLXLXLXLXLXLXLXLXLXLXLXLXLXLXLXLXLXLXLXLXLXLXLXLXLXLXLXLXLXLXLXLXLXLXLXLXLXLXLXLXLXLXLXLXLX",
"LXLXLXLXLXLXLXLXLXLXLXLXLXLXLXLXLXLXLXLXLXLXLXLXLXLXLXLXLXLXLXLXLXLXLXLXLXLXLXLXLXLXLXLXLXLXLXLXLXLXLXLXLXLXLXLXLXLXLXLXLXLXLXLXLXLXLXLXLXLXLXLXLXLXLXLXLXLXLXLXLXLXLXLXLXLXLXLXLXLXLXLXLXLXLXLXLXLXLXLXLXLXLXLXLXLXLXLXLXLXLXLXLXLXLXLXLXLXLXLXLXLXLXLXLXLXLXLXLXLXLXLXLXLXLXLXLXLXLXLXLXLXLXLXLXLXLXLXLXLXLXLXLXLXLXLXLXLXLXLXLXLXLXLXLXLXLXLXLXLXLXLXLXLXLXLXLXLXLXLXLX",
"LXLXLXLXLXLXLXLXLXLXLXLXLXLXLXLXLXLXLXLXLXLXLXLXLXLXLXLXLXLXLXLXLXLXLXLXLXLXLXLXLXLXLXLXLXLXLXLXLXLXLXLXLXLXLXLXLXLXLXLXLXLXLXLXLXLXLXLXLXLXLXLXLXLXLXLXLXLXLXLXLXLXLXLXLXLXLXLXLXLXLXLXLXLXLXLXLXLXLXLXLXLXLXLXLXLXLXLXLXLXLXLXLXLXLXLXLXLXLXLXLXLXLXLXLXLXLXLXLXLXLXLXLXLXLXLXLXLXLXLXLXLXLXLXLXLXLXLXLXLXLXLXLXLXLXLXLXLXLXLXLXLXLXLXLXLXLXLXLXLXLXLXLXLXLXLXLXLXLXLXLX",
"LXLXLXLXLXLXLXLXLXLXLXLXLXLXLXLXLXLXLXLXLXLXLXLXLXLXLXLXLXLXLXLXLXLXLXLXLXLXLXLXLXLXLXLXLXLXLXLXLXLXLXLXLXLXLXLXLXLXLXLXLXLXLXLXLXLXLXLXLXLXLXLXLXLXLXLXLXLXLXLXLXLXLXLXLXLXLXLXLXLXLXLXLXLXLXLXLXLXLXLXLXLXLXLXLXLXLXLXLXLXLXLXLXLXLXLXLXLXLXLXLXLXLXLXLXLXLXLXLXLXLXLXLXLXLXLXLXLXLXLXLXLXLXLXLXLXLXLXLXLXLXLXLXLXLXLXLXLXLXLXLXLXLXLXLXLXLXLXLXLXLXLXLXLXLXLXLXLXLXLXLX",
"LXLXLXLXLXLXLXLXLXLXLXLXLXLXLXLXLXLXLXLXLXLXLXLXLXLXLXLXLXLXLXLXLXLXLXLXLXLXLXLXLXLXLXLXLXLXLXLXLXLXLXLXLXLXLXLXLXLXLXLXLXLXLXLXLXLXLXLXLXLXLXLXLXLXLXLXLXLXLXLXLXLXLXLXLXLXLXLXLXLXLXLXLXLXLXLXLXLXLXLXLXLXLXLXLXLXLXLXLXLXLXLXLXLXLXLXLXLXLXLXLXLXLXLXLXLXLXLXLXLXLXLXLXLXLXLXLXLXLXLXLXLXLXLXLXLXLXLXLXLXLXLXLXLXLXLXLXLXLXLXLXLXLXLXLXLXLXLXLXLXLXLXLXLXLXLXLXLXLXLXLX",
"LXLXLXLXLXLXLXLXLXLXLXLXLXLXLXLXLXLXLXLXLXLXLXLXLXLXLXLXLXLXLXLXLXLXLXLXLXLXLXLXLXLXLXLXLXLXLXLXLXLXLXLXLXLXLXLXLXLXLXLXLXLXLXLXLXLXLXLXLXLXLXLXLXLXLXLXLXLXLXLXLXLXLXLXLXLXLXLXLXLXLXLXLXLXLXLXLXLXLXLXLXLXLXLXLXLXLXLXLXLXLXLXLXLXLXLXLXLXLXLXLXLXLXLXLXLXLXLXLXLXLXLXLXLXLXLXLXLXLXLXLXLXLXLXLXLXLXLXLXLXLXLXLXLXLXLXLXLXLXLXLXLXLXLXLXLXLXLXLXLXLXLXLXLXLXLXLXLXLXLXLX",
"LXLXLXLXLXLXLXLXLXLXLXLXLXLXLXLXLXLXLXLXLXLXLXLXLXLXLXLXLXLXLXLXLXLXLXLXLXLXLXLXLXLXLXLXLXLXLXLXLXLXLXLXLXLXLXLXLXLXLXLXLXLXLXLXLXLXLXLXLXLXLXLXLXLXLXLXLXLXLXLXLXLXLXLXLXLXLXLXLXLXLXLXLXLXLXLXLXLXLXLXLXLXLXLXLXLXLXLXLXLXLXLXLXLXLXLXLXLXLXLXLXLXLXLXLXLXLXLXLXLXLXLXLXLXLXLXLXLXLXLXLXLXLXLXLXLXLXLXLXLXLXLXLXLXLXLXLXLXLXLXLXLXLXLXLXLXLXLXLXLXLXLXLXLXLXLXLXLXLXLXLX",
"LXLXLXLXLXLXLXLXLXLXLXLXLXLXLXLXLXLXLXLXLXLXLXLXLXLXLXLXLXLXLXLXLXLXLXLXLXLXLXLXLXLXLXLXLXLXLXLXLXLXLXLXLXLXLXLXLXLXLXLXLXLXLXLXLXLXLXLXLXLXLXLXLXLXLXLXLXLXLXLXLXLXLXLXLXLXLXLXLXLXLXLXLXLXLXLXLXLXLXLXLXLXLXLXLXLXLXLXLXLXLXLXLXLXLXLXLXLXLXLXLXLXLXLXLXLXLXLXLXLXLXLXLXLXLXLXLXLXLXLXLXLXLXLXLXLXLXLXLXLXLXLXLXLXLXLXLXLXLXLXLXLXLXLXLXLXLXLXLXLXLXLXLXLXLXLXLXLXLXLXLX",
"LXLXLXLXLXLXLXLXLXLXLXLXLXLXLXLXLXLXLXLXLXLXLXLXLXLXLXLXLXLXLXLXLXLXLXLXLXLXLXLXLXLXLXLXLXLXLXLXLXLXLXLXLXLXLXLXLXLXLXLXLXLXLXLXLXLXLXLXLXLXLXLXLXLXLXLXLXLXLXLXLXLXLXLXLXLXLXLXLXLXLXLXLXLXLXLXLXLXLXLXLXLXLXLXLXLXLXLXLXLXLXLXLXLXLXLXLXLXLXLXLXLXLXLXLXLXLXLXLXLXLXLXLXLXLXLXLXLXLXLXLXLXLXLXLXLXLXLXLXLXLXLXLXLXLXLXLXLXLXLXLXLXLXLXLXLXLXLXLXLXLXLXLXLXLXLXLXLXLXLXLX",
"LXLXLXLXLXLXLXLXLXLXLXLXLXLXLXLXLXLXLXLXLXLXLXLXLXLXLXLXLXLXLXLXLXLXLXLXLXLXLXLXLXLXLXLXLXLXLXLXLXLXLXLXLXLXLXLXLXLXLXLXLXLXLXLXLXLXLXLXLXLXLXLXLXLXLXLXLXLXLXLXLXLXLXLXLXLXLXLXLXLXLXLXLXLXLXLXLXLXLXLXLXLXLXLXLXLXLXLXLXLXLXLXLXLXLXLXLXLXLXLXLXLXLXLXLXLXLXLXLXLXLXLXLXLXLXLXLXLXLXLXLXLXLXLXLXLXLXLXLXLXLXLXLXLXLXLXLXLXLXLXLXLXLXLXLXLXLXLXLXLXLXLXLXLXLXLXLXLXLXLXLX",
"LXLXLXLXLXLXLXLXLXLXLXLXLXLXLXLXLXLXLXLXLXLXLXLXLXLXLXLXLXLXLXLXLXLXLXLXLXLXLXLXLXLXLXLXLXLXLXLXLXLXLXLXLXLXLXLXLXLXLXLXLXLXLXLXLXLXLXLXLXLXLXLXLXLXLXLXLXLXLXLXLXLXLXLXLXLXLXLXLXLXLXLXLXLXLXLXLXLXLXLXLXLXLXLXLXLXLXLXLXLXLXLXLXLXLXLXLXLXLXLXLXLXLXLXLXLXLXLXLXLXLXLXLXLXLXLXLXLXLXLXLXLXLXLXLXLXLXLXLXLXLXLXLXLXLXLXLXLXLXLXLXLXLXLXLXLXLXLXLXLXLXLXLXLXLXLXLXLXLXLXLX",
"LXLXLXLXLXLXLXLXLXLXLXLXLXLXLXLXLXLXLXLXLXLXLXLXLXLXLXLXLXLXLXLXLXLXLXLXZ.M.J.%XaXZXLXLXLXLXLXLXLXLXLXLXLXLXLXLXLXLXLXLXLXLXLXLXLXLXLXLXLXLXLXLXLXLXLXLXLXLXLXLXLXLXLXLXLXLXLXLXLXLXLXLXLXLXLXLXLXLXLXLXLXLXLXLXLXLXLXLXLXLXLXLXLXLXLXLXLXLXLXLXLXLXLXLXLXLXLXLXLXLXLXLXLXLXLXLXLXLXLXLXLXLXLXLXLXLXLXLXLXLXLXLXLXLXLXLXLXLXLXLXLXLXLXLXLXLXLXLXLXLXLXLXLXLXLXLXLXLXLXLXLX",
"LXLXLXLXLXLXLXLXLXLXLXLXLXLXLXLXLXLXLXLXLXLXLXLXLXLXLXLXLXLXLXLXLXLXLXZ.m 3 S M ! !.ZXLXLXLXLXLXLXLXLXLXLXLXLXLXLXLXLXLXLXLXLXLXLXLXLXLXLXLXLXLXLXLXLXLXLXLXLXLXLXLXLXLXLXLXLXLXLXLXLXLXLXLXLXLXLXLXLXLXLXLXLXLXLXLXLXLXLXLXLXLXLXLXLXLXLXLXLXLXLXLXLXLXLXLXLXLXLXLXLXLXLXLXLXLXLXLXLXLXLXLXLXLXLXLXLXLXLXLXLXLXLXLXLXLXLXLXLXLXLXLXLXLXLXLXLXLXLXLXLXLXLXLXLXLXLXLXLXLXLX",
"LXLXLXLXLXLXLXLXLXLXLXLXLXLXLXLXLXLXLXLXLXLXLXLXLXLXLXLXLXLXLXLXLXLXLXM.S F S Y N.;XsXLXLXLXLXLXLXLXLXLXLXLXLXLXLXLXLXLXLXLXLXLXLXLXLXLXLXLXLXLXLXLXLXLXLXLXLXLXLXLXLXLXLXLXLXLXLXLXLXLXLXLXLXLXLXLXLXLXLXLXLXLXLXLXLXLXLXLXLXLXLXLXLXLXLXLXLXLXLXLXLXLXLXLXLXLXLXLXLXLXLXLXLXLXLXLXLXLXLXLXLXLXLXLXLXLXLXLXLXLXLXLXLXLXLXLXLXLXLXLXLXLXLXLXLXLXLXLXLXLXLXLXLXLXLXLXLXLXLX",
"LXLXLXLXLXLXLXLXLXLXLXLXLXLXLXLXLXLXLXLXLXLXLXLXLXLXLXLXLXLXLXLXLXLX<XN.N.! n ! J.V.-XaXfXZXLXLXLXLXLXLXLXLXLXLXLXLXLXLXLXLXLXLXLXLXLXLXLXLXLXLXLXLXLXLXLXLXLXLXLXLXLXLXLXLXLXLXLXLXLXLXLXLXLXLXLXLXLXLXLXLXLXLXLXLXLXLXLXLXLXLXLXLXLXLXLXLXLXLXLXLXLXLXLXLXLXLXLXLXLXLXLXLXLXLXLXLXLXLXLXLXLXLXLXLXLXLXLXLXLXLXLXLXLXLXLXLXLXLXLXLXLXLXLXLXLXLXLXLXLXLXLXLXLXLXLXLXLXLXLX",
"LXLXLXLXLXLXLXLXLXLXLXLXLXLXLXLXLXLXLXLXLXZ.C.Z.C.J.V.H.W.H.! Y S ~ Y ~ H.l m m ~ ! R R N J.<XaX;X$X<XaXlXHXHXHXLXLXLXLXLXLXLXLXLXLXLXLXLXLXLXLXLXLXLXLXLXLXLXLXLXLXLXLXLXLXLXLXLXLXLXLXLXLXLXLXLXLXLXLXLXLXLXLXLXLXLXLXLXLXLXLXLXLXLXLXLXLXLXLXLXLXLXLXLXLXLXLXLXLXLXLXLXLXLXLXLXLXLXLXLXLXLXLXLXLXLXLXLXLXLXLXLXLXLXLXLXLXLXLXLXLXLXLXLXLXLXLXLXLXLXLXLXLXLXLXLXLXLXLXLX",
"LXLXLXLXLXLXLXLXLXLXLXLXLXLXLXLXLXLXLX&XC.N M.! V.V.N.! ! Y 3 n t , S ~ Y o o 3 ; m N M.Y m F F t t ; M ! H.!.BXGXLXLXLXLXLXLXLXLXLXLXLXLXLXLXLXLXLXLXLXLXLXLXLXLXLXLXLXLXLXLXLXLXLXLXLXLXLXLXLXLXLXLXLXLXLXLXLXLXLXLXLXLXLXLXLXLXLXLXLXLXLXLXLXLXLXLXLXLXLXLXLXLXLXLXLXLXLXLXLXLXLXLXLXLXLXLXLXLXLXLXLXLXLXLXLXLXLXLXLXLXLXLXLXLXLXLXLXLXLXLXLXLXLXLXLXLXLXLXLXLXLXLXLXLX",
"LXLXLXLXLXLXLXLXLXLXLXLXLXLXLXLXLXLXJ.N V.N.N.!.P.Q ( S Z D S Q ' t n Q m * o   o 3 R ~ Y Y F ' p , , t 3 n S m J.xXHXLXLXLXLXLXLXLXLXLXLXLXLXLXLXLXLXLXLXLXLXLXLXLXLXLXLXLXLXLXLXLXLXLXLXLXLXLXLXLXLXLXLXLXLXLXLXLXLXLXLXLXLXLXLXLXLXLXLXLXLXLXLXLXLXLXLXLXLXLXLXLXLXLXLXLXLXLXLXLXLXLXLXLXLXLXLXLXLXLXLXLXLXLXLXLXLXLXLXLXLXLXLXLXLXLXLXLXLXLXLXLXLXLXLXLXLXLXLXLXLXLXLX",
"LXLXLXLXLXLXLXLXLXLXLXLXLXLXLXLXLXC.N.H.!.W.P.F n 3 3 ; * 3 3 l S n ( Z = * o # X : R R R N.Q t ; X o # # : 3 3 ! J.xXGXLXLXLXLXLXLXLXLXLXLXLXLXLXLXLXLXLXLXLXLXLXLXLXLXLXLXLXLXLXLXLXLXLXLXLXLXLXLXLXLXLXLXLXLXLXLXLXLXLXLXLXLXLXLXLXLXLXLXLXLXLXLXLXLXLXLXLXLXLXLXLXLXLXLXLXLXLXLXLXLXLXLXLXLXLXLXLXLXLXLXLXLXLXLXLXLXLXLXLXLXLXLXLXLXLXLXLXLXLXLXLXLXLXLXLXLXLXLXLXLXLX",
"LXLXLXLXLXLXLXLXLXLXLXLXLXLXLXLXC.J.$X$X%XS X X X 3 1 1 B B 2 4 : Z ( R z 1 3 : 4 S Z Z R M 3 : 1 l 1 4 B B # : ; m W.lXGXLXLXLXLXLXLXLXLXLXLXLXLXLXLXLXLXLXLXLXLXLXLXLXLXLXLXLXLXLXLXLXLXLXLXLXLXLXLXLXLXLXLXLXLXLXLXLXLXLXLXLXLXLXLXLXLXLXLXLXLXLXLXLXLXLXLXLXLXLXLXLXLXLXLXLXLXLXLXLXLXLXLXLXLXLXLXLXLXLXLXLXLXLXLXLXLXLXLXLXLXLXLXLXLXLXLXLXLXLXLXLXLXLXLXLXLXLXLXLXLX",
"LXLXLXLXLXLXLXLXLXLXLXLXLXLXLXZ.&XW.$X%Xm ; # o X : : : 1 4 c 4 4 1 z R ! S Z S T T R V.S z 3 : 1 1 1 1 l S S 4 X 3 M H.ZXGXLXLXLXLXLXLXLXLXLXLXLXLXLXLXLXLXLXLXLXLXLXLXLXLXLXLXLXLXLXLXLXLXLXLXLXLXLXLXLXLXLXLXLXLXLXLXLXLXLXLXLXLXLXLXLXLXLXLXLXLXLXLXLXLXLXLXLXLXLXLXLXLXLXLXLXLXLXLXLXLXLXLXLXLXLXLXLXLXLXLXLXLXLXLXLXLXLXLXLXLXLXLXLXLXLXLXLXLXLXLXLXLXLXLXLXLXLXLXLX",
"LXLXLXLXLXLXLXLXLXLXLXLXLXLXpX&XJ.$X$X! n X o o o o X X X : > 4 4 1 : l R ! R R Z S B.S 4 1 X 1 X * * * : 4 B A u t 3 ~ H.GXHXLXLXLXLXLXLXLXLXLXLXLXLXLXLXLXLXLXLXLXLXLXLXLXLXLXLXLXLXLXLXLXLXLXLXLXLXLXLXLXLXLXLXLXLXLXLXLXLXLXLXLXLXLXLXLXLXLXLXLXLXLXLXLXLXLXLXLXLXLXLXLXLXLXLXLXLXLXLXLXLXLXLXLXLXLXLXLXLXLXLXLXLXLXLXLXLXLXLXLXLXLXLXLXLXLXLXLXLXLXLXLXLXLXLXLXLXLXLX",
"LXLXLXLXLXLXLXLXLXLXLXLXLXLXpXJ.H.^.H.; ,   o       o o o o X : 4 t 3 : n T ! ! ( B.P.4 $ X   X o X X X + + < C u X t S ! ;XGXLXLXLXLXLXLXLXLXLXLXLXLXLXLXLXLXLXLXLXLXLXLXLXLXLXLXLXLXLXLXLXLXLXLXLXLXLXLXLXLXLXLXLXLXLXLXLXLXLXLXLXLXLXLXLXLXLXLXLXLXLXLXLXLXLXLXLXLXLXLXLXLXLXLXLXLXLXLXLXLXLXLXLXLXLXLXLXLXLXLXLXLXLXLXLXLXLXLXLXLXLXLXLXLXLXLXLXLXLXLXLXLXLXLXLXLXLXLX",
"LXLXLXLXLXLXLXLXLXLXLXLXLXBX-XN.!.P.3 # o           o o o   o X : t 4 X 1 S T ! ( B.t o o   o   . o . o $ + O < P u # , ~ J.ZXHXLXLXLXLXLXLXLXLXLXLXLXLXLXLXLXLXLXLXLXLXLXLXLXLXLXLXLXLXLXLXLXLXLXLXLXLXLXLXLXLXLXLXLXLXLXLXLXLXLXLXLXLXLXLXLXLXLXLXLXLXLXLXLXLXLXLXLXLXLXLXLXLXLXLXLXLXLXLXLXLXLXLXLXLXLXLXLXLXLXLXLXLXLXLXLXLXLXLXLXLXLXLXLXLXLXLXLXLXLXLXLXLXLXLXLXLXLX",
"LXLXLXLXLXLXLXLXLXLXLXLXLXdXJ.N.^.^ X #                 o     o X , , X 4 S Z R T P         o           $ + X + < q X : H.N.zXGXLXLXLXLXLXLXLXLXLXLXLXLXLXLXLXLXLXLXLXLXLXLXLXLXLXLXLXLXLXLXLXLXLXLXLXLXLXLXLXLXLXLXLXLXLXLXLXLXLXLXLXLXLXLXLXLXLXLXLXLXLXLXLXLXLXLXLXLXLXLXLXLXLXLXLXLXLXLXLXLXLXLXLXLXLXLXLXLXLXLXLXLXLXLXLXLXLXLXLXLXLXLXLXLXLXLXLXLXLXLXLXLXLXLXLXLXLX",
"LXLXLXLXLXLXLXLXLXLXLXLXLXdXH.H.^.D X o                         o : 4 : 1 B Z T ` B                     o X X + > u q   _ !.N.GXLXLXLXLXLXLXLXLXLXLXLXLXLXLXLXLXLXLXLXLXLXLXLXLXLXLXLXLXLXLXLXLXLXLXLXLXLXLXLXLXLXLXLXLXLXLXLXLXLXLXLXLXLXLXLXLXLXLXLXLXLXLXLXLXLXLXLXLXLXLXLXLXLXLXLXLXLXLXLXLXLXLXLXLXLXLXLXLXLXLXLXLXLXLXLXLXLXLXLXLXLXLXLXLXLXLXLXLXLXLXLXLXLXLXLXLXLX",
"LXLXLXLXLXLXLXLXLXLXLXLXLX-XM.H.Q.q X                     o       $ B : * l m Y Q X       o               o X X > : 2 X 3 W.J.zXLXLXLXLXLXLXLXLXLXLXLXLXLXLXLXLXLXLXLXLXLXLXLXLXLXLXLXLXLXLXLXLXLXLXLXLXLXLXLXLXLXLXLXLXLXLXLXLXLXLXLXLXLXLXLXLXLXLXLXLXLXLXLXLXLXLXLXLXLXLXLXLXLXLXLXLXLXLXLXLXLXLXLXLXLXLXLXLXLXLXLXLXLXLXLXLXLXLXLXLXLXLXLXLXLXLXLXLXLXLXLXLXLXLXLXLXLX",
"LXLXLXLXLXLXLXLXLXLXLXLXgX$X~ ` ^.+       o               o o     X 4 X * Z Z Z ( o         o         o o o * X o c 1 * n W.J.lXLXLXLXLXLXLXLXLXLXLXLXLXLXLXLXLXLXLXLXLXLXLXLXLXLXLXLXLXLXLXLXLXLXLXLXLXLXLXLXLXLXLXLXLXLXLXLXLXLXLXLXLXLXLXLXLXLXLXLXLXLXLXLXLXLXLXLXLXLXLXLXLXLXLXLXLXLXLXLXLXLXLXLXLXLXLXLXLXLXLXLXLXLXLXLXLXLXLXLXLXLXLXLXLXLXLXLXLXLXLXLXLXLXLXLXLXLX",
"LXLXLXLXLXLXLXLXLXLXLXLXlX!.M ! ^.X       X               o o   . X u o * S n Q ( *   o     o             o o X : : 3 ; n !.M.aXLXLXLXLXLXLXLXLXLXLXLXLXLXLXLXLXLXLXLXLXLXLXLXLXLXLXLXLXLXLXLXLXLXLXLXLXLXLXLXLXLXLXLXLXLXLXLXLXLXLXLXLXLXLXLXLXLXLXLXLXLXLXLXLXLXLXLXLXLXLXLXLXLXLXLXLXLXLXLXLXLXLXLXLXLXLXLXLXLXLXLXLXLXLXLXLXLXLXLXLXLXLXLXLXLXLXLXLXLXLXLXLXLXLXLXLXLX",
"LXLXLXLXLXLXLXLXLXLXLXLXdX!.~ ~ U.D   o                     o o     4 : o F Z T ( 3     o                   o o o t 3 ; n W.H.-XLXLXLXLXLXLXLXLXLXLXLXLXLXLXLXLXLXLXLXLXLXLXLXLXLXLXLXLXLXLXLXLXLXLXLXLXLXLXLXLXLXLXLXLXLXLXLXLXLXLXLXLXLXLXLXLXLXLXLXLXLXLXLXLXLXLXLXLXLXLXLXLXLXLXLXLXLXLXLXLXLXLXLXLXLXLXLXLXLXLXLXLXLXLXLXLXLXLXLXLXLXLXLXLXLXLXLXLXLXLXLXLXLXLXLXLXLX",
"LXLXLXLXLXLXLXLXLXLXLXLXlXJ.~ M Q.`                         o o   X 1 # X A T T T n o         o               o X : : ; ~ H.M.;XLXLXLXLXLXLXLXLXLXLXLXLXLXLXLXLXLXLXLXLXLXLXLXLXLXLXLXLXLXLXLXLXLXLXLXLXLXLXLXLXLXLXLXLXLXLXLXLXLXLXLXLXLXLXLXLXLXLXLXLXLXLXLXLXLXLXLXLXLXLXLXLXLXLXLXLXLXLXLXLXLXLXLXLXLXLXLXLXLXLXLXLXLXLXLXLXLXLXLXLXLXLXLXLXLXLXLXLXLXLXLXLXLXLXLXLXLX",
"LXLXLXLXLXLXLXLXLXLXLXBXaX$XM.m ` :X  X     o               o o   1 :   l D T T ( l o       o                   X , ; : N.N.V.$XLXLXLXLXLXLXLXLXLXLXLXLXLXLXLXLXLXLXLXLXLXLXLXLXLXLXLXLXLXLXLXLXLXLXLXLXLXLXLXLXLXLXLXLXLXLXLXLXLXLXLXLXLXLXLXLXLXLXLXLXLXLXLXLXLXLXLXLXLXLXLXLXLXLXLXLXLXLXLXLXLXLXLXLXLXLXLXLXLXLXLXLXLXLXLXLXLXLXLXLXLXLXLXLXLXLXLXLXLXLXLXLXLXLXLXLXLX",
"LXLXLXLXLXLXLXLXLXLXLXgXdXJ.M.~ l :XD   o   o                 o o : : * S S S R H.n o o     o                 o X 3 X T H.! V.&XLXLXLXLXLXLXLXLXLXLXLXLXLXLXLXLXLXLXLXLXLXLXLXLXLXLXLXLXLXLXLXLXLXLXLXLXLXLXLXLXLXLXLXLXLXLXLXLXLXLXLXLXLXLXLXLXLXLXLXLXLXLXLXLXLXLXLXLXLXLXLXLXLXLXLXLXLXLXLXLXLXLXLXLXLXLXLXLXLXLXLXLXLXLXLXLXLXLXLXLXLXLXLXLXLXLXLXLXLXLXLXLXLXLXLXLXLX",
"LXLXLXLXLXLXLXLXLXLXgXxX-XJ.H.! D ^ Q.#                         X X 1 S Z Z m ~ ( ( l o                       o * * 4 B.( M.Y -XLXLXLXLXLXLXLXLXLXLXLXLXLXLXLXLXLXLXLXLXLXLXLXLXLXLXLXLXLXLXLXLXLXLXLXLXLXLXLXLXLXLXLXLXLXLXLXLXLXLXLXLXLXLXLXLXLXLXLXLXLXLXLXLXLXLXLXLXLXLXLXLXLXx S.R x LXLXLXLXLXLXLXLXLXLXLXLXLXLXLXLXLXLXLXLXLXLXLXLXLXLXLXLXLXLXLXLXLXLXLXLXLXLXLXLX",
"LXLXLXLXLXLXLXLXLXLXcXdX-XH.N.( ! Q Q B.X                         X l S l Z M Y S N.( 3                       o * 1 ( R m N.V.LXLXLXLXLXLXLXLXLXLXLXLXLXLXLXLXLXLXLXLXLXLXLXLXLXLXLXLXLXLXLXLXLXLXLXLXLXLXLXLXLXLXLXLXLXLXLXLXLXLXLXLXLXLXLXLXLXLXLXLXLXLXLXLXLXLXLXLXLXLXLXLXW I s a &.e &.D.S.LXLXLXLXLXLXLXLXLXLXLXLXLXLXLXLXLXLXLXLXLXLXLXLXLXLXLXLXLXLXLXLXLXLXLXLXLX",
"LXLXLXLXLXLXLXLXLXLXxXxX$XH.~ Y S ` ^ ^ P.:                     o l Q l Z ! ! ! ! S ! ) 4   o                 o 1 A T S ( m %XLXLXLXLXLXLXLXLXLXLXLXLXLXLXLXLXLXLXLXLXLXLXLXLXLXLXLXLXLXLXLXLXLXLXLXLXLXLXLXLXLXLXLXLXLXLXLXLXLXLXLXLXLXLXLXLXLXLXLXLXLXLXLXLXLXLXLXLXLXLXW.W K a %.{ ..{ +.+.&.I LXLXLXLXLXLXLXLXLXLXLXLXLXLXLXLXLXLXLXLXLXLXLXLXLXLXLXLXLXLXLXLXLXLXLXLX",
"LXLXLXLXLXLXLXLXLXLXxXaX$XN.M S S F S S S Q T : o       o     : A A S ! H.P.H.H.! Y Y S D 4 o X   o         X B _ ` U.Q.V.!.LXLXLXLXLXLXLXLXLXLXLXLXLXLXLXLXLXLXLXLXLXLXLXLXLXLXLXLXLXLXLXLXLXLXLXLXLXLXLXLXLXLXLXLXLXLXLXLXLXLXLXLXLXLXLXLXLXLXLXLXLXLXLXLXLXLXLXLXLXLXR 3.w +.$.h ..u.h { :.{ $./ S.LXLXLXLXLXLXLXLXLXLXLXLXLXLXLXLXLXLXLXLXLXLXLXLXLXLXLXLXLXLXLXLXLXLX",
"LXLXLXLXLXLXLXLXLXdXlXaX$X! M M n 3 n F 4 4 B B A ^ D B B A ^ B.P.Q.Q.^.%X:X;X<X^.^.( ^ ` / U.` / u B A 4 4 4 : c A E A.I.:X<XLXLXLXLXLXLXLXLXLXLXLXLXLXLXLXLXLXLXLXLXLXLXLXLXLXLXLXLXLXLXLXLXLXLXLXLXLXLXLXLXLXLXLXLXLXLXLXLXLXLXLXLXLXLXLXLXLXLXLXLXLXLXLXLXLXLXLXLXLXv V H {  .:.h -. . . ... .$./ LXLXLXLXLXLXLXLXLXLXLXLXLXLXLXLXLXLXLXLXLXLXLXLXLXLXLXLXLXLXLXLXLXLX",
"LXLXLXLXLXLXLXLXLXBXxX$X$XH.m n 3 3 ; l Q B 1 T A.I.A.^ E E A T A ( ) B.I.^.!.^.!.H.I.U.U.~.U.Q.U.P.P.P.( 4 X : X : * 2 l E I.fXLXLXLXLXLXLXLXLXLXLXLXLXLXLXLXLXLXLXLXLXLXLXLXLXLXLXLXLXLXLXLXLXLXLXLXLXLXLXLXLXLXLXLXLXLXLXLXLXLXLXLXLXLXLXLXLXLXLXLXLXLXLXLXLXLXLXLXW &.{  ... .-.H L k j. . .-.h h 4.LXLXLXLXLXLXLXLXLXLXLXLXLXLXLXLXLXLXLXLXLXLXLXLXLXLXLXLXLXLXLXLXLX",
"LXLXLXLXLXLXLXLXLXcXzX$XJ.M.S n 1 1 3 1 * S Q.*XA.) A B S B l B l l l B ( ^.:X<X:X:X:X:XQ.Y.U.p.3._ U.^.A.l 2 X X * * 1 2 1 1 V.fXLXLXLXLXLXLXLXLXLXLXLXLXLXLXLXLXLXLXLXLXLXLXLXLXLXLXLXLXLXLXLXLXLXLXLXLXLXLXLXLXLXLXLXLXLXLXLXLXLXLXLXLXLXLXLXLXLXLXLXLXLXLXx x v - K d u. .....=.y i . k -.$.$.-.h -.W LXLXLXLXLXLXLXLXLXLXLXLXLXLXLXLXLXLXLXLXLXLXLXLXLXLXLXLXLXLXLXLX",
"LXLXLXLXLXLXLXLXLXlXaX$XH.! Y n n 3 1 1 A ^.^.) ) D c Z A B B S B 4 1 2 S Q.vXmXsXsX:X~.Y.+X+X~.U.Y.U.:X*Xc X > 1 : + + * 2 2 Z B.:XvXLXLXLXLXLXLXLXLXLXLXLXLXLXLXLXLXLXLXLXLXLXLXLXLXLXLXLXLXLXLXLXLXLXLXLXLXLXLXLXLXLXLXLXLXLXLXLXLXLXLXLXLXLXLXLXLXLXLX= 1 A - S.K H %.{ { *.H % O . + O O 7 $.g  .j I LXLXLXLXLXLXLXLXLXLXLXLXLXLXLXLXLXLXLXLXLXLXLXLXLXLXLXLXLXLXLXLX",
"LXLXLXLXLXLXLXLXdXlXaXK.N.! M n 3 3 * B ^.:XQ.I._ ) ) E D Z c c A c c B Z I.<X^.U._ q 3.~.R.Y.Y.~..XA J I.E * * o X : : : 2 c E Q.:X<XfXLXLXLXLXLXLXLXLXLXLXLXLXLXLXLXLXLXLXLXLXLXLXLXLXLXLXLXLXLXLXLXLXLXLXLXLXLXLXLXLXLXLXLXLXLXLXLXLXLXLXLXLXLXLX= x W I 9 9 s I K e h %.{ H G G . 3.J / 9 @ g g $.-.y V LXLXLXLXLXLXLXLXLXLXLXLXLXLXLXLXLXLXLXLXLXLXLXLXLXLXLXLXLXLXLX",
"LXLXLXLXLXLXLXLXgXaX-X!.M.Y S n Z 1 T :X2X:X^.Q.I.A.) E A A T T A A A B A ^.) : X X V .XtX,XI Y.tXVX~.> A ) : 2 4 : + > q 2 2 E ~.2XvXsXLXLXLXLXLXLXLXLXLXLXLXLXLXLXLXLXLXLXLXLXLXLXLXLXLXLXLXLXLXLXLXLXLXLXLXLXLXLXLXLXLXLXLXLXLXLXLXLXLXLXLXb - 2 v 4.4.y j.f k E.k h h -.g 7 7 % G 0 &.a d 8 @ &.g $.j i v LXLXLXLXLXLXLXLXLXLXLXLXLXLXLXLXLXLXLXLXLXLXLXLXLXLXLXLXLXLX",
"LXLXLXLXLXLXLXLXdXlX;XH.M.! m S 3 B Q.vXmXsX:XI.I.S.) ) E D A A E ^ D c E 2X^ * 1 ` > q Y.tXVXKXKX1XJ A A I.B : : 2 4 4 V c 2 A ~.2XVXmXsXLXLXLXLXLXLXLXLXLXLXLXLXLXLXLXLXLXLXLXLXLXLXLXLXLXLXLXLXLXLXLXLXLXLXLXLXLXLXLXLXLXLXLXLXLXLXLXLX- - @ 5 7 a a.$.j -.f U j.7 -.j g g $.O y f i [.$.d d @ H g f &.f + LXLXLXLXLXLXLXLXLXLXLXLXLXLXLXLXLXLXLXLXLXLXLXLXLXLXLXLXLXLX",
"LXLXLXLXLXLXLXLXxXaX!.H.N.R A B 1 P.sXVXVXmX2XQ.Q.A.A.) A E E Z E D E A 3.vXA.* B B.B o q 3.~.~.3.B : A ^ Q.I.: 4 B B B c B D ) I.2XVXbXvXLXLXLXLXLXLXLXLXLXLXLXLXLXLXLXLXLXLXLXLXLXLXLXLXLXLXLXLXLXLXLXLXLXLXLXLXLXLXLXLXLXLXLXLXLXLX- - w @ 5 8 8 ,.$.$.j $.U ' T.f k I H $.a 7 0 s R.=.[.7 H @ 7 +.h g L f _ LXLXLXLXLXLXLXLXLXLXLXLXLXLXLXLXLXLXLXLXLXLXLXLXLXLXLXLXLX",
"LXLXLXLXLXLXLXLXlXaX!.H.! S A l B :XmXKXVXmX:X%XA.Q.A.E E E A ( A E E A .XjX) : Z E S 2 2 + + > > 1 + J I.I.:XS : l B c 2 B ^ ) A.Q.,X9XsXsXLXLXLXLXLXLXLXLXLXLXLXLXLXLXLXLXLXLXLXLXLXLXLXLXLXLXLXLXLXLXLXLXLXLXLXLXLXLXLXLXLXLX- - @ r r 5 e e e d }.f.g -.U p.' p.O f H s $.a O f f 9 U Y.% w e &.g a f y f ^ LXLXLXLXLXLXLXLXLXLXLXLXLXLXLXLXLXLXLXLXLXLXLXLXLXLXLXLXLX",
"LXLXLXLXLXLXLXdXlX-XH.~ Y Y T l I.2XbXCXZXvX:X^.*XQ.I.I.E ) ) E ) _ ) ) 1X:XE 2 l l l A A > > 9 2 c 4 ) B.S :X:XD Z S A E A.I.I.P.A.~.>X1XsXLXLXLXLXLXLXLXLXLXLXLXLXLXLXLXLXLXLXLXLXLXLXLXLXLXLXLXLXLXLXLXLXLXLXLXLXLXLXLXx r r b 5 K r e @.@.e e H [.=.4.p.' p.U  Xf a $.h g h y 7 y 9 I G 4.% s 7 g -.a $.$.^ LXLXLXLXLXLXLXLXLXLXLXLXLXLXLXLXLXLXLXLXLXLXLXLXLXLXLXLXLX",
"LXLXLXLXLXLXLXgXlX;XH.~ Y S S l Q.2XvX2X2X*X:X*X*X:X^.^.A.) ) _ P._ A.Q.1XQ.A c A c 2 Z E J J V D V B ) _ ^ I.:XQ.B.T ) ^.:X:X^.^.I.^.^.:X<XLXLXLXLXLXLXLXLXLXLXLXLXLXLXLXLXLXLXLXLXLXLXLXLXLXLXLXLXLXLXLXLXLXLXLXLXLXx b r 5 6 r r e e e ] @.8 e K 0 E.` ' T.T.j.h.tX& h h { +.0 y k y > . O g 7 7 g $.g $.9 v LXLXLXLXLXLXLXLXLXLXLXLXLXLXLXLXLXLXLXLXLXLXLXLXLXLXLXLXLX",
"LXLXLXLXLXLXLXxXaXL.H.! M n l A ^.1X:X:X:X^.^.:X2XjX<X*X^.Q.I.Q.I.I.Q.*X:X) l A A B 4 Z E E E c A A E E B.I._ _ Q.Q.I.Q.2XvX2X1X.XQ.~.I.Q.%XsXLXLXLXLXLXLXLXLXLXLXLXLXLXLXLXLXLXLXLXLXLXLXLXLXLXLXLXLXLXLXLXLXLXLXW - e 5 6 ] ] ] O.e @.8 6 ] e e &.R.2X3X` OXT.T.+XVX4.&.$.H a H L 7 h a @ $.g y L s s H K V LXLXLXLXLXLXLXLXLXLXLXLXLXLXLXLXLXLXLXLXLXLXLXLXLXLXLXLXLXLX",
"LXLXLXLXLXLXLXxXaXK.H.~ m l l ^ ^.:X^.*X^.^.^.2XZXCXmX<X1X2X1X:X:X2X:X^.Q.D : Z A B c T ^ ( _ ) A E ) E B.B.B._ E Q.1X2XnXVXnXjX:X~.U.I.P.^.1XLXLXLXLXLXLXLXLXLXLXLXLXLXLXLXLXLXLXLXLXLXLXLXLXLXLXLXLXLXLXLXLXLXb D.5 8 ] ] #.] ] 8 8 @.6 ] #.@.6.4.+X1XT.T.NXrX3XNXnX~.i H H +.s 2.g a e a 7 h =.L G H I K W LXLXLXLXLXLXLXLXLXLXLXLXLXLXLXLXLXLXLXLXLXLXLXLXLXLXLXLXLXLX",
"LXLXLXLXLXLXLXxXaX!.H.Y m m l ^ ^.Q.^.Q.^.I.^.vXVXKXVX2XvXsXvXvXvX2X^._ E q 2 S E T T ( E A E _ E E E A.I.I._ _ B P.1X2XvXbXbX9X>X~.p.3.) P.:XLXLXLXLXLXLXLXLXLXLXLXLXLXLXLXLXLXLXLXLXLXLXLXLXLXLXLXLXLXLXLXLXLXb 6 #.] ] #.O.] e #.} 5.@.8 5.e H 4._ rXJX3XNXJX3XOXNX:Xu % s s a $.g h x.z.z...u.j g s &.w - LXLXLXLXLXLXLXLXLXLXLXLXLXLXLXLXLXLXLXLXLXLXLXLXLXLXLXLXLXLX",
"LXLXLXLXLXLXLXxX$XH.N.Y m Z l ( Q.P.P.P.Q.Q.^.2XVXVXVXnXmXbXVXbX2XI._ A 4 > A D S T T ) ^ A E _ ) _ E A.) I.A A ) ^ I.U.~..X,X>X|.Y.i.J ^ ` +XLXLXLXLXLXLXLXLXLXLXLXLXLXLXLXLXLXLXLXLXLXLXLXLXLXLXLXLXLXLXLXLXb @.} } ] ] e O.7.#.#.1.#.q.] @.*.H &.R.:XKXzXNXNXNXOXT.+X` % f f f k j $.h u.y. . .h a s G - LXLXLXLXLXLXLXLXLXLXLXLXLXLXLXLXLXLXLXLXLXLXLXLXLXLXLXLXLXLXLX",
"LXLXLXLXLXLXLXdX$XJ.~ M m z z ^ P.3._ / _ U.Q.:X2XbXmXCXnXKXVX:X_ ( J A / / q B Z T B.) T T D E ) A.) B.I.P.A T ) P.Q.~.U.U.R.+XY.4.p.G P P +XLXLXLXLXLXLXLXLXLXLXLXLXLXLXLXLXLXLXLXLXLXLXLXLXLXLXLXLXLXLXLXR b @.8 ] #.8 5.@.5.5.5.#.q.#.} 1.7.Y.2.E.>XnXrX3XT.3X+XE.+XE.f 7 L y g y s L s H s f g L i % : LXLXLXLXLXLXLXLXLXLXLXLXLXLXLXLXLXLXLXLXLXLXLXLXLXLXLXLXLXLXLX",
"LXLXLXLXLXLXBXaX!.H.! Y M l z D ( P E P ^ _ P.U.^.:X1XbXVXVX2X_ / _ U.Y.R.~./ : A A ( E A A A E ( B._ A.I.A.B A P.:XP.~.+XY.>X|.i.L I G u P :XLXLXLXLXLXLXLXLXLXLXLXLXLXLXLXLXLXLXLXLXLXLXLXLXLXLXLXLXLXLXLXv K e 5.@.q.q.c.5.1.#.1.5.@.5.5.#.5._._.E.i.tX+XU.T.p.p.j.R.j.g.E.7 0 f f G G i I G L H f i V LXLXLXLXLXLXLXLXLXLXLXLXLXLXLXLXLXLXLXLXLXLXLXLXLXLXLXLXLXLXLXLX",
"LXLXLXLXLXLXxXaXJ.N.Y m z l 3 Z ^ V B B V C P / U.Y.+X9XVXbX~.p..X~.R.Y.2.Y.Y.V q V ( ( E A c A A ) P.I.I.I.A D :X9X:XU.~.|.Y..Xg.f 9 9 q ` :XLXLXLXLXLXLXLXLXLXLXLXLXLXLXLXLXLXLXLXLXLXLXLXLXLXLXLXLXLXLXLX- oXD.(.5.q.(.q.| q.@.5.(.(.5.q.5.@.@.*.Y.6.>X@XY.Y.p.p.j.j.j.{.g.h.7 k s G y I i I h g a V LXLXLXLXLXLXLXLXLXLXLXLXLXLXLXLXLXLXLXLXLXLXLXLXLXLXLXLXLXLXLXLXLX",
"LXLXLXLXLXLXxXaXJ.M.Y l z l 3 n ^ V < < < u C C D 3.U.+X,X>Xp.~.R.Y.Y.E.g.g.Y.I > q ) A.( T A c Z E A.I.I.I.A ^ 1XCX.X,X.XR.~.|.|.9 & u > P.sXLXLXLXLXLXLXLXLXLXLXLXLXLXLXLXLXLXLXLXLXLXLXLXLXLXLXLXLXLXLXkXW Y.Y.(.q.(.5.#.0.1.@.(.F.(.).(.q.@.1.@.*./.&. XE.f.g.j.j h.U -.b.h.u.-.7 g k y G H g 0 H E LXLXLXLXLXLXLXLXLXLXLXLXLXLXLXLXLXLXLXLXLXLXLXLXLXLXLXLXLXLXLXLXLX",
"LXLXLXLXLXLXcX-XH.~ Y m l n 3 3 C C 4 < 9 9 i q C P I i.Y.|.U.+X|.E.a.g.d.g.Y.Y.J q A A.( T E A T Z E A.I.A.c E 1XnX,X,XvX.X|.~.|.I & & V %XLXLXLXLXLXLXLXLXLXLXLXLXLXLXLXLXLXLXLXLXLXLXLXLXLXLXLXLXLXLXLXkX. 8.7.7.#.1.(.).#.).F.).).0.).1.q.#.5.] @.@.*.6.XX`.a.h.m...j b. .b.#X..u.5 7XO 7 a f y r LXLXLXLXLXLXLXLXLXLXLXLXLXLXLXLXLXLXLXLXLXLXLXLXLXLXLXLXLXLXLXLXLXLX",
"LXLXLXLXLXgXdX$XH.! Y m z l 3 , F P q > > % 9 9 i u G G 4.R.R.|.{.[._.d.d.a.a.2.i.w 2 ) B.T T A T A A E B.I.A c ^.vX~.tX9X,XR.Y..Xi.% O J LXLXLXLXLXLXLXLXLXLXLXLXLXLXLXLXLXLXLXLXLXLXLXLXLXLXLXLXLXLXLXLXLXr 7.(.5.@.}.).F.6XF.).0.).q.q.#.q.0.q.#.#.1.1.#.1.%.d.h.7Xb.b.b.7X#X:.7Xu.`.7Xh.i w i LXLXLXLXLXLXLXLXLXLXLXLXLXLXLXLXLXLXLXLXLXLXLXLXLXLXLXLXLXLXLXLXLXLXLXLX",
"LXLXLXLXLXBXaX$XH.~ S l z z 3 , u P u & $ & % % 9 9 G i I Y.+X@X'.[.`.d.6.a.6.g.i./ q A A.( A Z Z D A A E A.D 4 I.vXQ.2X9X9X+XR.|.+Xf & ~.LXLXLXLXLXLXLXLXLXLXLXLXLXLXLXLXLXLXLXLXLXLXLXLXLXLXLXLXLXLXLXLXLXMX1.c.).XXXXF.(.w.e.q.0.q.q.w.).q.q.q.#.1.1.@.} @.} } @Xx.}.7Xu.u.x.a.$.6.LXLXLXLXLXLXLXLXLXLXLXLXLXLXLXLXLXLXLXLXLXLXLXLXLXLXLXLXLXLXLXLXLXLXLXLXLXLXLXLXLXLX",
"LXLXLXLXLXxXzXK.N.Y S m l l 3 , : P u % % + O O % % 9 9 i p.|.@X X_.`._.f.d.6.=.4.Y.V 4 ) ) A A A A A E E D c B A.2XI.*XjXnX>X.XR.>Xi./ LXLXLXLXLXLXLXLXLXLXLXLXLXLXLXLXLXLXLXLXLXLXLXLXLXLXLXLXLXLXLXLXLXLXMX} 7X}.(.5.).).9.9.w.e.w.v.q.q.w.| 9.9.#.} ] #.] @.8 5 7.K LXLXLXLXLXLXLXLXLXLXLXLXLXLXLXLX0Xx.}.6./.LXLXLXLXLXLXLXLXLXLXLXLXLXLXLXLXLXLXLXLXLXLXLXLXLXLXLXLX",
"LXLXLXLXLXlXaXK.H.! Z B l 4 2 4 > / U., $ O % O O > < > u i.R.@X@X@X'._.x.f.a.a.a.a.2.i B ) ( T A T A A D 4 c c A.:XI.*X2X2XnX:X|.>X2XLXLXLXLXLXLXLXLXLXLXLXLXLXLXLXLXLXLXLXLXLXLXLXLXLXLXLXLXLXXX7X6X6X6XqX0XXX7.XX7.5.c.}.).).w.w.w.1.q.@.9.r.r.o.#.@.#.] | ] LXLXLXLXLXLXLXLXLXLXLXLXLXLXLXLXLXLX.X7.@.#.5.#.1.7.LXLXLXLXLXLXLXLXLXLXLXLXLXLXLXLXLXLXLXLXLXLXLXLXLXLXLX",
"LXLXLXLXLXlXaXL.M.~ m n l l 3 : > Y.~./ < . . + % + X o < g.'. X@X>X X'.`._.s.f.d.=.2.&.i J B.T A Z c c B 2 2 q A W B.Q.1XjXtX2X+X>XvXLXLXLXLXLXLXLXLXLXLXLXLXLXLXLXLXLXLXLXLXLXLXLXLXLXLXLXLX(.v.0.e.e.e.v.7X).q.7X).}.).v.#.w.e.r.9.#.@.| w.r.[ e.] K LXLXLXLXLXLXLXLXLXLXLXLXLXLXLXLXLXLXLXhXMX@.e (.7X).).q.0.F.D.LXLXLXLXLXLXLXLXLXLXLXLXLXLXLXLXLXLXLXLXLXLXLXLXLXLX",
"LXLXLXLXlXzX;XK.M.~ S n l l 3 X J +XY.P < $ . > + O $ X u i.'.{.@X9X@X'.`._.d.d.f.=.2.g.J A 3.( T v c c A B c A A v B.A.*X9X9XbX+X@XvXvXLXLXLXLXLXLXLXLXLXLXLXLXLXLXLXLXLXLXLXLXLXLXLXLXLXLXLX,.1.0.o.l.l.n.v.).0X@.q.).q.#.w.| e.9.r.[ #.0.[ 9.#.LXLXLXLXLXLXLXLXLXLXLXLXLXLXLXLXLXLXLXLXLXLXkXr @.0X}.q.}.).).q.#.q.D.LXLXLXLXLXLXLXLXLXLXLXLXLXLXLXLXLXLXLXLXLXLXLXLXLX",
"LXLXLXLXBXpX$XJ.M.~ S n 3 3 3 ; p.>Xp.` P u O . . . $ O G i.'.[.'.>X@X[.`.`._._.d.d.2.i.4.G D ) E v c c B A l Z E ) A.A.Q.>X9XnXtX>X2XnXvXLXLXLXLXLXLXLXLXLXLXLXLXLXLXLXLXLXLXLXLXLXLXLXLXLXLX%.#.;.X.X.l.>.l.v.v.5X0.[ w.v.[ e.o.r.9.9.q.8.LXLXLXLXLXLXLXLXLXLXLXLXLXLXLXLXLXLXLXLXLXLXLXLXjX@ 7.(.(.XX(.q.0.).).9.#.F.8.LXLXLXLXLXLXLXLXLXLXLXLXLXLXLXLXLXLXLXLXLXLXLXLX",
"LXLXLXLXcXaX$X!.N.R S n l 3 ; 4 Y.>XU.p.` P V > + .   . I i.E.[. X@X@X@X].`._.x.x.f.a.4.i.&.i / ( A Z l 4 4 1 c A ) A.B.A.^.2XbXbX,X,XvXmXLXLXLXLXLXLXLXLXLXLX0X0XLXLXLXLXLXLXLXLXLXLXLXLXLXLXLX;.X.| >.} n.0.l.v.v.4X9.o.e.9.e.FXLXLXLXLXLXLXLXLXLXLXLXLXLXLXLXLXLXLXLXLXLXLXLXLXLXLXLXLX>XK 8.(.7.7.XX).).q.).5X4X9.9.F.O.LXLXLXLXLXLXLXLXLXLXLXLXLXLXLXLXLXLXLXLXLXLXLX",
"LXLXLXLXdXaXW.J.N.R Y S n 1 # V '.@XY.p.P P 3.I q > $ % p.i.d._.'.'.[.@X[.].}.`.`.f.d.6.g.2.G J ) ^ A l 2 2 2 c v A ) ) B.I.:XbXbX2X,X9XmXvXLXLXLXLXLXLXLX>X}.v.v.4X5X7X5XqXqXLXLXLXLXLXLXLXLXLXs.;.1.} 5.1.0.0.v.n.v.4X8XuXuXFXFXDXLXLXLXLXLXLXLXLXLXLXLXLXLXLXLXLXLXLXLXLXLXLXLXLXLXLXLX&.r (.}.q.@.q.XX).).9.w.w.w.[ 9.5.8.LXLXLXLXLXLXLXLXLXLXLXLXLXLXLXLXLXLXLXLXLXLX",
"LXLXLXLXxX;XW.M.! R Y S B > + H '. XY.Y._ / J A G V C G 4.4.g._./._._.[.`.`.`.x.].x.f.d.a.6.&.G J ^ B l 1 4 l c A Z T ^ ) ) ~.jXnXtX>X,XnXnXLXLXLXLXLXLXLXc.o.0.1.#.w.v.v.v.5X5XwX8XqXLXLXLXLXLXLXLXq.5.F.5.<.z.k.0.4Xv.8X8XuXAXFXDXDXLXLXLXLXLXLXLXLXLXLXLXLXLXLXLXLXLXLXLXLXLXLXLXLXLXLXi K 8.7.q.q.5.(.).q.v.9.5Xe.9.| 9.#.5.LXLXLXLXLXLXLXLXLXLXLXLXLXLXLXLXLXLXLXLXLX",
"LXLXLXLXxX-XJ.N.Y Y Y B i 7 5 ,.6./.g.R.U.p.D D J i G L G L Y._.d._.E._.].].`.`.`.`.d.d.g.2.=.H J ) A S l c Z c Z T Z E E J Q.:XbXvX+X+X9XbXvXLXLXLXLXLXLX5.0.X.>.1.9.9.e.e.v.4X4XwX8XuXAXFXAXLXLXLXLXLXLXD.F.;.;.l.0.4X5X8X8XyXSXDXDXDXLXLXLXLXLXLXLXLXLXLXLXLXLXLXLXLXLXLXLXLXLXLXLXLXLXs K @.5.c.q.5.#.).).F.e.9.w.e.9.r.9.#.@.LXLXLXLXLXLXLXLXLXLXLXLXLXLXLXLXLXLXLXLX",
"LXLXLXcXdX$XN.M.Y ~ A A 0 5 0X6Xq.z.=.R.>X_ ` D J J C f G H g./.d.d./.].[.[.].`.`._./.f.s.a.6.2.G J / A B Z l A ) ) ) ^ A._ P.^.vXbX,X@X,XbXmXLXLXLXLXLXLX8.;.} X.X.| 9.5.q.q.w.l.4X8XuXuXuXFXLXLXLXLXLXLXLXoX1.0.0.w.v.5X5X8XyXSXDXDXDXLXLXLXLXLXLXLXLXLXLXLXLXLXLXLXLXLXLXLXLXLXLXLXLXLXs @.8 } q.q.(.#.#.F.).).9.w.w.9.9.[ 0.#.O.LXLXLXLXLXLXLXLXLXLXLXLXLXLXLXLXLXLXLX",
"LXLXLXgXdX$XK.~ ! m Z B 7 0XuX8X6X0.,. X,XP.E D D J P G G I g.d.a.a.f.`._._.`._.].`.`./.d.s.6.=.G V J P A B l Z _ _ E ^ A.P.A.Q.:XvX9X.X@XbXVXLXLXLXLXLXLXLX8.} X.} X.1.5.#.1.1.0.5X8X8XuXyXyXFXMXLXLXLXLXLXLXLX1.| w.q.v.5X5X7XX.%.2.Y.I.LXLXLXLXLXLXLXLXLXLXLXLXLXLXLXLXLXLXLXLXLXLXLXLX7 8.8 ] } q.q.(.O.q.w.v.).#.w.v.e.9.[ | #.LXLXLXLXLXLXLXLXLXLXLXLXLXLXLXLXLXLXLX",
"LXLXLXcXpXL.J.~ M m Y B 9XqXeXqX8Xv.:.[.>XU.^ D D C C p i G g.g.a.a.d._._.`._._.`._.].`.x.d.a.=.4.C G / E c 1 1 B P.A.) ) I.A.I.^.vXnX2X:XjXbXmXLXLXLXLXLXLXLXD.{ } ..{ %.;.0.X.0.4X5X8X8XiXyXuXSXMXLXLXLXLXLXLXLX(.5.<.6.2.i 4 D : P U._ 4.oX0XMXyXLXLXLXLXLXLXLXLXLXLXLXLXLXLXLXLXLXLXLXd 6 @.] 8 ;.q.q.q.O.F.).).q.1.v.q.0.#.[ e.@.LXLXLXLXLXLXLXLXLXLXLXLXLXLXLXLXLXLX",
"LXLXcXlXpXK.N.M M S Y B @ 7XuXeX8X5X1.d.>XU./ D E C C u 9 G Y.g.6.6.d.x._._._._._._.].]./.x.s.=.&.G i I / A c 2 1 A.U.^ A ^ / _ P.*XmXnX:X2XnXCXLXLXLXLXLXLXLXLXLX7.L $.{ } X.X.l.v.5X8X8X8XAXAXFXDXbXLXLXLXLXLXLXLX5.s.&.9 1 z z m ^ F ` p.g.%.8XqX7XyXMXLXLXLXLXLXLXLXLXLXLXLXLXLXLXLXLXd 6 ] } e ] #.q.q.#.q.).q.).c.#.c.5.q.#.[ | O.LXLXLXLXLXLXLXLXLXLXLXLXLXLXLXLXLX",
"LXLXcXlX-XJ.H.Y ! n m 2 7 6XAX8XwX4Xq.%.>X~.) D J C C i i G Y.6.6.a.s.x./._._._.`._.[.].`.x.s.=.$.&.s V / E c 4 4 A D D J D / P.Y.:XvXbX,X>XjXZXCXLXLXLXLXLXLXLXLXLXLX4.*.} } ;.} 1.5X4XwX6Xc.@.2.W Y.3.T LXLXLXLXLX7.1.d 7 > * = z D ` U.p.^ J 0X5XqXyXAXDXDXLXLXLXLXLXLXLXLXLXLXLXLXLXLX*.5 6 ] #.6 @.1.5.5.#.5.(.(.).5.q.q.q.0.#.[ #.#.LXLXLXLXLXLXLXLXLXLXLXLXLXLXLXLX",
"LXLXcXzXL.K.N.Y n M Y : 0 0.eX8XwX4Xv.} i.,X) E J D C p u s 2.6.,.<.s.f.f._._._.`.`.].[.`._.z.6.*.2.K w J E c 2 4 > A J ^ D / _ U.U.vXbX9X|.2XmXVXLXLXLXLXLXLXLXLXLXLXLXoX8.*.%.,.} 0.5Xw.v.+.J B.V.) B Q m V.LXLXLXI.4.@ O % > z z $ , P ^ T ^ 2.XXqXuXyXFXDXDXLXLXLXLXLXLXLXLXLXLXLXLXLXLX5 6 8 ] @.8 #.1.q.5.@.c.q.5.q.1.1.#.1.#.O.] | O.LXLXLXLXLXLXLXLXLXLXLXLXLXLXLX",
"LXLXlX-X$XJ.V.S S S m * s z.wXeXwXwXv.@.s ,XI./ / P P p u i 2.g.=.,.d.f.f./._._._._.`.].].`.x.d.=.$.I s V J A B 1 2 C P V q B q P p.2XmXbX~.|.9XVXCXLXLXLXLXLXLXLXLXLXLXLXLX8.@...%.;.;.} e u 3 n l 4 D c B c S LXLXLXF # $ O O $ , t u B l m D H 7X8XqXqX%.2.Y.>XLXLXLXLXLXLXLXLXLXLXLXLXLXLX5 6 8 @.] 8 5.#.c.@.5.5.1.8.1.] @.@.8.#.] ] ] O.LXLXLXLXLXLXLXLXLXLXLXLXLXLX",
"LXLXzX-X$XN.M.Y S Y 3 * Y.;.qXqX8XwXv.<.+.R.:X_ J P J V i u I 4.=.,.d.f.f.x.`._.`._.`.].].`.x.s.a.+.=.H w A V c 4 : u / B q A D C _ *XjX9X+XE.@XVXnXLXLXLXLXLXLXLXLXLXLXLXLXLXLXg { +.*.7 7 u t t B A 4 c c : 4 3 ^.LX; X # X + , o # , 2 2 l 3 u =.qXq.7.0 G G G &.W LXLXLXLXLXLXLXLXLXLXLXLXr 5 e e ] ] e 5.1.7.] 8.8.(.*.8.@.7.8.5.#.} | 8 8.LXLXLXLXLXLXLXLXLXLXLXLXLX",
"LXLXzX-X$XJ.V.M.Y n : < g.1.yXyXeX8X6Xc.@.6. XY./ / J F u q &.*.%.%.u.s.s.x./.`._.`._._.].]._.f.<.;.%.H i q S B 4 4 > V C V J J D C Y.9X9X{.E.|.bXCXCXLXLXLXLXLXLXLXLXLXLXLXLXLXLXI K K @ 9 , n 3 4 4 4 4 1 : : : 3 n # o X + X X : : : : 2 4 , < q I K q > J u i q ( V.LXLXLXLXLXLXLXLXLXLXLXLX@ 7 6 ] #.8 @.@.e 8.@.(./.7./.d.2.2.6.,.1.<.} 8 D.LXLXLXLXLXLXLXLXLXLXLXLX",
"LXLXcX$XJ.H.M.M.! Y $ L f.#.MXAXuX8X7X}.7.4.@XY.i.3.( A B i 2.=. . .u.s.s.z.x.`._._.`.`.'.[.{./.z.>.:.&.G u B B 2 2 + V 3./ D _ ) / 4.@X9X>Xg.E.:XVXVXLXLXLXLXLXLXLXLXLXLXLXLXLXLX) K 9 > o : t 4 4 4 4 4 1 : : 4 1 : : X X X 1 X : : X X : 1 1 4 u 4 P.B B 4 u u B A V.&XLXLXLXLXLXLXLXLXLXLXLXLX@ e 6 ] #.8 e @.8.O.e d._.Y.Y.@X{.{.d.`.y.}.y.h 7.LXLXLXLXLXLXLXLXLXLXLX",
"LXxXdX$XH.N.N.M.Y ; : Y.a.;.yXAXAXuXqX6X0 a 2.R.i.p.^ B q i &.$.g  .<.s.s.s.x.x.`._._._.'.[.[._.x.y.:.*.H q q B l 1 : q _ P./ / _ p.4.|.0X0X2.E.>XbXCXLXLXLXLXLXLXLXLXLXLXLXLXLXLXR v O q X 4 1 4 4 4 4 4 4 4 4 1 : : 4 4 4 B ( 1 4 , : : 1 4 4 4 4 4 ^ ` : B 4 2 B l ( W.LXLXLXLXLXLXLXLXLXLXLXLX2 r e e @.8 5 *.@.8.@.*.'.+X2X|.+Xg.g.a.b.u.7Xb.7X2.LXLXLXLXLXLXLXLXLXLX",
"LXcXpX;XH.! ~ Y N.3 C E.-.:.7XAXSXSXe d 0 % i p.i.p.^ B B i I H { { ,.a.a.s.s.x.`._././.'.{.|.[.x.s.,.=.&.a 9 q q 4 4 4 D P._ / P ` i.R.@X>X&.i.|.,XVXZXLXLXLXLXLXLXLXLXLXLXLXLXLXLX2 > + 1 X : 4 1 1 1 4 4 , 1 : : : X o X X X : 1 1 1 4 B B A 4 4 : 4 4 X 1 : 1 B c A V.LXLXLXLXLXLXLXLXLXLXLXLXLX- r e e 8 } 6 K 7.2.=.+XJXNXzXp.p.p.h.j.m...b.b.f.2.LXLXLXLXLXLXLXLXLX",
"LXzXaXJ.H.! S S z Z p.Y.f.;.;.SXSX} e s > u u p i.p.P B F i I $.$.{ %.<.y.z.z.z.`._._._._.'.{.{.`.x.<.=.*.H 0 9 q B l 4 E ^ i J / / 3.p.R.@X2.4.Y.|.tXnXLXLXLXLXLXLXLXLXLXLXLXLXLXLX- - 2 : : # 1 1 : 1 1 1 : X X X : X X : 1 : 4 , 1 1 : 1 1 1 B A 4 , X 4 1 4 2 S A m M.LXLXLXLXLXLXLXLXLXLXLXLXLXLX@ r e ] } 8 e g.E.+XtXJXzX;XzXT.t.t.j.Y.Y.$.b.#Xm.a.LXLXLXLXLXLXLXLX",
"LXzX-XJ.! ! Q S m Z U.E.=.`.c.1.SX8 4.u 4 B u u 4.p.P B V u L L +.{ %.,.<.z.z.z.x.x._._._.'.{.{._./.d.,.=.%.s 7 q c l z S / / / / P 3.3.U.R.Y.H E.g.,XvXBXLXLXLXLXLXLXLXLXLXLXLXLXLXx 2 * X X # : : 1 1 , 4 1 : : : : X X X X : X X X X : : : 1 1 1 u X 1 : : 1 1 B B Z Y LXLXLXLXLXLXLXLXLXLXLXLXLXLXb @ 6 8 ] e 8 0 E.,X^.rX3XNXNXOXp.T.p.i.I  ...b.7Xu.$.LXLXLXLXLXLXLX",
"LXlX$XJ.! ~ ~ Z z A P.R._.z.z.c.6.0 q * 3 t < V G p.p.D F V I $.+.{ %.,.<.z.z.z.x.x./._._.'.{.[.[._.f.y.:.%.{ 0 > 4 Z l l 3.~.P.P 3.Y.~.~..X|.H g.h.@XbXmXLXLXLXLXLXLXLXLXLXLXLXLXLXx x * $ : X X X : : 1 1 1 : : X X X X X X X X X X X X X X X $ X 1 1 1 1 : 1 : 4 4 B S &XLXLXLXLXLXLXLXLXLXLXLXLXLXLXr 5 8 e d +.a {.t.OXT.NXJXzXT.3Xp.R.j.b.b.m.m.#X7X..%.LXLXLXLXLXLX",
"LXpX$XH.N.! Y S z T U.Y._./.c.7.$.V A n 3 3 , < u i.U.^ D C I H { { %.,.,.s.s.s.z.z.x././._.'.[. X_.x.z.>.:.%.s > B B l 4 q I J J _ P _ 3.I..X4.$._._.,XjXLXLXLXLXLXLXLXLXLXLXLXLXLXx x 1 o # X X : 1 : $ X X X X X X X X X X X X X X X X X X X X X X : : : 4 : , , < t F W.LXLXLXLXLXLXLXLXLXLXLXLXLXLXLX5 5 6 e e ].U t.' T.OXrXrX3XT.3XE.h.m.m.u.b.....u.b.-.LXLXLXLXLX",
"LXpX$X~ N.! R R l 4 3.'.E.x.c.a.2.C A l ; # , < 9 G U./ C G i.g d { %.,.<.s.s.y.y.z.x.`._.f.'.[.|.{._.s.<.y.:.+.0 $ B B : 2 q q q J D ^ ^ 3..XY.g h.h.+X2X<XLXLXLXLXLXLXLXLXLXLXLXLXLXLX* o $ o X X : $ X X X X X X X X X X o X X X o X : X X X : X : X : X : : X , : F 4 ( LXLXLXLX0X6X7XqXuXAXDXLXLXLXLXv @ d e 2.b.j ' t.|.T.T.NXrXNX+XU f k 7 a 7 0 7 7 h ,XE.LXLXLXLX",
"LXxXJ.H.! Y Z R S > 4.Y.d.d.y.s.6.P D S n 3 : > q q / / G i &.H g { %.,.<.s.s.s.s.s.s.x./._._._. X X`.z.y.y.:.%.s 9 4 A c 4 9 q q B B J E / Y.Y.g a.h.+X2XsXfXLXLXLXLXLXLXLXLXLXLXLXLXLXz o # # X X X X X X X X X X X X X X X X X X X X X X X X X X X X X 4 4 : 3 X , , $ 4 c LXLXoX}.5X5X8XuXSXSXDXLXLXLXLX@ r e 6.j j t.U p.p.U :XnXR.k 7 y f s V K I V H y . 7 LXLXLXLX",
"LXLX$XN.Y N.! Y F & p.{._.z.y.y.a.I C Q Z n : > > > c D J G &.*.+.{ +.%.,.<.y.z.z.y.a.f./._._.E. X X[.x.s.y.<.=.$.s % A C 4 > > q 4 q A D D ) Y.&.$.b.E.9X2XhXLXLXLXLXLXLXLXLXLXLXLXLXLX= 4 X X X X X X X X X X X X X X X o X X X X X X X X X X X 1 X 1 : B A 4 * l : : , , 2 A J K *.x.}.MXFXSXFXDXLXLXLXLXLX- d 2.f j U U a.-.E.tXi.& g f a $.H s 0 s G s a j h V LXLXLX",
"LXLXaXM.N.Y ! Y D , U '.s.y.:.>.6.&.J A F B > > > 9 4 B V J &.&.+.g { %.,.,.<.z.s.s.s.z.x./._._.|. X X_.z.y.<.,.,.H 9 9 C q > 1 1 q V B A D E P.4.&.a.'.@XvX1XLXLXLXLXLXLXLXLXLXLXLXLXLXLX* X X X X X X X X X X X o X X o X X X X X : X X 1 X X X 1 : 1 : 4 B B B 4 : : $ , , 4 4 q u H K s +.7XSXDXDXLXLXLXLXx w +.U U U &.-.-.+XL O =.s g $.y g d a L y f a f h I = LXLX",
"LXLXLXpXN z N R Y t G E.d.y.>.>.,.*.I B B B q < > 4 : : 4 G I $.$.H +.%.,.,.<.k.<.y.s.s.s.x./._.'. X X].x.s.y.<.<.%.d % i u 4 1 2 c D A A T D 3.2.H d.f.@X2X2X<XLXLXLXLXLXLXLXLXLXLXLXLXLXx z X X X X X X X X X X X o X X : 1 : X X X X : 4 X X 1 1 B : X 1 4 A 4 2 l l , # # : S 3 l l z T ( 3.oXDXDXLXLXLXLXLX- I C L G &.f +X% K I s s &.s g g $.g $.H &.K H a &.c x LX",
"LXLXLXdXgX&XC.N R ! ^ Y.a.,.;.} ;.%.&.V B B B < > : * : 4 u I =.H H +.%.;.:.<.<.k.k.y.s.z.x./._.{. X X[._.f.a.<.<.;.*.7 9 V c 2 2 c A A D A A 3.Y.&.=.`.E.,X9X<XLXLXLXLXLXLXLXLXLXLXLXLXLXLX= X X X X X X X X X X X o X 1 1 : : : : X X 1 4 1 X 4 4 ^ : X 4 B A 1 E ( 1 # 4 t 3 S S S z z N S ^ ) 3.@XLXLXLXLXLXLX. G I f i h.f s I K H H H +.&.$.a $.d.d.+.K d H a L V LX",
"LXLXLXLXLXLXLXLXLXLX%XI.a.*.,.1.%.{ &.J B B B 4 B 2 1 ; 4 < L &.H H { $.%.:.,.<.k.k.s.y.s.x._._.'.|. X X].x.s.y.<.,.,.+.0 i B l l c c B A B B / I.&.*.d./.@XtX2XfXLXLXLXLXLXLXLXLXLXLXLXLXLXz * X X X X X X X X o X o X 4 1 X : 1 1 X X 1 4 , X 1 4 A : X , 4 B : , P.z 3 ( n 4 A A D ^ v l q 9 J ( P.sXLXLXLXLXLXR @ a a g.U % j j h h f a 7 s 0 s a a a.u. .{ +.H g 0 LX",
"LXLXLXLXLXLXLXLXLXLX=XS.2.*.*.;.;.} +.&.C A B B 4 1 4 * 1 > I &.H $.$.$.%.:.<.<.<.k.z.s.y.s.x.`._.'.|. X[._.d.s.<.<.;.6.0 q B l 2 l l B B B B J S.&.$.f.E.@X,X2X<XLXLXLXLXLXLXLXLXLXLXLXLXLX= : * X X X X X : : o X X : B 1 o : 1 4 X X $ : 1 X : 1 4 4 X 1 4 B $ , R m * B _ 4 ( A.c E B.J % u B ` H.<XLXLXLXLXLXLXw & f U p f j h h  .a O 0 0 i 0 a g 0 :.y.h +.K a 0 LX",
"LXLXLXLXLXLXLXLXLXLXLXD.3.H h h } } *.&.V / D 4 4 A 4 1 2 2 G / H H +.{ ..:.:.;.<.y.y.s.s.s.x./._.'.|. X X'.f.s.k.>.y.:.=.9 q B 4 2 4 l l 2 4 B J &.0 a.d._.0X,X2XLXLXLXLXLXLXLXLXLXLXLXLXLXLX= * X X X X X : B X X X 1 B > o : : : : o $ 1 4 : X B , B X 1 4 A , : S ( * 4 H.4 B _ B A U.^ A u t t U.<XLXLXLXLXLXLXLX> + G a &.+.+.g H @ 9 I i 9 7 O =.a 8 x.{ d K s % LX",
"LXLXLXLXLXLXLXLXLXLXLXLXW 4.e h h e d +.K J V B B S : : 4 q I I I &.&.%.%.:.:.;.<.y.s.s.s.s.z.x./.'.{.|. X X`.x.s.<.y.:.%.a i q 4 1 1 1 2 4 2 > w s 0 g.g.E.>X0X1X<XLXLXLXLXLXLXLXLXLXLXLXLXLX= * X X X o X 4 D X X X 1 4 1 X : X X : X X : 4 1 X A F B X 1 4 u : * l ^ 1 4 _ l B ^ B B Q U.B.F : u ` :XLXLXLXLXLXLXLXLX- w &.d g g *.0 @ w G 9 p.&.y . &.0 $.$.+.a &.r LX",
"LXLXLXLXLXLXLXLXLXLXLXLXLXW W K g g d f f I V B T T l 2 4 % G f G H +.$.%.%.;.;.,.<.s.s.s.s.z.x._._.'.{. X X'.f.s.y.>.:.,.&.i + q q 1 * : > q 9 I H a a.f.`. X@X2X2XLXLXLXLXLXLXLXLXLXLXLXLXLXx * X X X X X : B X X X 1 1 : X X X X X X X X 1 4 : 4 B B : + 1 4 * : 4 ^ 1 n ` F 1 A _ 4 D ( ^ H.( n _ !.LXLXLXLXLXLXLXLXLX/ H  .-.-.h 7 7 I w .X4.Y.H 7 a 7 f a h  .a + LX",
"LXLXLXLXLXLXLXLXLXLXLXLXLXLXV.B.W W K V J / F F S B l 4 4 + G f s s g $.%.%.;.,.:.,.y.a.s.y.z.z.x.`.'.'. X+X[.f.s.s.:.<.a.a.g 7 9 V J J C i G K 0 0 d a.f.`.].@X2X2XsXLXLXLXLXLXLXLXLXLXLXLXLXLX: X X X X X X X X X X : : X X X X X X X X X 1 B : X : 4 , X : 4 : : l T : 3 ( S 1 A ^ B S ( B _ I.) P.%XLXLXLXLXLXLXLXLXLXc H ....j h O a K 0 oX X4.7 7 y % G f h h j q LX",
"LXLXLXLXLXLXLXLXLXLXLXLXLXLXLXLXLXLXLXLXLXI.A A A 4 4 4 4 : P G s s d { %.%.%.,.:.,.<.y.y.<.y.k.s.x._.'. X@X X`.f.z.<.y.:.<.=.2.e @ . % s s 9 O @ 8 ,.s.a.f.`.>X>X1X<XLXLXLXLXLXLXLXLXLXLXLXLXLX: X o o X X X X X X X X : X X o X X X X X X 1 B : # 1 4 4 : : 4 l * 1 A 1 1 D A 1 F ^ B 4 P._ B B.Q.R W.LXLXLXLXLXLXLXLXLXv H ..j j j 7 . I &.H &.7 H H O f 4.I a &.% LXLX",
"LXLXLXLXLXLXLXLXLXLXLXLXLXLXLXLXLXLXLXLXLXLXV.( ( l B 4 , : F P s a a s { +.%.=.=.,.,.<.<.<.k.k.y.x._.'.|. X X'.f.s.<.y.:.<.<.f.f.=.d e 7 7 7 7 +.,.z.s.a.x./.@X@X>X>XLXLXLXLXLXLXLXLXLXLXLXLX^ * X X X X X X X X X X X : X X o o X X : X X : B 1 X 1 4 4 1 : 4 ^ 3 : S S 1 B A : F _ B 4 ^ U.l D _ W.Z.LXLXLXLXLXLXLXLXLXV.G a j -.j.0 O & &.G s L f . 0 G G i $.f w LXLX",
"LXLXLXLXLXLXLXLXLXLXLXLXLXLXLXLXLXLXLXLXLXLXG.Z.M.z 4 , $ : , C G s a a d +.*.,.=.=.,.,.<.y.k.k.y.z./._.{. X|.{./.f.<.<.<.<.<.,.<.<.<.6.,.,.a.s.z.y.:.;.a.x.x.].@X>X>XLXLXLXLXLXLXLXLXLXLXLXLX4 X : X X X X X X X 1 X X : X X o o X X : X X : 4 , X X 4 B 4 : 4 ^ D B n ` B 3 A B F A A 3 ( ^ t ' P.n %XLXLXLXLXLXLXLXLXLXW.G g H &.$.$.7 . O 7 7 9 . i f g g  .h -.J LXLX",
"LXLXLXLXLXLXLXLXLXLXLXLXLXLXLXLXLXLXLXLXLXLXLXLXLXN l 4 , 4 X $ G s a e e d +.%.,.=.=.,.<.y.k.k.y.s.f._.{. X X X_.x.s.<.>.<.>.<.>.<.<.<.<.<.<.,.:.<.y.<.y.<.s.].@X@X+X:XLXLXLXLXLXLXLXLXLXLXP.4 X X X o X X X X X 4 X X X X X X o X X : X X X 4 4 : X : 4 D 4 X 3 _ Q 1 B.T l D T : ( ^ 1 A _ 3 ` ` F W.LXLXLXLXLXLXLXLXLXLXV H &.&.+.$.$.a k O 7 7 I &.H g h h $.G LXLXLX",
"LXLXLXLXLXLXLXLXLXLXLXLXLXLXLXLXLXLXLXLXLXLXLXLXLXM.z 4 4 4 : + I G y a e a a $.%.*.*.,.,.>.<.k.k.y.s.x.'.'.{. X[._.s.y.<.>.>.0.0.>.>.>.<.<.,.<.<.<.<.<.>.y.z.x.[.@X@X:XLXLXLXLXLXLXLXLXLXLX( : : X X X X X X X X X : X X X X X o X X : : X X X 1 , $ X : B F 4 : X ( A 4 _ l ^ _ l A P.l T ^ l D _ B ! W.LXLXLXLXLXLXLXLXLXA.y $.%.%.$.$.=.=.$.L =.h $.$.{ { g J B.LXLXLX",
"LXLXLXLXLXLXLXLXLXLXLXLXLXLXLXLXLXLXLXLXLXLXLXLXLXLXm Z 1 4 4 : + J s 0 g a a $.{ +.%.%.;.>.0.z.k.y.s.f.`.'. X+X{._.d.<.<.>.>.0.0.>.>.>.<.<.>.<.>.<.k.<.<.y.z.x.`.@X@X+X%XLXLXLXLXLXLXLXLXLXB $ $ X X X X X X X X X X X X X X X X X X X X X X X 1 1 : X X 1 4 B 1 4 , _ B * ^ Q P.( S P.S ^ B.^ T ( ^ T H.%XLXLXLXLXLXLXLXLXLX/ 0 +.*.$.$.$.$.$.$...-.g =.a 0 > LXLXLXLXLX",
"LXLXLXLXLXLXLXLXLXLXLXLXLXLXLXLXLXLXLXLXLXLXLXLXLXLXx z l : 1 : + . J G a e a d { { %.%.;.:.<.z.y.y.s.s._.[. X+X{._.d.a.<.>.>.0.0.>.>.>.<.<.>.<.>.<.k.k.y.y.s.s./.[.{.'.Q.LXLXLXLXLXLXLXLXLX4 q $ X X X X X X X X X X X X X X X X X X X : : X X : 1 4 : X X 4 B 4 X 1 S B 3 3 ` ^ _ ^ B._ l ( ( l ! ! A ( V.LXLXLXLXLXLXLXLXLXLXJ s H +.s  .:.....h h 2.J E - LXLXLXLXLXLX",
"LXLXLXLXLXLXLXLXLXLXLXLXLXLXLXLXLXLXLXLXLXLXLXLXLXLXLXz l 1 1 : * + I G 0 $.g { { %.%.%.;.:.<.k.y.k.s.s.x.].[.[. X'.f.d.<.<.>.0.0.>.>.>.>.<.<.<.<.y.0.0.<.<.s.s./.]._.'.R.LXLXLXLXLXLXLXLXLXJ % $ X X X o X X X X X X X X X X X X X X X 1 1 : X $ 1 4 4 1 : 1 4 B : : : F B X n ^ S 4 ^ ^.A ^ I.^ ) P.Z _ M.LXLXLXLXLXLXLXLXLXLXLXLXc / &.$... .%.d &.K LXLXLXLXLXLXLXLXLX",
"LXLXLXLXLXLXLXLXLXLXLXLXLXLXLXLXLXLXLXLXLXLXLXLXLXLXLXz 1 : + # X + $ 2.2.+.{ %.} } %.;.,.<.<.y.<.y.y.a.s._.'.'. X[._.d.a.<.>.>.0.0.<.<.<.<.<.<.0.k.0.0.<.<.s.z.d.].].{.R.^.LXLXLXLXLXLXLX+ i I : X X X X X o X X X X X X X X X X X X X : 1 : X X : 4 4 4 1 : 1 B : X : B Q n * F _ B 1 ^ I.B.H._ S I.M.( J.C.LXLXLXLXLXLXLXLXLXLXLXLXLXP.&.H &.4.D.LXLXLXLXLXLXLXLXLXLXLX",
"LXLXLXLXLXLXLXLXLXLXLXLXLXLXLXLXLXLXLXLXLXLXLXLXLXLXC.l u , : , 4 + + & 2.=.x.,.:.:.,.,.<.s.s.<.<.<.y.y.s.x._.{. X X'.f.a.<.>.>.0.<.<.<.<.<.<.<.<.<.0.0.<.y.z.s./._.`.{.|.Q.LXLXLXLXLXLXl O I y < X X X X X o X X X X X X X X X : X X X X 1 1 1 X : 4 4 1 : : 1 n # : X 4 ^ 4 3 4 Q ^ 1 n ( Z A ^.` P.B.( H.R LXLXLXLXLXLXLXLXLXLXLXLXLXLXLXLXLXLXLXLXLXLXLXLXLXLXLXLXLXLX",
"LXLXLXLXLXLXLXLXLXLXLXLXLXLXLXLXLXLXLXLXLXLXLXLXLXLXZ 4 # $ 2 1 1 X > O E._.,.<.s.y.s.s.z.s.s.<.y.<.y.s.z.x._.[. X X{./.d.a.<.<.<.y.y.<.<.<.s.<.<.<.0.0.0.k.z.s././.`.b.{.R.%XLXLXLXLXx . L &.s q : X X X X o X X o X X X X X X X : X X X 1 4 4 : : 1 4 4 : X 1 4 B : # 4 B * # * n _ 1 Z B.( l F U.^ <X) %XZ J.LXLXLXLXLXLXLXLXLXLXLXLXLXLXLXLXLXLXLXLXLXLXLXLXLXLXLXLXLX",
"LXLXLXLXLXLXLXLXLXLXLXLXLXLXLXLXLXLXLXLXLXLXLXLXLXM.; , : : z z ; 1 o 9 O E.x.s.s.s.s.s.s.s.s.s.<.<.y.s.d.d._.[.[. X[._.f.d.y.y.y.y.y.<.,.<.a.s.y.y.<.<.<.<.s.s.f.x.[._.'.R.%XLXLXLXN 1 q f g.&.u : X X X X X X X X * = = = = = = x x x = x z z 1 X X 4 4 : X : 1 , 1 , X F 3 : 1 n ( z 1 ( B.Q 2 Q I.Q B.Q.P.W.LXLXLXLXLXLXLXLXLXLXLXLXLXLXLXLXLXLXLXLXLXLXLXLXLXLXLXLXLX",
"LXLXLXLXLXLXLXLXLXLXLXLXLXLXLXLXLXLXLXLXLXLXLXLXLXLXLXLXLXLXLXLXLXLXLXLXLXLXLXLXLXLXLXLXLXLXLXLXLXLXLXLXLXLXLXLXLXLXLXLXLXLXLXLXLXLXLXLXLXLXLXLXLXLXLXLXLXLXLXLXLXLXLXLXLXLXLXLXLXLXLXLXLXLXLXLXLXLXLXLXLXLXLXLXLXLXLXLXLXLXLXLXLXLXLXLXLXLXLXLXLXLXLXLXLXLXLXLXLXLXLXLXLXLXLXLXLXLXLXLXLXLXLXLXLXLXLXLXLXLXLXLXLXLXLXLXLXLXLXLXLXLXLXLXLXLXLXLXLXLXLXLXLXLXLXLXLXLXLXLXLX"
};
