/* XPM */
static const char *xpm__8_sgun_prepreload1[] = {
/* columns rows colors chars-per-pixel */
"186 150 256 2 ",
"   c #050403",
".  c #0B0302",
"X  c #0B0B05",
"o  c #0C0C0C",
"O  c #07080A",
"+  c #120D0C",
"@  c #150905",
"#  c #0D110E",
"$  c #0B1106",
"%  c #13110D",
"&  c #1B130E",
"*  c #181709",
"=  c #0D0D11",
"-  c #080816",
";  c #120E12",
":  c #170E17",
">  c #0E1212",
",  c #0D1718",
"<  c #131414",
"1  c #1B1513",
"2  c #151915",
"3  c #1B1915",
"4  c #151619",
"5  c #1A161A",
"6  c #16191A",
"7  c #1B1B1B",
"8  c #23140D",
"9  c #2B190C",
"0  c #321C0D",
"q  c #241A15",
"w  c #2C1B13",
"e  c #231D1B",
"r  c #2B1D1B",
"t  c #241514",
"y  c #331D14",
"u  c #341D19",
"i  c #391D17",
"p  c #250B0A",
"a  c #1D211B",
"s  c #23221D",
"d  c #2B231D",
"f  c #282516",
"g  c #342215",
"h  c #3A2216",
"j  c #35221A",
"k  c #3B231B",
"l  c #3A2A1C",
"z  c #332913",
"x  c #1C1C22",
"c  c #171C25",
"v  c #130829",
"b  c #221E23",
"n  c #291D26",
"m  c #311E31",
"M  c #1D2223",
"N  c #1C252B",
"B  c #1D2833",
"V  c #232323",
"C  c #2B2423",
"Z  c #2D2A25",
"A  c #24252A",
"S  c #2A252B",
"D  c #242A2C",
"F  c #2B2A2C",
"G  c #252924",
"H  c #332A24",
"J  c #3C2C24",
"K  c #332D2B",
"L  c #372726",
"P  c #39332B",
"I  c #242C34",
"U  c #2C2C32",
"Y  c #252735",
"T  c #332D33",
"R  c #372D36",
"E  c #2D3233",
"W  c #29333A",
"Q  c #333234",
"!  c #3B3533",
"~  c #34343A",
"^  c #3A353B",
"/  c #3B3B3C",
"(  c #383938",
")  c #2C312B",
"_  c #42261B",
"`  c #45291D",
"'  c #4B2B1E",
"]  c #482618",
"[  c #532C1C",
"{  c #49311D",
"}  c #55351D",
"|  c #4E330B",
" . c #442C22",
".. c #4B2C21",
"X. c #482A28",
"o. c #522E22",
"O. c #572B29",
"+. c #443223",
"@. c #4C3324",
"#. c #49372B",
"$. c #533224",
"%. c #5B3424",
"&. c #5B3B25",
"*. c #543B2C",
"=. c #5C3C2B",
"-. c #573629",
";. c #463A36",
":. c #563B34",
">. c #4E2A36",
",. c #653B2B",
"<. c #6B3D2C",
"1. c #653726",
"2. c #673A36",
"3. c #723A2D",
"4. c #4A1A18",
"5. c #3B4435",
"6. c #5D412D",
"7. c #58412C",
"8. c #4A433A",
"9. c #5D4333",
"0. c #5D4A3A",
"q. c #564538",
"w. c #4E5034",
"e. c #68412E",
"r. c #79432D",
"t. c #614433",
"y. c #6B4232",
"u. c #634C3C",
"i. c #634839",
"p. c #7C4632",
"a. c #7C4935",
"s. c #7C4C3A",
"d. c #754735",
"f. c #6E503D",
"g. c #5F401E",
"h. c #2C3A44",
"j. c #3D3C42",
"k. c #353944",
"l. c #32344E",
"z. c #423D43",
"x. c #483A45",
"c. c #4F3545",
"v. c #38434A",
"b. c #3A4A56",
"n. c #384C55",
"m. c #3D4E62",
"M. c #434244",
"N. c #494749",
"B. c #564A46",
"V. c #5A5449",
"C. c #484B55",
"Z. c #544D53",
"A. c #47545A",
"S. c #585658",
"D. c #4C524A",
"F. c #654A44",
"G. c #764B47",
"H. c #645244",
"J. c #64554A",
"K. c #6A5749",
"L. c #6A5A4C",
"P. c #675749",
"I. c #6A5D52",
"U. c #655B56",
"Y. c #76554E",
"T. c #5A654E",
"R. c #69635A",
"E. c #74655A",
"W. c #69674C",
"Q. c #485865",
"!. c #535465",
"~. c #695E64",
"^. c #546674",
"/. c #696667",
"(. c #756B66",
"). c #7A7677",
"_. c #716F72",
"`. c #824A34",
"'. c #824D3A",
"]. c #834736",
"[. c #87523A",
"{. c #94553C",
"}. c #9A593E",
"|. c #97573D",
" X c #904D36",
".X c #A1573C",
"XX c #955B43",
"oX c #9B5C43",
"OX c #975946",
"+X c #89584B",
"@X c #9B6248",
"#X c #8F6756",
"$X c #A9674C",
"%X c #AD6B53",
"&X c #A76A56",
"*X c #B26D54",
"=X c #B56C5A",
"-X c #B47156",
";X c #B5735A",
":X c #B9745B",
">X c #B9765A",
",X c #AF6F51",
"<X c #837977",
"1X c #8D7169",
"2X c #B97964",
"3X c #AB7568",
"4X c #9D5C4A",
"5X c #A86451",
"6X c #8B837B",
"7X c #BB8A76",
"8X c #BB8A70",
"9X c #C5876D",
"0X c #C48B74",
"qX c #CB8C74",
"wX c #C38D7B",
"eX c #C88977",
"rX c #D18E77",
"tX c #C7927A",
"yX c #D3927A",
"uX c #C7916F",
"iX c #667989",
"pX c #70768F",
"aX c #5A6B83",
"sX c #837C84",
"dX c #758799",
"fX c #718791",
"gX c #7989A5",
"hX c #7C8DAB",
"jX c #888586",
"kX c #949191",
"lX c #B4948E",
"zX c #A7A6A7",
"xX c #B0ABB0",
"cX c #8F96AB",
"vX c #C89684",
"bX c #C89186",
"nX c #CBA799",
"mX c #D4AC9C",
"MX c #DBAD9D",
"NX c #D5A896",
"BX c #D9B29C",
"VX c #CEAA90",
"CX c #E3B19B",
"ZX c #D7ACA4",
"AX c #DBB3A3",
"SX c #D6B3A8",
"DX c #D8B8B8",
"FX c #CCB0AC",
"GX c #E3B5A5",
"HX c #E2B1A9",
"JX c #C49CA0",
"KX c #D2B9C6",
"LX c #D4C6CB",
"PX c #E4C7CB",
"IX c #D3BEBD",
"UX c None",
/* pixels */
"UXUXUXUXUXUXUXUXUXUXUXUXUXUXUXUXUXUXUXUXUXUXUXUXUXUXUXUXUXUXUXUXUXUXUXUXUXUXUXUXUXUXUXUXUXUXUXUXUXUXUXUXUXUXUXUXUXUXUXUXUXUXUXUXUXUXUXUXUXUXUXUXUXUXUXUXUXUXUXUXUXUXUXUXUXUXUXUXUXUXUXUXUXUXUXUXUXUXUXUXUXUXUXUXUXUXUXUXUXUXUXUXUXUXUXUXUXUXUXUXUXUXUXUXUXUXUXUXUXUXUXUXUXUXUXUXUXUXUXUXUXUXUXUXUXUXUXUXUXUXUXUXUXUXUXUXUXUXUXUXUXUXUXUXUXUXUXUXUXUXUXUXUXUXUXUXUXUXUXUXUXUXUXUXUXUX",
"UXUXUXUXUXUXUXUXUXUXUXUXUXUXUXUXUXUXUXUXUXUXUXUXUXUXUXUXUXUXUXUXUXUXUXUXUXUXUXUXUXUXUXUXUXUXUXUXUXUXUXUXUXUXUXUXUXUXUXUXUXUXUXUXUXUXUXUXUXUXUXUXUXUXUXUXUXUXUXUXUXUXUXUXUXUXUXUXUXUXUXUXUXUXUXUXUXUXUXUXUXUXUXUXUXUXUXUXUXUXUXUXUXUXUXUXUXUXUXUXUXUXUXUXUXUXUXUXUXUXUXUXUXUXUXUXUXUXUXUXUXUXUXUXUXUXUXUXUXUXUXUXUXUXUXUXUXUXUXUXUXUXUXUXUXUXUXUXUXUXUXUXUXUXUXUXUXUXUXUXUXUXUXUXUXUX",
"UXUXUXUXUXUXUXUXUXUXUXUXUXUXUXUXUXUXUXUXUXUXUXUXUXUXUXUXUXUXUXUXUXUXUXUXUXUXUXUXUXUXUXUXUXUXUXUXUXUXUXUXUXUXUXUXUXUXUXUXUXUXUXUXUXUXUXUXUXUXUXUXUXUXUXUXUXUXUXUXUXUXUXUXUXUXUXUXUXUXUXUXUXUXUXUXUXUXUXUXUXUXUXUXUXUXUXUXUXUXUXUXUXUXUXUXUXUXUXUXUXUXUXUXUXUXUXUXUXUXUXUXUXUXUXUXUXUXUXUXUXUXUXUXUXUXUXUXUXUXUXUXUXUXUXUXUXUXUXUXUXUXUXUXUXUXUXUXUXUXUXUXUXUXUXUXUXUXUXUXUXUXUXUXUXUX",
"UXUXUXUXUXUXUXUXUXUXUXUXUXUXUXUXUXUXUXUXUXUXUXUXUXUXUXUXUXUXUXUXUXUXUXUXUXUXUXUXUXUXUXUXUXUXUXUXUXUXUXY.XX@XXX@X2XUXUXUXUXUXUXUXUXUXUXUXUXUXUXUXUXUXUXUXUXUXUXUXUXUXUXUXUXUXUXUXUXUXUXUXUXUXUXUXUXUXUXUXUXUXUXUXUXUXUXUXUXUXUXUXUXUXUXUXUXUXUXUXUXUXUXUXUXUXUXUXUXUXUXUXUXUXUXUXUXUXUXUXUXUXUXUXUXUXUXUXUXUXUXUXUXUXUXUXUXUXUXUXUXUXUXUXUXUXUXUXUXUXUXUXUXUXUXUXUXUXUXUXUXUXUXUXUXUX",
"UXUXUXUXUXUXUXUXUXUXUXUXUXUXUXUXUXUXUXUXUXUXUXUXUXUXUXUXUXUXUXUXUXUXUXUXUXUXUXUXUXUXUXUXUXUXUXUXUXUXF.g.} g.1.3.].4X4X3X3XUXUXUXUXUXUXUXUXUXUXUXUXUXUXUXUXUXUXUXUXUXUXUXUXUXUXUXUXUXUXUXUXUXUXUXUXUXUXUXUXUXUXUXUXUXUXUXUXUXUXUXUXUXUXUXUXUXUXUXUXUXUXUXUXUXUXUXUXUXUXUXUXUXUXUXUXUXUXUXUXUXUXUXUXUXUXUXUXUXUXUXUXUXUXUXUXUXUXUXUXUXUXUXUXUXUXUXUXUXUXUXUXUXUXUXUXUXUXUXUXUXUXUXUXUX",
"UXUXUXUXUXUXUXUXUXUXUXUXUXUXUXUXUXUXUXUXUXUXUXUXUXUXUXUXUXUXUXUXUXUXUXUXUXUXUXUXUXUXUXUXUXUXUXUXUXUX#.} g.} <.3.].].].OX;X&XbXUXUXUXUXUXUXUXUXUXUXUXUXUXUXUXUXUXUXUXUXUXUXUXUXUXUXUXUXUXUXUXUXUXUXUXUXUXUXUXUXUXUXUXUXUXUXUXUXUXUXUXUXUXUXUXUXUXUXUXUXUXUXUXUXUXUXUXUXUXUXUXUXUXUXUXUXUXUXUXUXUXUXUXUXUXUXUXUXUXUXUXUXUXUXUXUXUXUXUXUXUXUXUXUXUXUXUXUXUXUXUXUXUXUXUXUXUXUXUXUXUXUXUX",
"UXUXUXUXUXUXUXUXUXUXUXUXUXUXUXUXUXUXUXUXUXUXUXUXUXUXUXUXUXUXUXUXUXUXUXUXUXUXUXUXUXUXUXUXUXUXUXUXUXUX..| } [ 1.3.3.3.s.r.@X@X&X3XvXlXUXUXUXUXUXUXUXUXUXUXUXUXUXUXUXUXUXUXUXUXUXUXUXUXUXUXUXUXUXUXUXUXUXUXUXUXUXUXUXUXUXUXUXUXUXUXUXUXUXUXUXUXUXUXUXUXUXUXUXUXUXUXUXUXUXUXUXUXUXUXUXUXUXUXUXUXUXUXUXUXUXUXUXUXUXUXUXUXUXUXUXUXUXUXUXUXUXUXUXUXUXUXUXUXUXUXUXUXUXUXUXUXUXUXUXUXUXUXUXUX",
"UXUXUXUXUXUXUXUXUXUXUXUXUXUXUXUXUXUXUXUXUXUXUXUXUXUXUXUXUXUXUXUXUXUX3X&XUXUXUXUXUXUXUXUXUXUXUXUXUXUXUX] [ O.O.O.<.<.<.s.a.r.[.{.9XtX7XKXUXUXUXUXUXUXUXUXUXUXUXUXUXUXUXUXUXUXUXUXUXUXUXUXUXUXUXUXUXUXUXUXUXUXUXUXUXUXUXUXUXUXUXUXUXUXUXUXUXUXUXUXUXUXUXUXUXUXUXUXUXUXUXUXUXUXUXUXUXUXUXUXUXUXUXUXUXUXUXUXUXUXUXUXUXUXUXUXUXUXUXUXUXUXUXUXUXUXUXUXUXUXUXUXUXUXUXUXUXUXUXUXUXUXUXUXUXUX",
"UXUXUXUXUXUXUXUXUXUXUXUXUXUXUXUXUXUXUXUXUXUXUXUXUXUXUXUXUXUXUXUX#Xd.y.d.G.#X+X@X3X3XUXUXUXUXUXUXUXUXUXF.X.%.o.1.1.y.1.d.s.s.r.&XrXeXHXZXKXUXUXUXUXUXUXUXUXUXUXUXUXUXUXUXUXUXUXUXUXUXUXUXUXUXUXUXUXUXUXUXUXUXUXUXUXUXUXUXUXUXUXUXUXUXUXUXUXUXUXUXUXUXUXUXUXUXUXUXUXUXUXUXUXUXUXUXUXUXUXUXUXUXUXUXUXUXUXUXUXUXUXUXUXUXUXUXUXUXUXUXUXUXUXUXUXUXUXUXUXUXUXUXUXUXUXUXUXUXUXUXUXUXUXUXUXUX",
"UXUXUXUXUXUXUXUXUXUXUXUXUXUXUXUXUXUXUXUXUXUXUXUXUXUXUXUXUXUXUXUX:.e.&.,.%.1.s.r.3.oX|.oX>X3XUXUXUXUXUXUXUX:.>.F.$.&.,.y.<.+X3.;X-XeXwXZXSXFXUXUXUXUXUXUXUXUXUXUXUXUXUXUXUXUXUXUXUXUXUXUXUXUXUXUXUXUXUXUXUXUXUXUXUXUXUXUXUXUXUXUXUXUXUXUXUXUXUXUXUXUXUXUXUXUXUXUXUXUXUXUXUXUXUXUXUXUXUXUXUXUXUXUXUXUXUXUXUXUXUXUXUXUXUXUXUXUXUXUXUXUXUXUXUXUXUXUXUXUXUXUXUXUXUXUXUXUXUXUXUXUXUXUXUXUX",
"UXUXUXUXUXUXUXUXUXUXUXUXUXUXUXUXUXUXUXUXUXUXUXUXUXUXUXUXUXUXUXUXc.] %.$.-.:.-.y.<.3.].[.{.&XvXlXZXlXUXUXUXUXUXUX*.} 1.[ 3.3.p.oX,X>X8XCXAXFXKXUXUXUXUXUXUXUXUXUXUXUXUXUXUXUXUXUXUXUXUXUXUXUXUXUXUXUXUXUXUXUXUXUXUXUXUXUXUXUXUXUXUXUXUXUXUXUXUXUXUXUXUXUXUXUXUXUXUXUXUXUXUXUXUXUXUXUXUXUXUXUXUXUXUXUXUXUXUXUXUXUXUXUXUXUXUXUXUXUXUXUXUXUXUXUXUXUXUXUXUXUXUXUXUXUXUXUXUXUXUXUXUXUXUXUX",
"UXUXUXUXUXUXUXUXUXUXUXUXUXUXUXUXUXUXUXUXUXUXUXUXUXUXUXUXUXUXUXUXc.O.-.@.#.:.:.$.1.1.3.3.[.2X0X0XwXGXUXUXUXUXUXUXUXq.' %.<.3.p.OX{.,XtXmXnXDXFXUXUXUXUXUXUXUXUXUXUXUXUXUXUXUXUXUXUXUXUXUXUXUXUXUXUXUXUXUXUXUXUXUXUXUXUXUXUXUXUXUXUXUXUXUXUXUXUXUXUXUXUXUXUXUXUXUXUXUXUXUXUXUXUXUXUXUXUXUXUXUXUXUXUXUXUXUXUXUXUXUXUXUXUXUXUXUXUXUXUXUXUXUXUXUXUXUXUXUXUXUXUXUXUXUXUXUXUXUXUXUXUXUXUXUX",
"UXUXUXUXUXUXUXUXUXUXUXUXUXUXUXUXUXUXUXUXUXUXUXUXUXUXUXUXUXUXUXUXUX>._ ` ..@.@.} } 1.1.3.oX*X$XqX0X0XGXbXUXUXUXUXUXUXUX;.-.y.3.+X#X+X#XX.;.;.Z.x.UXUXUXUXUXUXUXUXUXUXUXUXUXUXUXUXUXUXUXUXUXUXUXUXUXUXUXUXUXUXUXUXUXUXUXUXUXUXUXUXUXUXUXUXUXUXUXUXUXUXUXUXUXUXUXUXUXUXUXUXUXUXUXUXUXUXUXUXUXUXUXUXUXUXUXUXUXUXUXUXUXUXUXUXUXUXUXUXUXUXUXUXUXUXUXUXUXUXUXUXUXUXUXUXUXUXUXUXUXUXUXUXUXUX",
"UXUXUXUXUXUXUXUXUXUXUXUXUXUXUXUXUXUXUXUXUXUXUXUXUXUXUXUXUXUXUXUXUXUXc.;.X.` } ] } %.%.3.OXoX*X-X9X0XtXAXlXUXUXUXUXUXUXUX:.@.,.=.o.i r r V E z.;.;.u.1XlXJXUXUXUXUXUXUXUXUXUXUXUXUXUXUXUXUXUXUXUXUXUXUXUXUXUXUXUXUXUXUXUXUXUXUXUXUXUXUXUXUXUXUXUXUXUXUXUXUXUXUXUXUXUXUXUXUXUXUXUXUXUXUXUXUXUXUXUXUXUXUXUXUXUXUXUXUXUXUXUXUXUXUXUXUXUXUXUXUXUXUXUXUXUXUXUXUXUXUXUXUXUXUXUXUXUXUXUXUXUX",
"UXUXUXUXUXUXUXUXUXUXUXUXUXUXUXUXUXUXUXUXUXUXUXUXUXUXUXUXUXUXUXUXUXUXUXUXL @.' $.] $.[ %.G.OX*X-X;XtX7XmXDXzXUXUXUXUXUXUXUX:.9.@.8 * 3 4 V U j.( ! q.#.3X#X3XwXJXUXUXUXUXUXUXUXUXUXUXUXUXUXUXUXUXUXUXUXUXUXUXUXUXUXUXUXUXUXUXUXUXUXUXUXUXUXUXUXUXUXUXUXUXUXUXUXUXUXUXUXUXUXUXUXUXUXUXUXUXUXUXUXUXUXUXUXUXUXUXUXUXUXUXUXUXUXUXUXUXUXUXUXUXUXUXUXUXUXUXUXUXUXUXUXUXUXUXUXUXUXUXUXUXUXUX",
"UXUXUXUXUXUXUXUXUXUXUXUXUXUXUXUXUXUXUXUXUXUXUXUXUXUXUXUXUXUXUXUXUXUXUXUXUXUXX...` { { %.%.s.].OX+XG.$.:.J x.N.3 UXUXUXUXUX;.#.g & 2 < > x U E N.( ;.L Y.#X&XrXwXDXLXUXUXUXUXUXUXUXUXUXUXUXUXUXUXUXUXUXUXUXUXUXUXUXUXUXUXUXUXUXUXUXUXUXUXUXUXUXUXUXUXUXUXUXUXUXUXUXUXUXUXUXUXUXUXUXUXUXUXUXUXUXUXUXUXUXUXUXUXUXUXUXUXUXUXUXUXUXUXUXUXUXUXUXUXUXUXUXUXUXUXUXUXUXUXUXUXUXUXUXUXUXUXUXUX",
"UXUXUXUXUXUXUXUXUXUXUXUXUXUXUXUXUXUXUXUXUXUXUXUXUXUXUXUXUXUXUXUXUXUXUXUXUXUXUXB.l { _ $.O.1.a.s.9.J j ;.R Q T T V A UXUXUXx.;.+ + X 4 < < 7 V ( ( Z H 0.+X&XtXwXSXFXFXUXUXUXUXUXUXUXUXUXUXUXUXUXUXUXUXUXUXUXUXUXUXUXUXUXUXUXUXUXUXUXUXUXUXUXUXUXUXUXUXUXUXUXUXUXUXUXUXUXUXUXUXUXUXUXUXUXUXUXUXUXUXUXUXUXUXUXUXUXUXUXUXUXUXUXUXUXUXUXUXUXUXUXUXUXUXUXUXUXUXUXUXUXUXUXUXUXUXUXUXUXUXUX",
"UXUXUXUXUXUXUXUXUXUXUXUXUXUXUXUXUXUXUXUXUXUXUXUXUXUXUXUXUXUXUXUXUXUXUXUXUXUXUXUXUXJ @.` ' -.%.] j e 7 V V G A V S V 7 UXUXUXs + < # o < 7 4 7 x V 7 P j #X1X3X&X' 9.9.1XUXUXUXUXUXUXUXUXUXUXUXUXUXUXUXUXUXUXUXUXUXUXUXUXUXUXUXUXUXUXUXUXUXUXUXUXUXUXUXUXUXUXUXUXUXUXUXUXUXUXUXUXUXUXUXUXUXUXUXUXUXUXUXUXUXUXUXUXUXUXUXUXUXUXUXUXUXUXUXUXUXUXUXUXUXUXUXUXUXUXUXUXUXUXUXUXUXUXUXUXUXUX",
"UXUXUXUXUXUXUXUXUXUXUXUXUXUXUXUXUXUXUXUXUXUXUXUXUXUXUXUXUXUXUXUXUXUXUXUXUXUXUXUXUXUXUX` _ _ X.p q s V e b V V x V 4 4 V UXUX. +   X O 1 4 = 4 7 > V e r :.6XG.:.L n +.g ! K UXUXUXUXUXUXUXUXUXUXUXUXUXUXUXUXUXUXUXUXUXUXUXUXUXUXUXUXUXUXUXUXUXUXUXUXUXUXUXUXUXUXUXUXUXUXUXUXUXUXUXUXUXUXUXUXUXUXUXUXUXUXUXUXUXUXUXUXUXUXUXUXUXUXUXUXUXUXUXUXUXUXUXUXUXUXUXUXUXUXUXUXUXUXUXUXUXUXUXUX",
"UXUXUXUXUXUXUXUXUXUXUXUXUXUXUXUXUXUXUXUXUXUXUXUXUXUXUXUXUXUXUXUXUXUXUXUXUXUXUXUXUXUXUXUXl J X.@ & e V 2 7 7 x 4 6 4 4 o 2 e X % X % X o < < 4 < < < < d t J k r t S d f f P Q UXUXUXUXUXUXUXUXUXUXUXUXUXUXUXUXUXUXUXUXUXUXUXUXUXUXUXUXUXUXUXUXUXUXUXUXUXUXUXUXUXUXUXUXUXUXUXUXUXUXUXUXUXUXUXUXUXUXUXUXUXUXUXUXUXUXUXUXUXUXUXUXUXUXUXUXUXUXUXUXUXUXUXUXUXUXUXUXUXUXUXUXUXUXUXUXUXUXUX",
"UXUXUXUXUXUXUXUXUXUXUXUXUXUXUXUXUXUXUXUXUXUXUXUXUXUXUXUXUXUXUXUXUXUXUXUXUXUXUXUXUXUXUXUXK P @ 1 + 1 7 < 7 7 7 6 < < 4 < 4 3 % + O % < o o < = , 6 4 6 7 7 C B.C 7 F 2 s V b R !.UXUXUXUXUXUXUXUXUXUXUXUXUXUXUXUXUXUXUXUXUXUXUXUXUXUXUXUXUXUXUXUXUXUXUXUXUXUXUXUXUXUXUXUXUXUXUXUXUXUXUXUXUXUXUXUXUXUXUXUXUXUXUXUXUXUXUXUXUXUXUXUXUXUXUXUXUXUXUXUXUXUXUXUXUXUXUXUXUXUXUXUXUXUXUXUXUXUX",
"UXUXUXUXUXUXUXUXUXUXUXUXUXUXUXUXUXUXUXUXUXUXUXUXUXUXUXUXUXUXUXUXUXUXUXUXUXUXUXUXUXUXUXUXS * 3 2 1 4 7 7 7 7 x x V 6 < 7 4 < < 3 7 G Q e < < o , , , 4 M x x T j.2 6 2 V x S Q x.UXUXUXUXUXUXUXUXUXUXUXUXUXUXUXUXUXUXUXUXUXUXUXUXUXUXUXUXUXUXUXUXUXUXUXUXUXUXUXUXUXUXUXUXUXUXUXUXUXUXUXUXUXUXUXUXUXUXUXUXUXUXUXUXUXUXUXUXUXUXUXUXUXUXUXUXUXUXUXUXUXUXUXUXUXUXUXUXUXUXUXUXUXUXUXUXUXUX",
"UXUXUXUXUXUXUXUXUXUXUXUXUXUXUXUXUXUXUXUXUXUXUXUXUXUXUXUXUXUXUXUXUXUXUXUXUXUXUXUXUXUXUXUXUX% 7 O % o < 7 < < < < , 6 7 o o < #   O o < < 7 7 6 4 M D N , x x 4 = c , 6 > < V Z k.UXUXUXUXUXUXUXUXUXUXUXUXUXUXUXUXUXUXUXUXUXUXUXUXUXUXUXUXUXUXUXUXUXUXUXUXUXUXUXUXUXUXUXUXUXUXUXUXUXUXUXUXUXUXUXUXUXUXUXUXUXUXUXUXUXUXUXUXUXUXUXUXUXUXUXUXUXUXUXUXUXUXUXUXUXUXUXUXUXUXUXUXUXUXUXUXUXUX",
"UXUXUXUXUXUXUXUXUXUXUXUXUXUXUXUXUXUXUXUXUXUXUXUXUXUXUXUXUXUXUXUXUXUXUXUXUXUXUXUXUXUXUXUXUX< O < + o < 7 o 4 4 < 6 4 < O o #   % o 4 o 4 4 o < < > 6 6 M A 6 6 6 , c , 7 V 7 s j.UXUXUXUXUXUXUXUXUXUXUXUXUXUXUXUXUXUXUXUXUXUXUXUXUXUXUXUXUXUXUXUXUXUXUXUXUXUXUXUXUXUXUXUXUXUXUXUXUXUXUXUXUXUXUXUXUXUXUXUXUXUXUXUXUXUXUXUXUXUXUXUXUXUXUXUXUXUXUXUXUXUXUXUXUXUXUXUXUXUXUXUXUXUXUXUXUXUX",
"UXUXUXUXUXUXUXUXUXUXUXUXUXUXUXUXUXUXUXUXUXUXUXUXUXUXUXUXUXUXUXUXUXUXUXUXUXUXUXUXUXUXUXUXUX< < % o o > > < < 4 6 6 6 4 < < # o o = = o o o > % % < < < < 6 6 6 < % 2 < 4 G F V D UXUXUXUXUXUXUXUXUXUXUXUXUXUXUXUXUXUXUXUXUXUXUXUXUXUXUXUXUXUXUXUXUXUXUXUXUXUXUXUXUXUXUXUXUXUXUXUXUXUXUXUXUXUXUXUXUXUXUXUXUXUXUXUXUXUXUXUXUXUXUXUXUXUXUXUXUXUXUXUXUXUXUXUXUXUXUXUXUXUXUXUXUXUXUXUXUXUX",
"UXUXUXUXUXUXUXUXUXUXUXUXUXUXUXUXUXUXUXUXUXUXUXUXUXUXUXUXUXUXUXUXUXUXUXUXUXUXUXUXUXUXUXUXUX: < X o X # # < < < < < < < # o o X o = = = o O O X X X X X o > < < 4 & 3 < < 2 7 M D N.UXUXUXUXUXUXUXUXUXUXUXUXUXUXUXUXUXUXUXUXUXUXUXUXUXUXUXUXUXUXUXUXUXUXUXUXUXUXUXUXUXUXUXUXUXUXUXUXUXUXUXUXUXUXUXUXUXUXUXUXUXUXUXUXUXUXUXUXUXUXUXUXUXUXUXUXUXUXUXUXUXUXUXUXUXUXUXUXUXUXUXUXUXUXUXUXUX",
"UXUXUXUXUXUXUXUXUXUXUXUXUXUXUXUXUXUXUXUXUXUXUXUXUXUXUXUXUXUXUXUXUXUXUXUXUXUXUXUXUXUXUXUXUXv o < o o o o # > > # < # o O O o o o o = = o O O O X X X + + X o > % % 1 5 7 3 3 s Z ( UXUXUXUXUXUXUXUXUXUXUXUXUXUXUXUXUXUXUXUXUXUXUXUXUXUXUXUXUXUXUXUXUXUXUXUXUXUXUXUXUXUXUXUXUXUXUXUXUXUXUXUXUXUXUXUXUXUXUXUXUXUXUXUXUXUXUXUXUXUXUXUXUXUXUXUXUXUXUXUXUXUXUXUXUXUXUXUXUXUXUXUXUXUXUXUXUX",
"UXUXUXUXUXUXUXUXUXUXUXUXUXUXUXUXUXUXUXUXUXUXUXUXUXUXUXUXUXUXUXUXUXUXUXUXUXUXUXUXUXUXUXUXUXUXUXO o o o o o o o o o o O O O o o o o o o o o o X X X + % + + X X % + + ; 5 3 3 7 e P UXUXUXUXE.+X@X,XqXbXDXUXUXUXUXUXUXUXUXUXUXUXUXUXUXUXUXUXUXUXUXUXUXUXUXUXUXUXUXUXUXUXUXUXUXUXUXUXUXUXUXUXUXUXUXUXUXUXUXUXUXUXUXUXUXUXUXUXUXUXUXUXUXUXUXUXUXUXUXUXUXUXUXUXUXUXUXUXUXUXUXUXUXUXUXUXUX",
"UXUXUXUXUXUXUXUXUXUXUXUXUXUXUXUXUXUXUXUXUXUXUXUXUXUXUXUXUXUXUXUXUXUXUXUXUXUXUXUXUXUXUXUXUXUXUXO < + o O o o o o O O O O O o o o o o O O O O O O X X + + + o # < x 5 : ; % % 4 4 * e UXUXJ.Y.#X[.-XeXZXFXKXUXUXUXUXUXUXUXUXUXUXUXUXUXUXUXUXUXUXUXUXUXUXUXUXUXUXUXUXUXUXUXUXUXUXUXUXUXUXUXUXUXUXUXUXUXUXUXUXUXUXUXUXUXUXUXUXUXUXUXUXUXUXUXUXUXUXUXUXUXUXUXUXUXUXUXUXUXUXUXUXUXUXUXUXUX",
"UXUXUXUXUXUXUXUXUXUXUXUXUXUXUXUXUXUXUXUXUXUXUXUXUXUXUXUXUXUXUXUXUXUXUXUXUXUXUXUXUXUXUXUXUXUXUX- ; + o O O O o o O O O O O o o o X X O O o o o o + + + + o < < < V A b 7 < < 4 7 3 % C C j { t.G.lXHXZXFXPXUXUXUXUXUXUXUXUXUXUXUXUXUXUXUXUXUXUXUXUXUXUXUXUXUXUXUXUXUXUXUXUXUXUXUXUXUXUXUXUXUXUXUXUXUXUXUXUXUXUXUXUXUXUXUXUXUXUXUXUXUXUXUXUXUXUXUXUXUXUXUXUXUXUXUXUXUXUXUXUXUXUXUXUXUX",
"UXUXUXUXUXUXUXUXUXUXUXUXUXUXUXUXUXUXUXUXUXUXUXUXUXUXUXUXUXUXUXUXUXUXUXUXUXUXUXUXUXUXUXUXUXUXUXUX< o o o O O O o o X O O O O o o X + + o o o > < < ; + ; 4 4 < # 2 V A x 2 2 < 2 2 7 o e C r L L J +.#XmXnXDXUXUXUXUXUXUXUXUXUXUXUXUXUXUXUXUXUXUXUXUXUXUXUXUXUXUXUXUXUXUXUXUXUXUXUXUXUXUXUXUXUXUXUXUXUXUXUXUXUXUXUXUXUXUXUXUXUXUXUXUXUXUXUXUXUXUXUXUXUXUXUXUXUXUXUXUXUXUXUXUXUXUXUXUX",
"UXUXUXUXUXUXUXUXUXUXUXUXUXUXUXUXUXUXUXUXUXUXUXUXUXUXUXUXUXUXUXUXUXUXUXUXUXUXUXUXUXUXUXUXUXUXUXUX= o # o o O o o X X O O O O O X + 1 2 < o O o = < o = < 7 7 < O 2 G V 6 6 6 2 2 < > 6 A 3 e b b F P 8.u.SXFXUXUXUXUXUXUXUXUXUXUXUXUXUXUXUXUXUXUXUXUXUXUXUXUXUXUXUXUXUXUXUXUXUXUXUXUXUXUXUXUXUXUXUXUXUXUXUXUXUXUXUXUXUXUXUXUXUXUXUXUXUXUXUXUXUXUXUXUXUXUXUXUXUXUXUXUXUXUXUXUXUXUXUXUX",
"UXUXUXUXUXUXUXUXUXUXUXUXUXUXUXUXUXUXUXUXUXUXUXUXUXUXUXUXUXUXUXUXUXUXUXUXUXUXUXUXUXUXUXUXUXUXUXUXUX$ $ O o - ; X % X O O = O O 3 < < 1 o + o O 4 G 4 o 7 x ( > o 2 s F 6 D ( 7 < 7 4 7 F G 7 7 A x ^ C ! 8.R.UXUXUXUXUXUXUXUXUXUXUXUXUXUXUXUXUXUXUXUXUXUXUXUXUXUXUXUXUXUXUXUXUXUXUXUXUXUXUXUXUXUXUXUXUXUXUXUXUXUXUXUXUXUXUXUXUXUXUXUXUXUXUXUXUXUXUXUXUXUXUXUXUXUXUXUXUXUXUXUXUXUXUXUX",
"UXUXUXUXUXUXUXUXUXUXUXUXUXUXUXUXUXUXUXUXUXUXUXUXUXUXUXUXUXUXUXUXUXUXUXUXUXUXUXUXUXUXUXUXUXUXUXUXUXO # o = o O O X X O O = O X 3 % o < < 4 o O 4 7 7 o 4 4 G o o 4 7 G < V ( M 4 F F 7 Q F D E M x 4 b F ;.8.).UXUXUXUXUXUXUXUXUXUXUXUXUXUXUXUXUXUXUXUXUXUXUXUXUXUXUXUXUXUXUXUXUXUXUXUXUXUXUXUXUXUXUXUXUXUXUXUXUXUXUXUXUXUXUXUXUXUXUXUXUXUXUXUXUXUXUXUXUXUXUXUXUXUXUXUXUXUXUXUXUXUXUX",
"UXUXUXUXUXUXUXUXUXUXUXUXUXUXUXUXUXUXUXUXUXUXUXUXUXUXUXUXUXUXUXUXUXUXUXUXUXUXUXUXUXUXUXUXUXUXUXUXUX- , O o O o O O % < O = o 2 7 % O o 4 7 o   < < 7 o o 4 7 4 o 6 7 D > 7 ) G < V v.7 U / A ( / A x G 7 K N.R.UXUXUXUXUXUXUXUXUXUXUXUXUXUXUXUXUXUXUXUXUXUXUXUXUXUXUXUXUXUXUXUXUXUXUXUXUXUXUXUXUXUXUXUXUXUXUXUXUXUXUXUXUXUXUXUXUXUXUXUXUXUXUXUXUXUXUXUXUXUXUXUXUXUXUXUXUXUXUXUXUXUXUX",
"UXUXUXUXUXUXUXUXUXUXUXUXUXUXUXUXUXUXUXUXUXUXUXUXUXUXUXUXUXUXUXUXUXUXUXUXUXUXUXUXUXUXUXUXUXUXUXUXUXUX, # $     o X 1 V O o o 7 s 4 O o 4 4 o   < < 7 o o 7 e V o 2 7 F < 6 G F = < M.6 D / x F N./ A V s 7 N./.UXUXUXUXUXUXUXUXUXUXUXUXUXUXUXUXUXUXUXUXUXUXUXUXUXUXUXUXUXUXUXUXUXUXUXUXUXUXUXUXUXUXUXUXUXUXUXUXUXUXUXUXUXUXUXUXUXUXUXUXUXUXUXUXUXUXUXUXUXUXUXUXUXUXUXUXUXUXUXUXUXUXUX",
"UXUXUXUXUXUXUXUXUXUXUXUXUXUXUXUXUXUXUXUXUXUXUXUXUXUXUXUXUXUXUXUXUXUXUXUXUXUXUXUXUXUXUXUXUXUXUXUXUXUX-   $ X X O = < F X O o < 7 4 o o o o o O o 4 7 < o G G F o < 4 V < < V Q < V ( 7 V E V V E M./ V s s Q /.UXUXUXUXUXUXUXUXUXUXUXUXUXUXUXUXUXUXUXUXUXUXUXUXUXUXUXUXUXUXUXUXUXUXUXUXUXUXUXUXUXUXUXUXUXUXUXUXUXUXUXUXUXUXUXUXUXUXUXUXUXUXUXUXUXUXUXUXUXUXUXUXUXUXUXUXUXUXUXUXUXUXUX",
"UXUXUXUXUXUXUXUXUXUXUXUXUXUXUXUXUXUXUXUXUXUXUXUXUXUXUXUXUXUXUXUXUXUXUXUXUXUXUXUXUXUXUXUXUXUXUXUXUXUX- # * X   o = = G o   o < 7 < O o o o < o O < 4 7 < 7 7 G o < < 7 < o 7 Q 6 V / G 4 F Q x A / v.( ) F / D.UXUXUXUXUXUXUXUXUXUXUXUXUXUXUXUXUXUXUXUXUXUXUXUXUXUXUXUXUXUXUXUXUXUXUXUXUXUXUXUXUXUXUXUXUXUXUXUXUXUXUXUXUXUXUXUXUXUXUXUXUXUXUXUXUXUXUXUXUXUXUXUXUXUXUXUXUXUXUXUXUXUXUX",
"UXUXUXUXUXUXUXUXUXUXUXUXUXUXUXUXUXUXUXUXUXUXUXUXUXUXUXUXUXUXUXUXUXUXUXUXUXUXUXUXUXUXUXUXUXUXUXUXUXUXUX    $ 3 O - = 4 o O X 4 4 + O X O o < o   o o V < < 4 7 < # 4 6 2 o 7 F 4 4 ( F > F / 7 F E D ( M.Q N.D.UXUXUXUXUXUXUXUXUXUXUXUXUXUXUXUXUXUXUXUXUXUXUXUXUXUXUXUXUXUXUXUXUXUXUXUXUXUXUXUXUXUXUXUXUXUXUXUXUXUXUXUXUXUXUXUXUXUXUXUXUXUXUXUXUXUXUXUXUXUXUXUXUXUXUXUXUXUXUXUXUXUXUX",
"UXUXUXUXUXUXUXUXUXUXUXUXUXUXUXUXUXUXUXUXUXUXUXUXUXUXUXUXUXUXUXUXUXUXUXUXUXUXUXUXUXUXUXUXUXUXUXUXUXUXUX% *   O O = = O % O   < o <   O O O < o O % X F 4 O 4 7 7 O 4 6 7 < 6 F < x F A 4 V ( x V j.~ s / S.U N.UXUXUXUXUXUXUXUXUXUXUXUXUXUXUXUXUXUXUXUXUXUXUXUXUXUXUXUXUXUXUXUXUXUXUXUXUXUXUXUXUXUXUXUXUXUXUXUXUXUXUXUXUXUXUXUXUXUXUXUXUXUXUXUXUXUXUXUXUXUXUXUXUXUXUXUXUXUXUXUXUXUXUX",
"UXUXUXUXUXUXUXUXUXUXUXUXUXUXUXUXUXUXUXUXUXUXUXUXUXUXUXUXUXUXUXUXUXUXUXUXUXUXUXUXUXUXUXUXUXUXUXUXUXUXU # $ X O o o o o o O O O < o O     o = o O O 4 V < o 4 7 V < 4 7 F 6 2 F V o Q A 4 V ( G x ~ M.7 Q k.N.N.UXUXUXUXUXUXUXUXUXUXUXUXUXUXUXUXUXUXUXUXUXUXUXUXUXUXUXUXUXUXUXUXUXUXUXUXUXUXUXUXUXUXUXUXUXUXUXUXUXUXUXUXUXUXUXUXUXUXUXUXUXUXUXUXUXUXUXUXUXUXUXUXUXUXUXUXUXUXUXUXUXUXUX",
"UXUXUXUXUXUXUXUXUXUXUXUXUXUXUXUXUXUXUXUXUXUXUXUXUXUXUXUXUXUXUXUXUXUXUXUXUXUXUXUXUXUXUXUXUXUXUXUXUXUX7 %   O ; = o o X o o o X % o X O O o o o X O < 7 4 o < 7 G V O 7 ( F M D Q V 7 A 7 A U V x ~ E V A j.n Z.UXUXUXUXUXUXUXUXUXUXUXUXUXUXUXUXUXUXUXUXUXUXUXUXUXUXUXUXUXUXUXUXUXUXUXUXUXUXUXUXUXUXUXUXUXUXUXUXUXUXUXUXUXUXUXUXUXUXUXUXUXUXUXUXUXUXUXUXUXUXUXUXUXUXUXUXUXUXUXUXUXUXUX",
"UXUXUXUXUXUXUXUXUXUXUXUXUXUXUXUXUXUXUXUXUXUXUXUXUXUXUXUXUXUXUXUXUXUXUXUXUXUXUXUXUXUXUXUXUXUXUXUXUXD.< % < O O O o O O o < < X X o o O O o o % ; o o 4 7 4 o % 7 G F o < M.Q O M.F M E ( < Q ( 4 ~ W 7 j.k.b C.UXUXUXUXUXUXUXUXUXUXUXUXUXUXUXUXUXUXUXUXUXUXUXUXUXUXUXUXUXUXUXUXUXUXUXUXUXUXUXUXUXUXUXUXUXUXUXUXUXUXUXUXUXUXUXUXUXUXUXUXUXUXUXUXUXUXUXUXUXUXUXUXUXUXUXUXUXUXUXUXUXUXUX",
"UXUXUXUXUXUXUXUXUXUXUXUXUXUXUXUXUXUXUXUXUXUXUXUXUXUXUXUXUXUXUXUXUXUXUXUXUXUXUXUXUXUXUXUXUXUXUXUXUXK % % o = O = O     O < < O O X o X O O o < < o O % 7 7 o O % V F V O < ( Q 7 ( U G v.M F j.V U W x Q / b ~ b.UXUXUXUXUXUXUXUXUXUXUXUXUXUXUXUXUXUXUXUXUXUXUXUXUXUXUXUXUXUXUXUXUXUXUXUXUXUXUXUXUXUXUXUXUXUXUXUXUXUXUXUXUXUXUXUXUXUXUXUXUXUXUXUXUXUXUXUXUXUXUXUXUXUXUXUXUXUXUXUXUXUX",
"UXUXUXUXUXUXUXUXUXUXUXUXUXUXUXUXUXUXUXUXUXUXUXUXUXUXUXUXUXUXUXUXUXUXUXUXUXUXUXUXUXUXUXUXUXUXUXUXUXs * X O O 4 o o O   O o = O O O X O O O O o < o O O 4 7 < o o 7 4 G 7 < 4 Q V < F ( ( j.A / E I v.U A ( Q A C.C.UXUXUXUXUXUXUXUXUXUXUXUXUXUXUXUXUXUXUXUXUXUXUXUXUXUXUXUXUXUXUXUXUXUXUXUXUXUXUXUXUXUXUXUXUXUXUXUXUXUXUXUXUXUXUXUXUXUXUXUXUXUXUXUXUXUXUXUXUXUXUXUXUXUXUXUXUXUXUXUXUX",
"UXUXUXUXUXUXUXUXUXUXUXUXUXUXUXUXUXUXUXUXUXUXUXUXUXUXUXUXUXUXUXUXUXUXUXUXUXUXUXUXUXUXUXUXUXUXUXUXUX3 * $ X o o o o X O O o o o O O O X O O O o < < < O o 4 4 4 o o 6 G 7 o # E V < 4 Q U ( / v.Q M ~ M.4 ( K V k.l.UXUXUXUXUXUXUXUXUXUXUXUXUXUXUXUXUXUXUXUXUXUXUXUXUXUXUXUXUXUXUXUXUXUXUXUXUXUXUXUXUXUXUXUXUXUXUXUXUXUXUXUXUXUXUXUXUXUXUXUXUXUXUXUXUXUXUXUXUXUXUXUXUXUXUXUXUXUXUXUXUX",
"UXUXUXUXUXUXUXUXUXUXUXUXUXUXUXUXUXUXUXUXUXUXUXUXUXUXUXUXUXUXUXUXUXUXUXUXUXUXUXUXUXUXUXUXUXUXUXUXUXZ & X % X O o X X X O o = o o O O X o O O o < 4 4 o o < 4 7 < 2 4 4 6 < o 6 F D o A ( 7 6 U S.F / M.( K N.A k.~ UXUXUXUXUXUXUXUXUXUXUXUXUXUXUXUXUXUXUXUXUXUXUXUXUXUXUXUXUXUXUXUXUXUXUXUXUXUXUXUXUXUXUXUXUXUXUXUXUXUXUXUXUXUXUXUXUXUXUXUXUXUXUXUXUXUXUXUXUXUXUXUXUXUXUXUXUXUXUXUXUX",
"UXUXUXUXUXUXUXUXUXUXUXUXUXUXUXUXUXUXUXUXUXUXUXUXUXUXUXUXUXUXUXUXUXUXUXUXUXUXUXUXUXUXUXUXUXUXUXUXO K d q X X < O O O O O o = o o o O o o X O o < < < o o < 4 7 7 4 o 6 F o > > V F 7 = G M.V 4 Q N.Q N./ Z M.( ~ j.l.UXUXUXUXUXUXUXUXUXUXUXUXUXUXUXUXUXUXUXUXUXUXUXUXUXUXUXUXUXUXUXUXUXUXUXUXUXUXUXUXUXUXUXUXUXUXUXUXUXUXUXUXUXUXUXUXUXUXUXUXUXUXUXUXUXUXUXUXUXUXUXUXUXUXUXUXUXUXUXUX",
"UXUXUXUXUXUXUXUXUXUXUXUXUXUXUXUXUXUXUXUXUXUXUXUXUXUXUXUXUXUXUXUXUXUXUXUXUXUXUXUXUXUXUXUXUXUXUX5 1 P f @ 1 X X O O O O O O o o o o o o < o o o < 4 7 4 % % 7 7 4 % > 4 7 < o % 7 ! 4 1 7 F Q < A ~ A U S.Q N.N.F N.Y UXUXUXUXUXUXUXUXUXUXUXUXUXUXUXUXUXUXUXUXUXUXUXUXUXUXUXUXUXUXUXUXUXUXUXUXUXUXUXUXUXUXUXUXUXUXUXUXUXUXUXUXUXUXUXUXUXUXUXUXUXUXUXUXUXUXUXUXUXUXUXUXUXUXUXUXUXUXUXUX",
"UXUXUXUXUXUXUXUXUXUXUXUXUXUXUXUXUXUXUXUXUXUXUXUXUXUXUXUXUXUXUXUXUXUXUXUXUXUXUXUXUXUXUXUXUXUX: . d ;.f d % X O O O O O O o o O O O O o o o o o o 4 7 7 < o 4 7 7 > % 4 6 7 % % < G < 1 5 V ( 5 b z.~ 5 A C.F _./ S.A / UXUXUXUXUXUXUXUXUXUXUXUXUXUXUXUXUXUXUXUXUXUXUXUXUXUXUXUXUXUXUXUXUXUXUXUXUXUXUXUXUXUXUXUXUXUXUXUXUXUXUXUXUXUXUXUXUXUXUXUXUXUXUXUXUXUXUXUXUXUXUXUXUXUXUXUXUXUXUX",
"UXUXUXUXUXUXUXUXUXUXUXUXUXUXUXUXUXUXUXUXUXUXUXUXUXUXUXUXUXUXUXUXUXUXUXUXUXUXUXUXUXUXUXUXUX: ; C H q.;.e &   X o O O o o O O o o o O X + < < o o 4 4 7 4 o < 7 7 < ; < 7 7 4 < < 7 4 < < 7 / x 4 ~ v.F 7 Q N.E v.S.k.C.UXUXUXUXUXUXUXUXUXUXUXUXUXUXUXUXUXUXUXUXUXUXUXUXUXUXUXUXUXUXUXUXUXUXUXUXUXUXUXUXUXUXUXUXUXUXUXUXUXUXUXUXUXUXUXUXUXUXUXUXUXUXUXUXUXUXUXUXUXUXUXUXUXUXUXUXUXUXUX",
"UXUXUXUXUXUXUXUXUXUXUXUXUXUXUXUXUXUXUXUXUXUXUXUXUXUXUXUXUXUXUXUXUXUXUXUXUXUXUXUXUXUXUXUXUXt r H H d V.C X < O O O O o o O O o o o X X o < 4 < o < 4 7 7 < < 4 7 < ; ; 4 4 < < < 7 6 4 6 7 E 6 , E ~ F 7 E / D.a v.!.N.UXUXUXUXUXUXUXUXUXUXUXUXUXUXUXUXUXUXUXUXUXUXUXUXUXUXUXUXUXUXUXUXUXUXUXUXUXUXUXUXUXUXUXUXUXUXUXUXUXUXUXUXUXUXUXUXUXUXUXUXUXUXUXUXUXUXUXUXUXUXUXUXUXUXUXUXUXUXUX",
"UXUXUXUXUXUXUXUXUXUXUXUXUXUXUXUXUXUXUXUXUXUXUXUXUXUXUXUXUXUXUXUXUXUXUXUXUXUXUXUXUXUXUXUXp u l +.J ! % 2 X   o < O o o o O O X X o X O o < 4 4 < < < 7 7 4 < 4 4 4 < < < < < < < 6 6 7 M D D 6 6 M ( E x U ~ ( ) k.C.~ UXUXUXUXUXUXUXUXUXUXUXUXUXUXUXUXUXUXUXUXUXUXUXUXUXUXUXUXUXUXUXUXUXUXUXUXUXUXUXUXUXUXUXUXUXUXUXUXUXUXUXUXUXUXUXUXUXUXUXUXUXUXUXUXUXUXUXUXUXUXUXUXUXUXUXUXUXUXUX",
"UXUXUXUXUXUXUXUXUXUXUXUXUXUXUXUXUXUXUXUXUXUXUXUXUXUXUXUXUXUXUX:.t.y.d.G.Y.UXUXUXUXUXUX@ t  .+.l f X 1 < O < O O O O o o O O X X o o o o < 3 7 4 < < 3 7 7 < 4 < 4 4 4 4 4 < < < 7 < 4 V / F 7 6 Q G A c ~ / ) a k.k.k.l.UXUXUXUXUXUXUXUXUXUXUXUXUXUXUXUXUXUXUXUXUXUXUXUXUXUXUXUXUXUXUXUXUXUXUXUXUXUXUXUXUXUXUXUXUXUXUXUXUXUXUXUXUXUXUXUXUXUXUXUXUXUXUXUXUXUXUXUXUXUXUXUXUXUXUXUXUXUX",
"UXUXUXUXUXUXUXUXUXUXUXUXUXUXUXUXUXUXUXUXUXUXUXUXUXUXUXUXUXUXZ.:.%.%.%.&.,.2.G.#XUXUXUXw r #.w 8 + % 3   o o o = o o o o O O X X = < < o < 7 7 7 < < 4 7 4 < 4 < 4 < 4 4 4 4 < < 7 2 < 6 v.F M 2 ) Q A x U M.s Q k.C.A.Y UXUXUXUXUXUXUXUXUXUXUXUXUXUXUXUXUXUXUXUXUXUXUXUXUXUXUXUXUXUXUXUXUXUXUXUXUXUXUXUXUXUXUXUXUXUXUXUXUXUXUXUXUXUXUXUXUXUXUXUXUXUXUXUXUXUXUXUXUXUXUXUXUXUXUXUXUXUX",
"UXUXUXUXUXUXUXUXUXUXUXUXUXUXUXUXUXUXUXUXUXUXUXUXUXUXUXUXUXUXB.@.[ [ %.%.%.%.<.s.+XUXp @ q s + 1 1 < O < o o O O o o o o o o X o o < < o o 4 7 7 4 4 4 4 < < 4 < 4 < < < 4 4 < < < 7 3 < ( V V s ;.;.S T S N.Z s j.M.N.W l.UXUXUXUXUXUXUXUXUXUXUXUXUXUXUXUXUXUXUXUXUXUXUXUXUXUXUXUXUXUXUXUXUXUXUXUXUXUXUXUXUXUXUXUXUXUXUXUXUXUXUXUXUXUXUXUXUXUXUXUXUXUXUXUXUXUXUXUXUXUXUXUXUXUXUXUXUX",
"UXUXUXUXUXUXUXUXUXUXUXUXUXUXUXUXUXUXUXUXUXUXUXUXUXUXUXUXUXUX#.@.{ ' -.X.:.=.O.&.6.` q 3 2 2 % # o = = o o O O o o O O o o o X + o < < < < < 4 7 3 3 < < < < < < < < < > 4 2 < < 3 G & e ! d H J J P K ^ S.V.8.8./ M./ / N.h.UXUXUXUXUXUXUXUXUXUXUXUXUXUXUXUXUXUXUXUXUXUXUXUXUXUXUXUXUXUXUXUXUXUXUXUXUXUXUXUXUXUXUXUXUXUXUXUXUXUXUXUXUXUXUXUXUXUXUXUXUXUXUXUXUXUXUXUXUXUXUXUXUXUXUXUX",
"UXUXUXUXUXUXUXUXUXUXUXUXUXUXUXUXUXUXUXUXUXUXUXUXUXUXUXUXUXUXUXz @.$.@.X.X.$.' $.l 9 * % < > # # o = = o o o O o o O O o o o X + o o < < < < < 4 7 7 < < 4 4 < < # < 3 2 2 4 4 3 s + e Z ;.8.B.V.E.B.<X(.V.R.R.R.R.R./.S.5.5.v.Q.Q.l.UXUXUXUXUXUXUXUXUXUXUXUXUXUXUXUXUXUXUXUXUXUXUXUXUXUXUXUXUXUXUXUXUXUXUXUXUXUXUXUXUXUXUXUXUXUXUXUXUXUXUXUXUXUXUXUXUXUXUXUXUXUXUXUXUXUXUXUXUXUXUXUX",
"UXUXUXUXUXUXUXUXUXUXUXUXUXUXUXUXUXUXUXUXUXUXUXUXUXUXUXUXUXUXUX8.` ] ' -.O.*.{ +.* $ X % < ; = = = = = o o o o o O O O o o o X o % < 1 4 < < < < 4 7 4 < < < < 4 7 7 a 7 2 2 3 3 3 P ;.8.;.g #.+.#.q.9 B.l V.w.l w.w.5.f T.5.T./.v.C.C.A.UXUXUXUXUXUXUXUXUXUXUXUXUXUXUXUXUXUXUXUXUXUXUXUXUXUXUXUXUXUXUXUXUXUXUXUXUXUXUXUXUXUXUXUXUXUXUXUXUXUXUXUXUXUXUXUXUXUXUXUXUXUXUXUXUXUXUXUXUXUX",
"UXUXUXUXUXUXUXUXUXUXUXUXUXUXUXUXUXUXUXUXUXUXUXUXUXUXUXUXUXUX~ H q.@.' ] ..@.+.9 % # % < : - - - = = = o o o o o O O O o o o X o < < < 4 4 4 < < < 4 < % o < 7 G Z s 7 7 3 6 7 < % H ! r r j q.7.+.{ g #.V.+.8.P W.T.T.T.f T.5.5./.M.S.D.C.UXUXUXUXUXUXUXUXUXUXUXUXUXUXUXUXUXUXUXUXUXUXUXUXUXUXUXUXUXUXUXUXUXUXUXUXUXUXUXUXUXUXUXUXUXUXUXUXUXUXUXUXUXUXUXUXUXUXUXUXUXUXUXUXUXUXUXUXUX",
"UXUXUXUXUXUXUXUXUXUXUXUXUXUXUXUXUXUXUXUXUXUXUXUXUXUXUXUXUXY k.T B.k _ ' O...j + % % < ; ; ; - - = = o o O X o O O O o o o # o o o o < < < < < < o < < < 4 7 V F 7 4 < 4 6 7 7 < 1 . f V.8.8 +.0.#.7.w.w.w.w.V.w.w.T.V.T.T.w.R.T.V.D.P T.C.^.UXUXUXUXUXUXUXUXUXUXUXUXUXUXUXUXUXUXUXUXUXUXUXUXUXUXUXUXUXUXUXUXUXUXUXUXUXUXUXUXUXUXUXUXUXUXUXUXUXUXUXUXUXUXUXUXUXUXUXUXUXUXUXUXUXUXUXUX",
"UXUXUXUXUXUXUXUXUXUXUXUXUXUXUXUXUXUXUXUXUXUXUXUXUXUXUXUXB v.^.!.U.#.i X._ i t 1 % % = = + + ; ; o = o O O o o O O O o o o # # o o > < < < 4 < < < < o < 7 s 7 7 < < 4 5 7 7 7 4 4 % . ;.0.#.8.l P #.7.8.w.f % R.T.* 5.) D.5.T.T.5.(.5.) D.C.!.UXUXUXUXUXUXUXUXUXUXUXUXUXUXUXUXUXUXUXUXUXUXUXUXUXUXUXUXUXUXUXUXUXUXUXUXUXUXUXUXUXUXUXUXUXUXUXUXUXUXUXUXUXUXUXUXUXUXUXUXUXUXUXUXUXUXUX",
"UXUXUXUXUXUXUXUXUXUXUXUXUXUXUXUXUXUXUXUXUXUXUXUXUXUXUXl.b.A.n.S.C J J l g #.j @ + % > # # $ X + X o o O O X X O O X X X o > > # o % < 4 4 4 4 4 4 4 < 4 7 7 4 < o 4 7 7 7 7 6 7 < < % s P w.f P w.* T.V.S.N.< s 5.f ( M ) P a 5.) T.S.5.v.Z.C.A.UXUXUXUXUXUXUXUXUXUXUXUXUXUXUXUXUXUXUXUXUXUXUXUXUXUXUXUXUXUXUXUXUXUXUXUXUXUXUXUXUXUXUXUXUXUXUXUXUXUXUXUXUXUXUXUXUXUXUXUXUXUXUXUXUXUX",
"UXUXUXUXUXUXUXUXUXUXUXUXUXUXUXUXUXUXUXUXUXUXUXUXUXUXaXm.v.A.A.E 2 1 d j l h 0 8 @ % # $ $ $ X X X o o O X X X O O X X X o > > # o o < 4 < < < < < 4 7 7 7 7 4 4 < 5 5 4 7 7 6 7 7 4 X 3 f 8.H 8.8.3 P f s V U M s ) U D / 3 F E E ( M.M./.M.S.A.^.UXUXUXUXUXUXUXUXUXUXUXUXUXUXUXUXUXUXUXUXUXUXUXUXUXUXUXUXUXUXUXUXUXUXUXUXUXUXUXUXUXUXUXUXUXUXUXUXUXUXUXUXUXUXUXUXUXUXUXUXUXUXUXUXUX",
"UXUXUXUXUXUXUXUXUXUXUXUXUXUXUXUXUXUXUXUXUXUXUXUXUXUX^.b.v.A.j.4 < X . L i k i 8 + o > > > O % @ + o o o o O o o o o o o X X + % < < < < < < < < 4 4 4 4 4 4 4 4 7 4 4 4 7 7 7 7 4 7 o 7 3 ! Z 2 7 s G Z 7 U M V M V U U U / Z./ E ~ C.S.S.D.5.A.Q.UXUXUXUXUXUXUXUXUXUXUXUXUXUXUXUXUXUXUXUXUXUXUXUXUXUXUXUXUXUXUXUXUXUXUXUXUXUXUXUXUXUXUXUXUXUXUXUXUXUXUXUXUXUXUXUXUXUXUXUXUXUXUXUXUX",
"UXUXUXUXUXUXUXUXUXUXUXUXUXUXUXUXUXUXUXUXUXUXUXUXUXcXQ.W A.C.7 1 O O . 8  .i j w 1 o > = , o + @ + o o + + X o + X o X o X X o % < < < < < < < < < 4 4 4 4 4 3 3 7 7 7 7 7 7 7 7 7 7 o 7 4 V F Q V 7 V ( E / / A A F D j.~ N.Z.N.N.M.C.S.E ( 5.v.A.UXUXUXUXUXUXUXUXUXUXUXUXUXUXUXUXUXUXUXUXUXUXUXUXUXUXUXUXUXUXUXUXUXUXUXUXUXUXUXUXUXUXUXUXUXUXUXUXUXUXUXUXUXUXUXUXUXUXUXUXUXUXUXUXUX",
"UXUXUXUXUXUXUXUXUXUXUXUXUXUXUXUXUXUXUXUXUXUXUXUXUXdXb.W !.~ = +     . 9 p -.u J & % > = , o + + o o = ; + o o + o o o o o X o % < > < < < < < < < 4 7 7 7 7 7 7 7 7 7 7 7 7 7 7 4 7 7 7 4 7 7 o V 7 a F F ( N.U U U j.A N.j.S.M.N.D.C.N.C.N.C.v.!.aXUXUXUXUXUXUXUXUXUXUXUXUXUXUXUXUXUXUXUXUXUXUXUXUXUXUXUXUXUXUXUXUXUXUXUXUXUXUXUXUXUXUXUXUXUXUXUXUXUXUXUXUXUXUXUXUXUXUXUXUXUXUXUXUX",
"UXUXUXUXUXUXUXUXUXUXUXUXUXUXUXUXUXUXUXUXUXUXUXUXUXiXn.b.!.F ;   . . t p i ' X.X.@ + < > , o o + o o = < ; o o o o o X # o X o % # > < < < < < < 4 4 7 7 7 7 7 7 7 7 7 7 7 7 7 7 7 7 4 7 V e G G V V 7 M G a E j.j./ U / ~ ( E / ( ( Z.S.C.C.A.C.!.^.UXUXUXUXUXUXUXUXUXUXUXUXUXUXUXUXUXUXUXUXUXUXUXUXUXUXUXUXUXUXUXUXUXUXUXUXUXUXUXUXUXUXUXUXUXUXUXUXUXUXUXUXUXUXUXUXUXUXUXUXUXUXUXUX",
"UXUXUXUXUXUXUXUXUXUXUXUXUXUXUXUXUXUXUXUXUXUXUXUXUX^.h.h.A.V X   . ;.p i ..] X.-.r + < = , = o o o o o > o o o o o o o < # # # # # # > < < < < < 4 4 4 7 7 7 7 7 7 7 7 7 7 7 7 7 7 7 7 G G V G V 6 E ( 7 7 V x 4 = 4 4 = 6 A F F 7 G Q N.j.UXUXUXUXUXUXUXUXUXUXUXUXUXUXUXUXUXUXUXUXUXUXUXUXUXUXUXUXUXUXUXUXUXUXUXUXUXUXUXUXUXUXUXUXUXUXUXUXUXUXUXUXUXUXUXUXUXUXUXUXUXUXUXUXUXUXUXUXUX",
"UXUXUXUXUXUXUXUXUXUXUXUXUXUXUXUXUXUXUXUXUXUXUXUXhX^.h.~ S.<   . . ;.p X.] ..O.-.;.t 1 o , , o o o o > > ; o o + < + ; < # # # % # # > < < < 4 4 7 7 3 7 7 7 7 7 V V s V 7 7 7 7 7 G 7 4 V Q ( F / 7 7 < < < 4 7 7 4 < 7 4 7 4 A Q Q x 7 F M.UXUXUXUXUXUXUXUXUXUXUXUXUXUXUXUXUXUXUXUXUXUXUXUXUXUXUXUXUXUXUXUXUXUXUXUXUXUXUXUXUXUXUXUXUXUXUXUXUXUXUXUXUXUXUXUXUXUXUXUXUXUXUXUXUXUXUXUX",
"UXUXUXUXUXUXUXUXUXUXUXUXUXUXUXUXUXUXUXUXUXUXUXUXcXb.B W C.=   . . u i O.4.O.-.O.F.t & < < , > o # > > > # o = ; < < < < > # # > > > > < < < 4 2 7 7 7 7 7 7 7 7 V V V V V V V 7 7 4 7 V ( 7 4 < 7 O < 4 7 7 7 7 7 x 7 7 < A 7 x A A E F G G U UXUXUXUXUXUXUXUXUXUXUXUXUXUXUXUXUXUXUXUXUXUXUXUXUXUXUXUXUXUXUXUXUXUXUXUXUXUXUXUXUXUXUXUXUXUXUXUXUXUXUXUXUXUXUXUXUXUXUXUXUXUXUXUXUXUXUX",
"UXUXUXUXUXUXUXUXUXUXUXUXUXUXUXUXUXUXUXUXUXUXUXUXgXQ.W D Z.V X . . w i X.O.O.2.2.i.p 1 2 < > > > > > > > > o = < < < < < < # # > > > < < < 4 2 2 3 4 4 7 7 7 7 7 V V V V V V V 7 7 7 F V ( 7 7 7 < V 7 < 4 4 4 7 7 4 V x b V x x c W U G G ) U Y UXUXUXUXUXUXUXUXUXUXUXUXUXUXUXUXUXUXUXUXUXUXUXUXUXUXUXUXUXUXUXUXUXUXUXUXUXUXUXUXUXUXUXUXUXUXUXUXUXUXUXUXUXUXUXUXUXUXUXUXUXUXUXUXUXUX",
"UXUXUXUXUXUXUXUXUXUXUXUXUXUXUXUXUXUXUXUXUXUXUXUXdXQ.I I N./   . . u X.X.O.2.2.F.F.w t & < 4 # < % % < o > o = ; < < ; ; < > > > # < < < 4 2 2 7 4 3 7 7 7 7 7 V 7 V V V V V V 7 4 G V 4 M.F 7 V 7 7 7 7 7 7 7 7 7 7 7 7 7 7 7 x c I U Q D ( N.U Y UXUXUXUXUXUXUXUXUXUXUXUXUXUXUXUXUXUXUXUXUXUXUXUXUXUXUXUXUXUXUXUXUXUXUXUXUXUXUXUXUXUXUXUXUXUXUXUXUXUXUXUXUXUXUXUXUXUXUXUXUXUXUXUXUX",
"UXUXUXUXUXUXUXUXUXUXUXUXUXUXUXUXUXUXUXUXUXUXUXcXpXA.W D E /.O   . u :.-.2.2.2.F.G.u t r 1 1 1 + 1 + < % < o 4 7 < < ; ; < > > > > < < 4 4 4 2 7 4 7 7 7 7 7 7 V V V G V V V V 7 V V Q 7 o o F G G s 7 7 7 7 4 4 7 7 4 4 4 7 6 6 6 6 7 E Q U / I Y Y UXUXUXUXUXUXUXUXUXUXUXUXUXUXUXUXUXUXUXUXUXUXUXUXUXUXUXUXUXUXUXUXUXUXUXUXUXUXUXUXUXUXUXUXUXUXUXUXUXUXUXUXUXUXUXUXUXUXUXUXUXUXUXUX",
"UXUXUXUXUXUXUXUXUXUXUXUXUXUXUXUXUXUXUXUXUXUXUXcXpXb.v.W D S.(   . r X.:.-.G.2.G.Y.G.#.w & 8 t 1 t & 1 o < > , o 4 < < < < < < < < < 4 4 4 4 2 6 7 7 7 6 7 7 7 V V G G G G G V 7 F 7 7 4 < 4 G 7 V 7 7 7 7 7 4 4 7 7 4 4 7 7 7 4 6 x M M U ~ N.( Q A Y UXUXUXUXUXUXUXUXUXUXUXUXUXUXUXUXUXUXUXUXUXUXUXUXUXUXUXUXUXUXUXUXUXUXUXUXUXUXUXUXUXUXUXUXUXUXUXUXUXUXUXUXUXUXUXUXUXUXUXUXUXUXUX",
"UXUXUXUXUXUXUXUXUXUXUXUXUXUXUXUXUXUXUXUXUXUXUXdX^.b.k.~ F D N.= + ;.r B.F.2.G.G.G.G.Y.F.B.B.p t & 1 q 1 o < 7 4 < < < ; < < < < 4 4 4 4 4 4 2 2 7 7 7 7 7 7 7 V G G F F S F G V 3 7 4 7 G 7 4 7 7 7 7 7 7 7 7 7 7 7 7 7 7 7 7 7 G V 7 V G 7 F Q M.( j.Y UXUXUXUXUXUXUXUXUXUXUXUXUXUXUXUXUXUXUXUXUXUXUXUXUXUXUXUXUXUXUXUXUXUXUXUXUXUXUXUXUXUXUXUXUXUXUXUXUXUXUXUXUXUXUXUXUXUXUXUXUXUX",
"UXUXUXUXUXUXUXUXUXUXUXUXUXUXUXUXUXUXUXUXUXUXhXdX^.b.k.~ ~ Q ~ j.o   r c.F.F.Y.+XG.+XF.G.G.G.F.y p 8 1 1 4 6 , O < < < ; < < < < < 4 4 4 4 4 6 7 7 7 7 7 7 7 7 V V G F F F F G V 7 G G 7 7 V 7 7 7 7 7 7 7 7 7 4 7 7 7 7 3 3 7 7 3 7 1 C d d G Q T ( ( ( W UXUXUXUXUXUXUXUXUXUXUXUXUXUXUXUXUXUXUXUXUXUXUXUXUXUXUXUXUXUXUXUXUXUXUXUXUXUXUXUXUXUXUXUXUXUXUXUXUXUXUXUXUXUXUXUXUXUXUXUXUX",
"UXUXUXUXUXUXUXUXUXUXUXUXUXUXUXUXUXUXUXUXUXUXcXdXQ.v.I D ) Q D k.M.7 <X. B.1XF.G.Y.2.d.G.G.2.O.2.:.J t 1 4 < > 6 , < < < < < < < < < < < 4 4 6 7 7 7 7 7 7 7 s V V V G G G G G V F V s 7 7 V V 7 7 7 7 7 7 7 7 4 4 7 7 7 4 4 3 7 7 d q r q d d e F F ( ( M.h.UXUXUXUXUXUXUXUXUXUXUXUXUXUXUXUXUXUXUXUXUXUXUXUXUXUXUXUXUXUXUXUXUXUXUXUXUXUXUXUXUXUXUXUXUXUXUXUXUXUXUXUXUXUXUXUXUXUXUXUX",
"UXUXUXUXUXUXUXUXUXUXUXUXUXUXUXUXUXUXUXUXUXUXgXiXQ.h.B D M G W D A V R <X@ :.1X#XG.G.+XG.3.2.2.2.k ;.;.;.Q a O , < < < < 1 < < < < < < < < 4 6 7 7 7 7 7 7 7 V V V V V V G V V V V 7 e V V 7 7 V 7 7 7 7 7 7 7 7 4 3 7 7 4 4 3 5 e 1 8 g g g f C C e S Q ~ !.Q.UXUXUXUXUXUXUXUXUXUXUXUXUXUXUXUXUXUXUXUXUXUXUXUXUXUXUXUXUXUXUXUXUXUXUXUXUXUXUXUXUXUXUXUXUXUXUXUXUXUXUXUXUXUXUXUXUXUXUX",
"UXUXUXUXUXUXUXUXUXUXUXUXUXUXUXUXUXUXUXUXUXUXdXiXm.h.B N 6 a M M 7 G 7 n lXL u F.#XG.G.G.2.2.2.p :.~./.U.S.N.V 4 4 4 4 2 4 4 < < < < < < < 4 2 7 7 7 7 7 7 7 V V b 7 7 V V V G G G 7 G 7 7 V F 7 7 7 7 7 7 7 6 4 4 4 4 < 1 1 1 & L  .7.@.@.{ @.k j J r n U A U Q.UXUXUXUXUXUXUXUXUXUXUXUXUXUXUXUXUXUXUXUXUXUXUXUXUXUXUXUXUXUXUXUXUXUXUXUXUXUXUXUXUXUXUXUXUXUXUXUXUXUXUXUXUXUXUXUXUXUX",
"UXUXUXUXUXUXUXUXUXUXUXUXUXUXUXUXUXUXUXUXUXhXdX^.m.h.I M 6 6 4 x M 7 V T ;.Z.U.:. .>.:.:.O.:.O.>.B.S.S.S.Z.Z.Z.N.e 2 2 1 < 1 7 < < > < > 6 < < 6 7 < 7 V 7 7 V V V V V V V 7 V G V V V s 7 7 7 7 7 x 7 7 7 7 6 < 6 2 < q @ 9 y @.=.s.d.d.s.d.s.,.] ' y j d F A W A.UXUXUXUXUXUXUXUXUXUXUXUXUXUXUXUXUXUXUXUXUXUXUXUXUXUXUXUXUXUXUXUXUXUXUXUXUXUXUXUXUXUXUXUXUXUXUXUXUXUXUXUXUXUXUXUXUX",
"UXUXUXUXUXUXUXUXUXUXUXUXUXUXUXUXUXUXUXUXUXdXdXQ.A.W N I 4 , 7 < x A N.S.z.S L r <XF.F.:.:.p p L ( C././.U.~././.Z.B.1 1 2 4 < 7 < < < > < 2 < < 7 4 7 7 6 7 V V G G V V V 7 7 V 7 e s s e 7 7 7 7 7 4 < 4 7 7 6 7 7 @ 8 i @.i.d.s.a.r.XX{.{.oXXXXXd.$...j r Z F E C.UXUXUXUXUXUXUXUXUXUXUXUXUXUXUXUXUXUXUXUXUXUXUXUXUXUXUXUXUXUXUXUXUXUXUXUXUXUXUXUXUXUXUXUXUXUXUXUXUXUXUXUXUXUXUXUX",
"UXUXUXUXUXUXUXUXUXUXUXUXUXUXUXUXUXUXUXUXUXdXaX^.n.W I N , 6 < = A S.S.z.R T T L L r r u r r t 1 S C.jXkXjXjX/.V.V.V./.U.X < s X < < o < 2 < 4 7 7 7 7 7 7 7 s 7 G V V V V V V V V V V V 7 7 7 7 7 5 4 6 7 7 4 1 X 1 P #.:.G.d.s.'.r.XXoX;XoX;X2X&X3X+X#Xu.i L ;.( Y C.UXUXUXUXUXUXUXUXUXUXUXUXUXUXUXUXUXUXUXUXUXUXUXUXUXUXUXUXUXUXUXUXUXUXUXUXUXUXUXUXUXUXUXUXUXUXUXUXUXUXUXUXUXUXUX",
"UXUXUXUXUXUXUXUXUXUXUXUXUXUXUXUXUXUXUXUXUXdXiXb.h.W W c c 7 = F Z./.S.j.z.z.R T C L L n C C b 7 A N././.M.! d ! U.S.8.N.S.% < 3 < a 7 < < 2 2 > 4 7 7 7 7 7 7 7 V 7 7 V V G V V V V V V 7 7 7 7 4 4 6 7 2 % 1 1 P ;.#.*.,.,.s.p.XXoX;X-X*X*X%X%X9XvX3X#X3X1X9 ;.C j.k.!.UXUXUXUXUXUXUXUXUXUXUXUXUXUXUXUXUXUXUXUXUXUXUXUXUXUXUXUXUXUXUXUXUXUXUXUXUXUXUXUXUXUXUXUXUXUXUXUXUXUXUXUXUXUX",
"UXUXUXUXUXUXUXUXUXUXUXUXUXUXUXUXUXUXUXUXgXiX^.b.h.B I N D < F ~.)./.S.S.M.^ ^ T T K S n S V A V Q C.( <   % e U.<X).! N.kXxXD.% < 4 1 4 7 < o o < 4 7 7 7 7 7 7 V 7 7 s V V b 7 7 7 x 7 7 7 7 7 6 4 4 < < 1 r H J J :.y.d.'.'.OXoXoX*X=X%XrXyX9XrXeXCX7XGX7X8X:.;.;.! ^ A.UXUXUXUXUXUXUXUXUXUXUXUXUXUXUXUXUXUXUXUXUXUXUXUXUXUXUXUXUXUXUXUXUXUXUXUXUXUXUXUXUXUXUXUXUXUXUXUXUXUXUXUXUX",
"UXUXUXUXUXUXUXUXUXUXUXUXUXUXUXUXUXUXUXUXpXfX^.v.h.I B D x 6 S.jXkXsX~.C.z.z.z.R T R T U T ~ ~ M E /.( o e ! 3 1 V.jXzXLXFX/.Q Q V 5 2 + 7 4 4 7 < < 4 7 7 7 7 7 7 7 7 7 7 V 7 7 7 7 7 7 5 4 5 4 x 6 4 1 e j J  .@.:.,.s.s.p.XXoX|.*X:X%XrXrX9XqXeXvXCXCXNXMXMXmXE.;.B.8.N.^.UXUXUXUXUXUXUXUXUXUXUXUXUXUXUXUXUXUXUXUXUXUXUXUXUXUXUXUXUXUXUXUXUXUXUXUXUXUXUXUXUXUXUXUXUXUXUXUXUXUXUXUX",
"UXUXUXUXUXUXUXUXUXUXUXUXUXUXUXUXUXUXUXUXgXiXm.b.h.W B M 6 / jXzXzXkX/.Z.Z.M.~ ~ R S U b ~ N W D M.jX/ o e ;.C X s ! V.Z./ Z + 7 ;.N.Z.; ; G F 7 7 < 4 7 7 7 7 6 7 7 7 7 7 7 7 7 7 7 7 4 4 4 4 7 x 7 7 e j J ..` =.1.y.d.'.oXOX|.>X*X-X>X%X9XqXrX0X0X7XGXNXBXBXmXSX1X7.8.( ^.UXUXUXUXUXUXUXUXUXUXUXUXUXUXUXUXUXUXUXUXUXUXUXUXUXUXUXUXUXUXUXUXUXUXUXUXUXUXUXUXUXUXUXUXUXUXUXUXUXUXUXUX",
"UXUXUXUXUXUXUXUXUXUXUXUXUXUXUXUXUXUXUXUXgXaXA.v.h.I D x V /.kXLXzXkX_.S.C.M.j.~ S R U T Y U W U S.jXT 5 V Z C 1 + 1 < + 5 < o Q M.Z./.S e e x V V < < 7 7 7 6 2 7 7 7 7 7 7 7 7 7 7 4 4 4 7 7 x 7 e e r j ` @.$.o.d.a.'.r.OXoX}.$X-X-X$XyXqXeXeX0X7XCXNXBXBXVXAXSXnXSXV.B.!.UXUXUXUXUXUXUXUXUXUXUXUXUXUXUXUXUXUXUXUXUXUXUXUXUXUXUXUXUXUXUXUXUXUXUXUXUXUXUXUXUXUXUXUXUXUXUXUXUXUXUXUX",
"UXUXUXUXUXUXUXUXUXUXUXUXUXUXUXUXUXUXUXUXdX^.v.v.W I U 4 M.).kXzXzXsX/.S.S.S.N.j.~ R ~ ~ ~ k.k.k._./.S 5 b V e G S 5 5 e 5 x V ~ z.T S./.T V S V Q ; 4 7 7 7 < 6 7 7 7 7 7 7 7 7 7 4 4 5 7 7 7 7 e e r j j _ $.%.e.<.s.'.p.XX|.oX{.>X-X%X-X,X0XeXwX7XtXmX7XAXBXSXSXSXmXFX(.!.!.UXUXUXUXUXUXUXUXUXUXUXUXUXUXUXUXUXUXUXUXUXUXUXUXUXUXUXUXUXUXUXUXUXUXUXUXUXUXUXUXUXUXUXUXUXUXUXUXUXUXUX",
"UXUXUXUXUXUXUXUXUXUXUXUXUXUXUXUXUXUXUXgXdX^.v.W I N A V S.).).jX_./.S././.~.~.Z.N.z.^ ^ z.M.z.N._.S.S b S x 5 S T T A b A U b ~ z.T Z./.Z.z.Q z.Q 5 7 7 4 7 2 7 7 7 7 7 7 7 7 7 4 4 5 7 e 7 7 7 e r w j _ ] $.%.%.<.1.a.XX@XoX}.>X$X-X%X*XyX9XtX0XwXGX7XGXAXnXmXSXSXmXnXDXU.Z.UXUXUXUXUXUXUXUXUXUXUXUXUXUXUXUXUXUXUXUXUXUXUXUXUXUXUXUXUXUXUXUXUXUXUXUXUXUXUXUXUXUXUXUXUXUXUXUXUXUXUX",
"UXUXUXUXUXUXUXUXUXUXUXUXUXUXUXUXUXUXUXgXiXb.h.h.I N x V S././._./.S.S././.fX/./.S.Z.N.N.Z.N.Z._.~.^ x b U x 5 S R ^ R U S R U R ^ N.( ~ Z.S.( Z.V 7 7 7 4 7 a 7 7 4 3 7 7 3 3 7 3 3 7 e e 3 1 1 r u y k ` ' $.%.<.d.<.d.[.XX{.}.|.>X*X:X*X*X;XeXtXwX7XtXAXnXAXAXnXSXZXSXSXSXE.UXUXUXUXUXUXUXUXUXUXUXUXUXUXUXUXUXUXUXUXUXUXUXUXUXUXUXUXUXUXUXUXUXUXUXUXUXUXUXUXUXUXUXUXUXUXUXUXUXUXUX",
"UXUXUXUXUXUXUXUXUXUXUXUXUXUXUXUXUXUXUXdXiXb.C.B N N x T ~.~.S.S.S.S.S.).zXzXkX/./._._.~.~._.~.S.Z.S 5 b S S A S T U ^ j.S T k.~ j.N.z.^ T Z._.).4 5 4 7 7 7 M 6 7 7 4 7 3 < 3 7 V e e q 1 1 1 q w u i k ` ' $.%.%.,.s.s.r.[.|.oX|..X=X=X*X;X;X*X9XeXtX7X7X7XGXmXSXSXZXAXMXmXDXUXUXUXUXUXUXUXUXUXUXUXUXUXUXUXUXUXUXUXUXUXUXUXUXUXUXUXUXUXUXUXUXUXUXUXUXUXUXUXUXUXUXUXUXUXUXUXUXUXUXUX",
"UXUXUXUXUXUXUXUXUXUXUXUXUXUXUXUXUXUXUXfXiXQ.h.I c N x Q S.Z.Z.Z.S.Z.S.).zXLXzXjXjXsXsX<X<X).U.z.T b 5 S S R U T ~ S ^ z.T T ~ j.z.z.^ z.S j._._.4 7 4 7 7 < 7 4 6 2 3 7 7 2 3 s C e q 1 1 & t w w u j _ ` ' $.%.$.,.,.s.p.p.oX|.oX{.2X X-X$X%XqX-XyX9XtXCX7XAX7XnXSXZXmXGXNXSXDXUXUXUXUXUXUXUXUXUXUXUXUXUXUXUXUXUXUXUXUXUXUXUXUXUXUXUXUXUXUXUXUXUXUXUXUXUXUXUXUXUXUXUXUXUXUXUXUXUXUX",
"UXUXUXUXUXUXUXUXUXUXUXUXUXUXUXUXUXUXUXdXQ.b.h.W B N 7 Q N.N.N.N.N.Z.S.).zXzXzXkXkXkXzXkX).S.T b 7 b e T S T T ~ R U U ^ j.^ T z.z.N.A S U / N.U 7 7 4 7 7 < 7 7 7 6 3 7 7 7 7 e q q 1 & & & 8 r w j h k _ ` o.$.,.y.,.s.'.p.`.@XoX|.{.:X-X>X*X*X-X9XqXeXtXwXwXMXHXZXMXmXGXGXnXSXDXUXUXUXUXUXUXUXUXUXUXUXUXUXUXUXUXUXUXUXUXUXUXUXUXUXUXUXUXUXUXUXUXUXUXUXUXUXUXUXUXUXUXUXUXUXUXUXUXUX",
"UXUXUXUXUXUXUXUXUXUXUXUXUXUXUXUXUXUXUX_.Q.b.W I c x V Q 8.z.~ R x.N.Z./.).kXkXzXzXLXzXU.( ( K K K ! V G S F R ( S U S T j.z.~ M.M.M.U U Q C.N.4 7 7 4 4 7 7 7 7 7 6 3 3 3 7 3 3 1 & & & 8 8 q w w j h l ` ` ....-.-.y.s.'.[.3.XX@XXXXX|.;X%X-X-X%X>X9X0X0X0XtX7XwXNXMXAXnXSXmXDXFXUXUXUXUXUXUXUXUXUXUXUXUXUXUXUXUXUXUXUXUXUXUXUXUXUXUXUXUXUXUXUXUXUXUXUXUXUXUXUXUXUXUXUXUXUXUXUXUXUX",
"UXUXUXUXUXUXUXUXUXUXUXUXUXUXUXUXUXUXhXiXn.h.h.B N x b Z K ! T T R ;.z.Z././.).kXzXzX).! ! M.;.B.S.S.K 1 V T ^ T S S U T T z.z.z.C.z.V S Z./.M.7 7 7 7 4 7 7 7 7 7 7 4 < < 1 1 % & & & 8 8 t w w y j h l  ...@...=.%.%.<.<.p.'.`.p.XXXXoX|.,X-X%X-X$X-XqXqX0X0XtXyX8X7XGXmXSXDXmXmXZXDXUXUXUXUXUXUXUXUXUXUXUXUXUXUXUXUXUXUXUXUXUXUXUXUXUXUXUXUXUXUXUXUXUXUXUXUXUXUXUXUXUXUXUXUXUXUXUX",
"UXUXUXUXUXUXUXUXUXUXUXUXUXUXUXUXUXUXgXiXn.h.B B x x x V F Z S q C C ! ! ;.B.S.6XzXkXU.;.J.B.L.q.8.B.B.e 2 S ~ k.T A A b S ^ z.M.M.D.G Z /.jXS.7 7 7 7 7 7 4 < < 4 < < 1 1 1 & 8 & & 8 8 8 8 w y y j k _ k _ ....=.%.1.y.<.a.`.p.`.p.XXXXoX%X-X-X*X-X*X*XqXqXeXtX9XCX7XMXAXZXZXmXVXBXSXLXUXUXUXUXUXUXUXUXUXUXUXUXUXUXUXUXUXUXUXUXUXUXUXUXUXUXUXUXUXUXUXUXUXUXUXUXUXUXUXUXUXUXUXUXUXUX",
"UXUXUXUXUXUXUXUXUXUXUXUXUXUXUXUXUXUXgXiXn.v.D N x x 7 V ) s e e q q C Z P ;.N.R.).E.;.V.J.q.q.q.q.B.B.;.5 b ~ j.~ U U b b T z.Z.M.z.Z F <XzX/.7 4 7 7 7 4 < < < 4 < 1 1 1 & & 8 8 & p 8 8 w w w u j k _ _ ` ....o.-.1.<.,.y.a.a.a.XXp.XX{.oXoX%X;X-X%XrX%XrXrX9XqX0X7XCX7XHXGXMXGXVXmXSXKXUXUXUXUXUXUXUXUXUXUXUXUXUXUXUXUXUXUXUXUXUXUXUXUXUXUXUXUXUXUXUXUXUXUXUXUXUXUXUXUXUXUXUXUXUX",
"UXUXUXUXUXUXUXUXUXUXUXUXUXUXUXUXUXUXgX^.n.W I c x x 4 M ) Z 1 e e e d s C K P ;.V.R.8.E.L.J.q.0.q.0.q.B.K 1 S j.~ U U U S S R z.N.M.G Q /.jX/.7 < 3 7 7 < < = < 1 1 % 1 1 & & 8 8 8 8 8 w w w w j i j k k  .....o.o.1.1.,.<.a.s.p.[.p.XX@X{.}.}.*X%X*X-X%X*XqXyX0XwXwXwX7X8XNXMXNXAXmXmXDXDXUXUXUXUXUXUXUXUXUXUXUXUXUXUXUXUXUXUXUXUXUXUXUXUXUXUXUXUXUXUXUXUXUXUXUXUXUXUXUXUXUXUXUXUX",
"UXUXUXUXUXUXUXUXUXUXUXUXUXUXUXUXUXUXgXQ.n.D I x x x 4 6 G Q q q 1 1 e 3 s Z Z P ;.V.V.I.V.J.V.q.9.q.q.8.8.q e ~ j.T S S U S S U z.M.G V S.jXF 7 < < 4 4 < = = < < % % 1 1 1 & 8 8 8 8 t 8 8 w y u i i j k  .....$.o.%.%.e.y.s.a.'.p.p.`.XX|.$XoX}.-X;X$X;X:X%X&XeXbXwXeXwXvXtX7XNXMXmXSXSXFXSXDXUXUXUXUXUXUXUXUXUXUXUXUXUXUXUXUXUXUXUXUXUXUXUXUXUXUXUXUXUXUXUXUXUXUXUXUXUXUXUXUXUXUX",
"UXUXUXUXUXUXUXUXUXUXUXUXUXUXUXUXUXgXiXQ.v.W A A c c 4 , a ) q 1 + * & & 1 e d d P B.I.R.I.J.J.H.9.*.:.;.B.P q C z.( A b A S S S ( / S b N.jXG 4 2 4 < < < < ; o < % % % % & & 8 & 8 8 8 8 8 w w y y i j j _ ......' %.%.<.<.y.y.<.'.`.`.oXXX{.{.-X}.*X-X>X$X;XrX&XbXtX9X0X0X0XwXvXlXHXAXNXBXVXAXZXDXUXUXUXUXUXUXUXUXUXUXUXUXUXUXUXUXUXUXUXUXUXUXUXUXUXUXUXUXUXUXUXUXUXUXUXUXUXUXUXUX",
"UXUXUXUXUXUXUXUXUXUXUXUXUXUXUXUXUXgXiXA.k.W D A x c 6 2 2 Z C 1 & * % * * & q q d B.J.E.I.I.H.H.u.*.:.q.;.q.L e R ^ U V A S U U T S F A ( ).Z.2 5 4 < < < < = o < % + % % % & 8 q 8 8 8 w w w w y y i j h j `  .` ..%.%.&.%.1.<.<.[.a.r.`.p.@XoX{.oX*X*X{.-X%X*X%XrX&XqX0X0X0XwXMXbXNXMXMXMXBXBXmXSXDXUXUXUXUXUXUXUXUXUXUXUXUXUXUXUXUXUXUXUXUXUXUXUXUXUXUXUXUXUXUXUXUXUXUXUXUXUXUXUX",
"UXUXUXUXUXUXUXUXUXUXUXUXUXUXUXUXUXdXiXb.k.U Y c c c M , 2 P M.r * X @ * * & q 3 q B.L.E.E.E.L.H.H.0.9.0.*.q.#.L C ! ! T U A A U S 5 S 7 z./.M.2 2 4 < + < < < o < = + + % % & 1 q t 8 w w w w w y y y j j j _ ` ` $.$.%.%.%.%.e.<.<.a.a.'.r.oX|.}.{.$X}.-X*X:X$X>X$XqXyX0X9XtXwXwX7XvXGXNXGXVXMXAXmXnXDXUXUXUXUXUXUXUXUXUXUXUXUXUXUXUXUXUXUXUXUXUXUXUXUXUXUXUXUXUXUXUXUXUXUXUXUXUXUX",
"UXUXUXUXUXUXUXUXUXUXUXUXUXUXUXUXUXdXiXA.W E I N c c M # 2 D./.H & X . @ @ @ & @ q 8.J.I.E.E.L.P.H.H.0.9.0.*.;.#.r ! ! T U b b A A e 5 b S F / V 4 4 1 < < < < < < = o + + % & 1 1 8 q w w w w y y w y j j k _ _ ` ..' o.$.%.%.e.y.1.<.s.a.[.r.oXoXoX{.oXoX{.*X>X,X>X,X%X%XtXtXwX8XtX8X8XvXNXAXZXmXAXSXZXDXUXUXUXUXUXUXUXUXUXUXUXUXUXUXUXUXUXUXUXUXUXUXUXUXUXUXUXUXUXUXUXUXUXUXUXUXUX",
"UXUXUXUXUXUXUXUXUXUXUXUXUXUXUXUXUXgX^.A.I I Y N c c M O ) R.B.P e * @ * + + @ . q B.J.L.E.1XE.P.H.H.i.0.q.q.*.q.H H ! ! T A c x V V x S S V Q M.5 < 4 X O < ; + o o + % % + & 1 & 8 q w w w w y y y y j j j k ` ....o.-.o.$.%.%.y.,.<.<.s.a.a.`.XXoX|.oX}.:X*X*X$X-X$X*XqX&XtX0X0XuX0X0X7XHXZXZXSXmXZXmXSXUXUXUXUXUXUXUXUXUXUXUXUXUXUXUXUXUXUXUXUXUXUXUXUXUXUXUXUXUXUXUXUXUXUXUXUXUX",
"UXUXUXUXUXUXUXUXUXUXUXUXUXUXUXUXcXiXm.A.h.W Y c c 6 < 2 ( R.N.! P 3 .   . @ @ X J B.V.L.I.E.E.P.H.H.H.u.u.9.*.:.;.H K ! F V A x A S b V K ( z./ 5 5 < 7 e o < O < o X X 1 1 1 & 1 8 q w w w w y y y y y j j k k _ _ ......o.%.%.%.,.y.e.y.s.a.'.p.XX$X}.|.{.|.>X*X-X,X;X2X2X$XyX9XuXuX0XtXlXlXZXnXSXmXAXZXZXDXUXUXUXUXUXUXUXUXUXUXUXUXUXUXUXUXUXUXUXUXUXUXUXUXUXUXUXUXUXUXUXUXUXUXUX",
"UXUXUXUXUXUXUXUXUXUXUXUXUXUXUXUXhXiXQ.A.k.I B I c A   3 B.(.8.8.! ! P e +   . @ P 8.q.J.L.E.E.E.P.K.H.H.u.0.:.7.q.J C ! ! A S x 7 b 7 x S ( z.^ N.; 5 O X < % X O < o 4 O 1 + 1 q q t q w w w w y y y y j l k k k k ` ..' ' -.-.-.1.&.,.y.s.d.a.`.`.r.oXoXoX{.>X*X=X:X*X%X%X>X%XqXuX9X9XwX7XvXAXBXBXZXZXZXHXZXDXUXUXUXUXUXUXUXUXUXUXUXUXUXUXUXUXUXUXUXUXUXUXUXUXUXUXUXUXUXUXUXUXUXUX",
"UXUXUXUXUXUXUXUXUXUXUXUXUXUXUXUXpXiXQ.v.h.W I B x 7 + L L.I.V.8.K P P K e & + * ;.8.q.J.P.P.L.E.P.P.H.H.H.i.9.9.*.;.H K ;.T V x 5 5 5 b b F ^ / j.C.5 7 4 X < + 4 4 O o . + + 1 q q t q w w w w y y y y j l k j k k ` ..' ' o.o.%.%.,.y.,.,.<.[.a.r.`.`. XoX@X|.OX=X{.;X>X%X-X*X$XqXqXtXtX7X7XBX7XNXAXZXZXZXZXZXFXUXUXUXUXUXUXUXUXUXUXUXUXUXUXUXUXUXUXUXUXUXUXUXUXUXUXUXUXUXUXUXUXUX",
"UXUXUXUXUXUXUXUXUXUXUXUXUXUXUXUXhX^.b.v.I I I M S 1 @  .u.E.B.B.;.! K Z Z K K J ;.8.q.H.B.H.H.P.L.P.J.H.H.u.9.9.7.9.P d K ^ S b b 5 5 b A S S T T z.S.< + < 4 < o O < o 4 X 1 % 1 q w w w w y y 9 y y y i j j j k k ` ..' ..o.o.,.$.-.%.y.<.,.<.[.a.r.XXp.oX{.oXOXOXOX%X*X-X%X-X;X%X-XeXeX0XuX8X9X8XGXnXZXDXZXHXZXSXUXUXUXUXUXUXUXUXUXUXUXUXUXUXUXUXUXUXUXUXUXUXUXUXUXUXUXUXUXUXUXUX",
"UXUXUXUXUXUXUXUXUXUXUXUXUXUXUXUXdX^.b.h.I D D D n p p :.:.H.B.V.B.! K K C d H J H P q.V.q.H.H.P.L.L.L.P.L.H.t.9.9.*.;.J C ^ Q b 5 b b A S U S T ( T N./.zX1 + < < = o < o ; + % 1 q r r w w y y w y y y u j j j k k ` ......o.o.' o.,.%.1.&.,.<.y.a.`.p.'.XXXXOXOXXXoX-X|.=X;X*X=X=X:X=XeX0XuXuXyX0XwXvXNXnXZXmXBXmXSXPXUXUXUXUXUXUXUXUXUXUXUXUXUXUXUXUXUXUXUXUXUXUXUXUXUXUXUXUXUXUX",
"UXUXUXUXUXUXUXUXUXUXUXUXUXUXUXhXiX^.v.I W E M V e @ 1X#X,.9.;.V./.;.K ! K K P d H P q.B.9.0.0.P.L.L.J.P.L.P.i.t.9.*.q.;.H K Q S b S S S ( ^ T / / z.N.S.).kX).S.7 7 < o   1 1 1 1 e d w w w w y y y y j j j k l k k _ ..........' ..$.[ %.,.,.1.<.y.d.`.p.p.`.XX|.{.}.}.-X|.:X=X=X%X:X=XeXqXqX9X9XeXtX8X8XvXmXmXmXAXZXSXFXUXUXUXUXUXUXUXUXUXUXUXUXUXUXUXUXUXUXUXUXUXUXUXUXUXUXUXUXUX",
"UXUXUXUXUXUXUXUXUXUXUXUXUXUXUXcXpXQ.b.W N M A V r 1X3X3X+X,.*.U.).M.K K Z K P Z H J q.B.;.q.0.P.P.J.H.H.P.P.u.u.0.i.*.;.K C T ~ S b 5 b z.z.F ~ z.N.z.Z._.).6XS./.jXzXUXUX= = - : e r w 9 9 y i y w y i k j j j k _ `  .' ` ' _ ......$.o.%.%.y.y.<.+Xp.a.`.XX`.@X|.}.}.{.oX=X}.=X=X=X=X:X*X$XyXyXeX9XtXVX8XVXBXAXMXHXZXDXFXUXUXUXUXUXUXUXUXUXUXUXUXUXUXUXUXUXUXUXUXUXUXUXUXUXUXUXUX",
"UXUXUXUXUXUXUXUXUXUXUXUXUXUXUXdXiXm.v.W D G U n 1X3XeX2X4Xs.*.V.(.B.K Z K Z C C d H 8.q.q.7.i.u.P.P.H.H.H.P.K.H.i.9.:.*.#.H C / ~ b 5 5 7 M.N.Q ^ N.N.N.S.jXkX_.~.jXkXkXUXUXUXUXv v n w 9 9 y u j 9 9 w j j g y y h _ ` ' ` _ ` ....$.$...-.-.$.y.,.<.a.s.s.a.`.p.@X|.|.}.|.@XoX;X%X*X;X%XqXqX9XqXeXqX0XeX8XwXCXMXmXmXSXSXFXKXUXUXUXUXUXUXUXUXUXUXUXUXUXUXUXUXUXUXUXUXUXUXUXUXUXUXUX",
"UXUXUXUXUXUXUXUXUXUXUXUXUXUXUXfX^.n.k.I D G S n p #X9X9X%X'.:.B.(.N.! Z Z Q V Z s H q.q.*.:.i.u.u.H.H.H.H.J.K.H.u.i.:.*.#.J C K ^ S 7 2 7 ( M.Q S T R ;.N./.kXkX(.).kXzXUXUXUXUXUXUXUXL h 9 y k j y y y j g h h h _ _ _ _ _ _ X. .` ..@...$.=.&.y.y.y.y.d.s.a.p.p.@X{.@XoX|.oX|.oX}.>X%X*X*X;X;X%XyXrXeXtXvX0X7XbXAXGXnXZXmXSXUXUXUXUXUXUXUXUXUXUXUXUXUXUXUXUXUXUXUXUXUXUXUXUXUXUXUX",
"UXUXUXUXUXUXUXUXUXUXUXUXUXUXcXfX^.m.k.I D D A e w +XyX=X4X`.2.#.U.S.! K Z P Z C s J q.q.*.*.t.u.u.H.P.H.H.J.P.K.H.u.9.*.#.+.H C ! K b 4 7 G ( K Q K R N.Z.~.jXjX(.U.<XxXxXUXUXUXUXUXUXR 9 h i 8 u i y y y y u j y h h h _ ` ..$.` ` ......$.$.-.%.1.,.,.y.a.s.'.`.p.`.r.XX@XXXoX}.%X|.>X*X%X;X%XyX&X9XeX0X9XtXvX7XNXmXAXZXSXnXDXDXUXUXUXUXUXUXUXUXUXUXUXUXUXUXUXUXUXUXUXUXUXUXUXUXUX",
"UXUXUXUXUXUXUXUXUXUXUXUXUXUXhXfXQ.A.h.I D D N < u =.2X$X5XXXd.X.B./.;.P K Z Q s s H 8.q.*.*.9.i.u.H.P.P.H.H.P.P.P.H.0.*.*.#.H d Z K G 5 7 7 F F T S T ;.;.Z.<XkX6XR._.kXzXUXUXUXUXUXUXUXr 9 y h y y y y w y u j k k h h ` ` _ _ ` ` ..@.$...$.-.%.%.%.,.y.<.<.a.r.`.`.r.`.r.{.@XoXoX{.|.*X*X=X*X*X;X%XrXqXrX0X8X8XvXHXmXmXZXSXZXSXDXUXUXUXUXUXUXUXUXUXUXUXUXUXUXUXUXUXUXUXUXUXUXUXUX",
"UXUXUXUXUXUXUXUXUXUXUXUXUXUXgX^.Q.b.W W B B N # j t.&X:X%XOX3...J (.B.! K K P d s d #.;.;.*.9.t.i.H.P.H.H.H.P.J.P.H.i.9.*.#.J j r K Z 7 7 < F Q C b C C K N.).kX<XV.S.sXzXxXUXUXUXUXUXUXT 0 y y i y y u u u u u k k k _ ` ` _ _ _ ` ` ..$.$.$.%.%.%.%.1.<.,.1.a.'.p.a.`.p.OXp.XX|.|.$X X>X*X*X;X;X$X:X%X9XqX9XtXvX8X7XBXMXAXmXZXmXnXDXUXUXUXUXUXUXUXUXUXUXUXUXUXUXUXUXUXUXUXUXUXUXUX",
"UXUXUXUXUXUXUXUXUXUXUXUXUXUXdX^.A.k.~ W B B , > ;.=.3X;X*X$X+X2.k J.U.! K ! Z C d f +.#.*.*.q.i.9.u.H.H.H.H.J.P.P.H.u.0.*.#.+.J r C G b 7 < V Q S e C K K ;.U.).6XU.U.(.zXzXUXUXUXUXUXUXUXj 9 0 i y y y u u u u y j j k k k _ .._ _ _ ` ....o.-.-.%.%.%.1.<.y.s.<.a.p.[.p.`.'.XX`.@X XoXoX*X}.%X*X2X*X;X-X9XqX0XtXeXwX7XMXmXGXZXAXAXSXFXUXUXUXUXUXUXUXUXUXUXUXUXUXUXUXUXUXUXUXUXUXUX",
"UXUXUXUXUXUXUXUXUXUXUXUXUXUXdX^.A.v.k.W I B = V B...7X2X2X=X4X2.#.;./.N.! ! K C e r #.#.#.#.9.0.t.i.u.H.P.P.J.J.L.P.H.u.:.*.@. .r s V V 4 4 5 S F G K P Z Z N.).<XU.B.V.zXxXxXUXUXUXUXUXUXm r l y y y y i u u y u k k j h h h h _ ` _ _ ' ..' ' =.&.%.%.%.%.,.y.d.y.a.<.a.a.p.`.XXXXoXoX|.>X X;X=X%X*X$X2X*X$XqX8X0X0XtXtX7XvXAXmXMXZXZXSXFXUXUXUXUXUXUXUXUXUXUXUXUXUXUXUXUXUXUXUXUX",
"UXUXUXUXUXUXUXUXUXUXUXUXUXUXdXQ.b.b.k.I W B O ( q.:.7XtXeX3X&XG.q.! R.V.8.! ! s r d #.;.#.+.*.9.9.t.u.H.P.P.H.H.L.P.P.H.9.7.*.+.j e C G 7 7 < 7 z.Q Q ! ! P 8./.<X(.q.J.~.zXxXUXUXUXUXUXUXUXn u y y y y y y i y u u u k ..` k h i ..` _ ........-.' o.&.%.%.%.,.,.y.y.y.a.s.`.`.].XXXXoXoXoX{.-X}.*X:X=X$X;X>X%XqX0XtX8XwXtXvX7XBXBXZXmXBXmXFXKXUXUXUXUXUXUXUXUXUXUXUXUXUXUXUXUXUXUX",
"UXUXUXUXUXUXUXUXUXUXUXUXUXhXiXQ.v.k.W W I c x N.q.-.7XvXtX7X3X#Xw e N.U.8.;.P C d d #.+.+.+.:.9.6.t.t.u.P.H.H.H.J.L.P.P.0.9.*.#.J r e e 7 4 5 7 ( M.! ! 8.;.8.S._.).8.q.E.kXxXUXUXUXUXUXUXUXUXt u 9 g y 9 0 y i j u u k j k k h h ` ..` ` ` ....' -.$.o.%.%.%.e.y.,.<.d.y.d.s.a.`.p.`.|.|.oXoXoX*X}.*X;X=X-X%X%X9XqXqX0XtX8XGX7XMXmXAXmXmXBXBXFXKXUXUXUXUXUXUXUXUXUXUXUXUXUXUXUXUXUX",
"UXUXUXUXUXUXUXUXUXUXUXUXUXgXiXQ.v.h.W W I c F V.*.:.#XtXNXNX' j q 3 e ;.B.N.! Z d d P P  .+.*.*.9.i.t.u.H.H.H.H.J.J.L.P.H.9.*.@.#.d q d 7 5 x 7 F M.! ! P K N.R./.(.#.q.H.1XzXKXUXUXUXUXUXUXUXm u 9 9 g 0 0 h 9 j u u k j h h h i _ _ _ ` ........$...' &.&.%.&.,.y.y.<.d.d.a.'.a.p.`.XXoXoXoX|.4X{.>X|.*X*X-X>X-X-X9XtX0XtX8X0X7XMXmXBXAXBXMXmXSXKXUXUXUXUXUXUXUXUXUXUXUXUXUXUXUXUX",
"UXUXUXUXUXUXUXUXUXUXUXUXUXdX^.A.v.W I I N A ;.J.F.-.%.vXnX_ i w r e 3 C N./ H s C d P J J +.@.*.9.i.t.i.u.u.H.H.H.J.I.J.P.0.9.*.#.l r q e 7 7 x G Q C Z ! ! ;.! V.R.8.*.u.P.<XkXUXUXUXUXUXUXUXUXn w l 0 0 9 0 0 y y u k j j k k k k k k _ ` ` ] _ ......$.$.%.,.%.,.y.1.y.1.<.d.a.p.p.`.XXoXXXXX{.$X}.{.-X>X*X$X*XqX%XtXqX9XtXtXwX7XvXBXVXmXZXZXnXDXDXUXUXUXUXUXUXUXUXUXUXUXUXUXUXUX",
"UXUXUXUXUXUXUXUXUXUXUXUXUXdX^.n.h.I I I c A N.V.9.t.i.y.lXl L H e 3 C e / M.Z Z C d P J J l #.*.9.i.9.t.u.u.H.H.H.J.I.J.P.u.9.=.@.#.g & n b 4 V S / ! ! P ! M.M.D.S.q.g q.J.<XkXzXUXUXUXUXUXUXUX: r w p 0 0 0 0 y y u k u j k k k k k _ _ ` ` _ h ..$.$.$.$.%.,.%.&.,.i.1.<.<.<.a.'.a.p.[.XXXXoXoX|.XXoX}.{.>X*X-X*XqX%XqXtXeX9X0XvX8XCXAXAXZXZXGXmXmXUXUXUXUXUXUXUXUXUXUXUXUXUXUXUX",
"UXUXUXUXUXUXUXUXUXUXUXUXUXdXQ.n.v.W I I c G B.H.H.t.t.t.q.w q + 3 3 V s K Z.;.K C C P J l l #.*.:.i.9.9.i.i.u.u.H.J.J.I.P.H.0.9.*.*.l q q V b b b ( S.N.P ! N.S.Z.V.R.+.B.F.E.<XkXUXUXUXUXUXUXUXUXL r  .w 9 0 0 g i k k i i h h i i k _ _ ` ` ` ` ......$.$.-.-.%.%.%.y.,.y.<.<.<.a.a.p.p.`.p.`.@XXX{.oX}.;X}.>X*X:X$X%X%X9XqXqX0X0X0X0X7XHXnXDXZXVXBXBXSXUXUXUXUXUXUXUXUXUXUXUXUXUX",
"UXUXUXUXUXUXUXUXUXUXUXUXUXiXA.v.k.W I I x V B.J.H.i.9.q.H K Z 7 4 7 2 s s 8.D.K H C #.J l l #.*.:.9.9.9.t.i.u.u.0.H.J.I.L.L.u.9.6.@.#.j 1 e S 7 4 7 ! P K / ! z.;.N.R.+.;.B.I.<X6XUXUXUXUXUXUXUXUXn n r 8 g g g g i k k i i h h y i k k _ k _ _ ` ` ......o.-.-.%.&.%.%.y.,.%.<.<.a.'.'.'.`.`.`.r.p.@XXXoX{. X}.-X$X-X;X;X>X9XqX0XqX9XyX0XMXZXZXAXAXGXBXAXDXUXUXUXUXUXUXUXUXUXUXUXUX",
"UXUXUXUXUXUXUXUXUXUXUXUXUXiXm.v.~ W I I x 7 ;.J.0.u.0.q.;.e F V < < o 7 7 F B.! K H #.+.l l #.*.*.0.9.9.t.t.u.u.H.V.V.L.I.I.H.0.6.$.*.+.q 5 b b 7 2 3 3 s K Z ! P 8.J.N.X.B.J.E.<X_.UXUXUXUXUXUXUXUXR n L g 9 g y i i k i h h h h j j k j j h k _ ` ....' ..-.%.-.&.%.%.y.1.%.<.<.<.d.a.p.a.`.`.`.@X`.{.oXoX}.oX-X*X*X*X$X%X;XeX9XrX9X8XtXNXtXMXmXBXmXnXnXDXZXUXUXUXUXUXUXUXUXUXUXUX",
"UXUXUXUXUXUXUXUXUXUXUXUXUXfXm.h.W W I I A 7 ;.H.0.u.7.q.8.K E A V < < 7 7 e ! P H C P J J  .@.@.*.0.9.9.t.t.i.i.P.H.J.J.I.L.J.u.6.6.*.+.J t 1 S x 7 3 e V e V Z H ! N.U.J :.0.E.<XsXUXUXUXUXUXUXUXUXb n j w y y g i j k g h h y j i i j j j k _ .._ ] ` ..o.$.o.$.[ [ 1.%.%.%.y.<.<.y.a.a.a.'.p.a.p.`.OX`.}.oX}.|.:X*X;X*X;X*X*X*XrXqXqX9XtX0XtXMXmXAXZXAXnXGXSXUXUXUXUXUXUXUXUXUXUX",
"UXUXUXUXUXUXUXUXUXUXUXUXUXUX^.h.h.k.B I D < ;.P.u.9.t.9.8.K U W U V < % 3 * s K H H ;.;.J j ` *.@.*.9.t.t.6.t.t.u.u.H.J.I.I.I.P.9.=.=.*.#.r 8 C G 7 7 7 5 e n C C K R Z.J ;.F.J.1X<X_.UXUXUXUXUXUXUXUXr r g y u y y u j g h i u j j i j j k k k _ _ ] ` ....' ' $.o.%.&.%.%.%.<.<.<.<.<.s.s.s.<.'.a.`.p.OXoXoX}.|.:X|.:X*X-X-X*X;X*XrX9X9X0XtX7XtX7XAXmXZXZXMXBXmXIXUXUXUXUXUXUXUXUX",
"UXUXUXUXUXUXUXUXUXUXUXUXUXUXpXl.h.I ~ M G 3 ! P.u.9.=.*.q.;.T A M x 7 3 3 * & q Z H ! #.J  . .@.@.*.=.9.9.6.t.t.i.u.H.H.L.I.L.J.i.t.=.=.*.l r e C x 4 < 4 e n C G F R N.#.+.V.J.E.<X<XUXUXUXUXUXUXUXUXn J w t u w u j j y y u k j j i j k k _ _ _ _ ` ' ' ' ' ' o.o.-.-.o.%.%.,.y.%.d.<.d.s.<.<.a.p.'.`.].{.4XoXoX{.*X{.2X-X*X:X=X=XqXrXqXqX0XtXtX7X7XlXMXAXZXmXBXVXDXUXUXUXUXUXUXUX",
"UXUXUXUXUXUXUXUXUXUXUXUXUXUXUXaXI M N D G a ! 0.t.6.&.$.*.*.! V x V 7 7 3 1 % % s Z ! #.J  .....-.*.=.=.9.t.t.9.t.u.H.H.J.I.I.J.u.t.=.=.*.#.j 1 C V 7 < 5 b S K S S T z.8.l q.F.E.<X).UXUXUXUXUXUXUXUXUXr l u t y y j j y y u k u j j j k k _ _ _ _ ` ......' ..' ..o.o.[ %.%.%.y.%.<.1.%.s.<.[.y.'.p.r.`.`.`.oXoX$X{.}.%X}.>X%X=X$X>X$X%XyX8X0X0XwXGX7XGXmXMXMXmXGXSXKXUXUXUXUXUXUX",
"UXUXUXUXUXUXUXUXUXUXUXUXUXUXUXUXpXC.h.B I V P H.7.} &.' $.#.+.H G G V 7 7 4 1 1 1 d ;.#.J  ...@.@.*.=.=.6.9.9.6.t.u.H.H.J.I.I.I.H.9.6.9.*.*. .q r G b 5 5 b S F F S U ^ B.l 8.B.J.(.<XpXUXUXUXUXUXUXUXUXn 9 u u y y y y j j j j j j j j j k k k _ _ ` ` ' ..' ..' ..o.o.-.%.%.%.%.%.%.,.1.<.1.<.d.y.d.[.`.p.`.XXXX|.|.@X}.{.;X-X;X:X*XqXrXqXqXqX0XtX8XwX7XGXMXMXMXMXZXSXDXUXUXUXUXUX",
"UXUXUXUXUXUXUXUXUXUXUXUXUXUXUXUXUXUXUXUXUXUXC.8.:.&.} [ } ` ` l d V V b b 5 < < % q P #.J l ` @.@.*.=.=.=.6.t.9.9.u.H.H.J.L.U.I.P.i.q.9.7.:.#.J q C V 7 5 x b A F A A ( B.P #.0.V.E.<XsXUXUXUXUXUXUXUXUXUXu j y y 0 0 y j l h j k j j j j j k k k _ _ ` ` ' ..........$.-.$.$.$.&.&.%.%.,.%.y.<.y.1.<.a.'.a.p.[.@X{.XXoX{.@X X}.*X$X*X-X%X%X>X9XeXeXtXvX8X7XwXNXHXZXGXmXnXUXUXUXUXUX",
"UXUXUXUXUXUXUXUXUXUXUXUXUXUXUXUXUXUXUXUXUXUXUXx.;.@.[ [ $.' { { d G V V V x < < < 3 H P J l l +.@.*.=.=.=.6.9.9.9.0.u.H.H.J.L.I.L.H.0.q.7.*.*.*.j r d b 5 5 b x V x x T ;.#.J q.J.E.(._.sXUXUXUXUXUXUXUXUXR r 9 y 0 y y g j j j k j j j j k k _ k _ _ _ ` ` ` ` @.' ' ..$.' o.$.-.%.%.,.,.y.,.,.,.y.,.1.s.a.r.p.r.@XXX@XoX{.oX;X}.>X-X-X=X*X9X-XrX9XrX9XeXvX7XGXMXMXNXMXnXSXPXUXUXUX",
"UXUXUXUXUXUXUXUXUXUXUXUXUXUXUXUXUXUXUXUXUXUXUXx.;. ._ ] ..' ..+.H ) V 7 V b 7 4 3 3 H P J +.` +.@.$.-.-.=.6.9.6.9.9.0.H.H.J.J.I.L.P.0.q.9.*.*.*.+.r r C 5 5 x 7 x 4 5 V K P g q.q.L.<X)._.UXUXUXUXUXUXUXUXj.L i y y g 0 y y u j j j j j j j k k k _ _ _ _ _ ` ` ....` ` ..' $.o.=.&.o.%.[ ,.%.1.y.e.e.y.<.s.[.r.`.p.`.r.XX{.XX|.}.|.*X-X-X-X-X*X-X9XqX0XtXeX0X7XGXNXGXMXAXnXFXLXUXUX",
"UXUXUXUXUXUXUXUXUXUXUXUXUXUXUXUXUXUXUXUXUXUXUXUXj.L l y h h k l H ) Z s V A x ; 7 q H P J +.+.@.@.$.$.*.=.9.9.=.9.9.9.H.H.H.J.I.I.I.H.q.9.6.*.*.*.y w C 1 < 5 5 7 4 7 e r J w 7.u.q.(.<X).pXUXUXUXUXUXUXUXUXJ g y y 0 0 y y y u j j j j j j h h k _ ` _ _ _ ` ` ` ....` @.' $.' ' o.=.$.i.%.y.%.%.e.%.,.<.s.d.s.p.r.`.@Xr.@XoX|.}.}.-X*X$X=X-X*X=X*XrXqX9X0XtXtX7XBXmXMXmXSXSXFXPXUX",
"UXUXUXUXUXUXUXUXUXUXUXUXUXUXUXUXUXUXUXUXUXUXUXUXUXR j l 0 l j H d Z Z s T S V 7 3 % H d +.h +. .#.@.@.*.=.=.=.6.9.9.9.u.H.H.H.I.I.I.P.0.9.6.=.*.#.#.w & r r 1 ; ; 7 & 1 L L h *.q.u.E.E.<X).UXUXUXUXUXUXUXUXx.g i u 0 0 y y w w j j j j i i k k _ k ` _ k ` k _ ..` _ _ ......' $.o.$.&.[ &.$.y.%.%.%.e.<.<.s.s.a.'.p.`.].{.`.oXoX}.oX$X|.:X-X-X-X*X=XrXqX0XqX0X8X7XMXAXnXAXSXmXSXSX",
"UXUXUXUXUXUXUXUXUXUXUXUXUXUXUXUXUXUXUXUXUXUXUXUXUXUXS K ;.L b b Q Q V V b V 5 7 1 1 H d l l l #.@.@.@.*.*.*.=.6.9.9.9.0.u.H.H.L.I.I.L.u.9.6.=.*.:.9.l @ 8 H P K K C H K j 8 h u.u.0.L.E.(.).UXUXUXUXUXUXUXUXUXj u y 0 0 0 y y j u i j j i j k k _ k ` _ k ` _ ` ..` _ ` ........' $.$.-.$.%.&.&.,.y.%.<.y.<.,.d.a.p.[.p.p.].OXOXoXoX}.>XoX*X*X%X%X-X*X*X%XrXqXqXtX8X7X7XAXAXNXAXmXAX",
"UXUXUXUXUXUXUXUXUXUXUXUXUXUXUXUXUXUXUXUXUXUXUXUXUXUXUXUXUXUXUXUXUXk.Q F V 7 e 7 3 % P H j j j  .+.#.*.*.$.-.=.6.=.6.9.9.9.0.H.J.I.U.I.H.t.9.6.=.*.=.9.*.j @ . q q e q @ @ y *.6.9.0.P.E.E.).pXUXUXUXUXUXUXUXUX;.L L h 0 y y y w i i j j j j k k k k ` _ k _ _ ` ` _ _ `  .......' $.-.o.-.' ,.$.%.,.,.%.y.,.y.y.'.a.3.[.r.`.'.OXoX XoX|.{.:X{.;X:X-X$X*X*X%XqX0X0XtXtX7X7X7XHXZXZXZX",
"UXUXUXUXUXUXUXUXUXUXUXUXUXUXUXUXUXUXUXUXUXUXUXUXUXUXUXUXUXUXUXUXUXUXk.k.U 7 7 3 7 % K P j j j g l #.*.*.$.*.-.=.=.=.9.9.9.0.H.H.L.U.I.P.i.9.6.=.=.$.*.0.0.#.g 8 w 8 9 0 k :.t.6.6.9.P.E.E.(._.UXUXUXUXUXUXUXUXUXL j 0 0 y g u y i i j j j j k j k k _ k k k _ _ ` ` `  . .` ` ..$...o.' -.' %.%.%.,.<.y.[ <.<.1.s.s.y.p.+Xp.p.'.`.oX{.oXoX|.;X|.*X$X>X>X>X$XyX9XeX9X0X0XCXwXMXZXZXZX",
"UXUXUXUXUXUXUXUXUXUXUXUXUXUXUXUXUXUXUXUXUXUXUXUXUXUXUXUXUXUXUXUXUXUXl.l.Y < V % 6 4 1 C C j g h h ` #.*.*.*.-.=.=.=.6.9.6.9.H.H.L.U.I.P.u.t.6.6.=.=.6.*.*.t.i.9.q.*.*.9.i.:.$.-.6.9.u.L.(.(./.UXUXUXUXUXUXUXUXUXR L y 0 y g j u y y j j i j j i j k k j h k ` `  . .......` ` ..$.' $.' $.[ } %.&.[ <.<.<.%.,.,.%.s.d.<.a.a.'.p.r.XX@X{.@X|.oXoX;X}.*X*X*X;X$X*XrXeXyXqX9X9XwXHXZXHX",
"UXUXUXUXUXUXUXUXUXUXUXUXUXUXUXUXUXUXUXUXUXUXUXUXUXUXUXUXUXUXUXUXUXUXUXUXUXc 6 6 2 7 + + ! j g g g h  .#.@.$.*.-.=.=.6.9.9.9.i.H.J.L.I.P.H.i.9.6.t.=.=.6.=.$.-.=.@.9.=.$.=.6.=.t.&.6.0.J.E.E.W./.UXUXUXUXUXUXUXUXUXL l h y y y w y y i j i j j i j k k h h j  .` _ ` `  .` ` ` ' ' ' $.' ' =.} $.%.1.%.,.<.y.%.<.%.y.<.y.<.s.+Xp.'.`.XXXXXXoXXXoX|.}.-X*X>X*X%XyX%XyX2XqX0XtXwXwXbXNX",
"UXUXUXUXUXUXUXUXUXUXUXUXUXUXUXUXUXUXUXUXUXUXUXUXUXUXUXUXUXUXUXUXUXUXUXUXUXN 6 M 2 6 4 X K d j w g g h +.#.@.@.$.-.&.=.6.9.9.t.H.V.U.I.L.P.u.t.6.&.=.=.6.=.=.6.6.*.6.=.&.t.=.$.&.&.t.i.J.I.E.W.(.UXUXUXUXUXUXUXUXUXL j g y y y y i i i j i j j i j _ j h i h ` _ _ _ _ ` ` ` ` ' ' ' ' ' ' $.$.$.%.,.,.[ ,.y.1.%.y.%.y.1.d.<.a.d.p.`.`.XX@XoXXXXX|.oX}.}.%X-X:X*XrX$XyXeXwXeX0X8XtXVX",
"UXUXUXUXUXUXUXUXUXUXUXUXUXUXUXUXUXUXUXUXUXUXUXUXUXUXUXUXUXUXUXUXUXUXUXUXUXUXM 7 6 6 < 4 X K l g j g g l +.' { $.$.*.=.6.t.6.6.u.J.J.I.I.L.H.9.6.=.&.$.&.6.&.&.&.=.=.&.&.=.,.t.t.&.t.:.F.V.E.W.I.!.UXUXUXUXUXUXUXUXB. .y 0 i i i j i j j i j j i j _ h h y y k k ` _ ` ` ` ` ' ' ..' ] ' $.' $.$.} [ &.&.%.y.y.y.%.,.y.,.<.<.1.'.a.'.`.].`.r.OXXX@X XoX;X}.%X*X-X*X-X%XeXtXeX0XtX8XuX",
"UXUXUXUXUXUXUXUXUXUXUXUXUXUXUXUXUXUXUXUXUXUXUXUXUXUXUXUXUXUXUXUXUXUXUXUXUXUX- 2 6 < 2 + + @ ! d l g g h _ ` $.{ $.*.=.9.9.9.t.t.H.L.I.I.J.H.0.7.=.&.=.=.=.=.=.6.=.=.=.=.=.6.6.=.=.6.t.i.H.P.P.J.A.UXUXUXUXUXUXUXUXUXJ ` y h k k y y y y i k i j y k _ k h k .._ ` _ _ ' _ ......` ' ' ' ' $.' -.$.$.o.%.-.-.,.,.1.,.<.y.[ ,.<.s.d.'.a.p.'.p.p.`.XXXX{.|.{.}.-X=X=X*X%X%XrXrX9X9X0X0X",
"UXUXUXUXUXUXUXUXUXUXUXUXUXUXUXUXUXUXUXUXUXUXUXUXUXUXUXUXUXUXUXUXUXUXUXUXUXUXUX7 2 X 2 + 1 X Z #.w g l ' ` ` { ' *.*.:.9.9.6.t.t.u.J.I.I.L.J.H.q.=.&.&.=.=.=.=.=.=.&.=.=.=.6.6.6.=.6.t.t.u.H.P.J.S.UXUXUXUXUXUXUXUXUX;.g g h u k y g j j i k i k i i h _ k h _ _ k _ _ ' _ ] ] ] ] ` ' ....$.' ..o.-.-.-.%.%.,.,.1.1.,.y.1.<.<.y.s.[.p.'.p.].`.OX`.XX@XoXoXoX$X-X;X=X:X*X*X9XqXqX9X0X",
"UXUXUXUXUXUXUXUXUXUXUXUXUXUXUXUXUXUXUXUXUXUXUXUXUXUXUXUXUXUXUXUXUXUXUXUXUXUXUX, 3 % 7 + 1 + & ! #.#.@.@.' ' $.*.*.=.9.9.9.6.t.9.i.H.J.L.I.L.H.q.6.=.&.&.=.=.=.=.=.&.=.=.=.6.6.6.=.6.6.t.i.H.P.J.S.!.UXUXUXUXUXUXUXUXUX#.y h k i i j j j i k k k k k k  ._ k _ _ k _ ` .._ ] ` ` ` ` ' $.' $.' ' $.-.%.&.-.%.,.,.1.%.,.<.<.y.<.<.1.d.'.'.p.'.`.`.`.XX`. XoX{.$X-X*X*X=X:X*X*X-XqXqXqX",
"UXUXUXUXUXUXUXUXUXUXUXUXUXUXUXUXUXUXUXUXUXUXUXUXUXUXUXUXUXUXUXUXUXUXUXUXUXUXY M 3 2 7 + 1 1 X q ;.*.@.=.*.$.$.-.6.6.9.9.6.=.t.9.0.H.P.J.I.L.J.q.9.=.&.&.=.=.=.=.&.=.=.=.=.=.6.6.=.6.6.9.0.H.P.J.V.S.UXUXUXUXUXUXUXUXUX;.l h i i j j j j y j k _ k _ _ _ _ `  .h _ ` ` .._ ` ......` ' ..] ..' ' ....[ $.o.o.%.%.%.%.e.<.<.<.y.<.y.1.a.'.a.3.p.'.p.`.XXoXoX|. X>XoX=X:X*X=X>X$X-X9X0X",
"UXUXUXUXUXUXUXUXUXUXUXUXUXUXUXUXUXUXUXUXUXUXUXUXUXUXUXUXUXUXUXUXUXUXUXUXUXUXA > < < 4 < ; 1 + @ q.H.9.6.=.t.t.u.9.9.9.9.=.=.6.6.0.H.J.L.I.I.J.H.9.6.=.&.=.6.=.=.&.=.=.=.=.=.6.6.6.6.6.9.9.H.P.L.J.S.!.UXUXUXUXUXUXUXUXUX .k i k j y i j y k k _ k _ k _ k _ ` i ` _ _ .._ ` ` ..@...' ..] ....' $.$.[ -.-.%.,.%.%.%.y.,.<.,.<.<.y.<.s.y.<.r.'.p.a.`.r.XX@XoXoX|.*X|.*X*X=X$X*X%XqXqX",
"UXUXUXUXUXUXUXUXUXUXUXUXUXUXUXUXUXUXUXUXUXUXUXUXUXUXUXUXUXUXUXUXUXUXUXUXUXl.c # % # < 7 + X 2 & 9 q.u.9.9.i.=.-.9.9.9.9.=.=.=.6.9.0.J.L.I.L.J.P.i.9.=.&.=.t.6.=.&.=.=.=.=.=.6.6.6.6.6.6.9.H.P.L.J.V.S.UXUXUXUXUXUXUXUXUXJ k _ i u w i l i  ._ k k i i _ _ h k h  ._ _ ..` ..` _ ........' $.' ' ' ' ] ' [ o.%.[ %.%.<.,.e.<.<.1.<.[ 1.[.3.r.<.d.a.r.'.`.3.|.}.oX5XoX:X}.*X-X:X$X,X,X"
};
