/* XPM */
static const char *xpm__9_sgun_prepreload2[] = {
/* columns rows colors chars-per-pixel */
"173 139 256 2 ",
"   c #030202",
".  c #0B0401",
"X  c #0B0A05",
"o  c #04050A",
"O  c #06090A",
"+  c #0C0C0C",
"@  c #080709",
"#  c #120D0D",
"$  c #170A06",
"%  c #0D110D",
"&  c #0C1206",
"*  c #13120D",
"=  c #1C130D",
"-  c #161509",
";  c #0D0D12",
":  c #070916",
">  c #120E12",
",  c #170E16",
"<  c #0E1212",
"1  c #0D1419",
"2  c #131313",
"3  c #1B1413",
"4  c #151915",
"5  c #1B1B15",
"6  c #14151A",
"7  c #1A161A",
"8  c #161A1B",
"9  c #1B1B1B",
"0  c #250A06",
"q  c #23140D",
"w  c #29180C",
"e  c #221412",
"r  c #241B15",
"t  c #2D1B14",
"y  c #231D1B",
"u  c #2B1C1B",
"i  c #291618",
"p  c #321D14",
"a  c #331E19",
"s  c #391C17",
"d  c #2F160F",
"f  c #1E211B",
"g  c #1A210F",
"h  c #23221D",
"j  c #2B231C",
"k  c #282618",
"l  c #342115",
"z  c #3A2216",
"x  c #34221A",
"c  c #3C231A",
"v  c #392B1C",
"b  c #352B14",
"n  c #1C1C22",
"m  c #171A24",
"M  c #0F0F28",
"N  c #221E23",
"B  c #271D25",
"V  c #2B1C2C",
"C  c #1D2224",
"Z  c #1C242A",
"A  c #1B2629",
"S  c #1E2932",
"D  c #232323",
"F  c #2B2424",
"G  c #2B2A25",
"H  c #23252A",
"J  c #2A252B",
"K  c #252A2C",
"L  c #2B2A2C",
"P  c #252924",
"I  c #332B24",
"U  c #3C2D24",
"Y  c #332D2C",
"T  c #362626",
"R  c #2C312A",
"E  c #3B322C",
"W  c #37342A",
"Q  c #242C33",
"!  c #2C2C32",
"~  c #272837",
"^  c #332D32",
"/  c #392C34",
"(  c #2D3133",
")  c #2B343B",
"_  c #293539",
"`  c #333334",
"'  c #3B3433",
"]  c #34353A",
"[  c #3B3B3C",
"{  c #38393A",
"}  c #43251C",
"|  c #442A1D",
" . c #4B2B1D",
".. c #4B2719",
"X. c #522F1C",
"o. c #432C23",
"O. c #4B2D22",
"+. c #472A27",
"@. c #542D25",
"#. c #4C3324",
"$. c #47352A",
"%. c #533324",
"&. c #5A3425",
"*. c #54352A",
"=. c #5C352A",
"-. c #543B2B",
";. c #5B3D2B",
":. c #573A26",
">. c #433C3B",
",. c #483A34",
"<. c #543D32",
"1. c #593B35",
"2. c #492C33",
"3. c #633C2B",
"4. c #6A3D2C",
"5. c #643727",
"6. c #673C34",
"7. c #6E372A",
"8. c #471C17",
"9. c #3C4338",
"0. c #5D412D",
"q. c #54412B",
"w. c #484439",
"e. c #544234",
"r. c #5C4333",
"t. c #5D4A3B",
"y. c #58473A",
"u. c #4A472F",
"i. c #61412E",
"p. c #69422A",
"a. c #7A452D",
"s. c #624433",
"d. c #634C3D",
"f. c #664537",
"g. c #7C4533",
"h. c #7C4A34",
"j. c #7C4C3A",
"k. c #754634",
"l. c #6D513B",
"z. c #2D3943",
"x. c #333C44",
"c. c #3B3C42",
"v. c #363948",
"b. c #2F324C",
"n. c #2E3258",
"m. c #443D44",
"M. c #553D47",
"N. c #623D43",
"B. c #39434A",
"V. c #3B4A55",
"C. c #3E515B",
"Z. c #3E4662",
"A. c #434245",
"S. c #44454B",
"D. c #4A4847",
"F. c #564A45",
"G. c #5A5548",
"H. c #484A55",
"J. c #534D53",
"K. c #475259",
"L. c #585658",
"P. c #4F544D",
"I. c #634E42",
"U. c #694845",
"Y. c #774A46",
"T. c #645244",
"R. c #695445",
"E. c #64554A",
"W. c #6A564A",
"Q. c #655A4C",
"!. c #6A5A4B",
"~. c #695946",
"^. c #6B5D53",
"/. c #645C57",
"(. c #735550",
"). c #5A624B",
"_. c #6A6358",
"`. c #756559",
"'. c #6F6A53",
"]. c #485867",
"[. c #565965",
"{. c #4C5169",
"}. c #665D66",
"|. c #566776",
" X c #53636C",
".X c #696667",
"XX c #766B67",
"oX c #7B736B",
"OX c #7A7576",
"+X c #6C6B73",
"@X c #834B37",
"#X c #85533A",
"$X c #94543B",
"%X c #98583D",
"&X c #874C30",
"*X c #A05B3E",
"=X c #945B43",
"-X c #9B5C43",
";X c #965A47",
":X c #89574F",
">X c #A35D48",
",X c #9A624A",
"<X c #946656",
"1X c #AA674C",
"2X c #AC6B55",
"3X c #B36D54",
"4X c #B46C59",
"5X c #B47156",
"6X c #B7735A",
"7X c #B26E50",
"8X c #847B78",
"9X c #8F7068",
"0X c #A77668",
"qX c #B87766",
"wX c #A7716B",
"eX c #815C6D",
"rX c #C07A6E",
"tX c #8B827D",
"yX c #BA8A76",
"uX c #BB9179",
"iX c #C6886D",
"pX c #C48B74",
"aX c #C88B77",
"sX c #C8927B",
"dX c #D39077",
"fX c #677888",
"gX c #6E778E",
"hX c #61708B",
"jX c #857D81",
"kX c #74849A",
"lX c #718294",
"zX c #7989A7",
"xX c #7788AB",
"cX c #898587",
"vX c #948F91",
"bX c #B3938B",
"nX c #8992B1",
"mX c #A7A4A7",
"MX c #AFACB5",
"NX c #BCA190",
"BX c #C99786",
"VX c #C99088",
"CX c #CCA797",
"ZX c #D5AB9A",
"AX c #D9B29D",
"SX c #D1A88F",
"DX c #E2AF9A",
"FX c #D4ACA6",
"GX c #DAB4A6",
"HX c #CDB4B1",
"JX c #E4B6A7",
"KX c #ACAFCA",
"LX c #BCC5D5",
"PX c #D6C9D1",
"IX c #DABABF",
"UX c None",
/* pixels */
"UXUXUXUXUXUXUXUXUXUXUXUXUXUXUXUXUXUXUXUXUXUXUXUXUXUXUXUXUXUXUXUXUXUXUXUXUXUXUXUXUXUXUXUXUXUXUXUXUXUXUXUXUXUXUXUXUXUXUXUXUXUXUXUXUXUXUXUXUXUXUXUXUXUXUXUXUXUXUXUXUXUXUXUXUXUXUXUXUXUXUXUXUXUXUXUXUXUXUXUXUXUXUXUXUXUXUXUXUXUXUXUXUXUXUXUXUXUXUXUXUXUXUXUXUXUXUXUXUXUXUXUXUXUXUXUXUXUXUXUXUXUXUXUXUXUXUXUXUXUXUXUXUXUXUXUXUXUXUXUXUXUXUXUXUXUXUXUXUXUXUXUXUX",
"UXUXUXUXUXUXUXUXUXUXUXUXUXUXUXUXUXUXUXUXUXUXUXUXUXUXUXUXUXUXUXUXUXUXUXUXUXUXUXUXUXUXUXUXUXUXUXUXUXUXUXUXUXUXUXUXUXUXUXUXUXUXUXUXUXUXUXUXUXUXUXUXUXUXUXUXUXUXUXUXUXUXUXUXUXUXUXUXUXUXUXUXUXUXUXUXUXUXUXUXUXUXUXUXUXUXUXUXUXUXUXUXUXUXUXUXUXUXUXUXUXUXUXUXUXUXUXUXUXUXUXUXUXUXUXUXUXUXUXUXUXUXUXUXUXUXUXUXUXUXUXUXUXUXUXUXUXUXUXUXUXUXUXUXUXUXUXUXUXUXUXUXUX",
"UXUXUXUXUXUXUXUXUXUXUXUXUXUXUXUXUXUXUXUXUXUXUXUXUXUXUXUXUXUXUXUXUXUXUXUXUXUXUXUXUXUXUXUXUXUXUXUXUXUXUXUXUXUXUXUXUXUXUXUXUXUXUXUXUXUXUXUXUXUXUXUXUXUXUXUXUXUXUXUXUXUXUXUXUXUXUXUXUXUXUXUXUXUXUXUXUXUXUXUXUXUXUXUXUXUXUXUXUXUXUXUXUXUXUXUXUXUXUXUXUXUXUXUXUXUXUXUXUXUXUXUXUXUXUXUXUXUXUXUXUXUXUXUXUXUXUXUXUXUXUXUXUXUXUXUXUXUXUXUXUXUXUXUXUXUXUXUXUXUXUXUXUX",
"UXUXUXUXUXUXUXUXUXUXUXUXUXUXUXUXUXUXUXUXUXUXUXUXUXUXUXUXUXUXUXUXUXUXUXUXUXUXUXUXUXUXUXUXUXUXUXUXUXUXUXUXUXUXUXUXUXUXUXUXUXUXUXUXUXUXUXUXUXUXUXUXUXUXUXUXUXUXUXUXUXUXUXUXUXUXUXUXUXUXUXUXUXUXUXUXUXUXUXUXUXUXUXUXUXUXUXUXUXUXUXUXUXUXUXUXUXUXUXUXUXUXUXUXUXUXUXUXUXUXUXUXUXUXUXUXUXUXUXUXUXUXUXUXUXUXUXUXUXUXUXUXUXUXUXUXUXUXUXUXUXUXUXUXUXUXUXUXUXUXUXUXUX",
"UXUXUXUXUXUXUXUXUXUXUXUXUXUXUXUXUXUXUXUXUXUXUXUXUXUXUXUXUXUXUXUXUXUXUXUXUXUXUXUXUXUXUXUXUXUXUXUXUXUXUXUXUXUXUXUXUXUXUXUXUXUXUXUXUXUXUXUXUXUXUXUXUXUXUXUXUXUXUXUXUXUXUXUXUXUXUXUXUXUXUXUXUXUXUXUXUXUXUXUXUXUXUXUXUXUXUXUXUXUXUXUXUXUXUXUXUXUXUXUXUXUXUXUXUXUXUXUXUXUXUXUXUXUXUXUXUXUXUXUXUXUXUXUXUXUXUXUXUXUXUXUXUXUXUXUXUXUXUXUXUXUXUXUXUXUXUXUXUXUXUXUXUX",
"UXUXUXUXUXUXUXUXUXUXUXUXUXUXUXUXUXUXUXUXUXUXUXUXUXUXUXUXUXUXUXUXUXUXUXUXUXUXUXUXUXUXUXUXUXUXUXUXUXUXUXUXUXUXUXUXUXUXUXUXUXUXUXUXUXUXUXUXUXUXUXUXUXUXUXUXUXUXUXUXUXUXUXUXUXUXUXUXUXUXUXUXUXUXUXUXUXUXUXUXUXUXUXUXUXUXUXUXUXUXUXUXUXUXUXUXUXUXUXUXUXUXUXUXUXUXUXUXUXUXUXUXUXUXUXUXUXUXUXUXUXUXUXUXUXUXUXUXUXUXUXUXUXUXUXUXUXUXUXUXUXUXUXUXUXUXUXUXUXUXUXUXUX",
"UXUXUXUXUXUXUXUXUXUXUXUXUXUXUXUXUXUXUXUXUXUXUXUXUXUXUXUXUXUXUXUXUXUXUXUXUXUXUXUXUXUXUXUXUXUXUXUXUXUXUXUXUXUXUXUXUXUXUXUXUXUXUXUXUXUXUXUXUXUXUXUXUXUXUXUXUXUXUXUXUXUXUXUXUXUXUXUXUXUXUXUXUXUXUXUXUXUXUXUXUXUXUXUXUXUXUXUXUXUXUXUXUXUXUXUXUXUXUXUXUXUXUXUXUXUXUXUXUXUXUXUXUXUXUXUXUXUXUXUXUXUXUXUXUXUXUXUXUXUXUXUXUXUXUXUXUXUXUXUXUXUXUXUXUXUXUXUXUXUXUXUXUX",
"UXUXUXUXUXUXUXUXUXUXUXUXUXUXUXUXUXUXUXUXUXUXUXUXUXUXUXUXUXUXUXUXUXUXUXUXUXUXUXUXUXUXUXUXUXUXUXUXUXUXUXUXUXUXUXUXUXUXUXUXUXUXUXUXUXUXUXUXUXUXUXUXUXUXUXUXUXUXUXUXUXUXUXUXUXUXUXUXUXUXUXUXUXUXUXUXUXUXUXUXUXUXUXUXUXUXUXUXUXUXUXUXUXUXUXUXUXUXUXUXUXUXUXUXUXUXUXUXUXUXUXUXUXUXUXUXUXUXUXUXUXUXUXUXUXUXUXUXUXUXUXUXUXUXUXUXUXUXUXUXUXUXUXUXUXUXUXUXUXUXUXUXUX",
"UXUXUXUXUXUXUXUXUXUXUXUXUXUXUXUXUXUXUXUXUXUXUXUXUXUXUXUXUXUXUXUXUXUXUXUXUXUXUXUXUXUXUXUXUXUXUXUXUXUXUXUXUXUXUXUXUXUXUXUXUXUXUXUXUXUXUXUXUXUXUXUXUXUXUXUXUXUXUXUXUXUXUXUXUXUXUXUXUXUXUXUXUXUXUXUXUXUXUXUXUXUXUXUXUXUXUXUXUXUXUXUXUXUXUXUXUXUXUXUXUXUXUXUXUXUXUXUXUXUXUXUXUXUXUXUXUXUXUXUXUXUXUXUXUXUXUXUXUXUXUXUXUXUXUXUXUXUXUXUXUXUXUXUXUXUXUXUXUXUXUXUXUX",
"UXUXUXUXUXUXUXUXUXUXUXUXUXUXUXUXUXUXUXUXUXUXUXUXUXUXUXUXUXUXUXUXUXUXUXUXUXUXUXUXUXUXUXUXUXUXUXUXUXUXUXUXUXUXUXUXUXUXUXUXUXUXUXUXUXUXUXUXUXUXUXUXUXUXUXUXUXUXUXUXUXUXUXUXUXUXUXUXUXUXUXUXUXUXUXUXUXUXUXUXUXUXUXUXUXUXUXUXUXUXUXUXUXUXUXUXUXUXUXUXUXUXUXUXUXUXUXUXUXUXUXUXUXUXUXUXUXUXUXUXUXUXUXUXUXUXUXUXUXUXUXUXUXUXUXUXUXUXUXUXUXUXUXUXUXUXUXUXUXUXUXUXUX",
"UXUXUXUXUXUXUXUXUXUXUXUXUXUXUXUXUXUXUXUXUXUXUXUXUXUXUXUXUXUXUXUXUXUXUXUXUXUXUXUXUXUXUXUXUXUXUXUXUXUXUXUXUXUXUXUXUXUXUXUXUXUXUXUXUXUXUXUXUXUXUXUXUXUXUXUXUXUXUXUXUXUXUXUXUXUXUXUXUXUXUXUXUXUXUXUXUXUXUXUXUXUXUXUXUXUXUXUXUXUXUXUXUXUXUXUXUXUXUXUXUXUXUXUXUXUXUXUXUXUXUXUXUXUXUXUXUXUXUXUXUXUXUXUXUXUXUXUXUXUXUXUXUXUXUXUXUXUXUXUXUXUXUXUXUXUXUXUXUXUXUXUXUX",
"UXUXUXUXUXUXUXUXUXUXUXUXUXUXUXUXUXUXUXUXUXUXUXUXUXUXUXUXUXUXUXUXUXUXUXUXUXUXUXUXUXUXUXUXUXUXUXUXUXUXUXUXUXUXUXUXUXUXUXUXUXUXUXUXUX:X<X;X:X:X0XUXUXUXUXUXUXUXUXUXUXUXUXUXUXUXUXUXUXUXUXUXUXUXUXUXUXUXUXUXUXUXUXUXUXUXUXUXUXUXUXUXUXUXUXUXUXUXUXUXUXUXUXUXUXUXUXUXUXUXUXUXUXUXUXUXUXUXUXUXUXUXUXUXUXUXUXUXUXUXUXUXUXUXUXUXUXUXUXUXUXUXUXUXUXUXUXUXUXUXUXUXUX",
"UXUXUXUXUXUXUXUXUXUXUXUXUXUXUXUXUXUXUXUXUXUXUXUXUXUXUXUXUXUXUXUXUXUXUXUXUXUXUXUXUXUXUXUXUXUXUXUXUXUXUXUXUXUXUXUXUXUXUXUXUXUXUXUX(.3.4.4.k.7.@X,X<XwXwXUXUXUXUXUXUXUXUXUXUXUXUXUXUXUXUXUXUXUXUXUXUXUXUXUXUXUXUXUXUXUXUXUXUXUXUXUXUXUXUXUXUXUXUXUXUXUXUXUXUXUXUXUXUXUXUXUXUXUXUXUXUXUXUXUXUXUXUXUXUXUXUXUXUXUXUXUXUXUXUXUXUXUXUXUXUXUXUXUXUXUXUXUXUXUXUXUXUX",
"UXUXUXUXUXUXUXUXUXUXUXUXUXUXUXUXUXUXUXUXUXUXUXUXUXUXUXUXUXUXUXUXUXUXUXUXUXUXUXUXUXUXUXUXUXUXUXUXUXUXUXUXUXUXUXUXUXUXUXUXUXUXUXUX2.s.3.&.5.7.@X@X&X$X2X0XVXUXUXUXUXUXUXUXUXUXUXUXUXUXUXUXUXUXUXUXUXUXUXUXUXUXUXUXUXUXUXUXUXUXUXUXUXUXUXUXUXUXUXUXUXUXUXUXUXUXUXUXUXUXUXUXUXUXUXUXUXUXUXUXUXUXUXUXUXUXUXUXUXUXUXUXUXUXUXUXUXUXUXUXUXUXUXUXUXUXUXUXUXUXUXUXUX",
"UXUXUXUXUXUXUXUXUXUXUXUXUXUXUXUXUXUXUXUXUXUXUXUXUXUXUXUXUXUXUXUXUXUXUXUXUXUXUXUXUXUXUXUXUXUXUXUXUXUXUXUXUXUXUXUXUXUXUXUXUXUXUXUX2...%.X.&.p.k.5.a.#X#X;X0X<XsXbXUXUXUXUXUXUXUXUXUXUXUXUXUXUXUXUXUXUXUXUXUXUXUXUXUXUXUXUXUXUXUXUXUXUXUXUXUXUXUXUXUXUXUXUXUXUXUXUXUXUXUXUXUXUXUXUXUXUXUXUXUXUXUXUXUXUXUXUXUXUXUXUXUXUXUXUXUXUXUXUXUXUXUXUXUXUXUXUXUXUXUXUXUX",
"UXUXUXUXUXUXUXUXUXUXUXUXUXUXUXUXUXUXUXUXUXUXUXUXUXUXUXUXUXUXUXUXUXUXUXUXUXUXUXUXUXUXUXUXUXUXUXUXwXwXUXUXUXUXUXUXUXUXUXUXUXUXUXUXUX+.*.%...X.4.4.p.a.#Xa.@X;XpXpXbXPXUXUXUXUXUXUXUXUXUXUXUXUXUXUXUXUXUXUXUXUXUXUXUXUXUXUXUXUXUXUXUXUXUXUXUXUXUXUXUXUXUXUXUXUXUXUXUXUXUXUXUXUXUXUXUXUXUXUXUXUXUXUXUXUXUXUXUXUXUXUXUXUXUXUXUXUXUXUXUXUXUXUXUXUXUXUXUXUXUXUXUX",
"UXUXUXUXUXUXUXUXUXUXUXUXUXUXUXUXUXUXUXUXUXUXUXUXUXUXUXUXUXUXUXUXUXUXUXUXUXUXUXUXUXUXUXUXUXUXXXU.j.k.j.<X<X:X<X0XUXUXUXUXUXUXUXUXUX,.*.&...5.5.f.3.h.a.a.&XqXiXaXGXFXPXUXUXUXUXUXUXUXUXUXUXUXUXUXUXUXUXUXUXUXUXUXUXUXUXUXUXUXUXUXUXUXUXUXUXUXUXUXUXUXUXUXUXUXUXUXUXUXUXUXUXUXUXUXUXUXUXUXUXUXUXUXUXUXUXUXUXUXUXUXUXUXUXUXUXUXUXUXUXUXUXUXUXUXUXUXUXUXUXUXUX",
"UXUXUXUXUXUXUXUXUXUXUXUXUXUXUXUXUXUXUXUXUXUXUXUXUXUXUXUXUXUXUXUXUXUXUXUXUXUXUXUXUXUXUXUXUXUXs.p.X.5.5.4.g.@X#X#X,X#XwXwXUXUXUXUXUXUXUX1.6.6.5.&.k.X.p.&X@X2XqXpXVXCXHXPXUXUXUXUXUXUXUXUXUXUXUXUXUXUXUXUXUXUXUXUXUXUXUXUXUXUXUXUXUXUXUXUXUXUXUXUXUXUXUXUXUXUXUXUXUXUXUXUXUXUXUXUXUXUXUXUXUXUXUXUXUXUXUXUXUXUXUXUXUXUXUXUXUXUXUXUXUXUXUXUXUXUXUXUXUXUXUXUXUX",
"UXUXUXUXUXUXUXUXUXUXUXUXUXUXUXUXUXUXUXUXUXUXUXUXUXUXUXUXUXUXUXUXUXUXUXUXUXUXUXUXUXUXUXUXUXUX2.;.=.*.=.5.5.4.4.4.h.@X,X2XaXyXGXbXUXUXUXUXUXUX6.3.&.4.5.p.#X;X1XrXaXJXZXFXHXUXUXUXUXUXUXUXUXUXUXUXUXUXUXUXUXUXUXUXUXUXUXUXUXUXUXUXUXUXUXUXUXUXUXUXUXUXUXUXUXUXUXUXUXUXUXUXUXUXUXUXUXUXUXUXUXUXUXUXUXUXUXUXUXUXUXUXUXUXUXUXUXUXUXUXUXUXUXUXUXUXUXUXUXUXUXUXUX",
"UXUXUXUXUXUXUXUXUXUXUXUXUXUXUXUXUXUXUXUXUXUXUXUXUXUXUXUXUXUXUXUXUXUXUXUXUXUXUXUXUXUXUXUXUXUXM.+.O...%.%.;.&.&.k.4.7.;X6XiXaXBXZXUXUXUXUXUXUXUX1.=.@.l.&.4.=X;X2XyXCXGXGXHXUXUXUXUXUXUXUXUXUXUXUXUXUXUXUXUXUXUXUXUXUXUXUXUXUXUXUXUXUXUXUXUXUXUXUXUXUXUXUXUXUXUXUXUXUXUXUXUXUXUXUXUXUXUXUXUXUXUXUXUXUXUXUXUXUXUXUXUXUXUXUXUXUXUXUXUXUXUXUXUXUXUXUXUXUXUXUXUX",
"UXUXUXUXUXUXUXUXUXUXUXUXUXUXUXUXUXUXUXUXUXUXUXUXUXUXUXUXUXUXUXUXUXUXUXUXUXUXUXUXUXUXUXUXUXUXUX2.O.X.X...X.%...=.5.7.-X6X7XpXyXVXJXbXUXUXUXUXUXUXUX@.=.6.k.j.,X:X`.e.$.$.U.M.UXUXUXUXUXUXUXUXUXUXUXUXUXUXUXUXUXUXUXUXUXUXUXUXUXUXUXUXUXUXUXUXUXUXUXUXUXUXUXUXUXUXUXUXUXUXUXUXUXUXUXUXUXUXUXUXUXUXUXUXUXUXUXUXUXUXUXUXUXUXUXUXUXUXUXUXUXUXUXUXUXUXUXUXUXUXUX",
"UXUXUXUXUXUXUXUXUXUXUXUXUXUXUXUXUXUXUXUXUXUXUXUXUXUXUXUXUXUXUXUXUXUXUXUXUXUXUXUXUXUXUXUXUXUXUXUXM.} } %...%.=.=.&.k.=X$X5X6XpXVXuXZXbXUXUXUXUXUXUXUXN.=.&.&...d k X j ' >.>.2.(.9XbXBXUXUXUXUXUXUXUXUXUXUXUXUXUXUXUXUXUXUXUXUXUXUXUXUXUXUXUXUXUXUXUXUXUXUXUXUXUXUXUXUXUXUXUXUXUXUXUXUXUXUXUXUXUXUXUXUXUXUXUXUXUXUXUXUXUXUXUXUXUXUXUXUXUXUXUXUXUXUXUXUXUXUX",
"UXUXUXUXUXUXUXUXUXUXUXUXUXUXUXUXUXUXUXUXUXUXUXUXUXUXUXUXUXUXUXUXUXUXUXUXUXUXUXUXUXUXUXUXUXUXUXUXUXUXT 1.}  .O. .&.X.h.=XqXqX2XsXbXGXHXbXUXUXUXUXUXUXUX@.p.X.p e 3 h Y D c.c.( D.,.9X,XqXVXVXUXUXUXUXUXUXUXUXUXUXUXUXUXUXUXUXUXUXUXUXUXUXUXUXUXUXUXUXUXUXUXUXUXUXUXUXUXUXUXUXUXUXUXUXUXUXUXUXUXUXUXUXUXUXUXUXUXUXUXUXUXUXUXUXUXUXUXUXUXUXUXUXUXUXUXUXUXUXUX",
"UXUXUXUXUXUXUXUXUXUXUXUXUXUXUXUXUXUXUXUXUXUXUXUXUXUXUXUXUXUXUXUXUXUXUXUXUXUXUXUXUXUXUXUXUXUXUXUXUXUXUXUX$.#.c *. .&.5.h.g.=X;Xk.@.1.U F.W 4 UXUXUXUXUX*.:.l 3 > 8 * 3 J ( H.B.( I `.,X4XaXaXJXPXUXUXUXUXUXUXUXUXUXUXUXUXUXUXUXUXUXUXUXUXUXUXUXUXUXUXUXUXUXUXUXUXUXUXUXUXUXUXUXUXUXUXUXUXUXUXUXUXUXUXUXUXUXUXUXUXUXUXUXUXUXUXUXUXUXUXUXUXUXUXUXUXUXUXUXUXUX",
"UXUXUXUXUXUXUXUXUXUXUXUXUXUXUXUXUXUXUXUXUXUXUXUXUXUXUXUXUXUXUXUXUXUXUXUXUXUXUXUXUXUXUXUXUXUXUXUXUXUXUXUXUXE.*.} *.+.@.5.k.#X5...T / ' E R k P H UXUXUXM.$.= , , 2 % 5 9 9 ] [ K E ,.<XwXVXyXFXHXHXUXUXUXUXUXUXUXUXUXUXUXUXUXUXUXUXUXUXUXUXUXUXUXUXUXUXUXUXUXUXUXUXUXUXUXUXUXUXUXUXUXUXUXUXUXUXUXUXUXUXUXUXUXUXUXUXUXUXUXUXUXUXUXUXUXUXUXUXUXUXUXUXUXUXUXUX",
"UXUXUXUXUXUXUXUXUXUXUXUXUXUXUXUXUXUXUXUXUXUXUXUXUXUXUXUXUXUXUXUXUXUXUXUXUXUXUXUXUXUXUXUXUXUXUXUXUXUXUXUXUXUXUX,.2.2.+...:...w x u B D h k h h N ^ UXUXUXF * , ; + % 3 3 5 D C 4 G +.:X0XwX0X#.e.,.XXUXUXUXUXUXUXUXUXUXUXUXUXUXUXUXUXUXUXUXUXUXUXUXUXUXUXUXUXUXUXUXUXUXUXUXUXUXUXUXUXUXUXUXUXUXUXUXUXUXUXUXUXUXUXUXUXUXUXUXUXUXUXUXUXUXUXUXUXUXUXUXUXUXUXUX",
"UXUXUXUXUXUXUXUXUXUXUXUXUXUXUXUXUXUXUXUXUXUXUXUXUXUXUXUXUXUXUXUXUXUXUXUXUXUXUXUXUXUXUXUXUXUXUXUXUXUXUXUXUXUXUXUXUX+.o.o.U = 4 P D N 5 f h y B N 7 9 UXUX  X 2 + + * * # 2 7 6 C h x #.9XY.1.u T $.u ' [ UXUXUXUXUXUXUXUXUXUXUXUXUXUXUXUXUXUXUXUXUXUXUXUXUXUXUXUXUXUXUXUXUXUXUXUXUXUXUXUXUXUXUXUXUXUXUXUXUXUXUXUXUXUXUXUXUXUXUXUXUXUXUXUXUXUXUXUXUXUXUXUXUX",
"UXUXUXUXUXUXUXUXUXUXUXUXUXUXUXUXUXUXUXUXUXUXUXUXUXUXUXUXUXUXUXUXUXUXUXUXUXUXUXUXUXUXUXUXUXUXUXUXUXUXUXUXUXUXUXUXUXUX2.U Y 3 1 m H n 4 5 9 7 7 , , # g - & % X + < + 2 3 7 6 ; 7 2 3 l $.v i B J B F j j L UXUXUXUXUXUXUXUXUXUXUXUXUXUXUXUXUXUXUXUXUXUXUXUXUXUXUXUXUXUXUXUXUXUXUXUXUXUXUXUXUXUXUXUXUXUXUXUXUXUXUXUXUXUXUXUXUXUXUXUXUXUXUXUXUXUXUXUXUXUXUXUX",
"UXUXUXUXUXUXUXUXUXUXUXUXUXUXUXUXUXUXUXUXUXUXUXUXUXUXUXUXUXUXUXUXUXUXUXUXUXUXUXUXUXUXUXUXUXUXUXUXUXUXUXUXUXUXUXUXUXUX/ T e = 9 < m m 7 8 5 3 3 2 2 2 4 5 8 +   5 8 : ; 6 * * 2 2 9 h = r F.u y J F N h k ' J.UXUXUXUXUXUXUXUXUXUXUXUXUXUXUXUXUXUXUXUXUXUXUXUXUXUXUXUXUXUXUXUXUXUXUXUXUXUXUXUXUXUXUXUXUXUXUXUXUXUXUXUXUXUXUXUXUXUXUXUXUXUXUXUXUXUXUXUXUXUXUX",
"UXUXUXUXUXUXUXUXUXUXUXUXUXUXUXUXUXUXUXUXUXUXUXUXUXUXUXUXUXUXUXUXUXUXUXUXUXUXUXUXUXUXUXUXUXUXUXUXUXUXUXUXUXUXUXUXUXUXc.i e = + 8 m n 4 9 9 5 9 8 2 5 * 2 6 9 h f ) m 7 2 X * 2 6 6 4 P * Y w.3 N 7 n 5 k k c.UXUXUXUXUXUXUXUXUXUXUXUXUXUXUXUXUXUXUXUXUXUXUXUXUXUXUXUXUXUXUXUXUXUXUXUXUXUXUXUXUXUXUXUXUXUXUXUXUXUXUXUXUXUXUXUXUXUXUXUXUXUXUXUXUXUXUXUXUXUXUX",
"UXUXUXUXUXUXUXUXUXUXUXUXUXUXUXUXUXUXUXUXUXUXUXUXUXUXUXUXUXUXUXUXUXUXUXUXUXUXUXUXUXUXUXUXUXUXUXUXUXUXUXUXUXUXUXUXUXUXUX# $ X > 6 2 6 * * 4 4 8 6 4 2 + 2 @ @ + ; 7 < 4 - = r D H H Z m C 4 2 2 6 8 8 8 f P v.UXUXUXUXUXUXUXUXUXUXUXUXUXUXUXUXUXUXUXUXUXUXUXUXUXUXUXUXUXUXUXUXUXUXUXUXUXUXUXUXUXUXUXUXUXUXUXUXUXUXUXUXUXUXUXUXUXUXUXUXUXUXUXUXUXUXUXUXUXUXUX",
"UXUXUXUXUXUXUXUXUXUXUXUXUXUXUXUXUXUXUXUXUXUXUXUXUXUXUXUXUXUXUXUXUXUXUXUXUXUXUXUXUXUXUXUXUXUXUXUXUXUXUXUXUXUXUXUXUXUXUX+ - * 2 ; > 2 * * 2 8 8 1 + 2 + > > 2 + 2 2 2 5 - - * 2 n m m Q 1 8 < % 8 6 8 H 4 D z.UXUXUXUXUXUXUXUXUXUXUXUXUXUXUXUXUXUXUXUXUXUXUXUXUXUXUXUXUXUXUXUXUXUXUXUXUXUXUXUXUXUXUXUXUXUXUXUXUXUXUXUXUXUXUXUXUXUXUXUXUXUXUXUXUXUXUXUXUXUXUX",
"UXUXUXUXUXUXUXUXUXUXUXUXUXUXUXUXUXUXUXUXUXUXUXUXUXUXUXUXUXUXUXUXUXUXUXUXUXUXUXUXUXUXUXUXUXUXUXUXUXUXUXUXUXUXUXUXUXUXUX1 8   2 @ + * 2 2 6 4 7 7 2 2 2 2 + + + ; + + + * * 2 2 2 6 7 4 9 4 2 2 6 6 7 P k f C UXUXUXUXUXUXUXUXUXUXUXUXUXUXUXUXUXUXUXUXUXUXUXUXUXUXUXUXUXUXUXUXUXUXUXUXUXUXUXUXUXUXUXUXUXUXUXUXUXUXUXUXUXUXUXUXUXUXUXUXUXUXUXUXUXUXUXUXUXUXUX",
"UXUXUXUXUXUXUXUXUXUXUXUXUXUXUXUXUXUXUXUXUXUXUXUXUXUXUXUXUXUXUXUXUXUXUXUXUXUXUXUXUXUXUXUXUXUXUXUXUXUXUXUXUXUXUXUXUXUXUXM 6 7 2 # + + 2 2 6 6 2 2 2 + + + + + + + + + + + + + + + + + + 2 2 2 6 7 n > - 5 G ! v.UXUXUXUXUXUXUXUXUXUXUXUXUXUXUXUXUXUXUXUXUXUXUXUXUXUXUXUXUXUXUXUXUXUXUXUXUXUXUXUXUXUXUXUXUXUXUXUXUXUXUXUXUXUXUXUXUXUXUXUXUXUXUXUXUXUXUXUXUXUX",
"UXUXUXUXUXUXUXUXUXUXUXUXUXUXUXUXUXUXUXUXUXUXUXUXUXUXUXUXUXUXUXUXUXUXUXUXUXUXUXUXUXUXUXUXUXUXUXUXUXUXUXUXUXUXUXUXUXUXUXM M 2 @ X + + + + 2 2 + + + + + + + + + + + + + + + + + + + + * * 2 6 6 6 7 5 h 9 n Q H.UXUXUXUXUXUXUXUXUXUXUXUXUXUXUXUXUXUXUXUXUXUXUXUXUXUXUXUXUXUXUXUXUXUXUXUXUXUXUXUXUXUXUXUXUXUXUXUXUXUXUXUXUXUXUXUXUXUXUXUXUXUXUXUXUXUXUXUXUXUX",
"UXUXUXUXUXUXUXUXUXUXUXUXUXUXUXUXUXUXUXUXUXUXUXUXUXUXUXUXUXUXUXUXUXUXUXUXUXUXUXUXUXUXUXUXUXUXUXUXUXUXUXUXUXUXUXUXUXUXUXUXUX: 6 2 + + + + + + + + + + + + + + + + + + + + + + + + + + + + + 2 * + + + 2 9 D Q ) UXUXUXUX}.eX<X0XuXuXHXUXUXUXUXUXUXUXUXUXUXUXUXUXUXUXUXUXUXUXUXUXUXUXUXUXUXUXUXUXUXUXUXUXUXUXUXUXUXUXUXUXUXUXUXUXUXUXUXUXUXUXUXUXUXUXUXUXUXUX",
"UXUXUXUXUXUXUXUXUXUXUXUXUXUXUXUXUXUXUXUXUXUXUXUXUXUXUXUXUXUXUXUXUXUXUXUXUXUXUXUXv.v.B.[.gXKXUXUXUXUXUXUXUXUXUXUXUXUXUXUXUX: : 1 ; + + + + + + + + + + + + + + + + + + + + + + + + + + + + 2 3 8 n 7 8 2 2 2 f D UXUXL.(.eX:X0XpXJXZXHXUXUXUXUXUXUXUXUXUXUXUXUXUXUXUXUXUXUXUXUXUXUXUXUXUXUXUXUXUXUXUXUXUXUXUXUXUXUXUXUXUXUXUXUXUXUXUXUXUXUXUXUXUXUXUXUXUXUX",
"UXUXUXUXUXUXUXUXUXUXUXUXUXUXUXUXUXUXUXUXUXUXUXUXUXUXUXUXUXUXUXUXUXUXUXUXUXUXUXn.S 8 8 ( Q {.KXUXUXUXUXUXUXUXUXUXUXUXUXUXUXM M ; + + + + + + + + + + + + + + + + + + + + + + + + + + 2 2 2 6 h J n 1 1 < 4 4 5 - y F +.$.U.(.uXZXZXAXIXUXUXUXUXUXUXUXUXUXUXUXUXUXUXUXUXUXUXUXUXUXUXUXUXUXUXUXUXUXUXUXUXUXUXUXUXUXUXUXUXUXUXUXUXUXUXUXUXUXUXUXUXUXUXUXUXUXUX",
"UXUXUXUXUXUXUXUXUXUXUXUXUXUXUXUXUXUXUXUXUXUXUXUXUXUXUXUXUXUXUXUXUXUXUXUXUXUXUX) Q Q Q Z B.[.kXUXUXUXUXUXUXUXUXUXUXUXUXUXUXUX1 1 + + + + + + + + + + + + + + + # + + + + + 2 2 2 + + 2 6 2 + 8 H H n 9 4 4 * * - = r t t T u $.$.9XCXHXHXUXUXUXUXUXUXUXUXUXUXUXUXUXUXUXUXUXUXUXUXUXUXUXUXUXUXUXUXUXUXUXUXUXUXUXUXUXUXUXUXUXUXUXUXUXUXUXUXUXUXUXUXUXUXUXUXUX",
"UXUXUXUXUXUXUXUXUXUXUXUXUXUXUXUXUXUXUXUXUXUXUXUXUXUXUXUXUXUXUXUXUXUXUXUXUXUXUXx.] Q A _ B.B. XfXfXKXUXUXUXUXUXUXUXUXUXUXUXUX1 O + + + + + + + + + @ + + + + 2 6 2 2 2 + + + 2 + + 2 8 9 6 + 6 D H m 9 4 4 * 2 * 5 h r y h 9 Y / ,.(.HXHXUXUXUXUXUXUXUXUXUXUXUXUXUXUXUXUXUXUXUXUXUXUXUXUXUXUXUXUXUXUXUXUXUXUXUXUXUXUXUXUXUXUXUXUXUXUXUXUXUXUXUXUXUXUXUXUXUX",
"UXUXUXUXUXUXUXUXUXUXUXUXUXUXUXUXUXUXUXUXUXUXUXUXUXn.b.b.v.v.n.n.Z.n.b.~ Q Q ~ x.B.m A A _ _ K A A B.gXgX|.[.|.gXvXLXLXLXUXUXUX< % + @ + + + + + @   + @ + 6 2 8 + 2 2 + + 8 9 8 2 8 D [ + + 9 D L 4 L [ 8 8 n 6 8 J J P 8 f C ( / / >.OXUXUXUXUXUXUXUXUXUXUXUXUXUXUXUXUXUXUXUXUXUXUXUXUXUXUXUXUXUXUXUXUXUXUXUXUXUXUXUXUXUXUXUXUXUXUXUXUXUXUXUXUXUXUXUXUXUX",
"UXUXUXUXUXUXUXUXUXUXUXUXUXUXUXUXUXUXUXUXUXUXUXZ.b.S Q ) z.v.v.z.v.~ m 8 n C Q z.z.: : : % 1 A Q _ A m Z Z m m S _ B.[.kXLXUXUX: < 2 + + + @ + 2 + @ + @ + 8 * + + 6 6 + + 2 8 6 + 2 6 G 2 + 6 8 H 2 H c.N n ~ ! n K K A K K 1 C N / [ m.fXUXUXUXUXUXUXUXUXUXUXUXUXUXUXUXUXUXUXUXUXUXUXUXUXUXUXUXUXUXUXUXUXUXUXUXUXUXUXUXUXUXUXUXUXUXUXUXUXUXUXUXUXUXUXUXUX",
"UXUXUXUXUXUXUXUXUXUXUXUXUXUXUXUXUXUXUXUXUXUX{.Z v.v.B.H.S.{ ( H K K ( ( ( C C Q Z o : : O 8 K ( A ~ z.) Q A 1 m m _ m ~ K.nXLX1 O + + + + + + + 2 @ + + 2 9 2 @ + 6 6 2 + * 6 6 + 2 2 6 8 + 2 9 F # 9 ! D 2 H x.9 ` { H { B.D m n H ! B.+XUXUXUXUXUXUXUXUXUXUXUXUXUXUXUXUXUXUXUXUXUXUXUXUXUXUXUXUXUXUXUXUXUXUXUXUXUXUXUXUXUXUXUXUXUXUXUXUXUXUXUXUXUXUXUXUX",
"UXUXUXUXUXUXUXUXUXUXUXUXUXUXUXUXUXUXUXUXUXn.z.B.B.H.S.K < 4 4 % X - 4 4 H ( ( ! 1 o : o ; 8 K H Q x.) m ; + O < 8   Z 1 ~ V.lXLX6 2 + @ + + + 2 D + + + 6 D 8 + 2 6 6 + + + 6 8 + 2 9 8 D + 6 h G , 7 J J + m x.4 K [ n ! S.] ! n C A H..XUXUXUXUXUXUXUXUXUXUXUXUXUXUXUXUXUXUXUXUXUXUXUXUXUXUXUXUXUXUXUXUXUXUXUXUXUXUXUXUXUXUXUXUXUXUXUXUXUXUXUXUXUXUXUXUX",
"UXUXUXUXUXUXUXUXUXUXUXUXUXUXUXUXUXUXUXUXb.v.[.[.[.K o O 4 4 4 4 h k 9 1 6 Z ! ( 8 n 6 1 Z Z K K K K 4 2 5 5 5 9 9 H 1 1 m K J.lX+ + + + + + + 2 L * + 2 6 9 6 + + 2 + + + + 6 9 2 * P J J + 2 5 j * * D ` % C c.C 4 ] D N ' m.S.D K n ` _.UXUXUXUXUXUXUXUXUXUXUXUXUXUXUXUXUXUXUXUXUXUXUXUXUXUXUXUXUXUXUXUXUXUXUXUXUXUXUXUXUXUXUXUXUXUXUXUXUXUXUXUXUXUXUXUX",
"UXUXUXUXUXUXUXUXUXUXUXUXUXUXUXUXUXUXUXZ.K.K.L.L.H 8 ; ; ; 2 2 - & 5 D D n 1 8 K K ( K K ] K ! ] H n * * * + 2 9 7 L L 9 + < K B.7 @ + + + + @ + D + @ 2 6 6 2 + + + + + + + 2 6 9 + 9 D D 2 2 2 5 # + 9 ` 2 C { K 2 ] ] N L c.] c.] H [ P.UXUXUXUXUXUXUXUXUXUXUXUXUXUXUXUXUXUXUXUXUXUXUXUXUXUXUXUXUXUXUXUXUXUXUXUXUXUXUXUXUXUXUXUXUXUXUXUXUXUXUXUXUXUXUXUX",
"UXUXUXUXUXUXUXUXUXUXUXUXUXUXUXUXUXUXhX{.v. XD.R 8 1 : : o     X # ; 2 n D n 8 8 K ( K H L H { ! 7 6 + * # + > @ n , H J 8 f 8 ( A.6 + + @ + + + 2 + @ + 2 2 2 + + + + * + + + 2 H * + 6 8 2 + 6 n 8 ; n R 6 N ` P 2 ! { 4 P ] C 9.{ v.H.D.UXUXUXUXUXUXUXUXUXUXUXUXUXUXUXUXUXUXUXUXUXUXUXUXUXUXUXUXUXUXUXUXUXUXUXUXUXUXUXUXUXUXUXUXUXUXUXUXUXUXUXUXUXUXUXUX",
"UXUXUXUXUXUXUXUXUXUXUXUXUXUXUXUXUXUXhXv.B.L.9.9 7 + o o o @ X   @ + + 2 9 n 6 1 n ! ( ` ( { A.n > @   X . @ , > ; n 7 H G 2 8 J ` + + 2 @ + + + + # + + + 2 + + + + + * + + + 6 D 2 + 6 9 8 + 7 m m 1 8 K 2 n L G * D { 9 P 9.{ g [ [.~ D.UXUXUXUXUXUXUXUXUXUXUXUXUXUXUXUXUXUXUXUXUXUXUXUXUXUXUXUXUXUXUXUXUXUXUXUXUXUXUXUXUXUXUXUXUXUXUXUXUXUXUXUXUXUXUXUX",
"UXUXUXUXUXUXUXUXUXUXUXUXUXUXUXUXUXkX{.v.K.B.9 * @ @         @ @   X X X 6 h 4 2 6 K ( K ( A.9 +           @ O + + ; + 9 G 2 * 5 Y * # + @ + @ + + < + @ + 2 2 + + + + + + X + 2 9 8 + 8 6 h 6 6 9 ( 8 4 D R + J P 9 H ( L 4 ! S.D ` [ S.D.UXUXUXUXUXUXUXUXUXUXUXUXUXUXUXUXUXUXUXUXUXUXUXUXUXUXUXUXUXUXUXUXUXUXUXUXUXUXUXUXUXUXUXUXUXUXUXUXUXUXUXUXUXUXUXUX",
"UXUXUXUXUXUXUXUXUXUXUXUXUXUXUXUXUXgXC.z.L.{ 2 +                 @ X     % 5 6 < 8 A K Q ] L @                   + %   + h h . X h + + + + + @ + + < 2 + + < * + @ @ + + + + + 2 9 6 + 2 9 H 9 + 8 { ` 9 C [ 9 H H H D J K 9 { { n L c.9 L.UXUXUXUXUXUXUXUXUXUXUXUXUXUXUXUXUXUXUXUXUXUXUXUXUXUXUXUXUXUXUXUXUXUXUXUXUXUXUXUXUXUXUXUXUXUXUXUXUXUXUXUXUXUXUXUX",
"UXUXUXUXUXUXUXUXUXUXUXUXUXUXUXUXUXfXV.B.[.L @ .                   @     + 6 8 2 6 A H ! [ 8                       + + 2 6 5 3 L.2 + + + + + @ @ O ; 2 < + + + + + + + + 2 + + + 6 6 6 + 6 9 G 9 2 2 [ ` 9 [ K 9 ` J 9 c.L ; L ] 9 { [ D A.UXUXUXUXUXUXUXUXUXUXUXUXUXUXUXUXUXUXUXUXUXUXUXUXUXUXUXUXUXUXUXUXUXUXUXUXUXUXUXUXUXUXUXUXUXUXUXUXUXUXUXUXUXUXUXUX",
"UXUXUXUXUXUXUXUXUXUXUXUXUXUXUXUXUX Xz.x.J.D   .                   O   @ + 2 9 6 + C H D { #                       + + + * h * G * * + + + @ O + @ + < < + @ + + + + + + 2 2 + + + 6 9 + + + H L 9 + 2 ] H 9 [ H ! c.9 L c.H J [ C ! [ D ( v.UXUXUXUXUXUXUXUXUXUXUXUXUXUXUXUXUXUXUXUXUXUXUXUXUXUXUXUXUXUXUXUXUXUXUXUXUXUXUXUXUXUXUXUXUXUXUXUXUXUXUXUXUXUXUX",
"UXUXUXUXUXUXUXUXUXUXUXUXUXUXUXUXnX Xz.x.J.7                     o o o @ @ + 7 * @ H H D ` +                       + + @ + 5 9 P * 2 + + + + + + O + + + + @ @ + + + @ + + 2 + + + 2 8 2 + + 6 9 K 6 + 9 ` D 8 K { [ ] K A.J L [ ! K { { K B.{.UXUXUXUXUXUXUXUXUXUXUXUXUXUXUXUXUXUXUXUXUXUXUXUXUXUXUXUXUXUXUXUXUXUXUXUXUXUXUXUXUXUXUXUXUXUXUXUXUXUXUXUXUXUX",
"UXUXUXUXUXUXUXUXUXUXUXUXUXUXUXUXzXB.Q Q J.<                       o   @ @ + 8 + + H H ! ] ;                     @   + + 2 2 5 9 * + + + + + + @ + + + + + O O + + + + + + 2 2 + + * 6 9 2 2 + 6 9 D + 6 R H 8 2 { ` ` [ [ { D { { D { ( K v.c.UXUXUXUXUXUXUXUXUXUXUXUXUXUXUXUXUXUXUXUXUXUXUXUXUXUXUXUXUXUXUXUXUXUXUXUXUXUXUXUXUXUXUXUXUXUXUXUXUXUXUXUXUXUX",
"UXUXUXUXUXUXUXUXUXUXUXUXUXUXUXUXkXV._ Q L.D                       o   O @ + 9 + + D D ( ! 7                       @ +     r h Y 9 X + + + + @ @ + + + + + + + + + + + + + 6 6 2 + 2 2 9 6 2 2 8 9 9 6 + % J H 2 8 [ D 9 ! L.K { S.c.! S.m c.K UXUXUXUXUXUXUXUXUXUXUXUXUXUXUXUXUXUXUXUXUXUXUXUXUXUXUXUXUXUXUXUXUXUXUXUXUXUXUXUXUXUXUXUXUXUXUXUXUXUXUXUXUXUX",
"UXUXUXUXUXUXUXUXUXUXUXUXUXUXUXUXkXK.S A H.A.                      o   +   X 5 @ ; K K ) Q C o                   @     X X r . I G * * + @ 2 + + O O + + + + + + + + + + + 2 2 2 + + 2 8 9 8 2 * 2 K + 2 6 f ` 7 8 D [ D 7 ] S.{ S.c.H S.c.] 9.] UXUXUXUXUXUXUXUXUXUXUXUXUXUXUXUXUXUXUXUXUXUXUXUXUXUXUXUXUXUXUXUXUXUXUXUXUXUXUXUXUXUXUXUXUXUXUXUXUXUXUXUXUX",
"UXUXUXUXUXUXUXUXUXUXUXUXUXUXUXxXfXV.z.K ] .X  X                     @ @   * 6 O 8 Q Q Q x.m o           o o   @   @     = = - I h 5 + X + + + @ O O + + O O + + + + + + + 2 6 8 6 6 2 6 D 6 + 6 6 9 4 % 2 9 ` 9 2 4 ! ( 2 C { D H L.! S.S.K A.K UXUXUXUXUXUXUXUXUXUXUXUXUXUXUXUXUXUXUXUXUXUXUXUXUXUXUXUXUXUXUXUXUXUXUXUXUXUXUXUXUXUXUXUXUXUXUXUXUXUXUXUXUX",
"UXUXUXUXUXUXUXUXUXUXUXUXUXUXUXxXfXK.x.Q K [.]           +               X 2 < < ( Z K Q B.A 1     @ @ + @   @       .   = X W w.G 9 2 * @ @ + + O + + + O + + + + + 2 + + + 6 8 3 6 2 2 9 5 + 2 6 9 8 2 2 6 H 2 2 2 H ] 9 D [ ] C H S.{ .X` P.H v.UXUXUXUXUXUXUXUXUXUXUXUXUXUXUXUXUXUXUXUXUXUXUXUXUXUXUXUXUXUXUXUXUXUXUXUXUXUXUXUXUXUXUXUXUXUXUXUXUXUXUXUX",
"UXUXUXUXUXUXUXUXUXUXUXUXUXUXUXkX|.B.B.Q K ` P.+   @ @       @           X + 2 K Z Q A _ _ ] ; +           @   @     X I = r k y.' 9 + # + + @ O + + + + + + + + + + 2 2 2 + 2 8 8 8 + 2 9 8 2 + 2 9 8 2 2 2 D 2 2 2 n { 9 2 ] c.` < { S.( [ P.S.H.UXUXUXUXUXUXUXUXUXUXUXUXUXUXUXUXUXUXUXUXUXUXUXUXUXUXUXUXUXUXUXUXUXUXUXUXUXUXUXUXUXUXUXUXUXUXUXUXUXUXUXUX",
"UXUXUXUXUXUXUXUXUXUXUXUXUXUXxXkX|.V.x.B.! ( [ [ +     + @                 + C K m Q Z Q ! ` m.# X .   .   . .     X . . v v E j G.Y * X + + + + + + + + + + + + + + 2 6 2 + 2 8 8 8 2 + 8 9 2 + 2 4 8 2 2 2 D 7 6 8 9 ! 8 ; L [ L 8 { A.S.P 9.J.{ UXUXUXUXUXUXUXUXUXUXUXUXUXUXUXUXUXUXUXUXUXUXUXUXUXUXUXUXUXUXUXUXUXUXUXUXUXUXUXUXUXUXUXUXUXUXUXUXUXUXUXUX",
"UXUXUXUXUXUXUXUXUXUXUXUXUXUXxXkX].V.Q Q Q ] J [ B.8                     @ n ! m Q ! ] ! ` F I ,.w . . $ . . $ . . . . I F ,.j ,.3 + + + + + + @ + + + + + + + + + + * 6 6 2 2 2 8 8 6 2 6 8 6 2 2 6 4 < % < 9 7 9 D H K n 8 ` ` ` H L [ B.K [ H.c.UXUXUXUXUXUXUXUXUXUXUXUXUXUXUXUXUXUXUXUXUXUXUXUXUXUXUXUXUXUXUXUXUXUXUXUXUXUXUXUXUXUXUXUXUXUXUXUXUXUXUXUX",
"UXUXUXUXUXUXUXUXUXUXUXUXUXUXzXgX].B.Q m ! K ! H D ` ( 7     @     @ @ 2 H ( ( ) B.c.S.A.' F.y.<.f.R.(.. . . . . . $ = >.I E j $ 3 2 2 + @ @ + + + + + + + + + + + + + 5 8 6 2 * 8 9 8 2 2 6 6 2 2 6 4 2 2 2 8 4 7 H [ ! n 4 ( K ! 2 ` [ ( ! c.] { v.UXUXUXUXUXUXUXUXUXUXUXUXUXUXUXUXUXUXUXUXUXUXUXUXUXUXUXUXUXUXUXUXUXUXUXUXUXUXUXUXUXUXUXUXUXUXUXUXUXUXUX",
"UXUXUXUXUXUXUXUXUXUXUXUXUXUXkXfXK.B.Z H m n D D C n n D L L H N J J L [ S.S.H.[.[.+XL..X^.c -.;.=.;.;.s.U.9Xd T i $ T >.y = = = # X + + + + + @ + + + + + + + 2 + + 2 6 8 8 2 2 5 5 8 6 2 2 6 6 2 2 4 2 4 6 4 9 2 9 A.K n 6 ` ` D f R { L ! ] B.H.v.UXUXUXUXUXUXUXUXUXUXUXUXUXUXUXUXUXUXUXUXUXUXUXUXUXUXUXUXUXUXUXUXUXUXUXUXUXUXUXUXUXUXUXUXUXUXUXUXUXUXUX",
"UXUXUXUXUXUXUXUXUXUXUXUXUXnXkX|.K._ Q m 8 m 6 D C D N L A.J.m.^ { ! ! ! ! { S.x.H.L./.L.$.r. .X.&.X.&.3.6.U.XX<.$ = e y 3 * 3 + 2 + + + + + + + + + + + + + 2 6 2 2 2 6 6 8 3 6 6 2 3 6 2 6 6 6 2 2 6 % 6 2 6 8 9 > [ P G D [ [ J H G D.L H [ S.H.Z v.UXUXUXUXUXUXUXUXUXUXUXUXUXUXUXUXUXUXUXUXUXUXUXUXUXUXUXUXUXUXUXUXUXUXUXUXUXUXUXUXUXUXUXUXUXUXUXUXUXUX",
"UXUXUXUXUXUXUXUXUXUXUXUXUXzXlX XK.z.Q m m 1 6 9 N D D.}.A.^ ^ N N N H H n 7 7 D [ S.XXXX$.<.O.O.%. .&.;.=.*.<.,.3 5 9 3 2 2 + + + + + + + @ + + + + + + + + + 2 6 2 2 2 6 5 3 6 6 2 2 2 6 2 2 6 2 2 < 2 2 6 8 h 3 3 ,.F I I x W I ,.G.G.w.P.{ w.9.( H.z.UXUXUXUXUXUXUXUXUXUXUXUXUXUXUXUXUXUXUXUXUXUXUXUXUXUXUXUXUXUXUXUXUXUXUXUXUXUXUXUXUXUXUXUXUXUXUXUXUX",
"UXUXUXUXUXUXUXUXUXUXUXUXUXkXfX].x.z.A A 8 n n @ D L./.[ ^ ^ J ! K N N N N 9 7 7 / L.8XvXtXc O.#.| :.%. .@.-.U q * 2 2 2 # + + + + + + + + + + + + + + + + + 2 2 2 2 2 2 2 2 6 6 2 2 6 6 2 2 2 2 2 4 4 4 8 9 9 3 y F F.e.F.T.`.Q.`.XXF._._._._..XXXP.S.S.v.H.[.b.UXUXUXUXUXUXUXUXUXUXUXUXUXUXUXUXUXUXUXUXUXUXUXUXUXUXUXUXUXUXUXUXUXUXUXUXUXUXUXUXUXUXUXUXUX",
"UXUXUXUXUXUXUXUXUXUXUXUXUXlXfXC.B.z.Q Z m 8 ; L /./.J.A.A.[ ^ ^ ! J J H J H N 9 N A.XX.X,.$.o.o. .%.O.O.*.+.q X * * 2 2 # + + + + + + + + + + + + + + + + + 2 2 2 2 6 2 2 2 6 8 2 2 2 2 2 6 9 f P 9 4 9 6 2 y E >.w.W k ,.$.o.$.k t.W G.y.k G.u.9.R P.9.L.+XS.H.J.{.UXUXUXUXUXUXUXUXUXUXUXUXUXUXUXUXUXUXUXUXUXUXUXUXUXUXUXUXUXUXUXUXUXUXUXUXUXUXUXUXUXUXUX",
"UXUXUXUXUXUXUXUXUXUXUXUXgXlXhXC.B.Q Q C H 2 H .XOX.XL.J.A.m.c.J ! ! J J J J H N ` J.' $ $ $ F.+.O. .O.%.$.t $ * * 2 2 > # + + + + + + + + + + + + + + + + + + 2 2 6 6 6 2 2 2 6 2 2 * 2 9 H H D 9 2 4 9 8 + 2 G w.r k W $.u.U o.v u.y.E u.W G.G.).).W ).9.9..XA.L.L.{.UXUXUXUXUXUXUXUXUXUXUXUXUXUXUXUXUXUXUXUXUXUXUXUXUXUXUXUXUXUXUXUXUXUXUXUXUXUXUXUXUXUX",
"UXUXUXUXUXUXUXUXUXUXUXUXgXlX XV.z.Q Z Q n 9 .XOXcXcX.XD.A.m.[ ] ^ ! J J ^ / L D ` +X{ > 3 ,.e T c } O.o.p $ = * % % + + + + + + + + + + + + + + + + + + + + + + 2 2 6 6 2 2 * * * 2 6 9 H J h 2 2 4 8 4 8 8 * . r G.w.- W t.u.u.u.t.G.w.G.u.G.).).t.G.).'.G.G.L.c.K.K.+XUXUXUXUXUXUXUXUXUXUXUXUXUXUXUXUXUXUXUXUXUXUXUXUXUXUXUXUXUXUXUXUXUXUXUXUXUXUXUXUXUX",
"UXUXUXUXUXUXUXUXUXUXUXUXkXgX].V.z.) Z A 7 c.jXmXmXvX+XJ.J.A.] { ! ! ! J ^ ^ ^ L A.cXc.@ y w.e $.c c O.o.q $ * + % % + + + + + ; + + + + + + + + + + + ; + + + + 2 2 2 6 6 2 2 2 * 6 8 9 D 9 6 2 8 n 9 7 8 8 2 + X w.w.W u.v u.U u.u.w.k & G.).g u.k ).9.).G.u..XB.x.B.[.{.UXUXUXUXUXUXUXUXUXUXUXUXUXUXUXUXUXUXUXUXUXUXUXUXUXUXUXUXUXUXUXUXUXUXUXUXUXUXUXUX",
"UXUXUXUXUXUXUXUXUXUXUXUXkXfXC.B._ Q Q 6 H .XcXPXmXcX+XL.D.S.c.^ ! ! ^ ! L ! ^ ^ [.gX` 7 D Y F E U c } o.a = + % % % + ; > # # > + + + + + + + + + + + ; 2 2 + 2 2 2 2 6 6 6 6 2 2 5 9 9 6 2 2 3 2 6 8 9 9 6 2 2 + h W w.v k u.k ).G.G.w.4 D w.g R k R R g W W P.P.9.A.P.L.{.UXUXUXUXUXUXUXUXUXUXUXUXUXUXUXUXUXUXUXUXUXUXUXUXUXUXUXUXUXUXUXUXUXUXUXUXUXUXUX",
"UXUXUXUXUXUXUXUXUXUXUXUXkX|.V.z.Q A ! m m.OXvXmXmXjX.XL.L.J.D.c.c.] / ` [ [ [ { +X+X! 9 9 N P u T c c c T 3 X 2 < % + ; > # + # + + + + + + + + + + + + 2 2 + # 2 2 6 2 2 2 2 2 8 8 9 9 3 2 2 6 8 9 8 6 5 9 9 2 + 5 G w.R w.w.5 R P G f K 9 K { R f { f P ` R 9.w.w..XA.H.J.fXUXUXUXUXUXUXUXUXUXUXUXUXUXUXUXUXUXUXUXUXUXUXUXUXUXUXUXUXUXUXUXUXUXUXUXUXUXUX",
"UXUXUXUXUXUXUXUXUXUXUXgXlX].B.) Q H ! 8 L.OXOXcXOX}..X.X.X.XL.J.S.c.[ [ m.m.m.J.+XL.n n ! 7 3 I U o.o.p T u X % % < < ; > # # + + + + + + + + + + + + + + 2 2 2 2 2 2 2 2 2 2 2 8 8 8 3 6 6 5 3 8 8 8 8 8 8 8 6 + D 6 ' G 2 5 h G L 8 ( H n n H K ( K B.L.[ { ] A.L.J.L.A.L.{.UXUXUXUXUXUXUXUXUXUXUXUXUXUXUXUXUXUXUXUXUXUXUXUXUXUXUXUXUXUXUXUXUXUXUXUXUXUX",
"UXUXUXUXUXUXUXUXUXUXUXzXlX].x._ H Z C H L.+X.X+X.XL.L..XOXcX+X.XL.J.D.J.D.J.D..X.X{ n K H D D j +.0 c s a u 3 + % < < ; > # # + + + + + + + + + + + + + + 2 2 2 2 2 2 2 2 6 2 2 5 6 6 3 8 8 8 8 8 5 8 8 9 9 8 8 6 9 6 H ` L H 8 f { ( c.x.( K K ! ] { c.J.S.A.S.[.L.c.A.{ x.{.UXUXUXUXUXUXUXUXUXUXUXUXUXUXUXUXUXUXUXUXUXUXUXUXUXUXUXUXUXUXUXUXUXUXUXUXUXUX",
"UXUXUXUXUXUXUXUXUXUXUXnXfXK.B.Q Z n n ( [..XL.[.L.L.}.OXmXmXvX.X.XOX+X.X}.OX.XJ.J.D > H H L N u o.d d *.s T 3 + % % ; > # + + + + + + + + + + + + + + + + + 2 2 2 2 2 2 2 6 6 6 5 5 8 8 9 9 9 9 9 9 8 9 9 9 9 9 7 9 9 2 7 9 n N 9 R P ] B.! K ( { ( S.S.L.S.S.L.c.S.A.S.S.H.[.|.UXUXUXUXUXUXUXUXUXUXUXUXUXUXUXUXUXUXUXUXUXUXUXUXUXUXUXUXUXUXUXUXUXUXUXUXUX",
"UXUXUXUXUXUXUXUXUXUXUXzXfX].) Q C n C ] [.J.J.J.D.J.L.jXmXPXmXcXcXgXjXOX8XOX/.m.^ N 7 ! L Y J E 0 0 } s +.2.$ 3 * 2 > ; # + + + + + + + + + + + + + + + + + 2 2 2 2 2 2 6 6 6 6 8 8 9 9 9 9 9 9 9 9 9 9 9 9 n 9 n 9 n D K D H H 9 G D C ] { c.] ( { ] ] D A.] c.L.L.J.L.J.H.H.hXUXUXUXUXUXUXUXUXUXUXUXUXUXUXUXUXUXUXUXUXUXUXUXUXUXUXUXUXUXUXUXUXUXUXUXUXUX",
"UXUXUXUXUXUXUXUXUXUXUXkX].B.x.Q C C C ( J.A.D.A.J.L.L.OXmXmXmXcXcXvXmXvX8XJ.{ F 3 9 N ` J F { 2.0 8...O.+.1.q = * * > # # + + + + + + + + + + + + + + + + + 2 2 * 2 2 2 6 6 6 3 6 8 8 8 8 8 9 9 h y 9 9 9 9 9 9 9 D H ` L n H J R 5 4 9 H 2 2 2 2 % 8 J L H D H L S.B.UXUXUXUXUXUXUXUXUXUXUXUXUXUXUXUXUXUXUXUXUXUXUXUXUXUXUXUXUXUXUXUXUXUXUXUXUXUXUXUXUXUX",
"UXUXUXUXUXUXUXUXUXUXUX|.].V.( A C C 8 ( m.A.[ ] m.A.J..XOXvXvXmXmXPXmX/.E E Y u / ' B y F F { U 0 @.8.@.=.+.F.e * 2 > > # + ; < + 2 2 + + + + + 2 > + + 2 > 2 2 * 2 2 2 6 6 3 3 6 8 9 9 8 8 9 D D D 9 9 9 9 9 9 9 D 9 J L ! ] J 8 * 8 4 6 6 9 2 * 5 % 4 2 L ` ! L n ` J.UXUXUXUXUXUXUXUXUXUXUXUXUXUXUXUXUXUXUXUXUXUXUXUXUXUXUXUXUXUXUXUXUXUXUXUXUXUXUXUXUX",
"UXUXUXUXUXUXUXUXUXUXzXfXC.z.( K m C 8 ! ] [ ^ L ' [ D.J.}..XOXvXmXmXOX>.' D.F.F.J./.{ 3 J E / T 8.8.@.=.@.1.1.= 3 * 2 # # % % % < 2 2 + + 2 2 2 2 2 % + 2 2 2 2 2 2 2 6 6 6 3 3 5 8 9 9 9 N D D D D D D 9 9 9 9 9 P ` G 8 * 2 + 9 2 7 9 9 6 8 h h 5 9 9 H 7 H K ! K H H ) UXUXUXUXUXUXUXUXUXUXUXUXUXUXUXUXUXUXUXUXUXUXUXUXUXUXUXUXUXUXUXUXUXUXUXUXUXUXUXUX",
"UXUXUXUXUXUXUXUXUXUXzX|.C.x.Q C n n C H ! H D D P P / ` A.J.L.cXmXvX/.>./.F.F.F.F.F.F.u e F E i +.8.@.=.6.6.F.i 3 2 2 2 2 < < < % 2 2 * + 2 6 6 2 2 2 2 2 2 2 2 2 2 6 6 6 8 5 5 8 8 8 9 D D h 9 h D D D D 9 9 8 J 9 Y 9 9 5 9 8 6 9 9 2 9 9 8 5 4 h f D 9 D C ! ! K K K ( Q UXUXUXUXUXUXUXUXUXUXUXUXUXUXUXUXUXUXUXUXUXUXUXUXUXUXUXUXUXUXUXUXUXUXUXUXUXUXUX",
"UXUXUXUXUXUXUXUXUXUXkXfXB.x.A A n 9 C C _ K 5 h y y G F ` w.D..XOX.X>.G.^.e.t.y.y.,.F.,.= y ' F 2.@.@.6.f.f.U.i y 7 6 6 ; 6 2 2 % * X 2 + 2 6 6 2 2 2 2 2 2 * * * 2 2 4 4 4 4 4 8 9 n 9 9 9 h h H P H H D 9 8 9 D h [ G H 8 8 D 9 n n 9 9 9 9 9 9 2 2 5 8 6 9 K K ` R ` B.( ~ UXUXUXUXUXUXUXUXUXUXUXUXUXUXUXUXUXUXUXUXUXUXUXUXUXUXUXUXUXUXUXUXUXUXUXUXUXUX",
"UXUXUXUXUXUXUXUXUXUXzX XB._ A Z D 9 1 A Q A h r e r h h P R ` >.L./.F.^.^.t.t.e.e.t.y.F.E e F u 2.@.6.6.6.U.U.u = N n n > 2 9 + * * * 2 6 2 2 ; 2 2 2 2 2 2 2 2 2 2 2 4 4 4 4 4 9 9 n n n 9 h P D P H H 9 9 h H L 3 * + J L H 7 D D C 9 4 6 6 2 2 5 9 9 9 4 2 < h P ] ] { ( ! m UXUXUXUXUXUXUXUXUXUXUXUXUXUXUXUXUXUXUXUXUXUXUXUXUXUXUXUXUXUXUXUXUXUXUXUXUX",
"UXUXUXUXUXUXUXUXUXUXkX].B._ S Z n 9 4 8 A R h 3 = e r 5 h G G Y >.G.G._.Q.E.T.e.e.e.,.y.,.y e T 2.1.U.U.6.Y.Y.(.1.a e , e = # 3 7 ; 7 > ; 6 + 5 2 2 * 2 2 2 2 2 2 7 7 7 4 8 9 9 n n n 9 n h P P G H H D D D h 9 6 8 2 6 D 8 J 9 8 9 9 7 7 8 9 9 6 8 8 4 4 C C f C 9 K ( B.( ( ( ) UXUXUXUXUXUXUXUXUXUXUXUXUXUXUXUXUXUXUXUXUXUXUXUXUXUXUXUXUXUXUXUXUXUXUXUX",
"UXUXUXUXUXUXUXUXUXnXfX].B._ Q C 7 7 9 8 C ] 3 = $ = = - 5 k j F E F.^._.E.E.E.I.t.<.e.,.e.$.u ,.i M.U.6.f.Y.Y.Y.(.N.U.W.0 e w $ 2 6 o 7 6 2 2 X * * * * 2 2 6 6 6 6 6 7 7 8 9 9 n n n 9 n D P P G H H J J P 9 6 6 9 f D D 2 H y 5 9 8 7 3 6 8 9 4 7 4 9 8 4 9 C C 4 H Q K ] D.] A.z.UXUXUXUXUXUXUXUXUXUXUXUXUXUXUXUXUXUXUXUXUXUXUXUXUXUXUXUXUXUXUXUXUXUXUX",
"UXUXUXUXUXUXUXUXUXnXfXK.) K Q Z n 6 4 9 8 Y u e = = $ - - = r r v w.^.`.^.!.T.T.t.-.e.,.<.,.u x a 1.(.U.Y.:XY.:XY.Y.U.Y.1.d d 0 7 m n 6 2 6 X 5 * * * 2 2 6 6 6 2 2 2 4 4 5 9 9 9 9 9 9 n D P H D H L J H D h D H D 9 9 D 9 D 9 y y 9 8 3 6 7 4 8 8 4 8 9 8 9 9 8 L D N J ` L ] { ( z.UXUXUXUXUXUXUXUXUXUXUXUXUXUXUXUXUXUXUXUXUXUXUXUXUXUXUXUXUXUXUXUXUXUX",
"UXUXUXUXUXUXUXUXUXzXfXV.x._ Z Z n n 7 9 * E F.u $ $ $ - - - = = k ,.G.`.`.`.E.T.I.d.y.y.y.e.$.x 8X$ 1.eXY.f.k.Y.6.Y.:X=.6.=.@.+.y 1 7 ; + 3 * 2 * * * 2 2 2 6 2 2 * * 4 4 5 5 9 9 9 9 9 n D D D H G G P D D H H D 9 H 9 9 y 9 h 5 5 5 8 8 8 9 9 9 9 7 6 8 9 y 5 y u y I N P D ! { 9.A.z.UXUXUXUXUXUXUXUXUXUXUXUXUXUXUXUXUXUXUXUXUXUXUXUXUXUXUXUXUXUXUXUXUX",
"UXUXUXUXUXUXUXUXUXkXfXK.) _ A Z m n n 2 9 P./.T = . . X X X = $ k u.G.^.`.`.`.W.I.I.e.r.e.-.e.U u 8Xq <.`.9X(.Y.Y.Y.6.6.6.6.8.*..XcXJ h y X + 2 2 2 2 2 2 6 6 2 2 * 2 4 4 4 8 9 9 9 9 9 D D D D G H D h D H H D 9 9 D D h D 9 9 h 9 8 8 8 7 6 7 6 8 8 3 3 3 = q w o.z t a T B J H G ' P.[.UXUXUXUXUXUXUXUXUXUXUXUXUXUXUXUXUXUXUXUXUXUXUXUXUXUXUXUXUXUXUXUX",
"UXUXUXUXUXUXUXUXUXkX|.K.S _ Z A C 1 n + ` /.D.' y = . * * . - . r y.G.Q.`.9X`.W.R.I.d.t.e.e.<.e.I F bXa T f.:X(.Y.Y.6.U.6.0 N.1./.OXOXvX* y 5 * 2 6 6 2 6 2 6 2 2 2 6 7 7 4 8 9 9 9 9 9 h D D n 8 h D P H H D 9 D D h D 9 9 9 9 9 5 8 8 8 8 7 7 7 2 3 e q 0 l *.=.&.&.%.O.o.T I F j k G { H.UXUXUXUXUXUXUXUXUXUXUXUXUXUXUXUXUXUXUXUXUXUXUXUXUXUXUXUXUXUXUX",
"UXUXUXUXUXUXUXUXxXgX].K.z.Q H Z C 8 1 2 >..X>.{ Y y # . . X X . v t.G.Q.E.`.`.^.R.W.R.d.t.r.-.-.>.G G ,.^.1.} *.=.=.1.1.2.2.,.>.G.XX8XvXvX+X7 3 # 8 6 6 2 4 + 4 ; n 6 m m n 6 n 9 8 8 9 h h D D h 9 9 D H H D 9 9 D D 9 9 9 9 8 8 4 7 4 9 9 8 6 3 3 $ w p %.;.l.#Xk.k.j.j.6.| } s v t k Y ~ [.UXUXUXUXUXUXUXUXUXUXUXUXUXUXUXUXUXUXUXUXUXUXUXUXUXUXUXUXUXUX",
"UXUXUXUXUXUXUXUXzXfX].V.z.Q Q Z m 8 + 4 D.oXD.>.' ` L 9 # . . X W e.F.Q.E.`.`.`.W.W.R.I.d.r.q.e.w.' G ,.U u jXU.(.N.1.i T T D.>.' L.OXcXvXOXOXcX9 2 2 2 % 5 % % 4 6 6 n 6 1 8 9 8 5 9 9 h D D D P D D D D D 9 9 D D 9 9 8 8 9 9 9 4 6 7 4 8 9 r e w c *.s.f.j.h.a.;X=X;X=X;X;Xj.&. .} t F ^ ~ {.UXUXUXUXUXUXUXUXUXUXUXUXUXUXUXUXUXUXUXUXUXUXUXUXUXUXUXUXUX",
"UXUXUXUXUXUXUXUXzXfXK.V.) Q Q A C P @ I ^._.w.D.` ` ` ` F 3 # = ,.w.e.E.W.^.!.`.!.W.R.R.T.t.r.e.,.,.E j ' 2.i e e e i i J ^ ] ^ S.J./.vXvXOX+XjXvXOX9 9 5 - 4 4 % * % 2 7 7 C 2 5 5 5 5 h D D H D D D D D h h h D D y 9 8 8 8 8 6 6 7 9 9 3 = $ T O.*.Y.j.#X@Xa.,X;X6X%X6X4X6X2X;X<X;.c U [ ! z.Z.UXUXUXUXUXUXUXUXUXUXUXUXUXUXUXUXUXUXUXUXUXUXUXUXUXUXUXUX",
"UXUXUXUXUXUXUXUXzX|.V.x._ Q Q H 9 y . U G.^.F.F.[ ] L Y Y F F W ,.,.y.E.I.T.I.!.W.W.R.R.R.d.t.t.t.,.I T Y >.J N 7 N 7 B B ^ J c.^ c.[.cXvXvX+XOXvXvX+X  2 8 < 2 5 * 5 * 4 9 % 2 5 5 5 5 9 9 n N n N D D D D D P y y 9 9 8 8 8 6 8 9 8 2 X = T <.1.=.p.5.h.a.=X-X5X2X2X7X7X1XiXdXqX<X0X9Xx E L [ v.[.UXUXUXUXUXUXUXUXUXUXUXUXUXUXUXUXUXUXUXUXUXUXUXUXUXUXUX",
"UXUXUXUXUXUXUXUXkX XV.z.Q Q Q H u $ 0 1.-.(.e.G.P.[ L L L F G W U E y.G.F.G.d.!.R.R.E.R.W.I.t.t.1.<.e.T Y ] ! C 9 H J B ^ J B ! c.J J..XvXcX/.XXtXvX+XUXUXo m 6 4 + 9 7 o ; 7 8 5 5 5 5 5 8 n n N D D D D D D D 9 9 9 8 8 8 8 6 8 * * r I U +.O.O.4.k.h.#X;X$X1X2X4X6XiXdXdXaXiXDXyXGXbXtXy.,.' c.~ [.UXUXUXUXUXUXUXUXUXUXUXUXUXUXUXUXUXUXUXUXUXUXUXUXUXUX",
"UXUXUXUXUXUXUXzXfX].V.z.Q Q K D v $ wX:X3.;.e.G._.w.Y Y Y Y F j I U y.F.e.t.T.!.R.!.R.R.W.R.d.d.;.6.<.,.F L { H C n D D [ [ / m.c.m.S.L.cXvXOX/.XXvXvXUXUXUXUX: M m o UXUXUXo 6 8 5 5 5 5 8 9 n 9 9 D D 9 9 9 9 9 8 6 6 6 8 8 8 2 3 y F T v O.:.p.j.#Xa.=X%X1X2X6X3XaXiXiXiXpXsXDXDXGXCXGXHX`.e.F.A.H.hXUXUXUXUXUXUXUXUXUXUXUXUXUXUXUXUXUXUXUXUXUXUXUXUXUX",
"UXUXUXUXUXUXUXnXfXC.B.) Q H K B 0 0XyX0X:X4.r.!.oXD.Y Y Y E E I I U F.y.e.t.t.T.E.~.R.T.R.W.T.I.s.s.<.e.I P ! [ L n 7 F ` A.L ] [ S.>.L.XX8XtX_..XvXmXUXUXUXUXUXUXUXUXUXUXUXUXM m 9 9 5 5 5 9 9 9 9 9 9 9 9 8 8 8 5 6 2 6 8 8 8 5 r j U o.#.=.p.p.j.a.=X=X-X2X6X7X3X4XdXaXpXsXuXyXZXFXGXCXGXGX9X$.w.c.+XUXUXUXUXUXUXUXUXUXUXUXUXUXUXUXUXUXUXUXUXUXUXUXUXUX",
"UXUXUXUXUXUXUXkXfXC.B._ S Z K F 9X0XpXqX2Xk.%.T.XXA.` Y F F Y j F I y.y.,.e.t.d.T.R.T.d.T.W.W.T.l.;.<.*.,.F L ` ^ D 7 > D D.[ { m.A.A.>.Q.8XbXXXXXOXvXnXUXUXUXUXUXUXUXUXUXUXUXM m n 9 8 5 5 9 9 y 9 9 9 8 8 8 8 6 6 4 5 9 9 9 5 u t x o.#.#.&.3.k.j.a.,X-X$X6X3X7X7XdXaXVXyXsXuXZXAXFXFXGXZXZXAXFXG.D.J.UXUXUXUXUXUXUXUXUXUXUXUXUXUXUXUXUXUXUXUXUXUXUXUXUX",
"UXUXUXUXUXUXUXzX|.K.z.A Q A K N 0 9XaXqX2X@X=.y.XXA.] ` L / Y j k I y.y.<.-.t.d.d.T.T.T.T.T.W.W.T.r.r.*.$.U F L { K 7 7 y ' D.Y J { Y [ w._.cXvXXXOXcXMXUXUXUXUXUXUXUXUXUXUXUX2 m n n 9 5 4 4 4 9 9 n n n 9 4 6 2 4 9 9 5 5 y u t l z } #.=.3.4.j.j.a.;X$X-X%X3X7X5X5X3XiXsXyXsXuXAXuXZXFXGXGXZXZXGX`.J.H.UXUXUXUXUXUXUXUXUXUXUXUXUXUXUXUXUXUXUXUXUXUXUXUX",
"UXUXUXUXUXUXxXlX XK.x.Q Q K K 9 q :XVX4X1X$X&.*..XL.( L F I Y F k I y.y.<.<.f.d.d.R.R.T.T.T.W.!.E.t.r.-.#.o.j G ( Q D n 7 F ' G Y ^ L D.G./.8XvXoXXXtXMXLXUXUXUXUXUXUXUXUXUX9 4 7 n n 9 5 5 4 4 9 n n n n 8 4 2 4 5 9 5 5 5 r t t z } | O.&.5.4.5.#X,X=X-X-X1X5X6X1X1XdXiXiXaXsXDXuXZXGXAXCXGXGXGXCXCX`.L.UXUXUXUXUXUXUXUXUXUXUXUXUXUXUXUXUXUXUXUXUXUXUXUX",
"UXUXUXUXUXUXxXgX].H.x.Q S A D * q s.qX2X1X=X4.#.y..X[ ' ' Y Y j k x e.e.<.<.f.d.d.R.W.E.T.T.E.!.E.I.f.1.*.$.I F P ! J N 3 y Y Y L ^ Y ' >.L.cXvXtXQ.oXvXmXUXUXUXUXUXUXUXUXUXn * 9 n 9 9 9 5 8 4 4 9 9 9 9 9 8 5 9 9 9 5 5 e r t p c |  .%.%.&.p.p.h.h.;X%X-X%X5X6X6X5X1X6XaXpXaXpXyXJXAXAXJXZXZXFXGXCXHXXXUXUXUXUXUXUXUXUXUXUXUXUXUXUXUXUXUXUXUXUXUXUXUXUX",
"UXUXUXUXUXUXkXhX].V.z.S S A n # U =.<XqX2X=Xg...+..XF.E I Y Y y h j ,.,.<.<.r.f.d.d.E.E.T.T.W.E.!.R.d.1.-.*.U j P J J N 7 7 P ` J N D P Y >.OXvX8X/.G.cXmXKXUXUXUXUXUXUXUXUXn 5 8 7 8 8 9 9 8 4 2 4 4 6 8 9 D h 9 5 5 3 e e i p l c | O.%.%.&.p.k.h.h.@X;X-X%X-X1X7X5X5X1X3XaXpXaXsXuXyXAXGXZXJXFXFXGXZXCXUXUXUXUXUXUXUXUXUXUXUXUXUXUXUXUXUXUXUXUXUXUXUXUX",
"UXUXUXUXUXUXkX|.K.B.) Q A H 8 = e.:.0XqX6X>X=X&.o.E.^.,.Y ' ' P h k $.$.,.-.r.t.t.d.T.T.T.T.T.W.!.!.I.r.-.*.$.I h F F y 7 7 y ! J y D L Y ` }.cX8X_.G.XXmXmXUXUXUXUXUXUXUXUX1 9 3 6 6 7 9 9 8 5 4 4 8 4 8 h D y 5 5 3 e e w t s z c | O.%.%.&.4.4.h.@X@X=X=X%X%X5X-X1X5X5XaX5XaXpXsXDXsXDXyXAXCXFXGXCXJXJXHXUXUXUXUXUXUXUXUXUXUXUXUXUXUXUXUXUXUXUXUXUXUXUX",
"UXUXUXUXUXUXxX|.K.B.x._ Q Z 6 y e.#.uXqXqX4X;Xf.+.<.`.F.,.' L h h k E ,.$.-.e.t.t.d.T.T.T.T.T.W.E.!.T.f.1.-.$.U u j F F 9 2 7 H ^ J L Y / / J.OX8XE.E.Q.tXmXMXUXUXUXUXUXUXS n 5 5 6 2 6 7 9 5 5 5 9 9 9 9 y y 5 3 = = q e t s s z c } | %.%.&.3.4.j.g.#X@X;X$X-X%X6X6X1X3X6X7XdXaXsXyXBXuXAXZXGXFXFXAXSXSXFXIXUXUXUXUXUXUXUXUXUXUXUXUXUXUXUXUXUXUXUXUXUXUX",
"UXUXUXUXUXUXkX].K.B.x.x.Q Z 2 E F.#.BXpXpXqX<XY.1.,._.G.w.>.Y G j k $.$.$.#.e.r.r.t.d.T.E.T.T.E.E.!.T.I.r.-.-.$.z t F F 9 7 6 D m./ L [ { Y >.XXtXXX,.E.XXmXMXUXUXUXUXUXUXM n * 5 5 5 8 9 7 5 5 8 8 9 5 r 5 3 = = = = q t p s s c } | | O.%.&.5.4.j.@X7.@X=X;X=X-X$X5X6X3X1X3X6XaXaXpXpXsXuXuXZXJXBXGXGXAXZXFXUXUXUXUXUXUXUXUXUXUXUXUXUXUXUXUXUXUXUXUXUXUX",
"UXUXUXUXUXnXfX].B.x.) ) Q n 6 F.y.*.yXBXBXyX0X:Xd t w.F.D.D.Y F j j E $.o.o.-.r.r.r.t.d.T.T.T.T.!.^.W.R.d.e.-.$.o.t r y 9 7 6 n ' w.>.' ' >.A./.oX8Xe.u.`.vXmXUXUXUXUXUXUXM 9 f 4 5 9 9 9 9 8 8 3 3 3 3 3 = = = = = q e t p s s c o.O.O.O.%.&.5.5.4.7.#Xg.@X@X=X=X-X$X6X5X3X5X4X7XaXaXpXsXyXuXuXyXDXGXZXZXZXGXFXPXUXUXUXUXUXUXUXUXUXUXUXUXUXUXUXUXUXUXUXUX",
"UXUXUXUXUXxXfX].V.x.z.) Q 8 Y F.e.O.<XBXBXCX} c e y y w.D.>./ F y h E E U | -.q.r.t.t.d.R.T.I.I.T.!.!.!.d.t.-.*.o.c t y y 9 8 n Y >.E ' W ' A.L.XXXX$.e.G.XXmXMXUXUXUXUXUXM n 5 9 9 5 5 6 6 6 3 3 3 3 = e e q = = = q q t t p s c c } } O.O.&.5.4.4.4.j.@X@Xg.@X;X%X-X5X3X4X4X4X4X7XaXaXpXyXyXDXyXDXAXCXGXZXSXGXFXHXUXUXUXUXUXUXUXUXUXUXUXUXUXUXUXUXUXUXUX",
"UXUXUXUXUXxXfXC.x.) ~ Q H C ' G.F.-.=.CXCXs c t y 8 9 G D.w./ B F j E U U o.-.-.r.r.t.t.d.T.T.T.T.!.!.!.T.t.r.-.#.} t e y 9 7 n F W j I W E { A.L./.,.$.G.Q.tXvXUXUXUXUXUX6 2 6 n 9 5 * 2 2 2 2 3 3 3 3 e e e $ q q q q t t l x c } } } O.O.O.&.&.5.4.k.k.h.#X=X&X-X-X$X>X6X1X4X3XdX4XiXdXsXaXyXsXDXuXZXZXGXSXAXGXFXIXUXUXUXUXUXUXUXUXUXUXUXUXUXUXUXUXUXUX",
"UXUXUXUXUXnX|.C.z._ ~ Z C H D.G.1.U.s.*.NX$.x F 9 8 D h >.D./ F G k E U U o.#.%.r.r.r.r.d.T.T.T.T.E.Q.Q.E.d.r.;.#.#.l q y N 9 N F ,.,.W ' >.A.>.F.L.F.v G.G.oXvXmXUXUXUXUX9 9 9 n 7 - - 2 2 2 * 3 3 = e e e e = q q q q t t l l c c } | O.O.O.%.;.5.4.4.k.j.k.@X@X;X=X-X%X1X4X3X3X5X7X6XiXiXpXpXpXpXsXyXZXAXAXCXAXGXFXIXUXUXUXUXUXUXUXUXUXUXUXUXUXUXUXUXUX",
"UXUXUXUXUXxX].C.x.) ) Q n H D.G.U.U.s.s.t.0 u 3 8 n C H Y D.>.T F h E $.o.c O.:.:.r.r.r.d.d.d.I.T.T.E.Q.Q.E.t.r.-.-.U t r y N N 3 w.L.w.W ` D.L.J./.^.U y.G._.tXvXUXUXUXm C 2 7 8 6 * & > 2 2 * # = = = q e q = q q q q w t p p z c c } O.O.O.%.%.X.4.4.j.j.k.h.@X@X;X;X%X%X-X3X3X6X4X3X7X6XaXaXpXsXyXsXBXyXZXAXGXZXAXFXUXUXUXUXUXUXUXUXUXUXUXUXUXUXUXUXUX",
"UXUXUXUXUXgX].B.x.) ) Q C 9 w.E.R.s.s.t.v I G 9 n 8 < 9 h w.F.' I F ,.$.U v #.*.:.0.0.0.r.d.d.d.T.T.E.Q.^.Q.d.r.r.-.#.x e r F N y y Y I ` E >.A.m.F.^.,.,.G.Q.XXOXUXUXUX~ 7 7 6 2 2 * * > > 2 * # = = = q e q q q q q e t t p p c c c } O.O. .O.;.&.f.3.4.4.4.j.@Xa.=X,X-X$X6X-X4X3X3X5X3XdX1XaXsXsXiXpXyXBXuXuXCXJXZXGXUXUXUXUXUXUXUXUXUXUXUXUXUXUXUXUXUX",
"UXUXUXUXUXgX].z.z.) ! ! H 5 w.E.I.s.s.e.e.t Y n 8 1 2 4 5 I F.' I I ,.U v o.*.%.;.0.0.0.r.s.d.l.I.T.E.Q._.!.T.t.r.:.-.U r e y N 7 3 y y h P L ' / >.G.y.U F.E.XX8X+XUXUXUX6 N 7 2 2 2 2 ; + > * # * = = = e e q q q e t t p p p x c z c | | | O.:.%.;.=.3.4.4.j.h.h.#X7.;X-X$X%X5X3X$X6X4X3X5XdX2XpXsXiXsXsXAXyXJXSXDXCXUXUXUXUXUXUXUXUXUXUXUXUXUXUXUXUXUX",
"UXUXUXUXUXgXZ.z.) ) ~ ! H 2 ,.T.r.l.0.q.e.E Y J n 7 9 5 5 r E ' G G E U v } *.%.;.r.r.0.r.r.s.d.d.T.G.G.^.!.R.d.r.1.-.$.I r e B J n 7 5 8 G H J / >.y.G.v e.G._.XXgXUXUXUXm m ; * * 6 ; % % % < # * * * = e e e e e t t t p p p s x z c } } }  .:.&.&.&.3.4.3.4.h.#X@X@X=X=X-X%X$X-X4X4X4X3X4X2XdXaXiXsXaXaXsXsXyXAXSXHXUXUXUXUXUXUXUXUXUXUXUXUXUXUXUXUXUX",
"UXUXUXUXUXUX].x._ ) ~ ~ L 5 ,.T.d.r.r.q.e.U I ^ ^ D 6 * * r y E I F ,.,.o.z | -.-.;.0.r.r.r.r.s.d.T.T.G.Q._.!.I.r.s.-.$.,.k 3 G J 7 7 9 6 9 9 L J Y E G.U ,.F.^.oX8X.XUXUXM m 6 - * ; ; % * < 1 + # # # = = e e i t t t t p p p p s z c } | | O.| :.O.&.&.3.4.4.4.h.@X@X@X=X;X-X%X-X%X%X3X6X3X6X3X2X2XaXsXpXsXaXpXBXuXFXUXUXUXUXUXUXUXUXUXUXUXUXUXUXUXUXUX",
"UXUXUXUXUXUXkX_ A x.Q ~ ! y E d.d.r.q.q.q.$.Y P D C 5 4 * 5 9 y G I E E U o.| #.-.:.0.s.s.s.s.s.l.d.I.E.^._.!.E.d.r.0.-.-.U t 3 F 6 9 3 # y J F L G Y F.,.$.F.I.^.tXOXUXUXUX: 4 - - 2 2 + 2 ; ; 2 > # 3 = - = q i i t u t t p p l l x c c } o.O.#.%.O.%.=.&.5.p.4.4.j.g.@Xg.=X;X-X%X1X3X7X6X3X4X4X1XdX7XaXiXsXpXpXsXyXGXUXUXUXUXUXUXUXUXUXUXUXUXUXUXUXUXUX",
"UXUXUXUXUXUXUX|._ Z m z.J N I t.r.;.:.*.-.$.Y F D H 9 4 5 2 # 7 y G ' E U $.o.#.#.*.;.0.i.;.i.s.s.d.t.G.E.^.Q.E.d.r.r.;.<.$.x = F h 3 3 3 y J ! J J Y >.,.U y.t.`.oXoXUXUXUXM < & - X 3 # + 2 6 > > # # * = = = e i i t t p p p p p c c c c } } O.O.O.%.&.=.;.3.4.4.j.:Xj.k.#X=X;X;X$X-X>X3X6X4X4X3X6X6X1XdXsXpXpXsXpXbXUXUXUXUXUXUXUXUXUXUXUXUXUXUXUXUXUX",
"UXUXUXUXUXUXUXUXgXC.b.~ Z V ' E.d.=.%.| -.$.,.Y J n n D 8 * - - = j ,.$.U $.o.#.%.*.;.0.0.0.i.s.s.d.T.T.E.^.^.!.T.r.s.;.1.-.$.r h G 9 3 9 9 J J L H L ' F.U ,.y.I.8X8X+XUXUXUXM 2 5 + # 6 +   * > 2 2 > 2 y y q e t t t a a a p t p x c c c z z } O. .O.%.&.&.;.p.4.4.k.j.@X@Xg.a.1X%X-X$X6X6X3X3X7X3X5X5X1XpXsXsXpXpXbXUXUXUXUXUXUXUXUXUXUXUXUXUXUXUXUXUX",
"UXUXUXUXUXUXUXUXUXUXUXUXUXUXm.m.*.:.-.#.*.o.U T H ! N n H 5 X - - r ' ,.U U o.o.*.-.;.0.i.i.s.s.s.d.R.T.E.Q.^.!.!.t.s.;.;.<.<.v r P D 3 7 N H n K K J / F.$.$.y.T.XXOXjXUXUXUXUXM 6 7 8 @ 8 X - X + ; @ ; 3 3 = q w t t a a a t p p x x c c c c } O.| |  .%.&.=.5.4.p.4.4.k.@Xg.@Xa.,X%X-X-X%X6X%X4X6X3X7X5X4XaXaXaXiXBXUXUXUXUXUXUXUXUXUXUXUXUXUXUXUXUXUX",
"UXUXUXUXUXUXUXUXUXUXUXUXUXUXUXm.2.@.O.O.#.#.| v I P J H n n 5 X * 3 Y $.U v | | #.%.:.;.;.0.i.i.i.s.d.T.G.E.Q.^.^.d.f.r.;.-.e.$.j h G y 3 n n n n H N L w.E U F.F.XXoXOX.XUXUXUXUX: 1 1 6 9 X X & % 2 ; > 3 = w w w w p p p t t l l x x z c c c } O. .| O.%.%.&.&.5.6.3.3.k.j.h.a.,Xa.,X%X%X-X%X$X6X1X1X6X7X4X4X4XdXiXbXUXUXUXUXUXUXUXUXUXUXUXUXUXUXUXUXUX",
"UXUXUXUXUXUXUXUXUXUXUXUXUXUXUXv.,.$.} } |  . .| x E J n H D 2 * 5 3 U $.U U o.#.#.%.:.:.;.0.i.i.3.i.d.I.G.E.Q.^.^.T.I.f.r.:.;.-.$.r F F 3 7 8 n n n 7 N Y U p y.F.I.oX8XtXUXUXUXUXUXUX: M 1 ; 2 & & + 2 > # = w w w t t t t w w p p x x c z z z } O.O. .O.O.O.%.=.&.=.5.4.4.k.k.@X@Xa.=X;X-X$X-X-X7X$X6X3X7X6X4X3X6XdXyXUXUXUXUXUXUXUXUXUXUXUXUXUXUXUXUXUX",
"UXUXUXUXUXUXUXUXUXUXUXUXUXUXUXUXJ T +.v z w b b I Y L H D H f * y 5 U $.U o.$.#.#.%.%.:.;.0.i.0.i.0.s.d.T.E.Q.^.^.!.W.t.r.;.;.*.,.x r r r 3 7 7 n n 7 9 j I t <.t.T.`.oXXX.XUXUXUXUXUXUXUXUX: ; & & & < 2 3 r j t u u u u t w w p a x x c c c z | | | O.O. . .O.O.%.=.6.5.5.4.k.k.#Xa.@Xa.=X;X-X,X$X6X%X1X5X4X4X6X1XaXaXUXUXUXUXUXUXUXUXUXUXUXUXUXUXUXUXUX",
"UXUXUXUXUXUXUXUXUXUXUXUXUXUXUXUXUX/ Y a v l b l v I P H L K n 8 5 3 I E x U $.| #.#.%.%.:.0.i.;.s.;.r.d.T.T.E.^.^.^.!.r.r.0.;.:.-.$.w q r r 9 > 6 6 9 r x U l -.r.d.`.'.oXjXUXUXUXUXUXUXUXUXUXUXUXUXUX: : > 2 e u u B u u p w w p p l x c c c c o.| } } | ....O.O.%.O.=.&.p.4.4.j.g.@X@X=Xa.,X$X$X;X%X%X5X*X2X4X3X6X3XwXUXUXUXUXUXUXUXUXUXUXUXUXUXUXUXUXUX",
"UXUXUXUXUXUXUXUXUXUXUXUXUXUXUXUXUXUX~ / G E j j I W G P D 9 J 1 2 3 Y I x x $.o.#.#.#.%.:.;.;.;.i.i.s.s.d.T.E.G.^.^.Q.I.r.0.;.:.0.e.} 0 0 x E F F F F E x w z r.r.d.~.'.oXOXUXUXUXUXUXUXUXUXUXUXUXUXUXUXUXUX@ $ x t i w w x w l w a x x s x c c } } | } } } | O.%.O.%.O.&.&.p.4.4.k.j.j.k.h.@X;X=X=X>X$X%X%X3XqX4X4X1XVXUXUXUXUXUXUXUXUXUXUXUXUXUXUXUXUXUX",
"UXUXUXUXUXUXUXUXUXUXUXUXUXUXUXUXUXUXUXUXUXUXUXUXUX[ ` f L D m n n 2 ' E j x l v #.#.#.%.%.:.;.0.;.0.i.r.f.I.W.E.^.^.Q.T.d.r.;.;.%.:.r.-.l $ $ t j j r $ $ p %.s.t.t.!.`.`.oXgXUXUXUXUXUXUXUXUXUXUXUXUXUXUXUXUXUXUXx t a a q U t t p x x x c z z o.o.} } } } } } O.@.%.=.=.=.6.5.4.p.k.j.j.h.k.=X,X;X$X1X%X%X>X$X3X3X3X0XUXUXUXUXUXUXUXUXUXUXUXUXUXUXUXUXUX",
"UXUXUXUXUXUXUXUXUXUXUXUXUXUXUXUXUXUXUXUXUXUXUXUXUXUX~ { R 5 8 9 N # Y Y I x t v | #.%.-.%.%.:.;.;.;.0.r.r.d.T.E.^.^.^.E.d.s.3.;.s.;.:.r.r.#.z t q q q w } ;.s.;.r.r.W.`.`.XXoXUXUXUXUXUXUXUXUXUXUXUXUXUXUXUXUXUXUX/ F t a d a t p t p x x c c c z s s } | O.O.| O.O.O.*.%.&.3.=.4.4.p.k.k.j.k.#Xg.g.-X=X%X%X-XqX>X7X5X2XUXUXUXUXUXUXUXUXUXUXUXUXUXUXUXUXUX",
"UXUXUXUXUXUXUXUXUXUXUXUXUXUXUXUXUXUXUXUXUXUXUXUXUXUXb.z.K f 2 3 7 8 * P F I t z c | #.:.:.-.-.:.;.0.s.i.r.s.I.E.^.^.^.Q.d.s.0.;.%.;.0.;.;.r.r.<.<.<.e.t.s.;.:.:.;.t.I.^.XX`._.UXUXUXUXUXUXUXUXUXUXUXUXUXUXUXUXUXUXUXT x w U x T a t t p x x c o.z c } } } } } | O.#. .:.O.%.=.=.5.3.p.p.4.j.k.k.#Xh.g.@X%X$X;X;X%X1X5XwXUXUXUXUXUXUXUXUXUXUXUXUXUXUXUXUXUX",
"UXUXUXUXUXUXUXUXUXUXUXUXUXUXUXUXUXUXUXUXUXUXUXUXUXUXUXUXUX6 n 8 8 9 2 # E j x l l z | #.-.-.-.-.:.0.0.i.s.s.d.T.E.^.^.Q.T.t.r.;.;.:.%.:.0.0.;.:.:.;.e.-.:.=.;.;.1.t.f.R.`.`.^..XUXUXUXUXUXUXUXUXUXUXUXUXUXUXUXUXUXUX/ x p z p q p t t a x a c c c o.o.} } } } } } O.O.*.%.*.=.&.&.5.3.4.4.j.j.k.j.k.@X,X&X-X-X;X-X$X7XwXUXUXUXUXUXUXUXUXUXUXUXUXUXUXUXUXUX",
"UXUXUXUXUXUXUXUXUXUXUXUXUXUXUXUXUXUXUXUXUXUXUXUXUXUXUXUXUXZ n D 9 7 9   E I x x l l z | #.#.#.-.*.:.0.i.i.s.f.I.G.Q._.^.E.d.s.0.;.;.;.0.;.:.:.;.0.0.:.:.0.s.i.:.1.1.d.d.R.`.XX/.UXUXUXUXUXUXUXUXUXUXUXUXUXUXUXUXUXUXUXt p p p U t t p x x p s c c c c c } } } } } | | #.O.%.;.=.=.&.5.4.4.k.k.j.j.j.@Xa.&X=X7.;X>X$X1X0XUXUXUXUXUXUXUXUXUXUXUXUXUXUXUXUXUX",
"UXUXUXUXUXUXUXUXUXUXUXUXUXUXUXUXUXUXUXUXUXUXUXUXUXUXUXUXUXUXm D 8 9 2 3 * I j I l l l v | o.#.#.#.:.;.i.i.i.s.d.G.Q._.^.Q.T.f.0.:.:.=.:.:.3.3.;.:.:.;.;.;.;.;.i.0.:.s.f.d.!.XX/.[.UXUXUXUXUXUXUXUXUXUXUXUXUXUXUXUXUXUX/ x p d p t t a x a p s s c c c c c c c z | | | | | O.;.=.=.&.5.3.4.4.4.k.#X4.@X@Xg.a.,X=X-X-X%XwXUXUXUXUXUXUXUXUXUXUXUXUXUXUXUXUXUX",
"UXUXUXUXUXUXUXUXUXUXUXUXUXUXUXUXUXUXUXUXUXUXUXUXUXUXUXUXUXUX6 6 9 7 6 * # X U x l l z v | | o.#.*.:.;.i.3.0.r.d.T.E.^.^.Q.T.t.1.1.;.;.;.3.3.&.&.:.;.;.;.;.i.;.=.0.0.0.s.l.d.E./.J.UXUXUXUXUXUXUXUXUXUXUXUXUXUXUXUXUXUXUXB a c p p p p t t p p l s c o.} c c } | } | O.O.%.O.=.O.@.=.&.&.5.4.5.4.4.7.#Xh.@X@Xg.;X=X-X%X:XUXUXUXUXUXUXUXUXUXUXUXUXUXUXUXUXUX",
"UXUXUXUXUXUXUXUXUXUXUXUXUXUXUXUXUXUXUXUXUXUXUXUXUXUXUXUXUXUXUX6 4 < 4 2 X * W W x l } } | #.#.#.:.;.0.s.s.r.r.f.T.W.^.^.^.!.T.y.1.;.;.;.;.3.3.;.;.;.;.;.;.;.6.s.;.;.0.s.s.l.Q.G.L.UXUXUXUXUXUXUXUXUXUXUXUXUXUXUXUXUXUXUXUXV t l p t t t p l l l l z c c z z c } o.} o.O.O.O.O.*.@.&.=.5.5.6.6.k.4.k.k.g.j.@X@X@X&X%X-X;XUXUXUXUXUXUXUXUXUXUXUXUXUXUXUXUXUX",
"UXUXUXUXUXUXUXUXUXUXUXUXUXUXUXUXUXUXUXUXUXUXUXUXUXUXUXUXUXUXUX4 f % % 4 + X 5 ,.,.$.o.O. .|  .*.:.:.;.0.;.0.r.r.t.I.W.W.!.W.E.y.;.=.:.:.=.;.=.=.=.=.;.;.;.;.;.;.s.s.s.s.s.d.Q.G.J.[.UXUXUXUXUXUXUXUXUXUXUXUXUXUXUXUXUXUXUXV u p p p t w p p l l l l z z c z c c } } } O.O.O.O.%.O.%.&.&.=.5.6.6.4.k.4.4.k.j.@X@X&X$X%X:XUXUXUXUXUXUXUXUXUXUXUXUXUXUXUXUXUX",
"UXUXUXUXUXUXUXUXUXUXUXUXUXUXUXUXUXUXUXUXUXUXUXUXUXUXUXUXUXUX! 9 2 D 7 2 2 3 . = ,.r.r.:.:.=.:.0.0.0.0.0.0.0.r.r.y.d.~.!.!.!.E.t.r.0.;.;.0.0.0.0.;.;.;.0.0.0.0.0.;.;.1.r.t.T.!.Q.G.L.UXUXUXUXUXUXUXUXUXUXUXUXUXUXUXUXUXUXUXUXJ p p p p p p p p p c c c c } } } c c c v } } } } | %.%.:.&.=.;.3.3.6.p.p.p.p.k.h.@X&X&X#X:XUXUXUXUXUXUXUXUXUXUXUXUXUXUXUXUXUX",
"UXUXUXUXUXUXUXUXUXUXUXUXUXUXUXUXUXUXUXUXUXUXUXUXUXUXUXUXUXUX~ 2 2 N > 7 9 , # $ <.t.r.r.r.0.;.0.0.0.0.0.;.:.q.q.r.t.T.!.!.!.E.t.r.;.:.:.;.;.;.:.;.;.;.0.0.0.;.;.s.s.s.f.t.T.!.!.Q.L.J.UXUXUXUXUXUXUXUXUXUXUXUXUXUXUXUXUXUXUX7 a a p p p p s s s c s s s c c c s c c } | | } } | #. . .%.:.&.=.&.=.s.p.p.p.p.k.@Xa.a.j.(.UXUXUXUXUXUXUXUXUXUXUXUXUXUXUXUXUX",
"UXUXUXUXUXUXUXUXUXUXUXUXUXUXUXUXUXUXUXUXUXUXUXUXUXUXUXUXUXS M 8 6 @ 7 6 > + . e t y.I.r.-.r.r.r.s.s.s.s.s.r.r.r.r.f.l.W.(.(.W.R.s.i.;.;.;.;.;.=.;.;.;.3.3.3.3.;.:.q.r.y.y.G.E.Q.L.L.J.UXUXUXUXUXUXUXUXUXUXUXUXUXUXUXUXUXUXUXUXV u t t t u a x s s s x x c c c s s s s } } } | .. . . .X.&.&.&.&.5.6.p.p.5.4.k.j.:X:X:X:XUXUXUXUXUXUXUXUXUXUXUXUXUXUXUXUXUX",
"UXUXUXUXUXUXUXUXUXUXUXUXUXUXUXUXUXUXUXUXUXUXUXUXUXUXUXUXUXUXUXUXUXUXUXUXUXUXUXUXUXUXUXUXUXUXUXUXUXUXUXUXUXUXUXUXUXUXUXUXUXUXUXUXUXUXUXUXUXUXUXUXUXUXUXUXUXUXUXUXUXUXUXUXUXUXUXUXUXUXUXUXUXUXUXUXUXUXUXUXUXUXUXUXUXUXUXUXUXUXUXUXUXUXUXUXUXUXUXUXUXUXUXUXUXUXUXUXUXUXUXUXUXUXUXUXUXUXUXUXUXUXUXUXUXUXUXUXUXUXUXUXUXUXUXUXUXUXUXUXUXUXUXUXUXUXUXUXUXUXUXUXUX",
"UXUXUXUXUXUXUXUXUXUXUXUXUXUXUXUXUXUXUXUXUXUXUXUXUXUXUXUXUXUXUXUXUXUXUXUXUXUXUXUXUXUXUXUXUXUXUXUXUXUXUXUXUXUXUXUXUXUXUXUXUXUXUXUXUXUXUXUXUXUXUXUXUXUXUXUXUXUXUXUXUXUXUXUXUXUXUXUXUXUXUXUXUXUXUXUXUXUXUXUXUXUXUXUXUXUXUXUXUXUXUXUXUXUXUXUXUXUXUXUXUXUXUXUXUXUXUXUXUXUXUXUXUXUXUXUXUXUXUXUXUXUXUXUXUXUXUXUXUXUXUXUXUXUXUXUXUXUXUXUXUXUXUXUXUXUXUXUXUXUXUXUXUX",
"UXUXUXUXUXUXUXUXUXUXUXUXUXUXUXUXUXUXUXUXUXUXUXUXUXUXUXUXUXUXUXUXUXUXUXUXUXUXUXUXUXUXUXUXUXUXUXUXUXUXUXUXUXUXUXUXUXUXUXUXUXUXUXUXUXUXUXUXUXUXUXUXUXUXUXUXUXUXUXUXUXUXUXUXUXUXUXUXUXUXUXUXUXUXUXUXUXUXUXUXUXUXUXUXUXUXUXUXUXUXUXUXUXUXUXUXUXUXUXUXUXUXUXUXUXUXUXUXUXUXUXUXUXUXUXUXUXUXUXUXUXUXUXUXUXUXUXUXUXUXUXUXUXUXUXUXUXUXUXUXUXUXUXUXUXUXUXUXUXUXUXUXUX",
"UXUXUXUXUXUXUXUXUXUXUXUXUXUXUXUXUXUXUXUXUXUXUXUXUXUXUXUXUXUXUXUXUXUXUXUXUXUXUXUXUXUXUXUXUXUXUXUXUXUXUXUXUXUXUXUXUXUXUXUXUXUXUXUXUXUXUXUXUXUXUXUXUXUXUXUXUXUXUXUXUXUXUXUXUXUXUXUXUXUXUXUXUXUXUXUXUXUXUXUXUXUXUXUXUXUXUXUXUXUXUXUXUXUXUXUXUXUXUXUXUXUXUXUXUXUXUXUXUXUXUXUXUXUXUXUXUXUXUXUXUXUXUXUXUXUXUXUXUXUXUXUXUXUXUXUXUXUXUXUXUXUXUXUXUXUXUXUXUXUXUXUXUX",
"UXUXUXUXUXUXUXUXUXUXUXUXUXUXUXUXUXUXUXUXUXUXUXUXUXUXUXUXUXUXUXUXUXUXUXUXUXUXUXUXUXUXUXUXUXUXUXUXUXUXUXUXUXUXUXUXUXUXUXUXUXUXUXUXUXUXUXUXUXUXUXUXUXUXUXUXUXUXUXUXUXUXUXUXUXUXUXUXUXUXUXUXUXUXUXUXUXUXUXUXUXUXUXUXUXUXUXUXUXUXUXUXUXUXUXUXUXUXUXUXUXUXUXUXUXUXUXUXUXUXUXUXUXUXUXUXUXUXUXUXUXUXUXUXUXUXUXUXUXUXUXUXUXUXUXUXUXUXUXUXUXUXUXUXUXUXUXUXUXUXUXUXUX",
"UXUXUXUXUXUXUXUXUXUXUXUXUXUXUXUXUXUXUXUXUXUXUXUXUXUXUXUXUXUXUXUXUXUXUXUXUXUXUXUXUXUXUXUXUXUXUXUXUXUXUXUXUXUXUXUXUXUXUXUXUXUXUXUXUXUXUXUXUXUXUXUXUXUXUXUXUXUXUXUXUXUXUXUXUXUXUXUXUXUXUXUXUXUXUXUXUXUXUXUXUXUXUXUXUXUXUXUXUXUXUXUXUXUXUXUXUXUXUXUXUXUXUXUXUXUXUXUXUXUXUXUXUXUXUXUXUXUXUXUXUXUXUXUXUXUXUXUXUXUXUXUXUXUXUXUXUXUXUXUXUXUXUXUXUXUXUXUXUXUXUXUXUX"
};
